/* XPM */
static char * detroit_street_xpm[] = {
"612 408 256 2",
"  	c #000000",
". 	c #0B0401",
"+ 	c #140301",
"@ 	c #05080D",
"# 	c #130813",
"$ 	c #300300",
"% 	c #050F21",
"& 	c #150F06",
"* 	c #0F110D",
"= 	c #1A0E0A",
"- 	c #1D0E00",
"; 	c #14100E",
"> 	c #181000",
", 	c #240C07",
"' 	c #211000",
") 	c #3B0C00",
"! 	c #2A1104",
"~ 	c #1A1615",
"{ 	c #161816",
"] 	c #371000",
"^ 	c #1B1811",
"/ 	c #211715",
"( 	c #181C07",
"_ 	c #191A1E",
": 	c #0E1C2F",
"< 	c #311502",
"[ 	c #26190A",
"} 	c #251910",
"| 	c #1F1B10",
"1 	c #2A1B05",
"2 	c #1E1E1C",
"3 	c #211E18",
"4 	c #491905",
"5 	c #2C221F",
"6 	c #252423",
"7 	c #3E1E11",
"8 	c #28241E",
"9 	c #2D2319",
"0 	c #431F07",
"a 	c #342222",
"b 	c #3A2214",
"c 	c #24291A",
"d 	c #38240F",
"e 	c #372414",
"f 	c #36241A",
"g 	c #212A22",
"h 	c #25282D",
"i 	c #2B2914",
"j 	c #3B2509",
"k 	c #332715",
"l 	c #2F2B27",
"m 	c #342A21",
"n 	c #362A1C",
"o 	c #5B2104",
"p 	c #1F3145",
"q 	c #552709",
"r 	c #592716",
"s 	c #502C0A",
"t 	c #3C3027",
"u 	c #552A14",
"v 	c #3E3023",
"w 	c #502C15",
"x 	c #443108",
"y 	c #4E2C1F",
"z 	c #443020",
"A 	c #473015",
"B 	c #482F20",
"C 	c #38351F",
"D 	c #333532",
"E 	c #3D341B",
"F 	c #3B3426",
"G 	c #403320",
"H 	c #3A3430",
"I 	c #47321D",
"J 	c #32363B",
"K 	c #2D3A29",
"L 	c #443629",
"M 	c #43362D",
"N 	c #60341A",
"O 	c #673613",
"P 	c #4B3D2F",
"Q 	c #4E3D2A",
"R 	c #623926",
"S 	c #5D3C17",
"T 	c #5E3B22",
"U 	c #474139",
"V 	c #573E22",
"W 	c #5A3D2B",
"X 	c #32465A",
"Y 	c #4B4322",
"Z 	c #534029",
"` 	c #424344",
" .	c #46442D",
"..	c #3E481E",
"+.	c #4E4138",
"@.	c #394839",
"#.	c #693C21",
"$.	c #544434",
"%.	c #714429",
"&.	c #594E21",
"*.	c #784520",
"=.	c #714633",
"-.	c #4A5346",
";.	c #614C45",
">.	c #6D4B26",
",.	c #6C4A37",
"'.	c #6E4A30",
").	c #5D4F3F",
"!.	c #644D3D",
"~.	c #664D37",
"{.	c #595047",
"].	c #684E31",
"^.	c #5C5230",
"/.	c #4F5355",
"(.	c #615037",
"_.	c #41566A",
":.	c #784B2F",
"<.	c #885433",
"[.	c #7E583D",
"}.	c #82573D",
"|.	c #825834",
"1.	c #7C5946",
"2.	c #765B45",
"3.	c #705E3E",
"4.	c #775C3E",
"5.	c #6F5E45",
"6.	c #6D5E4D",
"7.	c #745C4C",
"8.	c #685F55",
"9.	c #8A5741",
"0.	c #50657A",
"a.	c #935A2E",
"b.	c #676765",
"c.	c #7E663A",
"d.	c #626B72",
"e.	c #986241",
"f.	c #8E674B",
"g.	c #916741",
"h.	c #92664C",
"i.	c #856A55",
"j.	c #876B4C",
"k.	c #7D6E58",
"l.	c #776F65",
"m.	c #816E4D",
"n.	c #60768C",
"o.	c #697F94",
"p.	c #A3745A",
"q.	c #AA734F",
"r.	c #A9735B",
"s.	c #A27750",
"t.	c #9C785B",
"u.	c #947B56",
"v.	c #907B6A",
"w.	c #937B5F",
"x.	c #867F6D",
"y.	c #967E50",
"z.	c #7681A7",
"A.	c #7D8283",
"B.	c #BC7451",
"C.	c #6A88A3",
"D.	c #72889D",
"E.	c #B37C4C",
"F.	c #9E864B",
"G.	c #BB825E",
"H.	c #7791AD",
"I.	c #7991A6",
"J.	c #7193AD",
"K.	c #838DB2",
"L.	c #7C90B1",
"M.	c #B2875F",
"N.	c #B0876B",
"O.	c #A48C6D",
"P.	c #A78D5F",
"Q.	c #8E8FA4",
"R.	c #9E8E7C",
"S.	c #8394A0",
"T.	c #8D9294",
"U.	c #7F99B5",
"V.	c #8199AE",
"W.	c #799BB5",
"X.	c #8598B9",
"Y.	c #7FA1BC",
"Z.	c #86A0BC",
"`.	c #919FBF",
" +	c #86A3B9",
".+	c #8CA2B3",
"++	c #BD996D",
"@+	c #BC9A7A",
"#+	c #87A4D0",
"$+	c #CD9879",
"%+	c #D1996E",
"&+	c #98A6B0",
"*+	c #D89962",
"=+	c #8AAAC6",
"-+	c #C5A168",
";+	c #8DABC1",
">+	c #93AABB",
",+	c #B4A592",
"'+	c #B9A683",
")+	c #ABACA6",
"!+	c #93B1C7",
"~+	c #CBA989",
"{+	c #95B4D1",
"]+	c #A1B2BD",
"^+	c #99B4C4",
"/+	c #CDAA7D",
"(+	c #B0B0BC",
"_+	c #98BAC0",
":+	c #ACB4C0",
"<+	c #AFB5B7",
"[+	c #9CBAD0",
"}+	c #A0BACB",
"|+	c #A7B9C4",
"1+	c #8EC0CF",
"2+	c #ADB7CE",
"3+	c #8DC7CB",
"4+	c #A7C1D3",
"5+	c #A5C1E2",
"6+	c #A3C4CD",
"7+	c #B6BFCE",
"8+	c #AAC3CE",
"9+	c #B1C2CF",
"0+	c #BDC0BD",
"a+	c #B5C2C8",
"b+	c #D6BD9B",
"c+	c #DDBC90",
"d+	c #EEB991",
"e+	c #EDBE77",
"f+	c #C4C5BB",
"g+	c #B2CAED",
"h+	c #B8CBD7",
"i+	c #C0C9D9",
"j+	c #BECBD1",
"k+	c #C6CAC6",
"l+	c #D5C9B5",
"m+	c #E9C792",
"n+	c #C2D4E1",
"o+	c #C9D4D5",
"p+	c #C5D5DC",
"q+	c #EBCFA7",
"r+	c #CED4DD",
"s+	c #D5D6CC",
"t+	c #C7DBDA",
"u+	c #D4D8D4",
"v+	c #CFDBDB",
"w+	c #FDDBB2",
"x+	c #D6E5EF",
"y+	c #DDE4E3",
"z+	c #FAE4A2",
"A+	c #EAE5D6",
"B+	c #FBE7B3",
"C+	c #FBECC5",
"D+	c #FFF385",
"E+	c #FEF9DC",
"F+	c #FDFAEB",
"G+	c #FFFFFF",
"n.n.n.n.n.n.n.n.n.n.n.n.n.n.n.n.n.n.n.n.n.n.n.n.n.n.n.n.n.n.n.n.n.n.n.n.n.0.0.n.n.n.o.n.n.o.n.o.@ o.n.o.o.o.n.C.# 0.o.I.o.: D.D.S.X p I.D.p o.S.C.Z.V.T.{.I ).$.M t &   p % _.S.n.I.D.o.V.0.o.D.o.n.C.n.n.: D.C.n.n.C.n.o.D.: o.D.o.n.C.o.o.o.o.p I.D.n.n.p o.D.C.C.C.C.o.o.o.o.n.H._.X D.0.p D.o.o.C.C.o.o.o.C.C.C.C.o.o.C.C.C.o.o.o.o.o.o.o.o.C.C.C.C.C.C.C.C.C.C.C.C.C.C.C.C.C.C.C.C.C.C.C.C.C.C.C.C.C.C.C.C.C.C.C.C.C.C.C.C.C.C.C.C.C.C.C.C.C.C.C.C.C.C.C.C.C.C.C.C.C.C.C.C.C.C.C.C.C.C.C.C.C.C.C.C.C.C.C.C.C.C.C.C.C.C.C.C.C.C.C.C.C.C.C.C.C.C.C.C.C.C.C.C.C.C.C.C.C.C.C.C.C.C.C.C.C.C.C.C.C.C.C.C.C.C.C.C.C.C.C.C.C.C.C.C.C.C.C.C.C.C.C.C.J.J.J.J.J.J.J.J.C.C.C.C.C.C.C.C.J.J.J.J.J.J.J.J.C.C.C.C.C.C.C.C.C.C.C.C.C.C.C.C.J.J.J.J.J.J.J.J.J.J.J.J.J.J.J.J.J.J.J.J.J.J.J.J.J.J.J.J.J.J.J.J.J.J.J.J.J.J.J.J.U.H.Z.C.n.H.H.Z.`.b.V 4.Q P I d l+0+D.H.J.I.D.W.J.J.J.J.J.J.J.J.J.J.J.J.J.J.J.J.J.J.J.J.J.J.J.J.C.C.C.C.C.C.C.C.J.J.J.J.J.J.J.J.H.H.o.0.U.H.C.H.J.J.J.J.J.J.J.J.J.J.J.J.J.J.J.J.J.J.J.J.J.J.J.J.J.J.J.J.J.J.J.J.J.J.J.J.J.J.J.J.H.C.H.U.X C.W.C.J.W.C.H.C.V.D.I._.n.U.H.C.H.H.C.J.J.J.J.J.J.J.J.C.C.C.C.C.C.C.C.C.C.C.C.C.C.C.C.H.H.H.H.H.H.H.H.C.C.C.C.C.C.C.C.C.C.C.C.C.C.C.C.C.C.C.C.C.C.C.C.H.H.H.H.H.H.C.C.C.C.C.C.C.C.C.C.C.C.C.C.C.C.C.C.C.C.C.C.",
"n.n.n.n.n.n.n.n.n.n.n.n.n.n.n.n.n.n.n.n.n.n.n.n.n.n.n.n.n.n.n.n.n.n.n.n.n.n.n.o.n.n.o.n.n.o.o.D.% o.o.o.o.n.n.H.: o.o.D.o.X 0.D.o.X _.D.I.I.% S.H.H.I.T.t < d P +.| & @ : Q.p S.I.D.D.D.D.n.o.D.D.C.C.n.n.: D.C.o.o.C.C.o.D.: o.D.D.o.o.C.o.o.o.p D.I.D.n.p o.D.C.C.C.C.C.C.C.C.C.H.n.p V.o.: S.C.C.C.C.C.C.C.C.C.C.C.C.C.C.C.C.C.C.C.C.C.C.C.C.C.C.C.C.C.C.C.C.C.C.C.C.C.C.C.C.C.C.C.C.C.C.C.C.C.C.C.C.C.C.C.C.C.C.C.C.C.C.C.C.C.C.C.C.C.C.C.C.C.C.C.C.C.C.C.C.C.C.C.C.C.C.C.C.C.C.C.C.C.C.C.C.C.C.C.C.C.C.C.C.C.C.C.C.C.C.C.C.C.C.C.C.C.C.C.C.C.C.C.C.C.C.C.C.J.J.J.J.J.J.J.J.C.C.C.C.C.C.C.C.J.J.J.J.J.J.J.J.J.J.J.J.J.J.J.J.C.C.C.C.C.C.C.C.J.J.J.J.J.J.J.J.J.J.J.J.J.J.J.J.J.J.J.J.J.J.J.J.J.J.J.J.J.J.J.J.J.J.J.J.J.J.J.J.J.J.J.J.J.J.J.J.J.J.J.J.J.J.J.J.J.J.J.J.J.J.J.J.J.J.J.J.J.J.J.J.J.J.J.J.J.J.J.J.U.H.U.n.C.U.H.U.`./.A ].Q L I j l+0+D.J.J.I.I.W.J.J.J.J.J.J.J.J.J.J.J.J.J.J.J.J.J.J.J.J.J.J.J.J.J.J.J.J.J.J.J.J.J.J.J.J.J.J.J.J.H.Z.0.o.U.H.H.H.J.J.J.J.J.J.J.J.J.J.J.J.J.J.J.J.J.J.J.J.J.J.J.J.J.J.J.J.J.J.J.J.J.J.J.J.J.J.J.J.H.H.Z.0.0.J.J.J.C.J.H.H.U.o.V._.o.H.Z.H.C.H.U.H.J.J.J.J.J.J.J.J.J.J.J.J.J.J.J.J.J.J.J.J.J.J.J.J.H.H.H.H.H.H.H.H.J.J.J.J.J.J.J.J.H.H.H.H.H.H.H.H.H.H.H.H.H.H.H.H.H.H.H.H.H.H.H.H.H.H.H.H.H.H.C.C.C.C.C.C.C.C.C.C.H.C.C.C.",
"n.n.n.n.n.n.n.n.n.n.n.n.n.n.n.n.n.n.n.n.n.n.n.n.n.n.n.n.n.n.n.n.n.n.n.n.o.o.o.o.n.n.n.o.o.o.o.D.% D.o.n.C.n.n.D.: S.n.o.C.n.X o.S.X X D.o.`.p 0.V.H.I.T.m < 1 $.t F >   0.2+0.X V.D.D.I.o.D.D.D.D.H.C.o.o.p I.C.o.o.I.C.D.D.: o.D.D.C.o.C.C.o.D.p D.J.J.L.p n.D.C.C.C.C.C.C.C.C.I.C.I.: V.D.: D.H.C.C.C.C.C.C.C.C.C.C.C.C.C.C.C.C.C.C.C.C.C.C.C.C.C.C.C.C.C.C.C.C.C.C.C.C.C.C.C.C.C.C.C.C.C.C.C.C.C.C.C.C.C.C.C.C.C.C.C.C.C.C.C.C.C.C.C.C.C.C.C.C.C.C.C.C.C.C.C.C.C.C.C.C.C.C.C.J.J.J.J.J.J.J.J.C.C.C.C.C.C.C.C.J.J.J.J.J.J.J.J.C.C.C.C.C.C.C.C.C.C.C.C.C.C.C.C.J.J.J.J.J.J.J.J.J.J.J.J.J.J.J.J.J.J.J.J.J.J.J.J.J.J.J.J.J.J.J.J.J.J.J.J.J.J.J.J.J.J.J.J.J.J.J.J.J.J.J.J.J.J.J.J.J.J.J.J.J.J.J.J.J.J.J.J.J.J.J.J.J.J.J.J.J.J.J.J.J.J.J.J.J.J.J.J.J.J.J.J.J.J.J.J.J.J.J.J.J.J.J.J.J.J.J.J.J.J.J.J.J.J.J.J.J.J.J.J.H.H.H.0.H.Z.U.U.`.{.V V Q t Q j l+0+I.J.U.V.I.W.J.J.J.J.J.J.J.J.J.J.J.J.J.J.J.J.J.J.J.J.J.J.J.J.J.J.J.J.J.J.J.J.J.J.J.J.J.J.J.J.H.=+_.U.H.H.U.H.J.J.J.J.J.J.J.J.J.J.J.J.J.J.J.J.J.J.J.J.J.J.J.J.J.J.J.J.J.J.J.J.J.J.J.J.J.J.J.J.H.U.Z.X J.Y.J.J.J.C.H.H.U.D.I.X U.U.H.H.H.H.H.H.J.J.J.J.J.J.J.J.J.J.J.J.J.J.J.J.J.J.J.J.J.J.J.J.H.H.H.H.H.H.H.H.J.J.J.J.J.J.J.J.H.H.H.H.H.H.H.H.H.H.H.H.H.H.H.H.H.H.H.H.H.H.H.H.H.H.H.H.H.H.H.H.H.H.H.H.H.H.H.H.H.H.C.C.",
"n.n.n.n.n.n.n.n.n.n.n.n.n.n.n.n.n.n.n.n.n.n.n.n.n.n.n.n.n.n.n.n.n.n.n.n.o.n.n.n.o.n.n.C.o.n.o.o.: Q.o.n.C.n.o.D.% S.n.o.H.L.X _.S.: 0.D.I.D.V.: I.Z.D.T.P I I $.} {.>   Q.o.V.p n.V.D.I.o.I.D.D.D.H.H.C.o.p V.C.D.C.I.C.D.D.: o.n.D.C.o.H.H.D.D.X I.o.D.H._.X D.C.C.o.C.C.C.C.C.C.o.V.: o.I.p 0.H.C.C.C.C.C.C.C.C.C.C.C.C.C.C.C.C.C.C.C.C.C.C.C.C.C.C.C.C.C.C.C.C.C.C.C.C.C.C.C.C.C.C.C.C.C.C.C.C.C.C.C.C.C.C.C.C.C.C.C.C.C.C.C.C.C.C.C.C.C.C.C.C.C.C.C.C.C.C.C.C.C.C.C.C.C.C.C.J.J.J.J.J.J.J.J.J.J.J.J.J.J.J.J.J.J.J.J.J.J.J.J.J.J.J.J.J.J.J.J.J.J.J.J.J.J.J.J.C.C.C.C.C.C.C.C.J.J.J.J.J.J.J.J.J.J.J.J.J.J.J.J.J.J.J.J.J.J.J.J.J.J.J.J.J.J.J.J.J.J.J.J.J.J.J.J.J.J.J.J.J.J.J.J.J.J.J.J.J.J.J.J.J.J.J.J.J.J.J.J.J.J.J.J.J.J.J.J.J.J.J.J.J.J.J.J.J.J.J.J.J.J.J.J.J.J.J.J.J.J.J.J.J.J.J.J.J.J.J.J.J.J.J.J.J.J.J.J.H.U.U.0.Z.U.Z.H.`.` Z A $.t P j l+0+I.J.U.V.I.W.J.J.J.J.J.J.J.J.J.J.J.J.J.J.J.J.J.J.J.J.J.J.J.J.J.J.J.J.J.J.J.J.J.J.J.J.J.J.J.J.H.U._.Z.H.H.U.H.J.J.J.J.J.J.J.J.J.J.J.J.J.J.J.J.J.J.J.J.J.J.J.J.J.J.J.J.J.J.J.J.J.J.J.J.J.J.J.J.H.U.n._.Y.Y.J.J.Y.C.U.H.C.>+0.n.U.H.H.H.H.H.H.H.J.J.J.J.J.J.J.J.J.J.J.J.J.J.J.J.J.J.J.J.J.J.J.J.H.H.H.H.H.H.H.H.J.J.J.J.J.J.J.J.H.H.H.H.H.H.H.H.H.H.H.H.H.H.H.H.H.H.H.H.H.H.H.H.H.H.H.H.H.H.H.H.H.H.H.H.H.H.H.H.H.H.H.C.",
"n.n.n.n.n.n.n.n.n.n.n.n.n.n.n.n.n.n.n.n.n.n.n.n.n.n.n.n.n.n.n.n.n.n.o.n.n.n.n.n.n.n.n.C.o.n.o.0.p D.o.n.C.n.D.n.: S.o.o.C.o.n.p S.: .+X L.I.I._.X >+D.A.$.A Z $.} F >   n.`.C.n.X V.o.D.D.D.D.D.o.C.C.C.o.p V.C.L.C.D.C.D.D.: D.n.o.C.C.H.H.D.o._.V.D.o.H.o.: S.C.C.C.C.C.C.C.C.C.C.V._._.V.0.X H.H.C.C.C.C.C.o.C.C.C.C.C.C.C.C.C.C.C.C.C.C.C.C.C.C.C.C.C.C.C.C.C.C.C.C.C.C.C.C.C.C.C.C.C.C.C.C.C.C.C.C.C.C.C.C.C.C.C.C.C.C.C.C.C.C.C.C.C.C.C.C.C.C.C.C.C.C.C.C.C.C.C.C.C.C.C.C.J.J.J.J.J.J.J.J.J.J.J.J.J.J.J.J.J.J.J.J.J.J.J.J.J.J.J.J.J.J.J.J.J.J.J.J.J.J.J.J.C.C.C.C.C.C.C.C.J.J.J.J.J.J.J.J.J.J.J.J.J.J.J.J.J.J.J.J.J.J.J.J.J.J.J.J.J.J.J.J.J.J.J.J.J.J.J.J.J.J.J.J.J.J.J.J.J.J.J.J.J.J.J.J.J.J.J.J.J.J.J.J.J.J.J.J.J.J.J.J.J.J.J.J.J.J.J.J.J.J.J.J.J.J.J.J.J.J.J.J.J.J.J.J.J.J.J.J.J.J.J.J.J.J.J.J.J.J.J.J.H.Z.U.0.Z.H.Z.H.`.` Z A $.a v 1 ,+0+I.J.J.V.I.W.J.J.J.J.J.J.J.J.J.J.J.J.J.J.J.J.J.J.J.J.J.J.J.J.J.J.J.J.J.J.J.J.J.J.J.J.J.J.J.J.U.n.n.U.U.H.H.H.J.J.J.J.J.J.J.J.J.J.J.J.J.J.J.J.J.J.J.J.J.J.J.J.J.J.J.J.J.J.J.J.J.J.J.J.J.J.J.J.U.H._.C.J.W.W.J.W.J.U.H.H.I._.V.H.H.H.U.U.H.H.H.J.J.J.J.J.J.J.J.J.J.J.J.J.J.J.J.J.J.J.J.J.J.J.J.H.H.H.H.H.H.H.H.J.J.J.J.J.J.J.J.H.H.H.H.H.H.H.H.H.H.H.H.H.H.H.H.H.H.H.H.H.H.H.H.H.H.H.H.H.H.H.H.H.H.H.H.H.H.H.H.H.H.H.H.",
"n.n.n.n.n.n.n.n.n.n.n.n.n.n.n.n.n.n.n.n.n.n.n.n.n.n.n.n.n.n.n.n.n.n.o.n.n.n.o.o.n.o.n.C.o.n.o.X _.o.o.n.C.o.D._.X D.D.C.o.n.X.X d.: 2+X n.H.D. +: D.S.A.P A V Q t F &   n.{+C.I.p D.o.D.D.o.D.D.o.C.C.C.o.p I.H.L.o.C.C.D.D.: I.o.o.H.H.C.H.D.0._.V.W.o.o.I.: S.H.C.C.C.C.C.C.C.C.H.I.n.p I.D.: H.H.C.C.C.C.C.o.C.C.C.C.C.C.C.C.C.C.C.C.C.C.C.C.C.C.C.C.C.C.C.C.C.C.C.C.C.C.C.C.C.C.C.C.C.C.C.C.C.C.C.C.C.C.C.C.C.C.C.C.C.C.C.C.C.C.C.C.C.C.C.C.C.C.C.C.C.C.C.C.C.C.C.C.C.C.C.C.J.J.J.J.J.J.J.J.J.J.J.J.J.J.J.J.J.J.J.J.J.J.J.J.J.J.J.J.J.J.J.J.J.J.J.J.J.J.J.J.J.J.J.J.J.J.J.J.J.J.J.J.J.J.J.J.J.J.J.J.J.J.J.J.J.J.J.J.J.J.J.J.J.J.J.J.J.J.J.J.J.J.J.J.J.J.J.J.J.J.J.J.J.J.J.J.J.J.J.J.J.J.J.J.J.J.J.J.J.J.J.J.J.J.J.J.J.J.J.J.J.J.J.J.J.J.J.J.J.J.J.J.J.J.J.J.J.J.J.J.J.J.J.J.J.J.J.J.J.J.J.J.J.J.J.J.J.J.J.J.U.Z.H.n.Z.H.Z.H..+D Z j P 5 9 [ ,+0+I.J.J.V.I.W.W.W.W.J.J.J.J.J.J.J.J.J.J.J.J.J.J.J.J.J.J.J.J.J.J.J.J.J.J.J.J.J.J.J.J.J.J.J.J.J.Z._.U.H.U.U.H.H.J.J.J.J.J.J.J.J.J.J.J.J.J.J.J.J.J.J.J.J.J.J.J.J.J.J.J.J.J.J.J.J.J.J.J.J.J.J.J.J.U.n._.=+C.J.W.J.C.W.H.H..+0.0.V.H.H.H.H.H.H.H.U.J.J.J.J.J.J.J.J.J.J.J.J.J.J.J.J.J.J.J.J.J.J.J.J.H.H.H.H.H.H.H.H.J.J.J.J.J.J.J.J.H.H.H.H.H.H.H.H.H.H.H.H.H.H.H.H.H.H.H.H.H.H.H.H.H.H.H.H.H.H.H.H.H.H.H.H.H.H.H.H.H.H.H.C.",
"n.n.n.n.n.n.n.n.n.n.n.n.n.n.n.n.n.n.n.n.n.n.n.n.n.n.n.n.n.n.n.n.n.n.n.n.o.o.o.n.n.o.n.C.o.o.o.p n.o.o.n.C.o.S.X _.o.J.n.o.z.U.o._ p Q.V.n.H.U.D._.X .+A.P A Z G v P &   V.L.U.J.0._.D.D.D.D.D.D.D.C.C.H.o.: D.H.L.o.C.C.I.D.: I.D.n.H.H.o.H.I._.0.I.W.C.C.I._._.H.H.C.H.H.H.C.C.C.o.I.D.: D.S.p C.C.C.C.C.C.C.C.C.C.C.C.C.C.C.C.C.C.C.C.C.C.C.C.C.C.C.C.C.C.C.C.C.C.C.C.C.C.C.C.C.C.C.C.C.C.C.C.C.C.C.C.C.C.C.C.C.C.C.C.C.C.C.C.C.C.C.C.C.C.C.C.C.C.C.C.C.C.J.J.J.J.J.J.J.J.J.J.J.J.J.J.J.J.J.J.J.J.J.J.J.J.J.J.J.J.J.J.J.J.J.J.J.J.J.J.J.J.J.J.J.J.J.J.J.J.J.J.J.J.J.J.J.J.J.J.J.J.J.J.J.J.J.J.J.J.J.J.J.J.J.J.J.J.J.J.J.J.J.J.J.J.J.J.J.J.J.J.J.J.J.J.J.J.J.J.J.J.J.J.J.J.J.J.J.J.J.J.J.J.J.J.J.J.J.J.J.J.J.J.J.J.J.J.J.J.J.J.J.J.J.J.J.J.J.J.J.J.J.J.J.J.J.J.J.J.J.J.J.J.J.J.J.J.J.J.J.J.J.J.J.J.J.J.J.J.W.W.U.U.C.C.U.H.Z.U.V.D Z j v l } ' ,+0+I.J.J.V.I.W.W.W.W.W.W.J.J.J.J.J.J.J.J.J.J.J.J.J.J.J.J.J.J.J.J.J.J.J.J.J.J.J.J.J.J.J.J.J.J.J.U._.Z.H.H.U.H.H.J.J.J.J.J.J.J.J.J.J.J.J.J.J.J.J.J.J.J.J.J.J.J.J.J.J.J.J.J.J.J.J.J.J.J.J.J.J.J.J.U._.n.Z.C.J.W.J.C.W.H.U.H._.I.I.H.H.H.H.H.H.H.H.J.J.J.J.J.J.J.J.J.J.J.J.J.J.J.J.J.J.J.J.J.J.J.J.H.H.H.H.H.H.H.H.J.J.J.J.J.J.J.J.H.H.H.H.H.H.H.H.H.H.H.H.H.H.H.H.H.H.H.H.H.H.H.H.H.H.H.H.H.H.H.H.H.H.H.H.H.H.H.H.H.H.H.C.",
"n.n.n.n.n.n.n.n.n.n.n.n.n.n.n.n.n.n.n.n.n.n.n.n.n.n.n.n.n.n.n.n.n.n.n.n.o.o.o.n.n.C.n.C.o.o.D.: o.o.C.o.C.o.S.p 0.o.J.C.C.o.n.V./._.Q.D._.C.C.V..+: S.A.v V ~.I f P & @ V.L.H.D.I.: D.I.o.I.o.D.D.C.C.H.D.: D.H.L.o.D.I.I.D.: I.D.n.C.H.n.H.I.X z.C.C.C.H.I.D.: U.H.H.H.H.H.H.C.D.n.V.D.: I.S.X n.n.C.C.C.C.C.C.C.C.C.C.C.C.C.C.C.C.C.C.C.C.C.C.C.C.C.C.C.C.C.C.C.C.C.C.C.H.H.H.C.C.C.C.C.C.C.C.C.C.C.C.C.C.C.C.J.J.J.J.J.J.J.J.C.C.C.C.C.C.C.C.C.C.C.J.J.J.J.J.J.J.J.J.J.J.J.J.J.J.J.J.J.J.J.J.J.J.J.J.J.J.J.J.J.J.J.J.J.J.J.J.J.J.J.J.J.J.J.J.J.J.J.J.J.J.J.J.J.J.J.J.J.J.J.J.J.J.J.J.J.J.J.J.J.J.J.J.J.J.J.J.J.J.J.J.J.J.J.J.J.J.J.J.J.J.J.J.J.J.J.J.J.J.J.J.J.J.J.J.J.J.J.J.J.J.J.J.J.J.J.J.J.J.J.J.J.J.J.J.J.J.J.J.J.J.J.J.J.J.J.J.J.J.J.J.J.J.J.J.J.J.J.J.J.J.J.J.J.J.J.J.J.J.J.J.J.J.J.J.J.J.J.J.J.W.W.W.Z.H.n.H.U.U.Z.U..+D A j v H } [ ,+0+I.J.J.V.I.W.J.J.J.J.J.J.J.J.J.J.J.J.J.J.J.J.W.W.W.W.W.W.W.W.J.J.J.J.J.J.J.J.J.J.J.J.J.J.J.J.H._.Z.U.C.H.U.H.W.W.W.W.W.W.W.W.J.J.J.J.J.J.J.J.J.J.J.J.J.J.J.J.W.W.W.W.W.J.J.J.J.J.J.W.W.W.W.W.H.X Z.H.W.J.J.W.W.C.H.Z.0.o.V.I.H.H.H.H.U.U.H.C.J.J.J.J.J.J.J.J.J.J.J.J.J.J.J.J.J.J.J.J.J.J.J.J.H.H.H.H.H.H.H.H.J.J.J.J.J.J.J.J.H.H.H.H.H.H.H.H.H.H.H.H.H.H.H.H.H.H.H.H.H.H.H.H.H.H.H.H.H.H.H.H.H.H.H.H.H.H.H.H.H.H.C.C.",
"n.n.n.n.n.n.n.n.n.n.n.n.n.n.n.n.n.n.n.n.n.n.n.n.n.n.n.n.n.n.n.n.n.n.n.n.n.o.o.o.o.n.C.o.n.o.Q.% C.H.z.C.C.n.D.% C.H.C.n.C.C.o.H.X % S.I.V.X V.I.H.C.p T.Q ,.~.+.9 n }   I.H.C.D.H.n.p I.I.n.H.C.o.C.C.C.S.: D.H.C.C.o.J.C.I.: D.J.n.n.V.C.C.V.J C.C.H.C.C.Z.C.: .+D.I.J.C.J.C.D.C.C.C.L.0.X I.o.p D.D.C.n.H.C.o.D.D.D.o.o.o.o.o.C.C.C.C.C.C.C.C.C.C.C.C.C.C.C.C.J.C.C.C.C.C.C.C.C.C.H.H.C.C.H.C.C.C.C.J.J.C.C.C.C.C.C.C.C.C.C.C.C.C.C.C.C.C.C.C.C.C.C.C.J.J.J.J.J.J.J.J.J.J.J.J.J.J.J.J.J.J.J.J.J.J.J.J.J.J.J.J.J.J.J.J.J.J.J.J.J.J.J.J.J.J.J.J.J.J.J.J.J.J.J.J.J.J.J.J.J.J.J.J.J.J.J.J.J.J.J.J.J.J.J.J.J.J.J.J.J.J.J.J.J.J.J.J.J.J.J.J.J.J.J.J.J.J.J.J.J.J.J.J.J.J.J.J.J.J.J.J.J.J.J.J.J.J.J.J.J.J.J.J.J.J.J.J.J.J.J.J.J.J.J.J.J.J.J.J.J.J.J.J.J.J.J.J.J.J.J.J.J.J.J.J.J.J.J.J.J.J.J.J.J.J.J.J.J.J.J.J.J.W.W.W.U.Z._.Y.W.W.Y.Y.S.6 L Q n m F = ,+0+I.J.Y.V.I.W.W.W.W.W.W.W.J.J.J.J.J.J.J.J.J.J.J.J.J.J.J.J.J.J.J.J.J.J.J.J.J.J.J.C.W.J.W.W.C.W.C.n.W.W.J.Y.J.W.J.J.J.J.J.J.J.J.J.J.J.J.J.J.J.J.J.J.J.J.J.J.J.J.J.J.J.J.J.J.W.W.J.W.J.J.V.D.I.>+X H.Z.H.H.U.H.H.J.J.I..+X V.Y.J.J.J.J.J.J.J.J.J.H.H.H.H.H.H.H.H.J.J.J.J.J.J.J.J.H.H.H.H.H.H.H.H.H.H.H.H.H.H.H.H.H.H.H.H.H.H.H.H.J.J.J.J.J.J.J.J.J.J.J.J.J.J.J.J.J.J.J.J.J.J.J.J.J.J.J.J.J.J.J.J.J.J.J.J.J.J.J.J.J.J.J.J.",
"n.n.n.n.n.n.n.n.n.n.n.n.n.n.n.n.n.n.n.n.n.n.n.n.n.n.n.n.n.n.n.n.n.n.n.n.n.o.o.o.o.n.C.o.n.o.o.: C.C.z.C.C.o.D.% C.H.C.n.C.C.o.H.J X _.V.H.0.o.I.Z.o.X b.b 7 I +.t v }   I.H.C.D.C.H.p D.o.V.n.C.o.C.C.C.S.: D.H.C.C.C.J.C.I.p o.J.o.o.D.C.C.V.J H.C.H.H.C.U.C._.0.V.o.C.C.J.C.D.J.C.C.X.D.p I.I.: I.I.H.n.H.C.I.D.D.o.D.D.D.D.D.C.C.C.C.C.C.C.C.C.C.C.C.C.C.C.C.C.C.C.C.C.C.C.C.C.C.H.H.C.C.H.C.C.C.C.J.J.C.C.C.C.C.C.C.C.C.C.C.C.C.C.C.C.C.C.C.C.C.C.C.J.J.J.J.J.J.J.J.J.J.J.J.J.J.J.J.J.J.J.J.J.J.J.J.J.J.J.J.J.J.J.J.J.J.J.J.J.J.J.J.J.J.J.J.J.J.J.J.J.J.J.J.J.J.J.J.J.J.J.J.J.J.J.J.J.J.J.J.J.J.J.J.J.J.J.J.J.J.J.J.J.J.J.J.J.J.J.J.J.J.J.J.J.J.J.J.J.J.J.J.J.J.J.J.J.J.J.J.J.J.J.J.J.J.J.J.J.J.J.J.J.J.J.J.J.J.J.J.J.J.J.J.J.J.J.J.J.J.J.J.J.J.J.J.J.J.J.J.J.J.J.J.J.J.J.J.J.J.J.J.J.J.J.J.J.J.J.J.J.W.W.W.U.Z.0.Y.W.W.W.Y.S.6 v Q n m F - ,+0+I.J.Y.V.I.W.W.W.W.W.W.W.J.J.J.J.J.J.J.J.J.J.J.J.J.J.J.J.J.J.J.J.J.J.J.J.J.J.W.J.W.J.J.Y.J.Y.n.C.Y.W.J.W.J.J.J.J.J.J.J.J.J.J.J.J.J.J.J.J.J.J.J.J.J.J.J.J.J.J.J.J.J.J.J.J.W.W.W.C.Y.J.I.V.V.I._.H.Z.H.U.U.H.U.W.J.;+0.n.I.W.J.J.J.J.J.J.J.J.J.H.H.H.H.H.H.H.H.J.J.J.J.J.J.J.J.H.H.H.H.H.H.H.H.H.H.H.H.H.H.H.H.H.H.H.H.H.H.H.H.J.J.J.J.J.J.J.J.J.J.J.J.J.J.J.J.J.J.J.J.J.J.J.J.J.J.J.J.J.J.J.J.J.J.J.J.J.J.J.J.J.J.J.J.",
"n.n.n.n.n.n.n.n.n.n.n.n.n.n.n.n.n.n.n.n.n.n.n.n.n.n.n.n.n.n.n.n.n.n.n.n.o.o.o.o.o.o.C.C.n.D._.X C.o.z.C.C.o.D.% C.C.o.o.C.C.C.H.: Q.: I.C.U._.I.U.U.n.h ! w Z +.M L }   I.H.C.D.C.H.n.X I.I.C.C.o.C.C.C.S.% D.C.C.C.C.C.C.V.X 0.J.o.o.o.H.C.V.J U.C.H.U.C.C.H.o.: >+o.J.C.C.C.D.C.H.C.U.`.: D.;+p I.D.H.C.H.C.I.D.D.D.I.I.D.D.I.C.C.C.C.C.C.C.C.C.C.C.C.C.C.C.C.C.C.C.C.C.C.C.C.H.C.H.H.C.C.H.C.C.C.C.C.J.J.J.C.C.C.C.C.C.C.C.C.J.J.J.J.J.J.J.J.C.C.C.J.J.J.J.J.J.J.J.J.J.J.J.J.J.J.J.J.J.J.J.J.J.J.J.J.J.J.J.J.J.J.J.J.J.J.J.J.J.J.J.J.J.J.J.J.J.J.J.J.J.J.J.J.J.J.J.J.J.J.J.J.J.J.J.J.J.J.J.J.J.J.J.J.J.J.J.J.J.J.J.J.J.J.J.J.J.J.J.J.J.J.J.J.J.J.J.J.J.J.J.J.J.J.J.J.J.J.J.J.J.J.J.J.J.J.J.J.J.J.J.J.J.J.J.J.J.J.J.J.J.J.J.J.J.J.J.J.J.J.J.J.J.J.J.J.J.J.J.J.J.J.J.J.J.J.J.J.J.J.J.J.J.J.J.J.J.J.J.J.W.W.W.W.U.H.n.Y.W.W.W.Y.S.l L Q n 9 F [ ,+k+I.U.Y.V.I.W.W.W.W.W.W.W.W.W.W.W.W.W.W.W.W.W.J.J.J.J.J.J.J.J.J.J.J.J.J.J.J.J.W.J.W.J.J.W.W.Y._.W.=+J.J.W.W.J.W.W.W.W.W.W.W.W.J.J.W.W.W.W.J.J.J.J.J.J.J.J.J.J.J.J.J.J.J.W.W.W.J.J.Y.J.I.V.V._.n.U.U.H.U.U.H.U.W.J.;+X  +V.J.W.J.J.J.J.J.J.J.J.H.H.H.H.H.H.H.H.J.J.J.J.J.J.J.J.H.H.H.H.H.H.H.H.H.H.H.H.H.H.H.H.H.H.H.H.H.H.H.H.J.J.J.J.J.J.J.J.J.J.J.J.J.J.J.J.J.J.J.J.J.J.J.J.J.J.J.J.J.J.J.J.J.J.J.J.J.J.J.J.J.J.J.J.",
"n.n.n.n.n.n.n.n.n.n.n.n.n.n.n.n.n.n.n.n.n.n.n.n.n.n.n.n.n.n.n.n.n.n.n.o.o.o.o.o.o.o.C.C.n.D.p 0.C.n.z.C.n.D.o.: H.C.o.C.C.o.C.H.: .+X _.C.U.0.n.C.>+.+J b ,.~.+.t v 9 @ I.H.C.D.H.o. +p o.D.H.n.o.C.C.C.S.% D.C.C.C.C.C.C.V._.X J.D.D.n.U.C.I.h U.C.C.H.C.C.H.H.: I.D.J.C.C.I.D.o.Z.H.H.V.X n.>+0.0.D.H.H.U.J.I.I.I.V..+V.I.D.I.C.C.C.J.J.C.C.C.C.C.C.C.C.C.C.C.C.C.C.C.C.C.C.C.H.C.H.H.C.C.H.C.C.C.C.C.J.J.J.J.C.C.C.C.C.C.C.C.J.J.J.J.J.J.J.J.C.C.J.J.J.J.J.J.J.J.J.J.J.J.J.J.J.J.J.J.J.J.J.J.J.J.J.J.J.J.J.J.J.J.J.J.J.J.J.J.J.J.J.J.J.J.J.J.J.J.J.J.J.J.J.J.J.J.J.J.J.J.J.J.J.J.J.J.J.J.J.J.J.J.J.J.J.J.J.J.J.J.J.J.J.J.J.J.J.J.J.J.J.J.J.J.J.J.J.J.J.J.J.J.J.J.J.J.J.J.J.J.J.J.J.J.J.J.J.J.J.J.J.J.J.J.J.J.J.J.J.J.J.J.J.J.J.J.J.J.J.J.J.J.J.J.J.J.J.J.J.J.J.J.J.J.J.J.J.J.J.J.J.J.J.J.J.J.J.J.J.W.W.W.W.W.U.C.n.Y.Y.W.W.Y.&+H P Q v 9 F k ,+k+I.U.Y.V.I.W.W.W.W.W.W.W.W.W.W.W.W.W.W.W.W.W.W.W.W.W.W.W.W.W.J.J.J.J.J.J.J.J.W.J.W.J.J.W.W.J._.Y.Y.J.W.J.W.W.W.W.W.W.W.W.W.W.J.J.W.W.W.W.J.J.J.J.J.J.J.J.J.J.J.J.J.J.J.W.W.W.C.=+C.W.I.I.I.X H.Z.U.H.U.U.H.U.V. +n.0. + +C.V.J.J.J.J.J.J.J.J.H.H.H.H.H.H.H.H.J.J.J.J.J.J.J.J.H.H.H.H.H.H.H.H.H.H.H.H.H.H.H.H.H.H.H.H.H.H.H.H.J.J.J.J.J.J.J.J.J.J.J.J.J.J.J.J.J.J.J.J.J.J.J.J.J.J.J.J.J.J.J.J.J.J.J.J.J.J.J.J.J.J.J.J.",
"n.n.n.n.n.n.n.n.n.n.n.n.n.n.n.n.n.n.n.n.n.n.n.n.n.n.n.n.n.n.n.n.n.n.o.o.o.o.o.o.o.o.C.C.o.D.: n.C.n.z.C.n.D.0.p H.o.o.C.C.o.C.C.: D.I.p C.I.I.0.H.U..+b.Q ,.I +.m v 9 @ V.L.C.D.H.H.I.n.X V.C.C.D.C.C.C.S.% D.C.C.C.C.C.C.V.n.p W.I.D.n.J.C.I.h H.H.H.C.C.C.H.H.X _.V.J.C.C.I.D.C.H.H.H.D.n.X .+I.p I.H.U.U.V.V.V.I.V..+V.I.I.V.U.U.H.U.U.H.H.H.I.C.C.C.D.I.C.C.C.C.C.C.C.C.C.H.H.C.C.H.C.C.H.C.C.C.C.C.C.J.J.J.C.C.C.C.C.C.C.C.J.J.J.J.J.J.J.J.J.J.J.J.J.J.J.J.J.J.J.J.J.J.J.J.J.J.J.J.J.J.J.J.J.J.J.J.J.J.J.J.J.J.J.J.J.J.J.J.J.J.J.J.J.J.J.J.J.J.J.J.J.J.J.J.J.J.J.J.J.J.J.J.J.J.J.J.J.J.J.J.J.J.J.J.J.J.J.J.J.J.J.J.J.J.J.J.J.J.J.J.J.J.J.J.J.J.J.J.J.J.J.J.J.J.J.J.J.J.J.J.J.J.J.J.J.J.J.J.J.J.J.J.J.J.J.J.J.J.J.J.J.J.J.J.J.J.J.J.J.J.J.J.J.J.J.J.J.J.J.J.J.J.J.J.J.J.J.J.J.J.J.J.J.J.J.J.J.J.W.W.W.W.W.W.U.n.H.W.Y.W.W.Y.&+` $.Q v 9 F G ,+k+I.U.Y.V.V.W.W.W.W.W.W.W.W.W.W.W.W.W.W.W.W.W.W.W.W.W.W.W.W.W.J.J.J.J.J.J.J.J.J.W.W.W.J.W.W.o.n.Y.J.W.Y.J.W.W.W.W.W.W.W.W.W.W.J.J.J.J.J.J.J.J.J.J.J.J.J.J.J.J.J.J.J.J.J.W.W.W.C.=+C.Y. +.+n.n.Z.U.H.H.U.H.H.U. +I._.V.J. +I.V.J.J.J.J.J.J.J.J.H.H.H.H.H.H.H.H.J.J.J.J.J.J.J.J.H.H.H.H.H.H.H.H.H.H.H.H.H.H.H.H.H.H.H.H.H.H.H.H.J.J.J.J.J.J.J.J.J.J.J.J.J.J.J.J.J.J.J.J.J.J.J.J.J.J.J.J.J.J.J.J.J.J.J.J.J.J.J.J.J.J.J.J.",
"n.n.n.n.n.n.n.n.n.n.n.n.n.n.n.n.n.n.n.n.n.n.n.n.o.o.o.o.o.o.o.o.o.o.o.o.o.o.o.o.o.o.C.o.o.D.: D.C.n.z.C.C.D._.X H.o.o.C.C.C.C.n.: I.L._.X  +V.n.n.H..+b.z ,.I +.9 n } @ V.L.H.D.H.H.D.V.X D.C.C.D.C.C.C.S.: D.H.C.C.J.C.C.I.D.: W.I.I.o.C.C.V.h H.H.H.C.C.H.H.C.o.p V.C.C.C.C.o.H.o.C.V.D.D.: V..+: V.U.H.C.V.;+V.V.I.I.I.I.V..+Z.U.H.U.U.H.H.U.D.D.D.D.I.I.I.I.H.H.C.C.C.H.H.U.C.C.C.H.C.H.H.C.J.J.J.C.C.C.J.J.J.J.J.J.J.J.J.J.J.J.J.J.J.J.J.J.J.J.J.J.J.J.J.J.J.J.J.J.J.J.J.J.J.J.J.J.J.J.J.J.J.J.J.J.J.J.J.J.J.J.J.J.J.J.J.J.J.J.J.J.J.J.J.J.J.J.J.J.J.J.J.J.J.J.J.J.J.J.J.J.J.J.J.J.J.J.J.J.J.J.J.J.J.J.J.J.J.J.J.J.J.J.J.J.J.J.J.J.J.J.J.J.J.J.J.J.J.J.J.J.J.J.J.J.J.J.J.J.J.J.J.J.J.J.J.J.J.J.J.J.J.J.J.J.J.J.J.J.J.J.J.J.J.J.J.J.J.J.J.J.W.W.W.W.W.W.W.W.W.W.W.W.W.W.W.W.W.W.W.W.W.W.W.W.W.W.W.W.W.W.W.W.U.0.U.W.Y.W.W.Y.S.H L z v | 9 k ,+k+I.J.Y.V.V.W.W.W.W.W.W.W.W.W.W.W.W.W.W.W.W.W.W.W.W.W.W.W.W.W.W.W.W.W.W.W.W.W.J.W.W.W.J.W.W.0.J.Y.J.W.Y.J.J.W.W.W.W.W.W.W.W.W.J.J.J.J.J.J.J.J.W.W.W.W.W.W.W.W.J.J.W.W.W.W.W.W.J.J.W.J.V..+X I.U.H.H.H.U.U.U.Z. +n.0.=+J.J. +I.W.W.W.W.W.W.W.W.H.H.H.H.H.H.H.H.J.J.J.J.J.J.J.J.H.H.H.H.H.H.H.H.H.H.H.H.H.H.H.H.H.H.H.H.H.H.H.H.J.J.J.J.J.J.J.J.J.J.J.J.J.J.J.J.J.J.J.J.J.J.J.J.J.J.J.J.J.J.J.J.J.J.J.J.J.J.J.J.J.J.J.J.",
"n.n.n.n.n.n.n.n.n.n.n.n.n.n.n.n.n.n.n.n.n.n.n.n.o.o.o.o.o.o.o.o.o.o.o.o.o.o.o.o.o.o.C.n.C.o.: D.C.o.z.C.C.D.X 0.H.o.C.C.o.C.C.0.p `.n.U.p C.D.I.0.H..+b.b ,.~.L 9 n } @ V.L.H.D.H.C.I.I.n.X H.H.D.C.C.C.S.: I.H.H.o.J.J.C.D.S.: W.I.S.D.n.C.V.h H.H.H.C.H.H.C.H.S.p D.C.C.J.C.D.L.o.C.W.I.I.p D.S.X n.H.H.C.J.V.D.I.I.D.o.I.V.V.U.H.H.H.H.H.H.U.I.D.D.I.V.V.V.V.U.U.H.H.H.U.U.U.H.C.H.H.H.U.Z.U.J.J.J.C.C.C.C.J.J.J.J.J.J.J.J.J.J.J.J.J.J.J.J.J.J.J.J.J.J.J.J.J.J.J.J.J.J.J.J.J.J.J.J.J.J.J.J.J.J.J.J.J.J.J.J.J.J.J.J.J.J.J.J.J.J.J.J.J.J.J.J.J.J.J.J.J.J.J.J.J.J.J.J.J.J.J.J.J.J.J.J.J.J.J.J.J.J.J.J.J.J.J.J.J.J.J.J.J.J.J.J.J.J.J.J.J.J.J.J.J.J.J.J.J.J.J.J.J.J.J.J.J.J.J.J.J.J.J.J.J.J.J.J.J.W.J.J.J.J.J.J.W.J.J.J.J.J.J.J.J.J.J.J.J.J.J.J.J.W.W.W.W.W.W.W.W.W.W.W.W.W.W.W.W.W.W.W.W.W.W.W.W.W.W.W.W.W.W.W.W.Z.0.Z.J.Y.W.Y.Y.S.l e e v [ [ 1 ,+k+I.J.U.V.V.W.W.W.W.W.W.W.W.W.W.W.W.W.W.W.W.W.W.W.W.W.W.W.W.W.W.W.W.W.W.W.W.W.W.W.J.W.J.W.Y._.Y.W.W.W.W.W.J.W.W.W.W.W.W.W.W.W.J.J.W.W.W.W.J.J.W.W.W.W.W.W.W.W.W.W.W.W.W.W.W.W.W.J.Y.J.V.n._.V.U.H.U.U.H.U.Z.U.S._.J.Y.J.J. +S.W.W.W.W.W.W.W.W.H.H.H.H.H.H.H.H.J.J.J.J.J.J.J.J.H.H.H.H.H.H.H.H.H.H.H.H.H.H.H.H.H.H.H.H.H.H.H.H.J.J.J.J.J.J.J.J.J.J.J.J.J.J.J.J.J.J.J.J.J.J.J.J.J.J.J.J.J.J.J.J.J.J.J.J.J.J.J.J.J.J.J.J.",
"n.n.n.n.n.n.n.n.n.n.n.n.n.n.n.n.n.n.n.n.n.n.n.n.o.o.o.o.o.o.o.o.o.o.o.o.o.o.o.o.o.o.C.n.C.n.p D.C.C.z.C.J.D.p d.H.o.C.o.n.H.C._._.L.L.H.0.X I.S.n.C.S.b.z w ~.L m v 9 @ V.L.H.D.H.H.D.D. +p C.H.D.H.C.C.S.: I.H.H.n.J.J.C.D.S.% W.I.S.I.n.C.V.h H.C.C.H.H.C.C.H..+p n.J.C.W.C.I.o.H.I.D.I.I.X n.S.n._.H.H.H.C.o.o.I.V.D.o.I.I.D.H.H.H.H.U.H.H.Z.V.V.V.V..+>+.+V.Z.Z.Z.U.U.U.U.H.U.H.U.Z.Z.Z.=+Z.J.J.J.C.C.C.C.C.J.J.J.J.J.J.J.J.J.J.J.J.J.J.J.J.J.J.J.J.J.J.J.J.J.J.J.J.J.J.J.J.J.J.J.J.J.J.J.J.J.J.J.J.J.J.J.J.J.J.J.J.J.J.J.J.J.J.J.J.J.J.J.J.J.J.J.J.J.J.J.J.J.J.J.J.J.J.J.J.J.J.J.J.J.J.J.J.J.J.J.J.J.J.J.J.J.J.J.J.J.J.J.J.J.J.J.J.J.J.J.J.J.J.J.J.J.J.J.J.J.J.J.J.J.J.J.J.J.J.J.J.J.J.J.J.W.J.J.J.J.J.J.W.J.J.J.J.J.J.J.J.J.J.J.J.J.J.J.J.W.W.W.W.W.W.W.W.W.W.W.W.W.W.W.W.W.W.W.W.W.W.W.W.W.W.W.W.W.W.W.W.Z.0.=+J.Y.W.Y.Y.S.l [ e L 9 [ ' ,+k+I.J.U.V.V.W.W.W.W.W.W.W.W.W.W.W.W.W.W.W.W.W.W.W.W.W.W.W.W.W.W.W.W.W.W.W.W.W.W.W.J.W.J.Y.Y._.Y.C.Y.J.J.Y.W.Y.W.W.W.W.W.W.W.W.W.W.W.W.W.W.W.W.W.W.W.W.W.W.W.W.W.W.W.W.W.W.W.W.J.W.J.W. +X I.V.U.U.Z.Z.H.H.U.H.D._.=+W.C.Y.I.S.W.W.W.W.W.W.W.W.H.H.H.H.H.H.H.H.J.J.J.J.J.J.J.J.H.H.H.H.H.H.H.H.H.H.H.H.H.H.H.H.H.H.H.H.H.H.H.H.J.J.J.J.J.J.J.J.J.J.J.J.J.J.J.J.J.J.J.J.J.J.J.J.J.J.J.J.J.J.J.J.J.J.J.J.J.J.J.J.J.J.J.J.",
"n.n.n.n.n.n.n.n.n.n.n.n.n.n.n.n.n.n.n.n.o.o.o.o.o.o.o.o.o.o.o.o.o.o.o.o.o.o.o.o.o.n.C.o.D.X _.H.C.C.o.D.o.V.% S.C.I.n.I.C.J.n.X 0.D.C.C.D.X D.D..+_.`.x.x B ;. .m n } @ V.L.C.D.z.U.D.o.X.o.p S.S.I.C.W.D.% I.H.J.J.C.J.I.I.S.h D.;+C.H.H.n.S.X S.D.D.C.J.J.I.I.H.n.p I.I. +n.J.C.C.C.V.I.D.I.p .+.+p I.V.I.C.V.I.I.I.D.D.I.I.I.U.H.H.H.U.H.C.H.Z.U.H.H.H.H.H.Z.>+.+.+.+V.V.I.I.=+Z.H.H.H.U.H.H.W.W.J.J.J.J.J.C.J.J.J.J.C.J.J.J.J.J.J.J.J.J.J.J.J.J.J.J.C.J.J.J.J.J.J.J.J.J.J.C.J.J.J.J.J.J.J.J.J.J.J.J.J.J.J.J.J.J.J.J.J.J.J.J.J.J.J.J.J.J.J.J.J.J.J.J.J.J.J.J.J.J.J.J.J.J.J.J.J.J.J.J.J.J.J.J.W.J.J.J.J.J.J.W.J.J.J.J.J.J.J.J.J.J.J.J.J.J.J.J.J.J.J.J.J.J.J.J.J.J.J.J.J.J.J.J.W.W.W.W.W.W.W.W.W.W.W.W.W.W.W.W.W.W.W.W.W.W.W.W.W.W.W.W.W.W.W.W.W.W.W.W.W.W.W.W.W.W.W.W.W.W.W.W.W.W.W.W.W.W.W.W.W.W.W.W.W.Y.Y.W.D.o. +V.J.Y.W.=+S.{ [ e 9 ^ | > R.j+V.J.Y.I. +W.W.W.W.W.W.W.W.W.J.J.W.W.W.W.W.W.W.W.W.W.W.W.W.W.W.W.W.W.W.W.W.W.U.U.Z.H.U.Z.n.n.W.W.W.W.W.W.W.W.W.W.W.W.W.W.W.W.W.W.W.W.W.W.W.W.W.W.W.W.W.W.W.W.W.W.W.W.W.W.W.W.J. +V.V.I.X ;+W.J.=+J.J.V. +D.;+X H.Z.H.H.H.H.Z.U.U.U.U.U.U.H.H.U.U.U.U.H.H.H.H.H.H.H.H.H.H.H.H.H.U.U.U.H.H.H.U.H.H.H.H.H.H.H.H.H.H.H.H.H.H.H.H.H.H.H.U.U.H.H.H.J.J.J.J.J.J.J.J.J.J.J.J.J.J.J.J.J.J.J.J.J.J.J.J.J.J.J.J.J.J.J.J.H.H.H.H.",
"n.n.n.n.n.n.n.n.n.n.n.n.n.n.n.n.n.n.n.n.o.o.o.o.o.o.o.o.o.o.o.o.o.o.o.o.o.o.o.o.o.o.C.o.D.J 0.H.C.C.o.D.o.I.% S.C.D.o.D.C.C.D.J n.L.C.C.I.n.p !+D.z.n.x.d 7 ;. .t n - @ V.L.C.D.U.C.D.V.C.C.X I.0.0.n.J.S.: I.C.C.J.C.W.o.I.S.p o.o.H.=+C.X 0.p n.I.I.J.J.C.I.D.H.C.p I.D.V.D.J.C.J.C.J.D.S.S.p .+.+p D.V.I.C.I.D.D.D.D.D.I.I.D.U.H.H.H.U.H.H.H.Z.U.H.H.H.H.H.U.V.I.I.I.I.I.I.V.Z.U.H.H.H.H.H.H.W.J.J.J.J.J.J.J.W.J.J.J.J.J.J.J.J.J.J.J.J.J.J.J.J.J.J.J.J.J.J.J.J.J.J.J.J.J.J.J.J.J.J.J.J.J.J.J.J.J.J.J.J.J.J.J.J.J.J.J.J.J.J.J.J.J.J.J.J.J.J.J.J.J.J.J.J.J.J.J.J.J.J.J.J.J.J.J.J.J.J.J.J.J.J.J.W.J.J.J.J.J.J.W.J.J.J.J.J.J.J.J.J.J.J.J.J.J.J.J.J.J.J.J.J.J.J.J.J.J.J.J.J.J.J.J.W.W.W.W.W.W.W.W.W.W.W.W.W.W.W.W.W.W.W.W.W.W.W.W.W.W.W.W.W.W.W.W.W.W.W.W.W.W.W.W.W.W.W.W.W.W.W.W.W.W.W.W.W.W.W.W.W.W.W.W.W.W.W.W.o.I. +V.W.Y.Y.=+A.~ e z n | 9 > R.a+V.J.Y.I. +W.W.W.W.W.W.W.W.W.W.W.W.W.W.W.W.W.W.W.W.W.W.W.W.W.W.W.W.W.W.W.W.W.U.U.Z.H.U.Z.n.C.W.W.W.W.W.W.W.W.W.W.W.W.W.W.W.W.W.W.W.W.W.W.W.W.W.W.W.W.W.W.W.W.W.W.W.W.W.W.W.W.J. +I.;+_.D.V.W.W.Y.J.V.V. + +o.0.U.Z.H.U.U.H.U.U.U.U.U.U.U.H.H.U.U.U.U.H.H.H.H.H.H.H.H.H.H.H.H.H.U.U.U.H.H.H.U.H.H.H.H.H.H.H.H.H.H.H.H.H.H.H.H.H.H.H.H.H.H.H.H.J.J.J.J.J.J.J.J.J.J.J.J.J.J.J.J.J.J.J.J.J.J.J.J.J.J.J.J.J.J.J.J.H.H.H.H.",
"n.n.n.n.n.n.n.n.n.n.n.n.n.n.n.n.n.n.n.o.o.o.o.o.o.o.o.o.o.o.o.o.o.o.o.o.o.o.o.o.o.C.o.o.S._ o.C.C.C.o.D.o.o.: D.C.D.D.o.C.C.S._ o.L.C.C.I.V.: I.S.#+0.x.j 7 +.^.+.n =   V.L.H.D.J.n.C.H.H.H.n.p o.n.n.n..+: I.C.D.H.J.o.n.n..+X n.V.I.o.C.n.o.n.X I.I.J.J.C.I.D.H.H.p D.o.I.V.C.C.J.C.J.D.V.S.p D..+_.0.V.I.H.I.I.I.I.D.D.I.I.I.H.H.H.H.U.H.H.U.U.H.H.H.H.H.H.U.I.I.I.I.I.I.V.V.H.H.H.H.H.H.H.H.J.J.J.J.J.J.J.J.W.W.J.J.J.J.J.J.J.J.J.J.J.J.J.J.J.J.J.J.J.J.J.J.J.J.J.J.J.J.J.J.J.J.W.J.J.J.J.J.J.J.J.J.J.J.J.J.J.J.J.J.J.J.J.J.J.J.J.J.J.J.J.J.J.J.J.J.J.J.J.J.J.J.J.J.J.J.J.J.J.J.J.J.J.J.J.J.J.J.J.J.J.J.J.J.J.J.J.J.J.J.J.J.W.W.W.W.W.W.W.W.W.W.W.W.W.W.W.W.W.W.W.W.W.W.W.W.W.W.W.W.W.W.W.W.W.W.W.W.W.W.W.W.W.W.W.W.W.W.W.W.W.W.W.W.W.W.W.W.W.W.W.W.W.W.W.W.W.W.W.W.W.W.W.W.W.W.W.W.W.W.W.W.Y.W.W.Y.Y.W.W.Y.0.V. +V.Y.W.Y.=+A.5 B W P 9 9 ' ,+a+V.W.Y.I. +W.W.W.W.W.W.W.W.W.W.W.W.W.W.W.W.W.W.W.W.W.W.W.W.W.W.W.W.W.W.W.W.W.U.U.U.U.U.Z.0.H.W.W.W.W.W.W.W.W.W.W.W.W.W.W.W.W.W.W.W.W.W.W.W.W.W.W.W.W.W.W.W.W.W.W.W.W.W.W.W.W.W. +V.I.X ;+V.J.W.W.W.V.I.V. +_.C.Z.U.H.U.U.H.U.U.U.U.U.U.U.H.H.U.U.U.U.U.H.H.H.U.U.U.U.U.U.U.U.H.U.U.U.H.H.H.U.U.U.U.U.U.U.U.U.H.H.H.H.H.H.H.H.U.U.H.H.H.H.U.U.J.J.J.J.J.J.J.J.J.J.J.J.J.J.J.J.J.J.J.J.J.J.J.J.J.J.J.J.J.J.J.J.H.H.H.H.",
"n.n.n.n.n.n.n.n.n.n.n.n.n.n.n.n.n.n.o.o.o.o.o.o.o.o.o.o.o.o.o.o.o.o.o.o.o.o.o.o.o.C.o.o.D.% S.C.C.o.o.D.D.0.X D.C.o.o.D.C.C.S._ L.C.C.C.I.I.o.p >+X.z.-.&.W M (.+.n &   V.L.H.D.D.J.L.C.V.o.U.: o. +C.0..+: o.U.D.D.C.0.o.0.`.0.X S.S.o.0.I.o.I.p D.D.J.J.C.I.D.J.U.0._.I.I.V.C.C.J.J.J.C.I.V._._..+n.p >+V.U.I.V.V.V.I.I.I.I.I.H.H.C.H.H.H.H.H.C.C.H.H.H.H.H.U.V.V.V.V.V.V.V.V.H.H.H.H.H.H.H.U.J.J.J.J.J.J.J.J.W.J.J.J.J.J.J.J.J.J.J.J.J.J.J.J.C.C.J.J.J.J.J.J.J.J.J.J.J.J.J.W.J.J.J.J.J.J.J.J.J.J.J.J.J.J.J.J.J.J.J.J.J.J.J.J.J.J.J.J.J.J.J.J.J.J.J.J.J.J.J.J.J.J.J.W.W.J.J.J.J.J.J.J.J.J.J.J.J.J.J.J.J.J.J.J.J.J.J.J.J.J.J.J.W.W.W.W.W.W.W.W.W.W.W.W.W.W.W.W.W.W.W.W.W.W.W.W.W.W.W.W.W.W.W.W.W.W.W.W.W.W.W.W.W.W.W.W.W.W.W.W.W.W.W.W.W.W.W.W.W.W.W.W.W.W.W.W.W.W.W.W.W.W.W.W.W.W.W.W.W.W.W.W.Y.W.W.Y.Y.J.W.Y.0.;+ +V.Y.W.Y.=+A.t W ,.!.M f ! ,+<+V.W.Y.V. +W.W.W.W.W.W.W.W.W.W.W.W.W.W.W.W.W.W.W.W.W.W.W.W.W.W.W.W.W.W.W.W.W.U.U.H.U.U.U.0.Z.W.W.W.W.W.W.W.W.W.W.W.W.W.W.W.W.W.W.W.W.W.W.W.W.W.W.W.W.W.W.W.W.W.W.W.W.W.W.W.W.Y.J.!+_.o.V.;+C.W.J.V.V.I. +D._.Z.Z.H.H.Z.U.H.U.U.U.U.U.U.U.H.H.U.U.U.U.U.U.H.H.U.U.U.U.U.U.U.U.H.U.U.U.H.H.H.U.U.U.U.U.U.U.U.U.H.H.H.H.H.H.H.H.U.U.H.H.H.H.U.U.J.J.J.W.W.J.J.J.J.J.J.J.J.J.J.J.J.J.J.J.J.J.J.J.J.J.J.J.J.J.J.J.H.H.H.H.",
"n.n.n.n.n.n.n.n.n.n.n.n.n.n.n.n.o.o.o.o.o.o.o.o.o.o.o.o.o.o.o.o.o.o.o.o.o.o.o.o.o.C.C.D.o.h S.C.C.o.D.D.D._._.D.C.o.0.I.C.C.S._ L.C.I.D.D.D.!+p o.X.`.8.&.;.+.Z {.n &   V.U.H.D.I.W.L.C.I.o.n.0.X V.W._.>+X 0.H.T.Q.0.n.U.n.z.o.p o.h+x+_.D.D.C.p n.D.J.J.C.I.D.J.I.D.: V.I.H.J.J.J.J.W.H.I.U.C.p .+V.: >+V.U.I.V.V.V.I.I.V.I.I.H.H.C.H.H.H.H.H.C.C.H.H.H.H.H.U.I.I.I.V.V.I.I.I.H.U.U.U.H.H.H.U.J.J.J.J.W.W.J.J.J.J.J.J.J.J.J.J.J.W.W.W.W.J.J.J.J.J.J.J.J.J.J.J.J.J.J.J.J.J.J.J.J.J.J.J.J.J.J.J.J.J.J.J.J.J.J.J.J.J.J.J.J.J.J.J.J.J.J.J.J.J.J.J.J.J.J.J.J.J.J.J.J.J.W.W.W.W.J.J.W.W.W.W.W.W.W.W.J.J.J.W.W.J.J.J.J.J.J.J.J.J.J.J.W.W.W.W.W.W.W.W.W.W.W.W.W.W.W.W.W.W.W.W.W.W.W.W.W.W.W.W.W.W.W.W.W.W.W.W.W.W.W.W.W.W.W.W.W.W.W.W.W.W.W.W.W.W.W.W.W.W.W.W.W.W.W.W.W.W.W.W.W.W.W.W.W.W.W.W.W.W.W.W.W.W.W.Y.Y.W.W.Y.0.;+ +V.Y.W.Y.=+A.+.,.,.!.P L d f+<+V.W.Y.V. +W.W.W.W.W.W.W.W.W.W.W.W.W.W.W.W.W.W.W.W.W.W.W.W.W.W.W.W.W.W.W.W.W.Z.U.H.Z.U.C.0.Z.W.W.W.W.W.W.W.W.W.W.W.W.W.W.W.W.W.W.W.W.W.W.W.W.W.W.W.W.W.W.W.W.W.W.W.W.W.W.W.W.W. +I.X ;+I.;+J.Y.W.V. +I.;+0.o.Z.U.H.U.Z.U.H.U.U.U.U.U.U.U.H.H.U.U.U.U.U.U.U.U.U.U.U.U.U.U.U.U.H.U.U.U.H.H.H.U.U.U.U.U.U.U.U.U.H.H.H.H.H.H.H.H.H.H.U.U.U.U.H.H.J.J.W.W.W.W.J.J.J.J.J.J.J.J.J.J.J.J.J.J.J.J.J.J.J.J.J.J.J.J.J.J.H.H.H.H.",
"n.n.n.n.n.n.n.n.o.o.o.o.o.o.o.o.o.o.o.o.o.o.o.o.o.o.o.o.o.o.o.o.o.o.o.o.o.o.C.C.o.o.C.I._.X S.C.C.o.D.D.D.X 0.D.C.o._.I.C.C.D.h H.H.J.D.o.I.I.o.p #+`.k.x ;.;.E {.n &   .+U.C.D.S.C.z.C.S.t+X `.X n.W.0.S._._.H.<+:+X .+H.H.0.U.p Q.:+<+h &+I.H._.0.o.J.C.J.I.D.J.C.;+p D.I.C.H.U.C.H.U.H.C.U.Z.: S.>+p I.V.U.I.I.V.V.I.V.V.V.V.H.H.H.C.H.H.H.H.H.H.H.U.H.H.H.U.I.I.I.V.V.I.I.V.U.U.U.U.H.H.H.U.W.J.J.W.W.W.J.J.J.J.J.J.J.J.J.J.J.J.W.W.W.W.W.J.W.W.Y.Y.W.J.J.J.C.J.J.J.J.C.J.J.J.J.J.J.J.J.J.W.J.J.J.J.J.J.J.J.J.J.J.J.J.J.J.J.J.J.J.J.J.J.J.J.J.J.J.J.J.J.J.J.J.J.W.W.W.W.J.J.W.W.W.W.W.W.W.W.J.J.W.W.W.W.J.J.W.W.W.W.W.W.W.W.W.W.W.W.W.W.W.W.W.W.W.W.W.W.W.W.W.W.W.W.W.W.W.W.W.W.W.W.W.W.W.W.W.W.W.W.W.W.W.W.W.W.W.W.W.W.W.W.W.W.W.W.W.W.W.W.W.W.W.W.W.W.W.W.W.W.W.W.W.W.W.W.W.W.W.W.W.W.W.W.W.W.W.W.Y.Y.W.W.n. + +V.Y.W.Y.=+A.+.,.'.!.$.Q I l+<+V.W.W.V.V.W.W.W.W.W.W.W.W.W.W.W.W.W.W.W.W.W.W.W.W.W.W.W.W.W.W.W.W.W.W.W.W.W.U.U.H.Z.U.n.C.Z.W.W.W.W.W.W.W.W.W.W.W.W.W.W.W.W.W.W.W.W.W.W.W.W.W.W.W.W.W.W.W.W.W.W.W.W.W.W.W.W.W.;+0.n. +V.J.Y.Y.W.V.V.V.I._. +U.H.U.Z.U.H.H.U.U.U.U.U.U.U.H.H.U.U.U.U.U.U.U.U.U.U.U.U.U.U.U.U.H.U.U.U.H.H.H.U.U.U.U.U.U.U.U.U.U.U.U.U.U.U.U.U.H.H.U.U.U.U.H.H.J.J.W.W.W.W.J.J.W.W.W.W.W.W.W.W.J.J.J.J.J.J.J.J.J.J.J.J.J.J.J.J.H.H.H.H.",
"n.n.n.n.n.n.n.n.o.o.o.o.o.o.o.o.o.o.o.o.o.o.o.o.o.o.o.o.o.o.o.o.o.o.o.o.o.C.C.C.D.n.J.I.p d.D.C.C.C.D.D.D.p o.I.C.D._.n.C.C.S._ H.H.D.J.J.V.o.!+X z.`.8.x W ;.A +.n & @ .+L.C.D.S.H.z.L.&+A+` Q.o._.J.o.n._.0.U.T.b._ &+D.H.0.U.% &+/.    S.H.C.o._.o.J.C.J.C.D.J.D. +0.X V.H.H.H.C.H.H.H.H.H.Z.X o.V.0._.V.U.I.I.I.I.I.V.V.V.V.H.H.H.H.H.H.H.H.H.H.H.H.H.H.H.U.V.I.I.V.V.V.V.V.Z.U.U.U.H.H.H.H.J.J.J.W.W.W.J.J.J.J.J.J.J.J.J.J.J.J.J.W.W.W.W.J.W.W.Y.Y.W.W.J.J.J.J.J.J.C.C.J.W.W.W.W.W.J.J.W.W.J.J.J.J.J.J.J.J.J.J.J.J.J.J.J.J.J.J.J.J.J.J.J.J.J.J.J.J.J.J.J.J.J.W.W.W.W.W.W.J.W.W.W.W.W.W.W.W.J.J.W.W.W.W.J.J.W.W.W.W.W.W.W.W.W.W.W.W.W.W.W.W.W.W.W.W.W.W.W.W.W.W.W.W.W.W.W.W.W.W.W.W.W.W.W.W.W.W.W.W.W.W.W.W.W.W.W.W.W.W.W.W.W.W.W.W.W.W.W.W.W.W.W.W.W.W.W.W.W.W.W.W.W.W.W.W.W.W.W.W.W.W.W.W.W.W.W.W.Y.Y.W.C.I.V. +V.W.Y.Y.=+A.+.].].2.).Q A s+<+V.W.W. +V.W.W.W.W.W.W.W.W.W.W.W.W.W.W.W.W.W.W.W.W.W.W.W.W.W.W.W.W.W.W.W.W.W.U.U.H.Z.U._.Z.U.W.W.W.W.W.W.W.W.W.W.W.W.W.W.W.W.W.W.W.W.W.W.W.W.W.W.W.W.W.W.W.W.W.W.W.W.W.W.W.W.W.V._.V.V. +J.Y.W.J.V.V.V.0.o. +U.H.U.U.U.H.U.U.U.U.U.U.U.U.H.H.U.U.U.U.U.U.U.U.U.U.U.U.U.U.U.U.H.U.U.U.H.H.H.U.U.U.U.U.U.U.U.U.U.U.U.U.U.U.U.U.U.U.U.U.U.U.U.U.J.W.W.W.W.W.W.J.W.W.W.W.W.W.W.W.J.J.J.W.W.J.J.J.J.J.J.J.J.J.J.J.H.H.H.H.",
"n.n.n.n.n.n.n.n.o.o.o.o.o.o.o.o.o.o.o.o.o.o.o.o.o.o.o.o.o.o.o.o.o.o.o.o.o.C.C.C.D.n.J.I.: S.o.H.D.C.D.o.D.: D.S.C.I._.0.J.C.S._ H.C.C.J.W.I.I.V.S.p `.).S y y (.+.n & @ >+L.C.D.S.L.z.L.A.@.  0.>+p J.Y.0.0.n.U.i     T.S.D.C.C.p &+/.  * S.Z.z.S.X n.C.C.W.C.I.C.J.I.>+: V.U.C.H.C.H.C.H.U.H.L.0.0.D.V.p V.H.C.D.D.D.D.I.V.V.I.U.H.H.H.H.U.U.U.H.C.H.H.H.H.H.U.V.V.I.I.I.I.V.V.Z.U.U.H.H.H.H.H.J.J.J.J.W.W.J.J.J.W.W.W.J.J.J.J.J.J.J.W.W.W.J.J.J.J.W.W.W.W.J.J.W.W.W.J.J.J.W.Y.Y.Y.Y.W.W.W.W.W.J.J.J.J.J.J.J.J.J.J.J.J.J.J.J.J.J.J.J.J.J.J.J.J.J.J.J.J.J.J.J.J.J.W.W.W.W.W.W.J.J.J.J.J.J.J.J.J.J.J.W.W.W.W.J.J.W.W.W.W.W.W.W.W.W.W.W.W.W.W.W.W.W.W.W.W.W.W.W.W.W.W.W.W.W.W.W.W.W.W.W.W.W.W.W.W.W.W.W.W.W.W.W.W.W.W.W.W.W.W.W.W.W.W.W.W.W.W.W.W.W.W.W.W.W.W.W.W.W.W.W.W.W.W.W.W.W.W.W.W.W.W.W.W.W.Y.Y.W.W.=+W.n.;+I.;+ +W.=+Y.=+A.+.].V 5.).Q A A+<+V.W.W. +V.Y.W.W.W.W.W.W.W.W.W.W.W.W.W.W.Y.Y.W.W.W.W.W.W.W.W.W.W.W.W.W.W.W.W.U.U.H.Z.Z.X {+H.W.W.W.W.W.W.W.W.W.W.W.W.W.W.W.W.W.W.W.W.W.W.W.W.W.W.W.W.W.W.W.W.W.W.W.W.W.W.W.W.=+n.0.V. +I. +W.Y.J. +V. +X ;+V.Z.H.U.U.H.U.U.H.U.U.U.U.U.U.H.H.U.U.U.U.U.U.U.U.U.U.U.U.U.U.U.U.H.U.U.U.H.H.H.U.U.U.U.U.U.U.U.U.U.U.U.U.U.U.U.U.U.U.H.H.H.H.U.U.J.W.W.W.W.W.W.J.W.W.W.W.W.W.W.W.J.J.J.W.W.J.J.J.J.J.J.J.J.J.J.J.H.H.H.H.",
"n.n.n.n.n.n.n.n.o.o.o.o.o.o.o.o.o.o.n.n.o.o.o.o.o.o.o.o.o.o.o.o.z.o.o.I.n.L.L.o.C.C.D.D.% S.C.C.L._.d.T.o.: H.D.z.z.L.X S.A.S.p H.H.C.H.H.H.H.U.U._.A.x.d Z z P ).f , @ &+W.C.J.J.o..+S.A.g   n .+C._.S.J @ _.J.8 . @ Q.L.#+z.: % d.{.+.. S.=+L.C.X Q.z.z.#+#+L.C.W.U.D.p V.D.I.J.J.J.J.J.J.J.J.V.% [+S.: .+D.I.J.J.J.J.J.J.J.J.Z.U.H.H.H.H.U.Z.J.J.J.J.J.J.J.J.J.J.J.J.J.J.W.W.W.W.W.W.W.J.J.J.J.J.J.W.W.W.W.J.J.J.J.J.J.J.J.J.H.H.U.U.H.H.H.U.U.U.U.U.U.U.Z.Z.Z.U.U.H.U.U.Z.Z.U.Z.U.U.Z.{+=+Z.U.U.U.U.H.H.H.U.J.J.W.W.W.W.W.W.U.U.H.H.H.U.H.C.I.V.V.I.I.I.I.V.W.W.W.J.J.W.W.W.W.W.W.W.W.W.W.W.W.W.W.W.W.W.W.W.W.W.W.W.W.W.W.W.W.W.W.W.W.W.W.W.W.W.W.W.W.W.W.W.W.W.W.W.W.W.W.W.W.W.W.W.W.W.W.W.W.W.W.W.W.W.W.W.W.W.W.W.W.W.W.W.W.W.W.W.W.W.W.W.W.W.W.W.W.W.W.W.W.W.W.W.W.W.W.W.W.W.W.W.W.W.W.W.Y.J.Y.W.W.Z.=+0.=+Y.Y.Y.Y.Y.Y.=+l.P (.A 7.L $.d A+>+#+.+V.X.#+S.W.W.W.W.W.W.W.W.W.W.W.W.W.W.W.W.W.W.W.W.W.W.W.W.W.W.W.W.W.W.W.W.U.H.Z.U.n.C.H.Z.W.W.W.W.W.W.W.W.W.W.W.W.W.W.W.W.W.W.W.W.W.W.W.W.W.W.W.W.W.W.W.W.Z.H.H.Z.H.H.Z.H.=+X {+H.H.Z.Z.H. +I. + +0.o. +V.W.W.W.W.W.W.W.W.W.W.W.W.W.W.W.W.W.W.W.W.W.W.W.W.U.U.U.U.U.U.U.U.U.U.U.U.U.U.U.U.W.W.W.W.W.W.W.W.W.W.W.W.W.W.W.W.W.W.W.W.W.W.W.W.W.W.W.W.W.W.W.W.J.J.J.J.J.J.J.J.J.J.J.J.J.J.J.J.W.W.W.W.W.W.W.W.J.J.J.J.",
"o.o.o.o.o.o.o.o.o.o.o.o.o.o.o.o.o.o.o.o.o.o.o.o.o.o.o.o.o.o.o.o.z.D.o.o.n.z.U.o.C.C.I.o.% S.V.C.L.n.<+A.d.p Z.I.o.L.H.n.d./.d.p H.H.H.H.H.H.H.U.=+o./.6.Z Z !.f Q f ,   ^+n.=+C.L.z.L.z.K.% # a .+D.X I.&+/.% [+ .x.. A.H.U..+D.p /.T.)+^ /.I.Y.d.A.  d. +C.D.&+J.J.H.L.0._. +I.J.J.J.J.J.J.J.J.I.p V.S.X o.I.C.J.J.J.J.J.J.J.J.U.H.H.H.H.H.H.U.J.J.J.J.J.J.J.J.J.J.J.J.J.J.J.W.J.J.J.J.J.J.J.J.J.J.J.W.W.W.W.J.J.J.J.J.J.J.J.J.H.H.U.U.H.H.U.U.H.U.U.Z.U.U.U.U.U.U.U.U.U.Z.U.U.U.U.U.U.Z.=+=+Z.H.U.U.U.U.H.H.H.J.J.J.W.W.W.W.W.H.U.U.U.H.H.H.H.I.I.I.I.I.I.I.I.W.W.W.W.W.W.W.W.W.W.W.W.W.W.W.W.W.W.W.W.W.W.W.W.W.W.W.W.W.W.W.W.W.W.W.W.W.W.W.W.W.W.W.W.W.W.W.W.W.W.W.W.W.W.W.W.W.W.W.W.W.W.W.W.W.W.W.W.W.W.W.W.W.W.W.W.W.W.W.W.W.W.W.W.W.W.W.W.W.W.W.W.W.W.W.W.W.W.W.W.W.W.W.W.W.W.W.W.Y.Y.Y.Y.Y.J.Y.W.Y.Z.Z.0.=+Y.Y.Y.Y.Y.Y.=+l.P E I $.t L 1 A+>+L..+.+X.#+.+Y.W.W.W.W.W.W.W.W.W.W.W.W.W.W.W.W.W.W.W.W.W.W.W.W.W.W.W.W.W.W.Y.Z.U.Z.Z.0.H.H.Z.W.W.W.W.W.W.W.W.W.W.W.W.W.W.W.W.W.W.W.W.W.W.W.W.W.W.W.W.W.W.W.W.Z.H.Z.U.U.H.U.=+n.0.Z.H.Z.U.Z.H.V.;+I. +_.;+I. +W.W.W.W.W.W.W.W.W.W.W.W.W.W.W.W.W.W.W.W.W.W.W.W.U.U.U.U.U.U.U.U.U.U.U.U.U.U.U.U.W.W.W.W.W.W.W.W.W.W.W.W.W.W.W.W.W.W.W.W.W.W.W.W.W.W.W.W.W.W.W.W.W.W.W.W.W.W.W.W.W.W.W.W.W.W.W.W.W.W.W.W.W.W.W.W.W.W.W.W.",
"o.o.o.o.o.o.o.o.o.o.o.o.o.o.o.o.o.o.o.o.o.o.o.o.o.o.o.o.o.o.o.o.z.I.o.o.C._.V.d.J.o.I.n.p D.H.n.C..+<+b.h _.C.D.o.J.C.I.h @ h X U.H.H.H.H.H.U.U.U..+b.6.Z I k.f G f = # 0. +J.H.L.K.L.z.Q.X a a D.Z.C.p ]+&+% Z.R.x.. /.>+W.D.&+0.d.a+U * h .+Y. +d.@ h  +=+V.o.J.J.C.U.V.: !+I.J.J.J.J.J.J.J.J.V.X 0..+n.X V.C.J.J.J.J.J.J.J.J.H.H.H.H.H.H.H.H.J.J.J.J.J.J.J.J.J.J.J.J.J.J.J.J.J.J.J.J.J.J.J.J.J.J.J.J.W.W.W.J.J.J.J.J.J.J.J.J.U.U.U.U.H.U.U.U.H.H.U.Z.Z.U.H.H.U.U.U.Z.Z.Z.U.U.H.U.U.U.U.Z.Z.Z.H.U.Z.Z.U.U.U.U.W.W.W.W.W.W.W.W.U.U.Z.Z.U.H.U.Z.V.V.I.I.V.V.V.I.J.J.W.W.W.W.W.J.W.W.W.W.W.W.W.W.W.W.W.W.W.W.W.W.W.W.W.W.W.W.W.W.W.W.W.W.W.W.W.W.W.W.W.W.W.W.W.W.W.W.W.W.W.W.W.W.W.W.W.W.W.W.W.W.W.W.W.W.W.W.W.W.W.W.W.W.W.W.W.W.W.W.W.W.W.W.W.W.W.W.W.W.W.W.W.W.W.W.W.W.W.W.W.W.W.W.W.W.W.W.W.W.Y.J.Y.W.Y.Z.U.n.=+Y.Y.Y.Y.Y.=+=+b.9 i G n 9 m [ s+>+L..+>+X.X..+Y.Y.W.W.W.W.W.W.W.W.W.W.W.W.W.W.W.W.W.W.W.W.W.W.W.W.W.W.W.W.Y.Y.U.Z.U.Z._.Z.U.Z.W.W.W.W.W.W.W.W.W.W.W.W.W.W.W.W.W.W.W.W.W.W.W.W.W.W.W.W.W.W.W.W.Z.H.=+H.Z.U.H.=+X U.U.U.Z.H.Z.U.V. + +n.n. + +I.W.W.W.W.W.W.W.W.W.W.W.W.W.W.W.W.W.W.W.W.W.W.W.W.U.U.U.U.U.U.U.U.U.U.U.U.U.U.U.U.W.W.W.W.W.W.W.W.W.W.W.W.W.W.W.W.W.W.W.W.W.W.W.W.W.W.W.W.W.W.W.W.W.W.W.W.W.W.W.W.W.W.W.W.W.W.W.W.W.W.W.W.W.W.W.W.W.W.W.W.",
"o.o.o.o.o.o.o.o.o.o.o.o.o.o.o.o.o.o.o.o.o.o.o.o.o.o.o.o.o.o.o.o.z.D.D.C.C.0.0.` D.I.S.0.0.D.D.C.H.D.h .   D.D.J.I.W.J..+{ . . /.U.H.H.H.U.U.U.U.U..+T.6.I ~.!.$.Q n + h X I.C.`.S.S.S.S.T.0+| . D.U.=+X o..+: Z.G+{.* `  +=+Y.J.H.p a+<+@ @ n.V.#+z.X z.z.z.L.Z.J.W.I.H..+p I.I.J.J.J.J.J.J.J.J.V.o.p .+S.: V.I.J.J.J.J.J.J.J.J.H.H.H.H.H.H.H.H.J.J.J.J.J.J.J.J.J.J.J.J.J.J.J.J.J.J.J.J.J.J.J.J.J.J.J.J.J.J.W.W.J.J.J.J.J.W.W.W.U.U.U.H.H.U.U.U.H.H.U.Z.U.U.H.H.U.U.U.Z.Z.U.U.H.H.U.U.U.H.U.Z.U.U.U.Z.Z.U.U.U.U.W.W.Y.Y.Y.Y.Y.Y.Z.U.Z.=+Z.U.Z.{+ + + +V.V.V.I.I.W.J.J.W.W.W.W.W.W.W.W.W.W.W.W.W.W.W.W.W.W.W.W.W.W.W.W.W.W.W.W.W.W.W.W.W.W.W.W.W.W.W.W.W.W.W.W.W.W.W.W.W.W.W.W.W.W.W.W.W.W.W.W.W.W.W.W.W.W.W.W.W.W.W.W.W.W.W.W.W.W.W.W.W.W.W.W.W.W.W.W.W.W.W.W.W.W.W.W.W.W.W.W.W.W.W.W.W.W.W.W.W.W.W.Y.W.Y.Z.H.C.=+Y.Y.Y.Y.Y.=+=+/.^ > k } / } > ,+>+#+.+.+X.X._+Y.Y.Y.W.W.W.W.W.W.W.W.W.W.W.W.W.W.W.W.W.W.W.W.W.W.W.W.W.W.Y.Y.Y.U.Z.U.U.0.Z.Z.U.W.W.W.W.W.W.W.W.W.W.W.W.W.W.W.W.W.W.W.W.W.W.W.W.W.W.W.W.W.W.W.W.U.U.Z.H.Z.U.Z.C._.{+U.Z.Z.H.U.U. +V. +_.;+I.!+I.W.W.W.W.W.W.W.W.W.W.W.W.W.W.W.W.W.W.W.W.W.W.W.W.U.U.U.U.U.U.U.U.U.U.U.U.U.U.U.U.W.W.W.W.W.W.W.W.W.W.W.W.W.W.W.W.W.W.W.W.W.W.W.W.W.W.W.W.W.W.W.W.W.W.W.W.W.W.W.W.W.W.W.W.W.W.W.W.W.W.W.W.W.W.W.W.J.J.J.J.",
"o.o.o.o.o.o.o.o.o.o.o.o.o.o.o.o.o.o.o.o.o.o.o.o.o.o.o.o.o.o.o.o.L.o.D.D.C.D.h   p S.I.p o.I.D.I.H.D.{ .   o.V.J.I.D.J.S.2 } . /.U.H.H.H.U.U.U.U.Z.V.<+$.Z 2.!.P Z P + p D.p ;+I.V.I..+S.S.t+D   p Z.Y.C.p .+: Z.Q.d.h # C.#+C.=+L.: S.(+b._ X 2+`.z.0.z.Q.(+I.H.H.U.I.C.V.0.X V.J.J.J.J.J.J.J.J.I.V.: S..+p D.V.J.J.J.J.J.J.J.J.H.H.H.H.H.H.H.H.J.J.J.J.J.J.J.J.J.J.J.J.J.J.J.J.J.J.J.J.J.J.J.J.J.J.J.J.J.J.J.W.J.J.J.J.J.W.W.W.U.U.H.H.H.U.U.U.H.U.U.U.U.H.H.U.Z.Z.Z.U.U.U.U.U.H.H.U.U.H.H.U.U.Z.Z.Z.U.U.U.U.Z.W.Y.Y.Y.Y.Y.Y.Y.Z.U.Z.=+Z.U.Z.=+ + + + +V.I.V.V.Y.Y.W.J.J.W.W.J.W.W.W.W.W.W.W.W.W.W.W.W.W.W.W.W.W.W.W.W.W.W.W.W.W.W.W.W.W.W.W.W.W.W.W.W.W.W.W.W.W.W.W.W.W.W.W.W.W.W.W.W.W.W.W.W.W.W.W.W.W.W.W.W.W.W.W.W.W.W.W.W.W.W.W.W.W.W.W.W.W.W.W.W.W.W.W.W.W.W.W.W.W.W.W.W.W.Y.Y.Y.Y.Y.Y.Y.W.W.Y.W.Y.Z.o.H.Y.Y.Y.Y.Y.Y.=+{+` ^ > n 9 / = & x..+#+.+.+X.X._+Y.Y.Y.Y.W.W.W.W.Y.Y.Y.Y.Y.Y.Y.Y.Y.Y.Y.Y.Y.Y.Y.Y.W.W.W.W.Y.Y.Y.Y.U.U.Z.C.n.Z.Z.H.Y.Y.Y.Y.Y.Y.Y.Y.W.W.W.W.W.W.W.W.W.W.W.W.W.W.W.W.W.W.W.W.W.W.W.W.U.U.Z.U.Z.Z.=+_.C.Z.H.Z.H.Z.U.Z.V.;+0.o.;+I. +V.W.W.W.W.W.W.W.W.W.W.W.W.W.W.W.W.W.W.W.W.W.W.W.W.U.U.U.U.U.U.U.U.U.U.U.U.U.U.U.U.W.W.W.W.W.W.W.W.W.W.W.W.W.W.W.W.W.W.W.W.W.W.W.W.W.W.W.W.W.W.W.W.W.W.W.W.W.W.W.W.W.W.W.W.W.W.W.W.W.W.W.W.W.W.W.W.J.J.J.J.",
"o.o.o.o.o.o.o.o.o.o.o.o.o.o.o.o.o.o.o.o.o.o.o.o.o.o.o.o.o.D.D.D.L.n.D.D.J.V.{   @ >+&+: n.D.D.H.C..+U m @ 0.D.J.D.n.J.S.b.U . b.U.H.H.H.U.U.U.Z.U..+)+$.~.Z !.L Y v / p [+X D.I.#+L.#+#+#+`.z.p @ V.=+ +_.T.: D.2+&+b.d.0.U.`.K.&+J 0+A.R.H b._ F F x.).m.m.R.g Z.H.C.J.V.V.: V.J.J.J.J.J.J.J.J.D.V.p o..+0.0.V.J.J.J.J.J.J.J.J.H.H.H.H.H.H.H.H.J.J.J.J.J.J.J.J.J.J.J.J.J.J.J.J.J.J.J.J.J.J.J.W.J.J.J.J.J.J.J.W.J.J.J.J.J.J.J.J.U.H.H.H.U.U.U.U.U.U.U.H.H.H.U.U.Z.Z.Z.U.U.H.U.U.H.H.U.U.H.H.U.U.Z.Z.U.U.U.U.U.Z.W.W.W.W.W.W.W.W.Z.U.U.Z.Z.Z.U.Z. + +;+;+ + + +;+{+=+Y.W.J.W.J.J.W.W.W.W.W.W.W.W.W.W.W.W.W.W.W.W.W.W.W.W.W.W.W.W.W.W.W.W.W.W.W.W.W.W.W.W.W.W.W.W.W.W.W.W.W.W.W.W.W.W.W.W.W.W.W.W.W.W.W.W.W.W.W.W.W.W.W.W.W.W.W.W.W.W.W.W.W.W.W.W.W.W.W.W.W.W.W.W.W.W.W.W.W.W.W.W.W.W.W.W.Y.Y.Y.Y.W.Y.Y.W.Y.Z.n.Z.Y.Y.Y.Y.Y.Y.=+{+/.l k k t a = & x.V.#+.+V.X.#+.+Y.Y.Y.Y.Y.W.W.W.Y.Y.Y.Y.Y.Y.Y.Y.Y.Y.Y.Y.Y.Y.Y.Y.W.W.W.Y.Y.Y.Y.Y.U.U.=+0.U.U.Z.H.Y.Y.Y.Y.Y.Y.Y.Y.W.W.W.W.W.W.W.W.W.W.W.W.W.W.W.W.W.W.W.W.W.W.W.W.Z.U.U.Z.U.Z.U._.=+Z.U.Z.H.Z.U.Z. +V._. + +V.V.V.W.W.W.W.W.W.W.W.W.W.W.W.W.W.W.W.W.W.W.W.W.W.W.W.U.U.U.U.U.U.U.U.U.U.U.U.U.U.U.U.W.W.W.W.W.W.W.W.W.W.W.W.W.W.W.W.W.W.W.W.W.W.W.W.W.W.W.W.W.W.W.W.W.W.W.W.W.W.W.W.W.W.W.W.W.W.W.W.W.W.W.W.W.W.W.W.W.W.W.W.",
"o.o.o.o.o.o.o.o.o.o.o.o.o.o.o.o.o.o.o.o.o.o.o.o.o.o.o.o.D.D.D.D.o.o.D.C.J.S.` C _ S.S.p I.V.I.I.L.I.U . . d.V.J.H.J.W.S.)+{.^ ` U.H.H.U.U.U.U.Z.U..+<+).Z , 5.).Y k _ p !+J.X Q.X.K.K.X.K.Q.(+d.;.b.T.A.T.l.+.T.Q.T.i.2.P U a f 7.v.O.w.w.Z !.,+g.].1 ~+-+-+b+  Z.H.J.V.I. +p o.W.J.J.J.J.J.J.J.I.V.0._..+D.X V.J.J.J.J.J.J.J.J.H.H.H.H.H.H.H.H.J.J.J.J.J.J.J.J.J.J.J.J.J.J.J.J.J.J.J.J.J.J.J.J.J.J.J.J.J.J.J.J.J.J.J.J.J.J.J.J.U.H.H.U.U.U.U.H.U.U.U.H.H.H.U.Z.U.Z.Z.U.U.U.U.U.H.H.U.U.U.H.U.U.U.U.U.U.U.U.U.U.W.W.W.W.W.W.W.W.U.U.U.U.U.Z.U.U. + +;+;+;+ +;+;+=+=+Y.W.W.Y.W.W.W.W.W.W.W.W.W.W.W.W.W.W.W.W.W.W.W.W.W.W.W.W.W.W.W.W.W.W.W.W.W.W.W.W.W.W.W.W.W.W.W.W.W.W.W.W.W.W.W.W.W.W.W.W.W.W.W.W.W.W.W.W.W.W.W.W.W.W.W.W.W.W.W.W.W.W.W.W.W.W.W.W.W.W.W.W.W.W.W.W.W.W.W.W.W.W.W.W.W.W.W.W.W.W.W.Y.W.W.=+Z.0.=+Y.Y.Y.Y.Y.Y.=+{+/.U G 1 +.a } - f+.+#+.+.+#+#+.+Y.Y.Y.Y.Y.Y.W.W.Y.Y.Y.Y.Y.Y.Y.Y.Y.Y.Y.Y.Y.Y.Y.Y.W.W.Y.Y.Y.Y.Y.Y.U.Z.Z.0.=+U.U.U.Y.Y.Y.Y.Y.Y.Y.Y.W.W.W.W.W.W.W.W.W.W.W.W.W.W.W.W.W.W.W.W.W.W.W.W.Z.U.Z.Z.U.=+0.C.Z.Z.U.Z.Z.Z.U.Z. +0.o.V.;+I. +V.W.W.W.W.W.W.W.W.W.W.W.W.W.W.W.W.W.W.W.W.W.W.W.W.U.U.U.U.U.U.U.U.U.U.U.U.U.U.U.U.W.W.W.W.W.W.W.W.W.W.W.W.W.W.W.W.W.W.W.W.W.W.W.W.W.W.W.W.W.W.W.W.W.W.W.W.W.W.W.W.W.W.W.W.W.W.W.W.W.W.W.W.W.W.W.W.W.W.W.W.",
"o.o.o.o.o.o.o.o.o.o.o.o.o.o.o.o.o.o.o.D.o.o.o.o.o.o.o.D.D.D.D.D.z.I.I.n.W.D.l.x.@ h p : V.D.D.D.C.S.y+[ a _..+J.C.L.J.D.o+m   * Z.U.H.U.U.U.Z.Z.=+V.<+).A = !.6.Y P   X !+Y.X Q.)+T.)+T.{.,+,+k.f.!.8.F Z w.j.2.{.O./+*.g.O.g.$+>.P.c+c+++S >.'+r.1.y =.q.%+t.. L.U.V.W.D.V.0._.W.J.J.J.J.J.J.J.V.I.I.p S..+p V.J.J.J.J.J.J.J.J.H.H.H.H.H.H.H.H.J.J.J.J.J.J.J.J.J.J.J.J.J.J.J.J.J.J.J.J.J.J.J.J.J.J.W.J.J.J.J.J.J.J.J.J.J.J.J.J.U.U.U.U.Z.Z.U.H.U.U.U.U.H.U.U.Z.U.U.Z.U.U.U.U.Z.U.H.H.U.U.U.U.U.U.U.U.U.U.H.U.U.W.W.W.W.W.W.W.W.U.Z.Z.U.U.Z.Z.U.V.V. + + + + + +Y.Y.W.Y.Y.=+=+Y.W.W.W.W.W.W.W.W.W.W.W.W.W.W.W.W.W.W.W.W.W.W.W.W.W.W.W.W.W.W.W.W.W.W.W.W.W.W.W.W.W.W.W.W.W.W.W.W.W.W.W.W.W.W.W.W.W.W.W.W.W.W.W.W.W.W.W.W.W.W.W.W.W.W.W.W.W.W.W.W.W.W.W.W.W.W.W.W.W.W.W.W.W.W.W.W.Y.Y.Y.Y.Y.Y.Y.Y.W.Y.W.W.=+Z.0.{+Y.Y.Y.Y.Y.Y.=+{+/.+.E ' ;.a f 1 A+>+L.>+.+#+#+.+Y.Y.Y.Y.Y.Y.Y.W.Y.Y.Y.Y.Y.Y.Y.Y.Y.Y.Y.Y.Y.Y.Y.Y.W.Y.Y.Y.Y.Y.Y.Y.U.Z.U._.=+Z.H.Z.Y.Y.Y.Y.Y.Y.Y.Y.W.W.W.W.W.W.W.W.W.W.W.W.W.W.W.W.W.W.W.W.W.W.W.W.Z.U.Z.U.U.{+p {+H.{+H.U.Z.U.U.Z.;+_. + +V. +V.V.W.W.W.W.W.W.W.W.W.W.W.W.W.W.W.W.W.W.W.W.W.W.W.W.U.U.U.U.U.U.U.U.U.U.U.U.U.U.U.U.W.W.W.W.W.W.W.W.W.W.W.W.W.W.W.W.W.W.W.W.W.W.W.W.W.W.W.W.W.W.W.W.W.W.W.W.W.W.W.W.W.W.W.W.W.W.W.W.W.W.W.W.W.W.W.W.W.W.W.W.",
"o.o.o.o.o.o.o.o.o.o.o.o.o.o.o.o.D.o.o.o.o.o.o.o.o.o.D.D.D.D.D.D.o.o.D.I.n.I.&+m i c h h >+I.C.W.C.U.[+p # % n.L.J.Y.C.L.I.Q.{ 6 X W.{+U.&+S.]+V.(+)+R.^.^.k L +.P M =     & + 9.q.q.g.f.t.j.V ,.2.j.u.O.S , t.N.u.'+b+].4.~+@+b+@+O.w.O.R.5.1 k.Z (. .Q L ! =   U.Z.C.U.U.U.U.p .+V.D.J.J.C.J.V.I.D..+: I..+_.n.U.H.U.H.C.H.H.C.J.J.J.J.J.J.J.J.J.J.J.J.J.J.J.J.J.J.J.J.J.J.J.J.J.J.J.J.J.J.J.J.J.J.J.J.J.J.J.J.J.J.J.J.J.J.J.J.W.W.W.W.W.W.W.W.Y.W.W.W.W.W.W.Y.W.W.W.W.W.W.W.W.W.W.W.W.W.W.W.W.W.W.W.W.W.W.W.W.J.J.J.W.W.Y.W.J.U.U.U.U.U.U.U.U.Z.Z.U.U.U.U.U.U.Y.Y.Y.=+=+=+Y.Y.Y.Y.Y.Y.Y.Y.Y.Y.W.W.W.W.W.W.W.W.W.W.W.W.W.W.Y.Y.W.W.W.Y.W.W.W.W.Y.Y.Y.Y.Y.Y.Y.Y.W.W.W.Y.Y.Y.Y.Y.Y.Y.Y.Y.Y.Y.Y.Y.Y.Y.Y.Y.Y.Y.Y.Y.Y.Y.Y.Y.Y.Y.Y.Y.Y.Y.Y.Y.Y.Y.Y.Y.Y.Y.Y.Y.Y.Y.Y.Y.Y.Y.Y.Y.Y.Y.Y.Y.Y.Y.Y.Y.Y.Y.Y.Y.U.U.=+U.Z.C.C.Z.Y.Y.Y.Y.Y.Y.=+{+!.(.].4.,.!.d j G+.+=+Y.Y. + +Y.Y.Y.Y.Y.Y.Y.Y.Y.Y.Y.Y.Y.Y.Y.Y.Y.Y.Y.Y.Y.Y.Y.Y.Y.Y.Y.Y.Y.Y.Y.Y.Y.Z.Z.H.n.Z.Z.U.Z.Y.Y.Y.Y.Y.Y.Y.Y.Y.Y.Y.Y.Y.Y.Y.Y.W.W.Y.Y.Y.Y.Y.Y.Y.Y.Y.Y.Y.Y.Y.Y.Y. + +V. +0.n.=+W.W. + +I. +!+V.n.C.H.Z.Z.U.U.Z.Y.Y.Y.Y.W.W.W.W.Y.Y.Y.Y.Y.Y.Y.Y.U.U.U.U.U.U.U.U.W.W.W.W.W.W.W.W.W.W.W.W.W.W.W.W.W.W.W.W.W.W.W.W.W.W.W.W.W.W.W.W.W.W.W.W.W.W.W.W.W.W.W.W.W.W.W.W.W.W.W.W.W.W.W.W.W.W.W.W.W.W.W.W.W.W.W.W.W.W.W.W.U.U.U.U.",
"o.o.o.o.o.o.o.o.o.o.o.o.o.o.o.o.D.o.o.o.o.o.o.o.o.o.D.D.D.D.D.D.J.C.I.o.C.U.o.T.l @ @ n.`.X.H.J.D.S.T.6 T.` J (+S.S.S.(+Q.0+{.).;.;.;.;.R.l+,+,+,+,+R.).k G {.+.).9 .       + N.++M.++@+O.m.< 5.i.w.O.O.u.m.O.w.m.O.5.G 6.Q I d 1 e = . & t . . . * * . . h J X U.U.C.H.H.H.H.p o. +I.J.J.J.C.I.V.I..+_.n..+o.X Z.H.H.H.J.H.L.L.J.J.J.J.J.J.J.J.J.J.J.J.J.J.J.J.J.J.J.J.J.J.J.J.J.J.J.J.J.J.J.J.J.J.J.J.J.J.J.J.J.J.J.J.J.J.J.J.J.W.W.W.W.W.W.W.W.W.W.W.W.W.W.W.W.W.W.W.W.W.W.W.W.W.W.W.W.W.W.W.Y.W.W.W.W.W.W.W.W.W.W.W.W.W.W.J.U.U.Z.Z.U.U.U.U.U.U.U.U.U.U.U.U.W.Y.Y.Y.Y.Y.Y.Y.Y.Y.Y.Y.Y.Y.Y.Y.W.Y.Y.W.W.Y.Y.Y.W.W.W.W.W.W.W.W.W.Y.Y.Y.Y.W.W.W.W.W.W.W.W.W.W.W.W.W.W.W.W.W.W.W.Y.Y.Y.Y.Y.Y.Y.Y.Y.Y.Y.Y.Y.Y.Y.Y.Y.Y.Y.Y.Y.Y.Y.Y.Y.Y.Y.Y.Y.Y.Y.Y.Y.Y.Y.Y.Y.Y.Y.Y.Y.Y.Y.Y.Y.Y.Y.Y.Y.Y.Y.Y.Y.Y.Y.Y.Z.U.Z.U.Z.n.H.Z.Y.Y.Y.Y.Y.Y.=+{+7.5.].j.2.!.I j G+.+=+Y.Y. + +Y.Y.Y.Y.Y.Y.Y.Y.Y.Y.Y.Y.Y.Y.Y.Y.Y.Y.Y.Y.Y.Y.Y.Y.Y.Y.Y.Y.Y.Y.Y.Y.Y.U.{+n.H.Z.U.Z.Z.Y.Y.Y.Y.Y.Y.Y.Y.Y.Y.Y.Y.Y.Y.Y.Y.Y.Y.Y.Y.Y.Y.Y.Y.Y.Y.Y.Y.Y.Y.Y.Y.Y.V. +;+V.0.V.Y.Y.W.V. + +!+I.;+_.H.=+Z.H.U.Z.U.Y.Y.Y.Y.W.W.W.W.Y.Y.Y.Y.Y.Y.Y.Y.U.U.U.U.U.U.U.U.W.W.W.W.W.W.W.W.W.W.W.W.W.W.W.W.W.W.W.W.W.W.W.W.W.W.W.W.W.W.W.W.W.W.W.W.W.W.W.W.W.W.W.W.W.W.W.W.W.W.W.W.W.W.W.W.W.W.W.W.W.W.W.W.W.W.W.W.W.W.W.W.U.U.U.U.",
"o.o.o.o.o.o.o.o.o.o.o.o.o.o.o.o.D.D.o.o.o.o.o.o.D.D.D.D.D.D.D.D.C.C.L.n.L.C.0.&+)+T.` Q.Q.D.Q.Q.T.)+,+I ,+v.$.).!.z v.,+R.,.N.'.O g.h.p./+E.E.<.3.~.!.7.} M $.[ ).m / * * . + v.~+~+O.'+k.= Q k.$.d 1 ' k = + . & . ~ _   @ = . 6 * 6 /.` h h A.>+>+.+I.: >+V.[+U.U.C.U.H.H.U.0._.;+I.J.J.J.C.I.I.V.V.o.X .+.+: Z.H.H.H.W.H.J.J.J.J.J.J.J.J.J.J.J.J.J.J.J.J.J.J.J.J.J.J.J.J.J.J.J.J.J.J.J.J.J.J.J.J.J.J.J.J.J.J.W.W.W.W.W.W.W.W.J.J.W.W.W.W.W.W.W.W.W.W.W.W.W.W.W.W.W.W.W.W.W.W.Y.Y.Y.W.W.W.W.W.Y.Y.Y.W.W.W.W.W.Y.Y.W.W.W.W.W.J.U.U.Z.Z.Z.U.U.U.U.U.U.U.U.U.U.U.W.W.Y.Y.Y.W.W.W.Y.Y.Y.Y.Y.Y.Y.Y.Y.Y.Y.Y.Y.Y.Y.Y.Y.Y.Y.Y.Y.W.W.W.Y.Y.Y.Y.Y.Y.W.W.W.W.W.W.W.W.W.W.W.W.W.W.W.W.W.W.Y.Y.Y.Y.Y.Y.Y.Y.Y.Y.Y.Y.Y.Y.Y.Y.Y.Y.Y.Y.Y.Y.Y.Y.Y.Y.Y.Y.Y.Y.Y.Y.Y.Y.Y.Y.Y.Y.Y.Y.Y.Y.Y.Y.Y.Y.Y.Y.Y.Y.Y.Y.Y.Y.Y.Y.Z.U.Z.U.=+n.Z.Z.Y.Y.Y.=+Y.Y.=+{+;.(.].4.,.!.I j G+.+=+Y.Y. + +Y.Y.Y.Y.Y.Y.Y.Y.Y.Y.Y.Y.Y.Y.Y.Y.Y.Y.Y.Y.Y.Y.Y.Y.Y.Y.Y.Y.Y.Y.Y.Y.Y.U.{+_.Z.Z.U.Z.U.Y.Y.Y.Y.Y.Y.Y.Y.Y.Y.Y.Y.Y.Y.Y.Y.Y.Y.Y.Y.Y.Y.Y.Y.Y.Y.Y.Y.Y.Y.Y.Y.Y.V.V.!+n.n.!+Y.=+W.V. + +;+ +o.0.H.{+Z.H.U.Z.U.Y.Y.Y.Y.Y.W.W.W.Y.Y.Y.Y.Y.Y.Y.Y.U.U.U.U.U.U.U.U.W.W.W.W.W.W.W.W.W.W.W.W.W.W.W.W.W.W.W.W.W.W.W.W.W.W.W.W.W.W.W.W.W.W.W.W.W.W.W.W.W.W.W.W.W.W.W.W.W.W.W.W.W.W.W.W.W.W.W.W.W.W.W.W.W.W.W.W.W.W.W.W.U.U.U.U.",
"o.o.o.o.o.o.o.o.o.o.o.o.o.o.D.D.D.D.D.D.D.D.o.o.D.D.D.D.D.D.D.D.H.Q.A.T.T.A.T.T.R.R.8.} m = R.f+,+w.@+~+s.c.y.b+s.M./+S ++++++>.x x y.q+-+m+m+P.'+x ! M + M {.).k 9 5   @ @ . a + + = . 9   { * *     . 8 l ` 2 J /.D.I.: o.Q.Q.&+X p .+4+!+I.U.X.U.=+ +: D.I.J.U.U.H.U.H.H.Z.C.p V.I.J.J.W.C.V.J.I.I.V.p I.>+p D.V.H.H.J.C.J.J.J.J.J.J.J.J.J.J.J.J.J.J.J.J.J.J.J.J.J.J.J.J.J.J.J.J.J.J.J.J.J.J.J.J.J.J.J.J.J.J.W.W.W.W.W.W.W.W.J.J.J.W.W.W.W.W.W.W.W.J.J.W.W.W.W.W.W.W.W.W.W.W.Y.Y.Y.Y.W.W.W.W.Y.Y.Y.Y.W.W.W.W.W.W.Y.Y.Y.Y.W.W.U.U.Z.Z.Z.U.U.U.U.U.U.U.U.U.U.U.W.W.W.W.W.W.W.W.W.W.Y.Y.Y.Y.Y.Y.Y.Y.Y.Y.Y.Y.Y.W.Y.Y.Y.Y.Y.Y.Y.Y.Y.Y.Y.Y.Y.Y.Y.W.W.W.W.W.W.W.W.W.Y.Y.W.W.W.W.W.W.Y.Y.Y.Y.Y.Y.Y.Y.Y.Y.Y.Y.Y.Y.Y.Y.Y.Y.Y.Y.Y.Y.Y.Y.Y.Y.Y.Y.Y.Y.Y.Y.Y.Y.Y.Y.Y.Y.Y.Y.Y.Y.Y.Y.Y.Y.Y.Y.Y.Y.Y.Y.Y.Y.Y.Y.Z.Z.Z.Z.=+0.=+Z.Y.Y.Y.=+Y.Y.=+{+;.(.V 4.W ;.z A G+.+=+Y.Y. + +Y.Y.Y.Y.Y.Y.Y.Y.Y.Y.Y.Y.Y.Y.Y.Y.Y.Y.Y.Y.Y.Y.Y.Y.Y.Y.Y.Y.Y.Y.Y.Y.Y.Z.Z.0.=+Z.U.Z.Z.Y.Y.Y.Y.Y.Y.Y.Y.Y.Y.Y.Y.Y.Y.Y.Y.Y.Y.Y.Y.Y.Y.Y.Y.Y.Y.Y.Y.Y.Y.Y.Y.W.;+V.;+_.V.;+Y.=+Y. +V. +I.4+X Z.U.U.Z.Z.U.U.Z.Y.Y.Y.Y.Y.Y.W.W.Y.Y.Y.Y.Y.Y.Y.Y.Z.Z.Z.Z.Z.Z.Z.Z.W.W.W.W.W.W.W.W.W.W.W.W.W.W.W.W.W.W.W.W.W.W.W.W.W.W.W.W.W.W.W.W.W.W.W.W.W.W.W.W.W.W.W.W.W.W.W.W.W.W.W.W.W.W.W.W.W.W.W.W.W.W.W.W.W.W.W.W.W.W.W.W.Z.U.U.U.",
"o.o.o.o.o.o.o.o.o.o.o.o.D.D.D.D.D.D.D.D.D.D.D.D.D.D.D.D.D.D.D.D.d.T.v.N.N.i.v.N.'+y.4.].u.>.P., ].t.@+q+s.S u.q+-+m+m+m+q+C+C+>.3.R.+ x.O.c.^.(.^.+ + ;.;.6.v k k m a   @ % @   # H J _ d._.0.D.X o..+2+>+>+>+# _.2+`.`.L.U.{+X.V.0.0..+H.W.=+Y.z.H.W.!+_.n.>+W.H.H.H.H.H.H.Z.Z.p D.V.J.J.Y.C.V.J.J.I.V.X o.V.0.0.V.V.I.J.J.W.J.J.J.J.J.J.J.J.J.J.J.J.J.J.J.J.J.J.J.J.J.J.J.J.J.J.J.J.J.J.J.J.J.J.J.J.J.J.J.J.J.W.W.W.W.W.W.W.W.J.J.W.W.W.W.W.W.W.W.W.J.J.W.W.W.W.W.W.W.W.W.W.W.Y.Y.Y.Y.Y.Y.Y.Y.W.W.W.W.Y.Y.Y.Y.Y.Y.Y.Y.Y.W.W.W.U.U.Z.Z.Z.U.U.U.U.U.U.U.U.U.U.U.W.W.W.W.Y.Y.Y.Y.W.W.W.W.Y.Y.Y.Y.Y.Y.Y.Y.Y.=+Y.W.Y.Y.Y.Y.Y.Y.Y.Y.Y.Y.Y.Y.Y.Y.Y.Y.Y.Y.Y.Y.Y.Y.Y.Y.Y.Y.Y.Y.Y.W.W.W.Y.Y.Y.Y.Y.Y.Y.Y.Y.Y.Y.Y.Y.Y.Y.Y.Y.Y.Y.Y.Y.Y.Y.Y.Y.Y.Y.Y.Y.Y.Y.Y.Y.Y.Y.Y.Y.Y.Y.Y.Y.Y.Y.Y.Y.Y.Y.Y.Y.Y.Y.Y.Y.Y.Y.Y.Z.Z.Z.Z.Z.n.{+Z.=+Y.Y.=+Y.Y.=+{+;.).V (.$.$.G Z G+.+=+Y.=+ + +Y.Y.Y.Y.Y.Y.Y.Y.Y.Y.Y.Y.Y.Y.Y.Y.Y.Y.Y.Y.Y.Y.Y.Y.Y.Y.Y.Y.Y.Y.Y.Y.Y.Z.o.o.Z.Z.Z.Z.Z.Y.Y.Y.Y.Y.Y.Y.Y.Y.Y.Y.Y.Y.Y.Y.Y.Y.Y.Y.Y.Y.Y.Y.Y.Y.Y.Y.Y.Y.Y.Y.Y.W.!+ +n.0.!+ +Y.W.=+ +V. + +I._.5+Z.H.U.Z.Z.U.U.Y.Y.Y.Y.Y.Y.Y.Y.Y.Y.Y.Y.Y.Y.Y.Y.Z.Z.Z.Z.Z.Z.Z.Z.Y.Y.Y.Y.Y.Y.Y.Y.Y.Y.Y.Y.Y.Y.Y.Y.Y.Y.Y.Y.Y.Y.Y.Y.Y.Y.Y.Y.Y.Y.Y.Y.W.W.W.W.W.W.W.W.W.W.W.W.W.W.W.W.W.W.W.W.W.W.W.W.Y.Y.Y.Y.Y.Y.Y.Y.Y.Y.Y.Y.Y.Y.Y.Y.Z.Z.U.U.",
"o.o.o.o.o.o.o.D.o.o.D.D.D.D.D.D.D.D.D.D.D.D.D.D.D.D.D.D.D.D.D.D.T.,+~+E.++>., [.++y.c.P.q+c+w+s.t.j.w.b+b+V Z w.3.3.3.Y k E > C + # # # + + f , c . = $.L 7.e k G 9 / J D.V.}+2+i+_.% Q.2+`.5+`.X.`.X.X.L.X.g+p 0.n.X.H.{+L.Z.U.>+0._.>+U.J.U.J.X.U.I..+d.X .+I.H.H.H.H.H.H.H.Z._.0.V.J.J.W.C.I.W.J.V.V.0._.V.V.p I.V.I.J.J.Y.J.J.J.J.J.J.J.J.J.J.J.J.J.J.J.J.J.J.J.J.J.J.J.J.J.W.W.W.W.W.W.W.W.W.W.W.W.W.W.W.W.W.W.W.W.W.W.W.W.W.W.W.W.W.W.W.W.W.W.W.W.W.W.W.W.W.W.W.W.W.W.W.W.W.W.W.W.Y.Y.Y.Y.W.W.W.W.W.Y.Y.Y.Y.Y.Y.Y.W.W.W.W.U.U.Z.Z.Z.U.U.U.Z.Z.U.U.U.U.U.U.W.W.W.Y.Y.Y.Y.Y.W.W.W.Y.Y.Y.Y.Y.Y.=+Y.Y.=+=+=+Y.W.Y.Y.Y.Y.Y.Y.Y.Y.Y.Y.Y.Y.Y.Y.Y.Y.Y.Y.Y.Y.Y.Y.Y.Y.Y.Y.Y.Y.Y.Y.W.Y.Y.Y.Y.Y.Y.Y.Y.Y.Y.Y.Y.Y.Y.Y.Y.Y.Y.Y.Y.Y.Y.Y.Y.Y.Y.Y.Y.Y.Y.Y.Y.Y.Y.Y.Y.Y.Y.Y.Y.Y.Y.Y.Y.Y.Y.Y.Y.Y.Y.Y.Y.Y.Y.Y.Y.Z.Z.Z.Z.H.o.=+Z.=+Y.=+=+Y.Y.=+{++.).Z (.Q $.G E G+.+=+Y.=+ + +Y.Y.Y.Y.Y.Y.Y.Y.Y.Y.Y.Y.Y.Y.Y.Y.Y.Y.Y.Y.Y.Y.Y.Y.Y.Y.Y.Y.Y.Y.Y.Y.Y.{+0.Z.U.Z.Z.Z.Z.Y.Y.Y.Y.Y.Y.Y.Y.Y.Y.Y.Y.Y.Y.Y.Y.Y.Y.Y.Y.Y.Y.Y.Y.Y.Y.Y.Y.Y.Y.Y.Y.Y.;+;+_.I.;+ +Y.W.=+V. +;+[+X  +Z.Z.Z.U.U.Z.Z.U.Y.Y.Y.Y.Y.Y.Y.Y.Y.Y.Y.Y.Y.Y.Y.Y.Z.Z.Z.Z.Z.Z.Z.Z.Y.Y.Y.Y.Y.Y.Y.Y.Y.Y.Y.Y.Y.Y.Y.Y.Y.Y.Y.Y.Y.Y.Y.Y.Y.Y.Y.Y.Y.Y.Y.Y.W.W.W.W.W.W.W.W.Y.Y.Y.Y.Y.Y.Y.Y.W.W.W.W.W.W.W.W.Y.Y.Y.Y.Y.Y.Y.Y.Y.Y.Y.Y.Y.Y.Y.Y.Z.Z.U.U.",
"o.o.o.o.o.o.D.D.D.D.D.D.D.D.D.D.D.D.D.D.D.D.D.D.D.D.D.D.D.D.D.D.D.)+b+++c+'+5.,+O.O.(.i.R.i.V < j ' ' . . 8 ; .   . ; & ^ 2 J J : X z.p ` # Q.Q..+/.U 5.V 5.Q +.$.m # /.`.o.!+`.o.# X Q.`.`.z.L.;+U.H.=+=+H.U.p Q.X >+U.J.W.V.;+S._.X .+.+.+ +C.U. +J.V.D.p V.V.U.U.U.H.H.U.H.U.D.X  +J.J.W.J.I.W.J.U.U.I.p .+.+p I.V.I.V.J.Y.J.J.J.J.J.J.J.J.J.J.J.J.J.J.J.J.J.J.J.J.J.J.J.J.J.W.W.W.W.W.W.W.W.W.W.W.W.W.W.W.W.W.W.W.W.W.W.W.W.W.W.W.W.W.W.W.W.W.W.W.W.W.W.W.W.W.W.W.W.W.W.W.W.W.W.W.W.W.Y.Y.Y.W.W.W.W.W.W.W.Y.Y.Y.Y.Y.W.W.W.Y.U.U.Z.Z.Z.U.U.Z.Z.Z.Z.Z.U.U.U.U.Y.Y.Y.Y.Y.Y.Y.Y.Y.Y.Y.Y.Y.Y.Y.Y.Y.Y.Y.Y.=+=+=+Y.Y.Y.Y.Y.Y.Y.Y.Y.Y.Y.Y.Y.Y.Y.Y.Y.Y.Y.Y.Y.Y.Y.Y.Y.Y.Y.Y.Y.Y.Y.Y.Y.Y.Y.Y.Y.Y.Y.Y.Y.Y.Y.Y.Y.Y.Y.Y.Y.Y.Y.Y.Y.Y.Y.Y.Y.Y.Y.Y.Y.Y.Y.Y.Y.Y.Y.Y.Y.Y.Y.Y.Y.Y.Y.Y.Y.Y.Y.Y.Y.Y.Y.Y.Y.Y.Y.Y.Y.Z.Z.Z.Z.o.H.=+Z.=+Y.=+=+Y.Y.=+{++.).Z (.Q L k E G+.+=+Y.=+ + +Y.Y.Y.Y.Y.Y.Y.Y.Y.Y.Y.Y.Y.Y.Y.Y.Y.Y.Y.Y.Y.Y.Y.Y.Y.Y.Y.Y.Y.Y.Y.Y.Y.=+_.{+Z.U.Z.Z.Z.Y.Y.Y.Y.Y.Y.Y.Y.Y.Y.Y.Y.Y.Y.Y.Y.Y.Y.Y.Y.Y.Y.Y.Y.Y.Y.Y.Y.Y.Y.Y.Y.Y. +D.0.!+V.;+Y.Y.Y.V.;+;+I._.[+H.Z.Z.Z.U.Z.Z.U.Y.Y.Y.Y.Y.Y.Y.Y.Y.Y.Y.Y.Y.Y.Y.Y.Z.Z.Z.Z.Z.Z.Z.Z.Y.Y.Y.Y.Y.Y.Y.Y.Y.Y.Y.Y.Y.Y.Y.Y.Y.Y.Y.Y.Y.Y.Y.Y.Y.Y.Y.Y.Y.Y.Y.Y.W.W.W.W.W.W.W.W.Y.Y.Y.Y.Y.Y.Y.Y.W.W.W.W.W.W.W.W.Y.Y.Y.Y.Y.Y.Y.Y.Y.Y.Y.Y.Y.Y.Y.Y.U.U.U.U.",
"o.o.o.o.o.D.D.D.D.D.D.D.D.D.D.D.D.D.D.D.D.D.D.D.D.D.D.D.D.D.D.D.C.S. .1 1 & &   & & = # . + / / 1 [ U ` J d.: d.0.Q.Q.Q.Q.n.% 2+.+S.;+}+&+/.g S.g+X D (.x 3.!.;.Q t # 0.`.n.U.0.% &+:+: >+.+Z.Z.S..+ +C.V. +V.d.d.0.n. +V. +I.V.&+_ @ n..+D.I.V.J.Y.W.V.V.p C.Y.H.U.U.H.U.U.H.U.>+: V.J.J.W.J.I.J.J.H.U.!+% !+V.X V.I.V. +C.V.J.J.J.J.J.J.J.J.J.J.J.J.J.J.J.J.J.J.J.J.J.J.J.J.J.W.W.W.W.W.W.W.W.W.W.W.W.W.W.W.W.W.W.W.W.W.W.W.W.W.W.W.W.W.W.W.W.W.W.W.W.W.W.W.W.W.W.W.W.W.W.W.W.W.W.W.W.W.W.W.Y.W.W.W.W.W.W.W.W.W.W.Y.W.W.W.Y.Y.U.Z.Z.Z.U.U.U.Z.Z.Z.Z.Z.Z.U.U.U.Y.Y.Y.Y.Y.Y.Y.Y.Y.Y.Y.Y.Y.Y.Y.Y.Y.Y.Y.Y.=+=+Y.W.Y.Y.Y.Y.Y.Y.Y.Y.Y.Y.Y.Y.Y.Y.Y.Y.Y.Y.Y.Y.Y.Y.Y.Y.Y.Y.Y.Y.Y.Y.Y.Y.Y.Y.Y.Y.Y.Y.Y.Y.Y.Y.Y.Y.Y.Y.Y.Y.Y.Y.Y.Y.Y.Y.Y.Y.Y.Y.Y.Y.Y.Y.Y.Y.Y.Y.Y.Y.Y.Y.Y.Y.Y.Y.Y.Y.Y.Y.Y.Y.Y.Y.Y.Y.Y.Y.Y.Y.Z.Z.Z.Z.n.U.Z.Z.=+Y.=+=+=+Y.=+{+{.).Z (.z L k E G+.+=+Y.=+ + +Y.Y.Y.Y.Y.Y.Y.Y.Y.Y.Y.Y.Y.Y.Y.Y.Y.Y.Y.Y.Y.Y.Y.Y.Y.Y.Y.Y.Y.Y.Y.Y.Y.Z.0.{+Z.H.Z.Z.U.Y.Y.Y.Y.Y.Y.Y.Y.Y.Y.Y.Y.Y.Y.Y.Y.Y.Y.Y.Y.Y.Y.Y.Y.Y.Y.Y.Y.Y.Y.Y.Y.Y.;+_.V.;+I.;+=+=+W. +!+ +_.;+ +=+U.U.Z.Z.Z.U.Z.Y.Y.Y.Y.Y.Y.Y.Y.Y.Y.Y.Y.Y.Y.Y.Y.Z.Z.Z.Z.Z.Z.Z.Z.Y.Y.Y.Y.Y.Y.Y.Y.Y.Y.Y.Y.Y.Y.Y.Y.Y.Y.Y.Y.Y.Y.Y.Y.Y.Y.Y.Y.Y.Y.Y.Y.W.W.W.W.W.W.W.W.Y.Y.Y.Y.Y.Y.Y.Y.W.W.W.W.W.W.W.W.Y.Y.Y.Y.Y.Y.Y.Y.Y.Y.Y.Y.Y.Y.Y.Y.U.U.U.U.",
"o.o.D.D.D.D.D.D.D.D.D.D.D.D.D.D.D.D.D.D.D.D.D.D.D.D.D.D.D.D.D.D.D.I.0.X _.0.n.p @ : Q.0._.D.H.L.>+D.% `.V.;+U.`.Z.Z.V. +>+n.X >+U.Z.Z.I.>+^+n.% Q.` G V I 6.!.!.R +.@ 0.!+>+J / J.>+>+n._.>+>+W.Y.W.W. +I.V..+0.0.>+X  +L.X..+I..+I.X `.I. +J.U.W.W.I.V.V.X I.I.Z.H.U.Z.H.H.U.U.W.n._.V.I.I.V.J.I.I.W.W.J._.n..+I.p V.V.H.I.=+C.J.J.J.J.J.J.J.J.J.J.J.J.J.J.J.J.W.W.W.W.W.W.W.W.W.W.W.W.W.W.W.W.W.W.W.W.W.W.W.W.W.W.W.W.W.W.W.W.W.W.W.W.W.W.W.W.W.W.W.W.W.W.W.W.W.W.W.W.W.W.W.W.W.W.W.W.W.W.W.W.W.W.W.W.W.W.W.W.W.W.W.W.W.Y.Y.Y.Y.Y.Y.Y.Y.Y.Y.Y.Y.Y.Y.Y.Y.Y.W.W.Y.Y.Y.Y.Y.Y.Y.Y.Y.Y.Y.Y.Y.Y.Y.Y.W.Y.Y.Y.Y.Y.Y.Y.Y.Y.Y.Y.Y.Y.Y.Y.Y.Y.Y.Y.Y.Y.Y.Y.Y.Y.Y.Y.=+=+=+=+;+ + + + +;+ + + + + + + + + + +Y.Y.Y.Y.Y.Y.Y.Y.Y.Y.Y.Y.Y.Y.Y.Y.Y.Y.Y.Y.Y.Y.Y.Y.Y.Y.Y.Y.Y.Y.Y.Y.Y.Y.Y.Y.Y.Y.Y.Y.Y.Y.Y.Y.Y.Y.Y.Y. + + +!+0. +;+;+=+=+=+=+=+=+=+{+$.$.Z ~.Z I ' k G+>+Y.Y.=+ +;+Y.Y.Y.Y.Y.Y.Y.Y.Y.Y.Y.Y.Y.Y.Y.Y.Y.Y.Y.Y.Y.Y.Y.Y.Y.U.Z.U.Z.=+U.Z.Z.C.C.U.=+Z.Z.Z.Z.Y.Y.Y.Y.Y.Y.Y.Y.Y.Y.Y.Y.Y.Y.Y.Y.Y.Y.Y.Y.Y.Y.Y.Y.V. +;+ +I.V.;+;+V.;+_. +;+ +Y.Y.Y.V. + +I.0.;+Y.Y.Y.Y.Y.Y.Y.Y.Y.Z.Z.Z.Z.Z.Z.Z.Z.Z.Z.Z.Z.Z.Z.Z.Z.Z.Z.Z.Z.Z.Z.Z.Z.Y.Y.Y.Y.Y.Y.Y.Y.Z.Z.Z.Z.Z.Z.Z.Z.Y.Y.Y.Y.Y.Y.Y.Y.Y.Y.Y.Y.Y.Y.Y.Y.Z.Z.U.U.U.U.Z.Z.U.U.U.Z.Z.Z.Z.Z.U.U.U.Z.Z.Z.Z.Z.V. +;+ +V.V. +;+Z.Z.Z.Z.Z.Z.Z.Z. + + + +",
"o.o.D.D.D.D.D.D.D.D.D.D.D.D.D.D.D.D.D.D.D.D.D.D.D.D.D.D.D.D.D.D.I.I.C.L.X.V.4+S.% D..+Q.>+>+C.Z..+o.: `.V. +H.X.X.U.I.V..+D.p .+U.Z.Z.I.V.>+.+D.: . $.2.$.$.!.7.!.+ 6 _.^+n.@ A.W.V..+S.X I.I.=+Y.Y.J.I.I.>+D.: % S.n._.`.o.V. +V.V.X `.V.W.W.H.W.W.I..+V.p I.D.U.H.H.U.H.H.U.H.Y.C.X .+I.I.V.J.V.I.J.W.Y.o.X .+V.p V.V.U.I.J.W.J.J.J.J.J.J.J.J.J.J.J.J.J.J.J.J.W.W.W.W.W.W.W.W.W.W.W.W.W.W.W.W.W.W.W.W.W.W.W.W.W.W.W.W.W.W.W.W.W.W.W.W.W.W.W.W.W.W.W.W.W.W.W.W.W.W.W.W.W.W.W.W.W.W.W.W.W.W.W.W.W.W.W.W.W.W.W.W.W.W.W.W.W.Y.Y.Y.Y.Y.Y.Y.Y.Y.Y.Y.=+Y.Y.Y.Y.Y.Y.Y.Y.Y.Y.Y.Y.Y.Y.Y.Y.Y.Y.Y.Y.Y.Y.Y.Y.Y.Y.Y.Y.Y.Y.Y.Y.Y.Y.Y.Y.Y.Y.Y.Y.Y.Y.Y.Y.Y.Y.Y.Y.Y.Y.Y.Y.Y.Y.Y.;+ + + + + + + + + + + + + +;+;+Y.Y.Y.Y.Y.Y.Y.Y.Y.Y.Y.Y.Y.Y.Y.Y.Y.Y.Y.Y.Y.Y.Y.Y.Y.Y.Y.Y.Y.Y.Y.Y.Y.Y.Y.Y.Y.Y.Y.Y.Y.Y.Y.Y.Y.Y.Y.Y. + + +;+0.;+;+ +=+=+=+=+=+=+=+{+!.!.Z 2.~.Z 1 k G+.+=+=+=+ + +Y.Y.Y.Y.Y.Y.Y.Y.Y.Y.Y.Y.Y.Y.Y.Y.Y.Y.Y.Y.Y.Y.Y.Y.Y.U.Z.U.Z.Z.U.Z.Z.n.H.Z.Z.Z.Z.Z.Z.Y.Y.Y.Y.Y.Y.Y.Y.Y.Y.Y.Y.Y.Y.Y.Y.Y.Y.Y.Y.Y.Y.Y.Y.;+V. +;+ + + +V.[+_.V.;+ + +=+W.Y. + +!+0.V. +Y.Y.Y.Y.Y.Y.Y.Y.Y.Z.Z.Z.Z.Z.Z.Z.Z.Z.Z.Z.Z.Z.Z.Z.Z.Z.Z.Z.Z.Z.Z.Z.Z.Y.Y.Y.Y.Y.Y.Y.Y.Z.Z.Z.Z.Z.Z.Z.Z.Y.Y.Y.Y.Y.Y.Y.Y.Y.Y.Y.Y.Y.Y.Y.Y.Z.Z.Z.U.U.Z.Z.Z.U.U.Z.Z.Z.Z.Z.Z.U.Z.Z.Z.Z.Z.Z.Z. +V.V.V. + + + + + + + + + + + + + + +V.",
"D.D.D.D.D.D.D.D.D.D.D.D.D.D.D.D.D.D.D.D.D.D.D.D.D.D.D.D.D.D.D.D.V.I.H.`.X.o.>+0.X }+D.S.>+I.n.U..+0.X V.V.I.H.L.L.U.I.I.V.V.: .+H.U..+.+V..+>+8+S._ 1 j Q ).7.7.).U   h d.# V.n.;+V.I.>+n.X !+I.J.W. +>+V.V..+o._.^+ +X X.{+I.I.V.V.p V.V.W.Y.H.W.W.V..+V.p V.D.H.U.U.H.U.U.H.H.Y.I.p I.I.I.V.J.V.V.J.W.Y.V.: .+.+X D.V.U.I.J.Y.W.W.W.W.W.W.W.W.W.W.W.W.W.W.W.W.J.J.J.J.J.J.J.J.W.W.W.W.W.W.W.W.W.W.W.W.W.W.W.W.W.W.W.W.W.W.W.W.W.W.W.W.W.W.W.W.W.W.W.W.W.W.W.W.W.W.W.W.W.W.W.W.W.W.W.W.W.W.W.W.W.W.W.W.W.W.W.W.W.W.W.W.W.Y.Y.Y.Y.Y.Y.Y.Y.Y.Y.Y.Y.Y.Y.Y.Y.Y.Y.Y.Y.Y.Y.Y.Y.Y.Y.Y.Y.Y.Y.Y.Y.Y.Y.=+=+=+=+=+Y.Y.Y.Y.Y.Y.Y.Y.Y.Y.Y.Y.=+=+=+=+=+=+=+=+Y.Y.Y.Y.Y.Y.=+=+;+ + + + + + + +;+;+;+ +;+;+;+;+Y.Y.Y.Y.Y.Y.Y.Y.Y.Y.Y.Y.Y.Y.Y.Y.Y.Y.Y.Y.Y.Y.Y.Y.Y.Y.Y.Y.Y.Y.Y.Y.Y.Y.Y.Y.Y.Y.Y.Y.Y.Y.Y.Y.Y.Y.Y.Y. + + + +n.;+;+ +=+=+=+=+=+=+{+{+Q Q I 2.2.(.I G G+S.=+=+ +;+ +Y.=+Y.Y.Y.Y.Y.Y.Y.Y.Y.Y.Y.Y.Y.Y.Y.Y.Y.Y.Y.Y.Y.Y.Y.Z.Z.Z.Z.Z.U.=+=+0.Z.{+U.Z.=+Z.Z.Y.Y.Y.Y.Y.Y.Y.Y.Y.Y.Y.Y.Y.Y.Y.Y.Y.Y.Y.Y.Y.Y.Y.Y.;+I.V.;+ + + + +;+X [+;+V. +{+Y.Y. +;+I.0.;+ +Y.Y.Y.Y.Y.Y.Y.Y.Y.Z.Z.Z.Z.Z.Z.Z.Z.Z.Z.Z.Z.Z.Z.Z.Z.Z.Z.Z.Z.Z.Z.Z.Z.Y.Y.Y.Y.Y.Y.Y.Y.U.U.U.U.U.U.U.U.Y.Y.Y.Y.Y.Y.Y.Y.Y.Y.Y.Y.Y.Y.Y.Y.Z.Z.Z.U.U.Z.Z.Z.Z.Z.Z.Z.Z.Z.Z.Z.Z.Z.Z.Z.Z.Z.Z.Z.Z.Z.Z.Z.Z.Z.U.U.>+>+>+>+>+>+>+>+=+=+=+=+",
"D.D.D.D.D.D.D.D.D.D.D.D.D.D.D.D.D.D.D.D.D.D.D.D.D.D.D.D.D.D.D.D.D.D.H.C.H.I..+p o.>+o.V.D.D. +J..+_.0.V. +D.H.L.L.U.I.I.V..+: .+H.H.V..+ +V..+>+h+J e I Q ).7.i.8.m |     .+`.z.D..+I.>+>+p I.V.;+I.H..+V.I.V.V.0..+[+C.p {+I. +V..+p `.V.W.J.U.W.J.V.V.V.X I.I.C.Z.U.H.U.U.H.H.W. +_._..+V.I.J.I.V.W.J.J.V.p S..+n.0.V.H. +J.W.W.W.W.W.W.W.W.W.W.W.W.W.W.W.W.W.W.W.W.W.W.W.W.W.W.W.W.W.W.W.W.W.W.W.W.W.W.W.W.W.W.W.W.W.W.W.W.W.W.W.W.W.W.W.W.W.W.W.W.W.W.W.W.W.W.W.W.W.W.W.W.W.W.W.W.W.W.W.W.W.W.W.W.W.W.W.W.W.Y.W.W.W.W.W.W.W.Y.Y.Y.Y.Y.Y.Y.Y.W.W.W.Y.Y.Y.Y.Y.Y.Y.Y.Y.Y.Y.Y.Y.Y.Y.Y.Y.Y.Y.=+=+=+=+=+=+=+Y.Y.Y.=+=+Y.Y.Y.Y.=+=+=+=+=+=+=+=+=+=+=+=+=+=+=+=+=+=+;+ + + + + + + +;+;+ + + + +;+;+=+=+=+=+=+Y.Y.Y.Y.Y.Y.Y.Y.Y.Y.Y.Y.Y.Y.Y.Y.Y.Y.Y.Y.Y.Y.Y.Y.Y.Y.Y.Y.Y.Y.Y.Y.Y.Y.Y.Y.Y.Y.Y.Y.Y.Y.Y. + + +I.D.;+;+ +=+=+=+=+=+=+{+{+z Z V 4.4.(.I G G+S.Y.=+ +;+ +=+=+=+Y.Y.Y.Y.Y.Y.Y.Y.Y.Y.Y.Y.Y.Y.Y.Y.Y.Y.Y.Y.Y.Y.Z.Z.Z.Z.Z.Z.=+U.0.=+{+U.Z.=+Z.Z.Y.Y.Y.Y.Y.Y.Y.Y.Y.Y.Y.Y.Y.Y.Y.Y.Y.Y.Y.Y.Y.Y.Y.Y. +V. + +V.V.;+!+0.D.V.;+ + +=+=+=+ +!+_.V.V.!+W.Y.Y.Y.Y.Y.Y.Y.Y.Z.Z.Z.Z.Z.Z.Z.Z.Z.Z.Z.Z.Z.Z.Z.Z.Z.Z.Z.Z.Z.Z.Z.Z.Y.Y.Y.Y.Y.Y.Y.Y.Z.Z.Z.Z.Z.Z.Z.Z.Y.Y.Y.Y.Y.Y.Y.Y.Y.Y.Y.Y.Y.Y.Y.Y.Z.Z.Z.Z.Z.Z.Z.Z.Z.Z.Z.Z.Z.Z.Z.Z.Z.Z.Z.Z.Z.Z.Z.Z.Z.Z.=+Z.Z.Z.=+{+ + + + + + + + +Y.Y.Y.Y.",
"D.D.D.D.D.D.D.D.D.D.D.D.D.D.D.D.D.D.D.D.D.D.D.D.D.D.D.D.D.D.D.D.I.I.H.H.V.>+.+:  +o.V. +I.I.!+I..+p n.I. +I.U.L.X.H.I.V.V..+: >+V.V.I.I.V. +;+;+ +h v 2.W !.!.i. .> & ; /.>+{+L.0.V.!+V..+V.: [+I.>+V.I.D.H.V.n.p S. +!+p D..+I..+.+p `.V. +C.U.W.J.V.U.V._.o.V.n.U.Z.H.U.U.H.U.J. +I.: >+.+I.W.I.I.W.J.J.V.n._..+V.p .+U. +W.W.W.W.W.W.W.W.W.W.W.W.W.W.W.W.W.W.W.W.W.W.W.W.W.W.W.W.W.W.W.W.W.W.W.W.W.W.W.W.W.W.W.W.W.W.W.W.W.W.W.W.W.W.W.W.W.W.W.W.W.W.W.W.W.W.W.W.W.W.W.W.W.W.W.W.W.W.W.W.W.W.Y.Y.Y.Y.Y.Y.Y.Y.Y.Y.Y.Y.Y.W.W.W.Y.Y.Y.Y.Y.Y.Y.Y.Y.Y.Y.Y.Y.Y.Y.Y.Y.Y.Y.Y.Y.Y.Y.Y.=+Y.Y.Y.Y.Y.=+=+Y.Y.Y.Y.=+=+Y.Y.=+=+Y.Y.Y.=+=+=+=+=+=+=+=+=+=+=+=+=+=+=+=+=+=+=+;+;+ + + + + + +;+ + + + + +;+;+=+=+=+=+=+=+Y.Y.Y.Y.Y.Y.Y.Y.Y.Y.Y.Y.Y.Y.Y.Y.Y.Y.Y.Y.Y.Y.Y.Y.Y.Y.Y.Y.Y.Y.Y.Y.Y.Y.Y.Y.Y.Y.Y.Y.Y.Y. + + +D.V.;+;+ +=+=+=+=+=+=+{+{+Q ~.,.4.].~.I Z G+T. +=+V.;+ +=+=+=+=+Y.Y.Y.Y.Y.Y.Y.Y.Y.Y.Y.Y.Y.Y.Y.=+Y.Y.Y.Y.Y.Z.Z.Z.Z.Z.Z.=+C.C.=+Z.U.=+Z.U.Z.Y.Y.Y.Y.Y.Y.Y.Y.Y.Y.Y.Y.Y.Y.Y.Y.Y.Y.Y.Y.Y.Y.Y.Y. +;+;+ +V.;+!+ +_.[+I.;+ + +=+=+Y.!+I._.4+I. +Y.Y.Y.Y.Y.Y.Y.Y.Y.Z.Z.Z.Z.Z.Z.Z.Z.Z.Z.Z.Z.Z.Z.Z.Z.Z.Z.Z.Z.Z.Z.Z.Z.Y.Y.Y.Y.Y.Y.Y.Y.Z.Z.Z.Z.Z.Z.Z.Z.Y.Y.Y.Y.Y.Y.Y.Y.Y.Y.Y.Y.Y.Y.Y.Y.Z.Z.Z.Z.Z.Z.Z.Z.Z.Z.Z.Z.Z.Z.Z.Z.Z.Z.Z.Z.Z.Z.Z.Z.Z.Z.Z.Z.Z.Z.Z.Z.Z.Z.Z.Z.Z.Z.Z.Z.=+=+=+=+",
"D.D.D.D.D.D.D.D.D.D.D.D.D.D.D.D.D.D.D.D.D.D.D.D.D.D.D.D.D.D.D.D.V.I.U.J. +I._.X V.o.V.D.V.I.I.I..+: D.D. +I.U.L.U.H.I.V.V.V.p I.V.V.V.V.V. +;+;+4+J f ,.7 !.!.2.).| . A.o.0.Z.{+D.n..+ +V.!+X 0.V.>+.+V.U.V.=+=+X }+I.V.X.X >+o..+.+X I. + +C.Z.W.J.V.H.I.n.0..+C.H.U.U.U.H.H.U.J.V.!+: I..+I.Y.V.I.W.J.=+V.V.: >+.+p V.>+I.J.Y.W.W.W.W.W.W.W.W.W.W.W.W.W.W.W.W.W.W.W.W.W.W.W.W.W.W.W.W.W.W.W.W.W.W.W.W.W.W.W.W.W.W.W.W.W.W.W.W.W.W.W.W.W.W.W.W.W.W.W.W.W.W.W.W.W.W.W.W.W.W.W.W.W.W.W.W.W.W.W.W.Y.Y.Y.Y.Y.Y.Y.Y.Y.Y.Y.Y.Y.Y.Y.Y.Y.Y.Y.Y.Y.Y.Y.Y.Y.Y.Y.Y.Y.Y.Y.Y.Y.Y.Y.Y.Y.Y.Y.Y.=+Y.Y.Y.Y.Y.Y.=+Y.Y.Y.Y.Y.Y.Y.Y.Y.Y.Y.=+=+=+=+=+=+=+=+=+=+=+=+=+=+=+=+=+=+=+Y.Y.;+;+;+;+ + + +;+;+;+;+ +;+;+;+;+=+=+=+=+=+=+Y.Y.Y.=+=+=+=+Y.Y.Y.Y.Y.Y.Y.Y.Y.Y.=+Y.Y.Y.Y.Y.Y.Y.Y.Y.Y.Y.Y.Y.Y.Y.Y.Y.Y.Y.Y.Y.Y.Y.Y. +;+;+n. +;+;+;+=+=+=+=+=+=+{+{+d ~.].4.].].Z Z F+a+ +=+ +;+ +=+=+=+=+=+Y.Y.Y.Y.Y.Y.Y.Y.Y.Y.Y.Y.Y.Y.=+Y.Y.Y.Y.=+Z.Z.Z.Z.Z.=+Z.0.Z.=+Z.Z.=+Z.U.Z.Y.Y.Y.Y.Y.Y.Y.Y.Y.Y.Y.Y.Y.Y.Y.Y.Y.Y.Y.Y.Y.Y.Y.Y. + + + + +[+ +n.o.;+[+ +V.;+=+Y.Y.[+0.D.!+;+J.=+=+Y.Y.Y.Y.Y.Y.Y.Z.Z.Z.Z.Z.Z.Z.Z.Z.Z.Z.Z.Z.Z.Z.Z.Z.Z.Z.Z.Z.Z.Z.Z.Y.Y.Y.Y.Y.Y.Y.Y.Z.Z.Z.Z.Z.Z.Z.Z.Y.Y.Y.Y.Y.Y.Y.Y.Y.Y.Y.Y.Y.Y.Y.Y.Z.Z.Z.Z.Z.Z.Z.Z.Z.Z.Z.Z.Z.Z.Z.Z.Z.Z.Z.Z.Z.Z.Z.Z.;+;+ +;+!+[+!+;+=+=+=+=+=+=+=+=+;+;+;+;+",
"D.D.D.D.D.D.D.D.D.D.D.D.D.D.D.D.D.D.D.D.D.D.D.D.D.D.D.D.D.D.I.I.D.D.I.W. +I.p Q.Z.U.U.C.I.V.D.V..+: Q.I.I.V.U.L.X.H.I.I.V..+X n.V.V..+.+.+ + + +!+J L 1.y W 2.i.k.= @ Q.Z.p !+.+^+0.D.Y.=+D.[+p >+V.o.I. +W.W.W.: ^+V.J.`.X o.!+.+V.n.0. + +W.U.W.W.V.U.V.I.X .+H.H.U.Z.U.H.U.U.W.I.!+0.0.V.V.W.V.I.W.J.=+V.V.p V.V._.n.>+I.J.Y.W.W.W.W.W.W.W.W.W.W.W.W.W.W.W.W.W.W.W.W.W.W.W.W.W.W.W.W.W.W.W.W.W.W.W.W.W.W.W.W.W.W.W.W.W.W.W.W.W.W.W.W.W.W.W.W.W.W.W.W.W.W.W.W.W.W.W.W.W.W.W.W.W.W.W.W.W.W.W.W.Y.Y.Y.Y.Y.Y.Y.Y.Y.Y.Y.Y.Y.Y.Y.Y.Y.Y.Y.Y.Y.Y.Y.Y.W.W.W.W.W.W.W.W.Y.Y.Y.Y.Y.Y.Y.Y.Y.Y.Y.Y.Y.Y.Y.Y.Y.Y.Y.Y.Y.Y.Y.Y.Y.=+=+=+=+=+=+=+=+=+=+=+=+=+=+=+=+=+=+=+=+=+=+=+;+;+;+;+;+ +;+;+;+;+;+;+;+;+;+;+Y.=+=+=+=+=+=+Y.=+=+=+=+=+Y.Y.Y.Y.Y.=+=+=+=+=+=+Y.Y.Y.Y.Y.Y.Y.Y.Y.Y.Y.Y.Y.Y.Y.Y.=+=+=+=+=+=+=+=+ +;+;+n.;+;+ +;+=+=+=+=+=+=+{+{+< W ].4.].].V Z F+x+;+=+ +;+ +=+=+=+=+=+=+Y.Y.Y.Y.Y.Y.Y.Y.Y.Y.Y.Y.Y.=+=+Y.Y.Y.=+Z.Z.Z.Z.Z.Z.Z.0.=+Z.Z.Z.Z.Z.Z.Z.=+=+=+=+=+=+=+=+Y.Y.Y.Y.Y.Y.Y.Y.=+=+=+=+=+=+=+=+;+V.V. +;+!+I._.;+V.[+ + + +=+=+=+W.0.;+ +!+J.=+=+=+Y.Y.Y.Y.Y.Y.Z.Z.Z.Z.Z.Z.Z.Z.Z.Z.Z.Z.Z.Z.Z.Z.Z.Z.Z.Z.Z.Z.Z.Z.Y.Y.Y.Y.Y.Y.Y.Y.Z.Z.Z.Z.Z.Z.Z.Z.Y.Y.Y.Y.Y.Y.Y.Y.Y.Y.Y.Y.Y.Y.Y.Y.Z.Z.Z.Z.Z.Z.Z.Z.Z.Z.Z.Z.Z.Z.Z.Z.Z.Z.Z.Z.Z.Z.Z.Z.>+^+^+^+^+^+}+4+4+4+4+4+4+4+4+4+[+[+[+[+",
"D.D.D.D.D.D.D.D.D.D.D.D.D.D.D.D.D.D.D.D.D.D.D.D.D.D.D.D.D.I.I.I.I.V.I.J.V.V.: Q.L.L.L.Z.L.V.I.D..+: `.V.I.V.U.L.L.U.V.I.V.>+_._.>+V.I.V..+ + +!+[+h P ,.,.7.i.].~.= # n.{+C.0.&+S.D.C.W.=+U.>+n.X V.!+.+V.W.=+=+p S.V.;+X.X.X  +.+V.V.p  + +=+H.W.W. +U.V.>+p V.Z.C.H.Z.U.U.U.H.Y.I.V..+p I. +J.V.I.Y.J.W.V.V._.D.V.D.X V. +W.J.W.W.W.W.W.W.W.W.W.W.W.W.W.W.W.W.W.W.W.W.W.W.W.W.W.W.W.W.W.W.W.W.W.W.W.W.W.W.W.W.W.W.W.W.W.W.W.W.W.W.W.W.W.W.W.W.W.W.W.W.W.W.W.W.W.W.W.W.W.W.W.W.W.W.W.W.W.W.W.W.Y.Y.Y.Y.Y.Y.Y.Y.W.Y.Y.Y.Y.Y.Y.Y.Y.Y.Y.Y.Y.Y.Y.Y.Y.Y.Y.Y.Y.Y.Y.Y.Y.Y.Y.Y.Y.Y.Y.Y.Y.Y.Y.Y.Y.Y.Y.Y.=+=+=+=+Y.Y.Y.Y.=+=+{+{+{+{+{+=+{+{+{+{+{+{+{+{+{+{+{+=+=+=+=+=+;+;+;+;+;+ +;+;+ + +;+;+;+;+;+;+Y.=+=+=+=+=+=+Y.=+=+=+=+=+=+Y.Y.=+=+=+=+=+=+=+=+Y.Y.Y.Y.Y.Y.Y.Y.Y.Y.Y.Y.Y.Y.Y.Y.=+=+=+=+=+=+=+=+ +;+;+n.!+;+ +;+=+=+=+=+=+=+{+{+j ,.4.4.].].A I F+G+ + + + +;+Y.=+=+=+=+=+=+Y.Y.Y.Y.Y.Y.Y.Y.Y.Y.Y.Y.=+=+Y.Y.Y.=+Z.Z.Z.=+U.Z.=+0.Z.Z.Z.Z.Z.Z.Z.Z.=+=+=+=+=+=+=+=+Y.Y.Y.Y.Y.Y.Y.Y.=+=+=+=+=+=+=+=+;+V. +;+;+ +I.n.!+ +V.;+!+ +W.{+{+0.I. +;+ +;+Y.=+=+=+Y.Y.Y.Y.Y.Z.Z.Z.Z.Z.Z.Z.Z.Z.Z.Z.Z.Z.Z.Z.Z.Z.Z.Z.Z.Z.Z.Z.Z.Y.Y.Y.Y.Y.Y.Y.Y.Z.Z.Z.Z.Z.Z.Z.Z.Y.Y.Y.Y.Y.Y.Y.Y.Y.Y.Y.Y.Y.Y.Y.Y.Z.Z.Z.Z.Z.Z.Z.Z.Z.Z.Z.Z.Z.Z.Z.Z.Z.Z.Z.Z.Z.Z.Z.Z.>+}+}+V.0.X X _._._._._._._._._._._._._.",
"D.D.D.D.D.D.D.D.D.D.D.D.D.D.D.D.D.D.D.D.I.I.I.D.D.I.I.I.I.I.I.I.X.I..+.+S.0._.V.I.I.I.I.I.I.I.I..+: `.X.L.H.I.I.S..+I.U.V..+S._ Y.=+I. + +V.}+.+[+h L ~.7.6.5.~.8.. @ Q.2+`.X V.Z.{+0.=+U.Z.Z.Z.J D.Z.#+L.{+U.>+: `.`.L.U.H.D.0.{+C.}+p &+.+Z.H..+V.I.V.>+.+n.0.=+C.I.V.I..+.+H..+ +Y. +X S.D.Y.W.J.W.W.Y.W.J.C._.S.>+p .+V.U.V.U.U.U.U.U.U.U.U.U.U.U.U.U.U.U.U.U.U.U.U.U.U.U.U.W.W.W.W.W.W.W.W.W.W.W.W.W.W.W.W.Y.Y.Y.Y.Y.Y.Y.Y.U.U.U.U.U.U.U.U.Y.Y.Y.Y.Y.Y.Y.Y.Y.Y.Y.Y.Y.Y.Y.Y.Y.Y.Y.Y.Y.Y.Y.Y.Y.Y.Y.Y.Y.Y.Y.Y.Y.Y.Y.Y.Y.Y.Y.Y.Y.Y.Y.Y.Y.Y.Y.Y.Y.Y.Y.Y.Y.Y.Y.Y.Y.Y.Y.Y.Y.Y.Y.Y. + + + + + + + +U.Z.W.{+U.=+[+W.Y.4+[+n.S.A.D.o.D.I..+>+.+.+.+>+>+^+^+}+}+}+}+}+!+!+[+>+!+{+=+{+{+{+{+{+{+{+{+{+_+_+_+^+!+;+;+=+=+=+=+{+=+ + +;+ +;+;+ + +>+>+V.^+;+=+Y.Z.=+=+=+;+;+ + + + + +;+ + + + + + +;+;+ + +I.I.V. +!+ +;+;+;+;+;+;+!+!+A i.,.2.2.~.j Y F+G+`.Z.=+;+;+ +=+=+=+=+=+=+Y.Y. + + + + + + + + + + + + + + + +;+;+ +;+;+;+n. +;+;+;+;+ + + + + + + + + + + + +=+=+=+=+=+=+=+=+=+=+=+=+=+=+=+=+ +!+.+V.!+[+X !+W.[+ + +[+I.[+.+>+_..+;+;+!+Y.=+ + + + + + + + + + + + + + + + + + + + + + + + + + + + + + + + + + + + + + + + + + + + + + + + + + + + + + + + + + + + + + + + + + + + + + + + +Y.Y.Y.Y.Y.=+=+=+.+ +;+{+U.;+!+.+!+9+A.{ . & . . . . . . . . . . . . . . ",
"D.D.D.D.D.D.D.D.D.D.D.D.D.D.D.D.D.D.D.D.I.I.I.D.D.D.I.I.I.I.I.I.K.V.J..+.+: D.V.I.I.I.I.I.I.V.V..+: `.X.L.H.I.I.I.>+I.U.U.>+S.: `.Z.Z..+V.>+V.!+4+h [ 2.7.k.5.2.Q 9 @ Q..+!+V.X 4+V.V.0.!+>+V..+&+: 2+`.L.H.>+>+p (+Z.U.{+ +D._.{+{+.+0.0.>+H.=+U.H.>+.+D. +I.p {+{+C.=+J.J.J.=+.+J.W.;+0._.V.Y.W.W.W.W.W.W.W.W.p S.!+X V.V..+I.U.U.U.U.U.U.U.U.U.U.U.U.U.U.U.U.U.U.U.U.U.U.U.U.W.W.W.W.W.W.W.W.W.W.W.W.W.W.W.W.Y.Y.Y.Y.Y.Y.Y.Y.U.U.U.U.U.U.U.U.Y.Y.Y.Y.Y.Y.Y.Y.Y.Y.Y.Y.Y.Y.Y.Y.Y.Y.Y.Y.Y.Y.Y.Y.Y.Y.Y.Y.Y.Y.Y.Y.Y.Y.Y.Y.Y.Y.Y.Y.Y.Y.Y.Y.Y.Y.Y.Y.Y.Y.Y.Y.Y.Y.Y.Y.Y.Y.Y.Y.Y.Y.Y.Y. + + + + + + + +Z.Z.Y.J.{+ +D.4+a+/.h D t H = H 8 2 6 6 6 l l h a a a a a a ` ;.b././.b.T.]+S.S.A.A.A.A.A.A.A.A.`.`.`.`.>+`.{+{+]+]+>+.+;+!+;+W.[+ +Y.{+{+=+=+{+.+ +.+Z.Z. + +.+;+;+ + + + + +;+ + + + + + +;+;+ +;+o.V. +;+;+ +;+;+;+;+;+;+!+!+A 4.4.2.,.Z A E F+x+`.=+=+ + +;+=+=+=+=+=+=+Y.Y. + + + + + + + + + + + + + + + +;+ + +!+ +!+0.;+;+;+;+;+ + + + + + + + + + + + +=+=+=+=+=+=+=+=+=+=+=+=+=+=+=+=+ +;+.+V.!+D.0.!+{+=+ +;+V.!+ +}+0.D.!+;+ + +=+=+ + + + + + + + + + + + + + + + + + + + + + + + + + + + + + + + + + + + + + + + + + + + + + + + + + + + + + + + + + + + + + + + + + + + + + + + +Y.Y.Y.Y.=+=+=+=+ +;+Y.H.5+ + +h+h+n._   = = + } & . & & . . . . . & & & ",
"D.D.D.D.D.D.D.D.D.D.D.D.D.D.D.D.D.D.D.D.I.I.I.D.D.D.D.I.I.I.I.I.K.V.I..+.+% 2+I.I.I.I.I.I.V.V.V..+: `.U.L.H.I.I.I.U.H.U.H.V..+_.0.`.Q.`.`.`.X.{+}+_ P 2.R.$.k.Z ^.k . A.>+;+4+0.n.>+[+0.>+V.>+V.V.0.0..+>+.+.+=+X .+V.J.!+!+>+S._.{+.+.+p [+U.=+U.Z.{+=+U.[+!+_.n.[+o.Y.=+=+=+W..+U.L.=+V.: >+W.W.W.W.W.W.W.Y.=+p S.!+n.0.>+.+I.U.U.U.U.U.U.U.U.U.U.U.U.U.U.U.U.U.U.U.U.U.U.U.U.W.W.W.W.W.W.W.W.W.W.W.W.W.W.W.W.Y.Y.Y.Y.Y.Y.Y.Y.U.U.U.U.U.U.U.U.Y.Y.Y.Y.Y.Y.Y.Y.Y.Y.Y.Y.Y.Y.Y.Y.Y.Y.Y.Y.Y.Y.Y.Y.Y.Y.Y.Y.Y.Y.Y.Y.Y.Y.Y.Y.Y.Y.Y.Y.Y.Y.Y.Y.Y.Y.Y.Y.Y.Y.Y.Y.Y.Y.Y.Y.Y.Y.Y.Y.Y.Y.Y.Y. + + + + + + + +Z.=+=+W.!+.+h+S.n G k.4.V j.V V V V V I Z Z I I R R ,.,.,.,.1.1.m.w.O.w.i *   * + = = = , , , , ( ( i C  .^.^.^.A.T.<+]+]+|+4+}+;+4+!+Y.{+=+U.Y.>+>+>+>+.+.+>+^+ + + + + +;+;+;+ + + + + + +;+;+ +[+0.;+;+!+ +;+;+;+;+;+;+;+!+!+A ].4.i.V Z Z E F+x+`.{+{+ + +!+=+=+=+=+=+=+=+=+ + + + + + + + + + + + + + + + +;+ +;+!+I.!+0.!+;+;+;+;+;+ + + + + + + + + + + +=+=+=+=+=+=+=+=+=+=+=+=+=+=+=+=+;+ +.+>+>+0.V.;+{+=+ +;+V.[+ +;+_.[+;+ + +V.=+=+ + + + + + + + + + + + + + + + + + + + + + + + + + + + + + + + + + + + + + + + + + + + + + + + + + + + + + + + + + + + + + + + + + + + + + + + +Y.Y.Y.=+=+=+=+=+ +=+Y.{+U.[+^+^+X %   . t P !.6.6.).6.6.6.).).).).6.6.6.",
"D.D.D.D.D.D.D.D.D.D.D.D.D.D.D.D.D.D.D.I.I.I.D.D.D.D.I.I.I.I.I.I.L.D. +.+0.X >+D.I.I.I.I.V.V.V.V..+: >+Z.X.U.V.V.`.X.L.`.Z.U.;+ +p 2+V.`.`.Z.{+Z.8+6 Q V 7.1 k.~.(.[ . S.[+Y.V. +X !+!+U.n.>+!+.+{+;+: :+:+.+=+Y._..+!+Y.=+ +^+>+X V.[+!+_.D..+`.Z.{+Z.U.!+[+>+>+p .+}+I.o.0.>+>+.+U.#+U.=+X I.U.W.W.W.W.W.W.Y.=+_.o.>+.+p !+U.V.U.U.U.U.U.U.U.U.U.U.U.U.U.U.U.U.U.U.U.U.U.U.U.U.W.W.W.W.W.W.W.W.W.W.W.W.W.W.W.W.Y.Y.Y.Y.Y.Y.Y.Y.Z.Z.Z.Z.Z.Z.Z.Z.Y.Y.Y.Y.Y.Y.Y.Y.Y.Y.Y.Y.Y.Y.Y.Y.Y.Y.Y.Y.Y.Y.Y.Y.Y.Y.Y.Y.Y.Y.Y.Y.Y.Y.Y.Y.Y.Y.Y.Y.Y.Y.Y.Y.Y.Y.Y.Y.Y.Y.Y.Y.Y.Y.Y.Y.Y.Y.Y.Y.Y.Y.Y.Y. + + + + + + + +Y.=+=+ +;+&+:+` (.3.~+~+q+q+~+@+O.@+@+@+O.w.w.j.m.m.m.m.m.m.k.k.j.j.w.R.6.T.S.&+!+!+!+!+!+!+!+!+&+Q.Q.A.b.b././.6 D ` ` J ` /.b.&+T.|+n+^+;+[+=+Y.=+=+=+ +V. + + + +;+;+;+;+;+;+;+ + + + + +;+;+;+[+_.!+;+!+ +;+;+;+;+;+;+!+!+!+A 4.].4.V Z $.$.F+x+V.Z.{+;+;+ +=+=+=+=+=+=+=+=+ + + + + + + + + + + + + + + + + + +;+!+V.V.o.!+;+;+;+;+;+;+ + + + + + + + + + +=+=+=+=+=+=+=+=+=+=+=+=+=+=+=+=+;+ +>+[+o.0.!+;+W.{+!+ +;+ +[+0.o.4+I.;+;+ +Y.=+ + + + + + + + + + + + + + + + + + + + + + + + + + + + + + + + + + + + + + + + + + + + + + + + + + + + + + + + + + + + + + + + + + + + + + + + +=+=+=+=+=+=+=+=+=+Y.[+W.!+[+]+X   @ * & v $.i.i.k.5.5.5.k.k.k.5.5.k.k.k.",
"D.D.D.D.D.D.D.D.I.D.D.D.D.D.D.I.D.I.I.I.I.I.D.D.D.I.I.I.I.I.I.I.X.V.S.>+% Q..+>+V.I.I.V.V.V.V.V..+: >+Z.`.U.V.V.X.X.L.U.V.V.>+.+p .+>+!+ +;+{+Y.9+D ! 2.I z 6.7.!.5 @ V.`.=+Z.{+n.0.!+V.0.!+V.>+=+=+o.X Q.[+!+g+X I.2+{+{+>+>+>+A.d.Q.I.0.% d.T.Q.Q.D.A.S.d.d.&+8.b.A./.h 6 b.x.A.n.=+X.Z.o._.`.W.Y.Y.W.W.W.W.Y.I.X >+[+p V..+V.U.U.U.U.U.U.U.U.U.U.U.U.U.U.U.U.U.U.U.U.U.U.U.U.W.W.W.W.W.W.W.W.Y.Y.Y.Y.Y.Y.Y.Y.Y.Y.Y.Y.Y.Y.Y.Y.Z.Z.Z.Z.Z.Z.Z.Z.Y.Y.Y.Y.Y.Y.Y.Y.Y.Y.Y.Y.Y.Y.Y.Y.Y.Y.Y.Y.Y.Y.Y.Y.Y.Y.Y.Y.Y.Y.Y.Y.Y.Y.Y.Y.Y.Y.Y.Y.Y.Y.Y.Y.Y.Y.Y.Y.Y.Y.Y.Y.Y.Y.Y.Y.Y.Y.Y.Y.Y.Y.Y.Y. + + + + + + + +!+J.!+V.>+]+_ @ 1 5.A ].O.b+b+'+@+~+~+'+'+R.k.5.k.5. . . .C i ( f = . .   D.!+{+{+{+{+{+{+{+{+{+5+{+{+{+[+[+!+!+}+>+&+T.A.{.v e 8 ` ` /.T.|+|+]+{+{+=+=+=+=+{+{+;+;+;+;+;+;+;+;+;+;+;+ + + +;+;+;+;+0.!+;+!+ +!+;+;+;+;+;+!+!+!+A j.].].].~.e v A+x+`.Z.=+!+!+ +=+=+=+=+=+=+=+=+;+;+;+;+;+;+;+;+;+;+;+;+;+;+;+;+ +;+;+;+;+n. +;+;+;+;+;+;+;+;+;+;+;+;+;+;+;+;+;+=+=+=+=+=+=+=+=+=+=+=+=+=+=+=+=+;+ +>+!+_.I.;+;+W.{+;+ +!+ +.+_.^+!+V.!+ +;+Z.Z. + + + + + + + + + + + + + + + + + + + + + + + + + + + + + + + + + + + + + + + + + + + + + + + + + + + + + + + + + + + + + + + + + + + + + + + +=+=+=+=+=+=+=+=+Y.[+W.!+[+^+J @ * * . & m e 7.2.4.V V ].].2.2.2.4.4.4.4.",
"D.D.I.D.D.D.D.I.I.I.D.D.D.D.I.I.D.I.I.I.I.D.D.I.I.I.I.I.I.V.V.V.L.o. +p % p .+I.V.V.V.V.V.V.V.V..+: `.Z.X.U.V.V.L.Z.V.V. +!+!+.+0._.^+^+.+^+.+6+j+l d N.2.$.).!.;.5 @ 2+`.`.5+`.&+/.:+&+&+d.:+:+]+|+h+: _.n._.T.d.A.A.T.T.T.T.T.)+b.A.d.d._ b.R.A.A.A.l.8.8.l.l.i.I n - . v !.Z +.h {+=+Z.V.p .+Y.Y.Y.Y.W.W.W.W.>+: .+>+0.0.!+V.U.U.U.U.U.U.U.U.U.U.U.U.U.U.U.U.U.U.U.U.U.U.U.U.W.W.W.W.W.W.W.W.Y.Y.Y.Y.Y.Y.Y.Y.Y.Y.Y.Y.Y.Y.Y.Y.Z.Z.Z.Z.Z.Z.Z.Z.Y.Y.Y.Y.Y.Y.Y.Y.Y.Y.Y.Y.Y.Y.Y.Y.Y.Y.Y.Y.Y.Y.Y.Y.Y.Y.Y.Y.Y.Y.Y.Y.Y.Y.Y.Y.Y.Y.Y.Y.Y.Y.Y.Y.Y.Y.Y.Y.Y.Y.Y.Y.Y.Y.Y.Y.Y.Y.Y.Y.Y.Y.Y.Y. + + + + + + + +;+V.;+;+ +^+J   > F 6.5.l+1 E G (.5.$.Q $.F & . + . . . . @ @   @ % X 0.0.{+5+#+&+&+&+_+_+_+&+&+_+_+_+_+_+_+_+_+{+=+;+]+T./.9 [ l l.b.l _ { D d.>+!+[+[+[+=+Y.J.;+;+;+;+;+;+;+;+;+;+;+ + + +;+;+;+I.n.;+;+;+ +!+;+;+;+;+!+!+!+!+V j.].].4.~.' + )+r+2+=+=+;+!+;+=+=+=+=+=+=+=+=+;+;+;+;+;+;+;+;+;+;+;+;+;+;+;+;+ +!+;+ +!+0.!+;+;+;+;+;+;+;+;+;+;+;+;+;+;+;+;+;+=+=+=+=+=+=+=+=+=+=+=+=+=+=+=+=+;+;+>+V._.!+ +;+=+W.;+;+>+!+n.D.^+ +!+!+V.!+=+Z.;+ + + + + + +;+ + + + + + + + + + + + + + + + +;+ + + + + + + + + + + + + + + + + + + + + + + + + + + + + + + + + + + + + + + + + + + + + + +;+=+=+=+=+=+=+=+=+!+ +4+[+>+J @   ; . . & t f 7.2.j j V ~.~.,.V V A A j A ",
"D.D.I.I.D.D.D.I.I.I.D.D.D.D.I.I.D.I.I.I.I.D.D.I.I.I.I.I.V.V.V.V.Z.[+I.o.% Q.S.^+V.V.V.V.V.V..+.+>+: >+Z.X.U.V.V.=+;+^+.+.+S..+2+.+p >+:+&+|+&+|+a+8 Z j.~.$.6.).P &   >+V.n.d.d.l+R.l+l+A+l.A+l+k.H /.d.h l 6.v.v.k.6.!.!.7.!.!.].$.+.6 ; t ).].W W ~.V A A V V w V G [ = 1 V ].V ; ^+=+W. +_.n.Y.Y.W.W.W.W.W.W.>+X o..+V.X !+V.U.U.U.U.U.U.U.U.U.U.U.U.U.U.U.U.U.U.U.U.U.U.U.U.W.W.W.W.W.W.W.W.Y.Y.Y.Y.Y.Y.Y.Y.Y.Y.Y.Y.Y.Y.Y.Y.Z.Z.Z.Z.Z.Z.Z.Z.Y.Y.Y.Y.Y.Y.Y.Y.Y.Y.Y.Y.Y.Y.Y.Y.Y.Y.Y.Y.Y.Y.Y.Y.Y.Y.Y.Y.Y.Y.Y.Y.Y.Y.Y.Y.Y.Y.Y.Y.Y.Y.Y.Y.Y.Y.Y.Y.Y.Y.Y.Y.Y.Y.Y.Y.Y.Y.Y.Y.Y.Y.Y.Y. + + + + + + + +V.!+ +[+ +>+^+X /.l.| [ G Q G P Q ).P } 8 ; .   # @ @ % p _.Q.Q.4+4+[+;+ +[+Y.J.&+&+&+&+]+]+&+&+#+#+#+#+#+#+#+#+=+=+;+;+.+.+]+n+A.h /.k+:+A.d.h % h /.A.&+|+[+!+!+;+;+;+;+;+;+;+;+;+;+;+ + +;+;+;+n.V.;+!+ +;+;+;+;+;+!+!+!+!+!+V 4.>.c.j.2.[ . )+r+2+{+=+;+!+;+=+=+=+=+=+=+=+=+;+;+;+;+;+;+;+;+;+;+;+;+;+;+;+;+;+;+;+ +;+0.!+;+;+;+;+;+;+;+;+;+;+;+;+;+;+;+;+;+=+=+=+=+=+=+=+=+=+=+=+=+=+=+=+=+;+;+!+0.D.!+;+;+{+Z. +>+>+.+0.!+.+ +[+ + +>+=+Z.;+;+ + + + +;+;+ + + + + + + + + + + + + + + + +;+;+;+ + + + + + + + + + + + + + + + + + + + + + + + + + + + + + + + + + + + + + + + + + +;+;+;+=+=+=+=+=+=+=+=+!+;+[+>+h @ . | . ; ~ ^ H n 7.W d d W i.7.,.W I I I B B ",
"D.D.I.I.D.D.D.I.I.I.I.D.D.I.I.I.D.I.I.I.I.D.D.I.I.I.I.I.V.V.V.V.U.I.;+o.0.2+S.>+V.V.V.V..+.+.+.+>+: 2+Z.`.Z..+>+=+V.V.S.d.p _.2+i+X 2+7+(+(+(+T.d.^ ,.j.j 6.6.!.Z |     @ @   H @+[.S T T '.'.S s 2.M . . P S *.V S S S S >.S V >.].Q = . $.].S >.g.>.>.g.>.S g.V 2.$.F {.+ V 4.[.[ |+W.W.;+S.X =+Y.W.W.W.Y.Y.Y.>+n._..+.+p .+ +U.U.U.U.U.U.U.U.U.U.U.U.U.U.U.U.U.U.U.U.U.U.U.U.W.W.W.W.W.W.W.W.Y.Y.Y.Y.Y.Y.Y.Y.Y.Y.Y.Y.Y.Y.Y.Y.Z.Z.Z.Z.Z.Z.Z.Z.Y.Y.Y.Y.Y.Y.Y.Y.Y.Y.Y.Y.Y.Y.Y.Y.Y.Y.Y.Y.Y.Y.Y.Y.Y.Y.Y.Y.Y.Y.Y.Y.Y.Y.Y.Y.Y.Y.Y.Y.Y.Y.Y.Y.Y.Y.Y.Y.Y.Y.Y.Y.Y.Y.Y.Y.Y.Y.Y.Y.Y.Y.Y.Y. + + + + + + + +.+!+ +W.[+.+[+}+l.U M v 6.k n F Q 6.{.} . .   _ S..+6+6+6+[+1+1+!+;+^+_+]+_+.+^+Y.=+=+=+=+=+=+=+&+&+&+&+&+.+>+>+^+^+;+=+=+=+{+{+]+&+_.p o.h+j+a+R.l.M | l /.S.2+!+!+;+;+ + +;+;+;+;+;+;+ + +;+;+;+0.!+;+[+ +!+;+;+;+;+!+!+!+!+!+V ].>.c.4.2.P + f+r+`.{+=+;+;+ +=+=+=+=+=+=+=+=+;+;+;+;+;+;+;+;+;+;+;+;+;+;+;+;+;+ +;+;+ +n.;+!+;+;+;+;+;+;+;+;+;+;+;+;+;+;+;+;+=+=+=+=+=+=+=+=+=+=+=+=+=+=+=+=+!+;+>+X [+V.!+ +Z.{+>+U.!+n.n.!+^+ +;+V.!+Z.=+=+;+;+ + + + +;+;+ + + + + + + + + + + + + + + + +;+;+;+;+ + + + + + + + + + + + + + + + + + + + + + + + + + + + + + + + + + + + + + + + +;+;+;+;+=+=+=+=+=+=+=+=+>+h+S.:   ; } = 3 .   { U 9 7.d B < ! y W B B y y y y y ",
"I.I.I.I.I.I.I.I.D.D.I.I.I.I.I.I.S.I.V.V.H.L.L.K.X.J.C..+S.Q.2+L..+>+.+0.n.o.d.S.L.o.D.d././.d.d.z.: z.z.z.Q.z.Q.R.A.d.Q.h } ~.s >.c.&.&.c.&./+c+i.< $.k.Q (.5.(.).> .   _ . & & q+V S |.>.[.V V ].A k k . . v.W 4.V j.].4.2.].2.[.'.V A A + i.i.g.|.|.g.g.g.>.S ].4.|.>.f.j + n {.@ &+ +=+W.!+p >+V.>+.+H. +W.W.V.;+: [+ +X .+S.W.W.Y.W.W.W.Y.Y.V.V.V.V.V.V.V.V.V.V.V.V.V. + + + + + + + + + + + + + + + + + + + + + + + + + + + + + + + + + + + + + + + + + + + + + + + + + + + + + + + + + + + + + + + + + + +Y.Y.Y.Y.Y.Y.Y.Y. + + + + + + + + + + + + + + + + + + + + + + + + + + + + + + + + + + +;+;+;+;+;+&+/.6 +.7.Q e Q V 3.G & @ # X g+[+[+[+[+!+!+!+!+;+;+;+;+;+;+;+;+;+;+;+;+;+;+ + + + + +;+;+;+;+;+;+;+;+;+!+!+!+!+;+4+4+o.p X Q.(+1+[+5+V.0.t d x S..+[+[+=+=+=+>+;+ +!+ +!+;+;+;+!+_.[+;+;+!+Y.=+;+!+;+=+;+!+}+.+T 4.].4.m.5.$.- l+T.>+{+;+!+=+=+;+;+;+;+;+;+;+;+;+;+;+;+;+;+;+;+;+;+;+;+;+;+;+;+;+ +!+;+n. +!+;+;+;+;+;+;+;+;+;+;+;+;+;+;+;+;+;+;+;+;+;+;+;+;+;+V.!+;+ +;+;+ +;+>+}+n.n.[+;+V.[+;+;+^+.+}+X [+ +;+;+;+;+;+;+;+;+;+;+;+;+;+;+;+;+;+;+;+;+;+;+;+;+;+;+;+;+;+;+;+;+;+;+;+;+;+;+;+;+ + + + + + + + + + + + + + + + + + + + + + + + + + + + + + + +;+;+;+;+;+;+;+;+;+!+;+;+.+[+=+=+{+2+_.# @ ; = = = ^ ^ . } +.f v L f ' + ' f M M f [ ' [ f ",
"I.I.I.I.I.I.I.I.I.I.I.I.I.I.I.I.V.S.V.U.H.L.V.I.D..+S.S.]+/.X : 0.z.z.X z.`.`.Q.o.D.S.` ` /.)+0+b+m.'+'+O.y.y.y.v.l.b.  . 8.V V y W !.W y A ,+,+R.d 7.5.(.5.w.(.P | ;   _ ; 3 } A 4.[.g.|.>.4.j.'.4.5.(.5.+ + v.g.|.>.|.|.O g.:.2.w.2.5.k.= + $.$.$.$.$.$.Q G G P ).5.W z m l /.A./.>+ +Y.Y.;+0.0.>+V.V.H. +W.Y. +;+p V.;+n.0..+W.Y.Y.Y.W.W.W.W.V.V.V.V.V.V.V.V.V.V.V.V.V.V. + + + + + + + + + + + + + + + + + + + + + + + + + + + + + + + + + + + + + + + + + + + + + + + + + + + + + + + + + + + + + + + + + +Y.Y.Y.Y.Y.Y.Y.Y. + + + + + + + + + + + + + + + + + + + + + + + + + + + + + + +;+ + + +;+;+;+;+;+}+S./.H t M +.U G P 9 D &+n+4+{+!+!+!+;+;+;+;+;+;+;+;+;+;+;+;+;+;+;+;+;+;+;+;+;+ + + +;+;+;+;+;+;+;+;+;+;+!+!+!+!+;+>+9+h+n.p /.}+;+>+[+}+]+T./.6 ` d.S.]+[+{+=+!+!+!+ +;+;+;+!+!+0.!+;+;+ +{+=+;+!+;+{+!+!+^+S.T 4.4.4.3.5.Q + s+<+^+{+ +;+=+=+;+;+;+;+;+;+;+;+;+;+;+;+;+;+;+;+;+;+;+;+;+;+;+;+;+;+;+!+0.;+;+;+;+;+;+;+;+;+;+;+;+;+;+;+;+;+;+;+;+;+;+;+;+;+;+;+ +!+;+ +;+;+;+!+>+>+_.;+!+ +!+ +;+;+ +^+o.o.;+;+;+;+;+;+;+;+;+;+;+;+;+;+;+;+;+;+;+;+;+;+;+;+;+;+;+;+;+;+;+;+;+;+;+;+;+;+;+;+;+;+ + + + + + + + + + + + + + + + + + + + + + + + + + + + + + +;+;+;+;+;+;+;+;+;+;+V.!+;+!+;+!+;+4+_._   . ; / / = & ^ & = m ' f ' ' = + + = = = + + + + = ",
"I.I.I.I.I.I.I.I.I.I.I.I.I.I.I.I.I.I.U.H.H.V..+Q.)+)+&+A.&+_ U R.s+f+f+R.,+,+R.x./.b.` = R.7.Z V ].x V A x s s S 0 A 1 + + L 2.V 1.W ,.,.1.1.t.] l+1 5.(.' 1 5.(.).m ;       @ . j i.V ].].j.W ~.].].].V k.!.- , 2.I $.Q !.!.;.7.l.8.M v [ } / {.T.T.S.&+&+&+&+]+a+b.. . / _ : 4+&+.+;+Y.W.=+ +.+p !+I.V.U. +J.Y. +!+0.0.!+V.p >+Y.Y.Y.Y.Y.Y.Y.W.V.V.V.V.V.V.V.V. + + + +V.V.V.V. + + + + + + + + + + + + + + + + + + + + + + + + + + + + + + + + + + + + + + + + + + + + + + + + + + + + + + + + + + + + + + + +Y.Y.Y.Y.Y.Y.Y.=+ + + + + + + + + + + +;+;+ + + + + + + + + + + + + + + + + +;+;+ +;+;+;+;+;+;+;+[+.+0.h @ _ 6 _ { 6 /.T.9+!+ +{+!+!+!+;+;+;+;+;+;+;+;+;+;+;+;+;+;+;+;+;+;+;+;+;+ + +;+;+;+;+;+;+;+;+;+;+;+;+;+;+Z.{+!+.+>+}+.+n.% o.|+8+4+{+=+5+T.{.3 l b.S.!+5+;+ + +!+!+ +;+[+V.n.!+!+;+ +[+{+;+!+!+{+!+!+^+I.T 4.4.4.3.5.Q + A+:+!+{+ +;+=+=+;+;+;+;+;+;+;+;+;+;+;+;+;+;+;+;+;+;+;+;+;+;+;+;+;+;+ +;+n.!+;+;+;+;+;+;+;+;+;+;+;+;+;+;+;+;+;+;+;+;+;+;+;+;+;+;+;+;+ + +;+;+ +!+^+o.n.[+;+ +[+V.!+;+ +^+0.^+ +!+;+;+;+;+;+;+;+;+;+;+;+;+;+;+;+;+;+;+;+;+;+;+;+;+;+;+;+;+;+;+;+;+;+;+;+;+;+;+;+;+ + + + + + + + + + + + + + + + + + + + + + + + + + + + +;+;+;+;+;+;+;+;+;+;+;+;+^+I.[+=+=+[+9+/.@   . ^ ^ & / = & & & & } } v ' = = / / = = = = & & & & ",
"I.I.I.I.I.I.I.I.I.I.I.I.I.I.I.I.L.H.U.H.I..+S.o.j.k.l.{ D ^ 6.].&.x x S S s x x E & . + ;.W >.s y y y y y R =.=.>.4.7 Q b + 7.2.c.>.c.>.>.c.y.>.l+j (.w.'+,+).k.$.} . @ @ @ # @ 9 {.+.{.+.+.l.8.).v.).' [ - = / S.n.[+>+[+4+{+4+(+J ; 9 9 ;   A.{+{+{+=+Z.Z.Z.{+!+: @ {.m # % =+;+;+Y.=+Y.Y.V.>+p V..+V.U. +J.Y. +;+V.p !+;+p >+Y.Y.W.W.Y.Y.Y.Y.V.V.V.V.V.V.V.V. + + + + + + + + + + + + + + + + + + + + + + + + + + + + + + + + + + + + + + + + + + + + + + + + + + + + + + + + + + + + + + + + + + + + + + + +Y.Y.Y.Y.Y.Y.=+=+ + + + + + + + + + + +;+;+ + + + + + + + + + + + + + + + +;+;+;+;+;+;+;+;+;+;+;+=+!+[+2+>+Q.d.d.o..+4+4+[+!+{+[+!+!+!+!+!+!+!+!+;+;+;+;+;+;+;+;+;+;+;+;+;+;+;+;+;+;+;+;+;+;+;+;+;+;+;+;+;+;+;+;+{+Z.{+!+ +!+4+^+Q.X J S._+!+{+#+4+|+)+b.g { X o.4+4+!+!+ +;+[+[+_.0.!+!+!+ +!+!+;+[+!+{+!+!+^+I.T 4.4.4.3.5.Q = F+:+!+{+;+^+!+{+;+;+;+;+;+;+;+;+;+;+;+;+;+;+;+;+;+;+;+;+;+;+;+;+;+;+;+V.o.!+;+;+;+;+;+;+;+;+;+;+;+;+;+;+;+;+;+;+;+;+;+;+;+;+;+;+;+;+;+;+!+;+ +;+^+_.^+;+;+ +;+;+;+;+^+o.o.^+!+;+;+;+;+;+;+;+;+;+;+;+;+;+;+;+;+;+;+;+;+;+;+;+;+;+;+;+;+;+;+;+;+;+;+;+;+;+;+;+;+;+ + + + + + + + + + + + + + + + + + + + + + + + + + +;+;+;+;+;+;+;+;+;+;+;+;+;+;+>+4+W.=+5+|+J . * * ( | & ; ~ = & & ^ = } f +.f ; ^ 8 l l l l H l l 8 8 ",
"I.I.I.I.I.I.I.I.I.I.I.I.I.I.I.I.L.X.Z.U.I..+S.d.S V G   . & A A W y R R =.R ,.W > Z L , y ,.].>.c.c.>.|.[.>.[.%.T t.i.~.7.+ + +.x Z Z x Z Z k.O.,+> 5.w.k.5.z ).$.} @ d.0.d.d.d.d.S.&+&+h+J :+a+T._ . | m * @ X _.C.=+{+{+#+{+#+D.@ h H & 5 # d.{+{+Z.Z.Z.Z.Z.Z.U.7+)+[ + H p 2+=+W.Y.=+Y.V. + +0.0.!+.+V. +W.Y. +V.[+: !+ +0.0.=+Y.W.W.W.Y.Y.Y.V.V.V.V.V.V.V.V.V.V. + + + + + + + + + + + + + + + + + + + + + + + + + + + + + + + + + + + + + + + + + + + + + + + + + + + + + + + + + + + + + + + + + + + + + +Y.Y.Y.Y.Y.=+=+=+ + + + + + + + + + + + + + + + +;+;+;+;+;+;+;+;+ + + + +;+;+;+;+;+;+;+;+;+;+;+;+=+=+=+{+{+>+[+h+4+!+!+;+ +!+[+;+;+;+;+;+;+;+;+;+;+;+;+;+;+;+;+;+;+;+;+;+;+;+;+;+;+;+;+;+;+;+;+;+;+;+;+;+;+;+;+;+{+=+W.=+4+;+J.!+5+4+d.g /.&+:+2+#+{+[+]+&+A.J @ p I.4+4+ +;+[+I.% X [+!+{+[+ +^+!+!+!+{+;+!+}+S.T 4.4.4.3.5.$.- G+|+!+{+;+^+!+{+;+;+;+;+;+;+;+;+;+;+;+;+;+;+;+;+;+;+;+;+;+;+;+;+;+;+!+o.V.;+;+;+;+;+;+;+;+;+;+;+;+;+;+;+;+;+;+;+;+;+;+;+;+;+;+;+;+ +;+!+;+;+;+!+D.0.4+ +;+;+ +[+ +[+ +0.>+ +[+;+;+;+;+;+;+;+;+;+;+;+;+;+;+;+;+;+;+;+;+;+;+;+;+;+;+;+;+;+;+;+;+;+;+;+;+;+;+;+;+;+;+;+;+;+;+;+;+;+;+;+;+;+;+;+;+;+;+;+;+;+;+;+;+;+;+;+;+;+;+;+;+;+;+;+;+;+;+!+!+!+>+[+4+!+^+J . ' & & | & & ^ 2 # * . 3 ^ } } f } & 3 8 H H H l l H H H l ",
"I.I.I.I.I.I.I.I.I.I.I.I.I.I.I.I.I.V.U.V.I..+S.A.u.4.A $.$.+ + k.w.i.2.1.t.i.i.i.w.5.).$.+ e 5.).Y Y Y V V Z ^.Z !.$.).G ).9 . ` Q.Q./.d.Q.(+Q.Q.8.[ 5.I @+v.).).$.} ~ :+2+2+}+}+[+.+[+=+5+C._.4+o.% J H ^ l @ 0.` d.:+:+&+.+>+.+[+i+)+- ' 8.@ d.>+.+V..+>+>+>+>+5+S.)+Z = f _ o.=+W.Y.Y. +I.!+V.V.X .+.+.+ +Y.Y. +J.[+X V. +.+p =+=+Y.W.W.W.Y.Y.V.V.V.V.V.V.V.V.V.V. + + + + + + + + + + + + + + + + + + + + + + + + + + + + + + + + + + + + + + + + + + + + + + + + + + + + + + + + + + + + + + + + + + + + + +Y.Y.Y.Y.=+=+=+=+ + + + + + + + + + + + + + + + +;+;+;+;+;+;+;+;+ + + +;+;+;+;+;+;+;+;+;+;+;+;+;+;+!+{+{+{+{+;+ +{+Z.=+[+!+W. +[+;+;+;+;+;+;+;+;+;+;+;+;+;+;+;+;+;+;+;+;+;+;+;+;+;+;+;+;+;+;+;+;+;+;+;+;+;+;+;+;+ +!+;+V. +!+[+!+U.Z.h+|+/.l b.)+#+{+=+!+}+|+T.d.# : _.S.9+4+}+_.@ X [+=+=+4+ +]+;+!+;+=+;+!+}+.+T 4.4.].3.5.$.= G+|+;+{+;+^+;+=+;+;+;+;+;+;+;+;+;+;+;+;+;+;+;+;+;+;+;+;+;+;+;+;+;+;+!+n.;+ +;+;+;+;+;+;+;+;+;+;+;+;+;+;+;+;+;+;+;+;+;+;+;+;+;+;+;+;+;+;+ +!+[+!+0.V.>+[+;+;+ +!+ +4+o.n.}+ +!+;+;+;+;+;+;+;+;+;+;+;+;+;+;+;+;+;+;+;+;+;+;+;+;+;+;+;+;+;+;+;+;+;+;+;+;+;+;+;+;+;+;+;+;+;+;+;+;+;+;+;+;+;+;+;+;+;+;+;+;+;+;+;+;+;+;+;+;+;+;+;+;+;+;+;+;+;+!+!+!+!+[+!+h+|+_ . 3 } * * & & & ^ 2 ; . . 8 3 5 } = + ^ ^ 8 l H H l 8 m m t m ",
"I.I.I.I.I.I.I.I.I.I.I.I.I.I.I.I.S.I.I.V.V..+&+T.3.m.V W !.;.&   &.^.V x (.A Y Y ).G  .).i . h d.d./.A.Q.Q.Q.>+Q.)+U | & . . h Q.2+`._.`.{+5+`.g+A.; {.b A b 6.P F & @ :+!+=+.+ +>+.+{+=+J.5+X >+=+|+T.. + l./ /././.:+S.&+]+S.]+;+&+)+Z , v.8 b.[+;+ + + + +V.V.L.>+)+Z j R.J o. +;+ +V. +I.;+V.!+X D..+.+ +Y.Y. +V.;+o.0.;+>+p Y.Y.Y.Y.W.W.Y.Y. + + + + + + + + + + + + + + + + + + + + + + + + + + + + + + + + + + + + + + + + + + + + + + + + + + + + + + + + + + + + + + + + + + + + + + + + + + + + + + + +Y.Y.Y.=+=+=+=+=+ + + + + + + + + + + +;+;+ + + +;+;+;+;+;+;+;+;+ + +;+;+;+;+;+;+;+;+;+;+;+;+;+;+^+^+;+Y.Y.{+[+!+.+[+[+ +;+[+!+V.;+;+;+;+;+;+;+;+;+;+;+;+;+;+;+;+;+;+;+;+;+;+;+;+;+;+;+;+;+;+;+;+;+;+;+;+;+;+;+;+!+ +[+4+ + +[+;+!+{+Y.=+}+S./.g &+>+!+{+!+!+^+|+|+_.% % S.]+9+X @ 0.[+=+=+[+>+]+;+!+!+{+!+!+}+V.'.4.].].3.5.$.+ G+|+;+!+;+^+>+;+;+;+;+;+;+;+;+;+;+;+;+;+;+;+;+;+;+;+;+;+;+;+;+;+;+;+;+0.!+;+;+;+;+;+;+;+;+;+;+;+;+;+;+;+;+;+;+;+;+;+;+;+;+;+;+;+;+;+;+;+ +!+!+I.n.^+ +[+;+!+ +;+;+;+n..+>+>+;+;+;+;+;+;+;+;+;+;+;+;+;+;+;+;+;+;+;+;+;+;+;+;+;+;+;+;+;+;+;+;+;+;+;+;+;+;+;+;+;+;+;+;+;+;+;+;+;+;+;+;+;+;+;+;+;+;+;+;+;+;+;+;+;+;+;+;+;+;+;+;+;+;+;+;+;+!+!+!+!+!+[+[+A.2 & & 6 { ~ ; ~ ^ & * * . * ^ D ^ 8 5 = = | | 9 t M M t m m t F t ",
"I.I.I.I.I.I.I.I.I.I.I.I.I.I.I.I..+S.V. +V.S.S.S.1 d V T 7 ;.D @ / b.b.` b.Q.(+Q.{.> &     @ 0.2+Q.0.2+2+{+U.{+Y.@ @ g ^ 2 @ @ o.6+&+X 6+>+^+^+4+(+_ +.7.i.~.k.P G & @ |+>+=+=+=+.+^+D.>+!+.+.+X [+:+)+I ! N.7.= _.0.H.=+{+Y.!+Y. +|+,+].< b+{.` !+;+ + +;+;+;+;+#+;+u+'+Z 6.@ >+D.^+S.S. +V.V.Y.[+_.n.>+.+ +Y.Y.J.;+ +!+p  +>+0.J.W.Y.Y.Y.Y.Y.Y. + + + + + + + + + + + + + + + + + + + + + + + + + + + + + + + + + + + + + + + + + + + + + + + + + + + + + + + + + + + + + + + + + + + + + + + + + + + + + + + +Y.Y.=+=+=+=+=+=+ + + + + + + + +;+;+;+;+;+;+;+;+;+;+;+;+;+;+;+;+ +;+;+;+;+;+;+;+;+;+;+;+;+;+;+;+_+&+;+=+{+;+;+>+^+;+ + +!+;+ +!+;+;+;+;+;+;+;+;+;+;+;+;+;+;+;+;+;+;+;+;+;+;+;+;+;+;+;+;+;+;+;+;+;+;+;+;+;+;+;+;+.+^+.+.+!+!+.+!+^+;+=+#+{+5+^+&+7 {.S.[+1+=+=+[+:+7+S.@ @ J 7+S.h &+[+=+=+!+^+]+;+!+!+{+!+!+}+S.T 4.V V (.5.!.= G+]+;+=+;+^+^+!+;+;+;+;+;+;+;+;+;+;+;+;+;+;+;+;+;+;+;+;+;+;+;+;+;+!+ +n.;+!+ +;+;+;+;+;+;+;+;+;+;+;+;+;+;+;+;+;+;+;+;+;+;+;+;+;+;+;+!+;+;+!+ +0.>+>+}+ + +[+ +!+[+I.n.}+.+^+ +;+;+;+;+;+;+;+;+;+;+;+;+;+;+;+;+;+;+;+;+;+;+;+;+;+;+;+;+;+;+;+;+;+;+;+;+;+;+;+;+;+;+;+;+;+;+;+;+;+;+;+;+;+;+;+;+;+;+;+;+;+;+;+;+;+;+;+;+;+;+;+;+;+;+;+;+!+!+!+!+!+5+o.{ . = } { _ # @ ~ ^ & . *   6 D ` ; / 5 = = | | 9 t M F m 9 n F F F ",
"I.I.V.V.V.V.V.V.I.I.I.I.V.V.V.V.V.V.V.V.V.V.V..+.+&+b.{   _ .   _ j+.+n.>+^+S.  . J @ _ = + /.5+p V.!+V.>+ +V.[+d.)+/ , M 8.. b.[+X D.4+.+!+;+4+A.. $.i.b ;.).I $.& @ 9+=+;+^+.+>+>+.+.+>+>+D.0.X.&+)+(.j '+x.~ >+!+p >+>+.+=+Y. +|+A+l+~.' . /.S..+;+ +;+!+I.|+`.]+A+E+x.. % z.V.V.V.!+V.I.!+V.Z..+p ^+S..+ + + + + +;+p !+.+.+X .+ + + +V..+U. + + + + + + + + + + + + + + + + + + + + + + + + + + + + + + + + + + + + + + + + + + + + + + + + + + + + + + + + + + + + + + + + + + + + + + + +;+;+;+;+;+;+;+;+;+;+;+;+;+;+;+;+;+;+;+;+;+;+;+;+;+;+;+;+;+;+;+;+ + +;+;+;+;+ + +;+;+;+;+;+;+;+;+;+;+;+;+;+;+;+;+;+;+;+;+;+;+;+;+;+;+;+;+;+;+;+;+;+;+;+;+;+;+;+;+;+;+;+;+;+;+;+;+;+;+;+;+;+;+;+;+;+;+;+;+;+;+;+;+;+;+;+;+;+;+;+;+;+;+;+;+;+;+;+;+;+;+;+;+;+!+!+!+[+0.h /.|+9+!+{+>+h+p n.o.6 - !.#+{+3+_+ +=+2+<+1+^+^+>+{+{+8+T.T j.V A ~.k.I 1 G+>+!+=+^+^+!+=+!+!+;+;+;+;+;+;+;+;+;+ +;+;+;+;+;+;+;+;+;+;+!+!+!+!+n.V.!+!+ +;+;+;+;+;+;+;+;+;+;+;+;+;+;+;+;+;+;+;+;+;+;+;+;+;+ +[+!+ +[+ +;+0.!+!+;+;+;+[+ +!+[+_.!+!+ +[+!+;+;+;+;+;+;+;+;+;+;+;+;+;+;+;+;+;+;+;+;+;+;+;+;+;+;+;+;+;+;+;+;+;+;+;+;+;+;+;+;+;+>+>+>+>+>+.+.+.+;+;+;+;+;+;+;+;+;+;+;+;+;+;+;+;+ +;+;+;+;+;+;+!+]+>+;+{+[+4+!+i+` ^ . ; 6 6 ~ ; { * { 2   . { { ` ` H ^ ^ m = & & 9 | M F M t 9 9 m t t ",
"I.I.I.I.I.I.I.V.I.I.I.I.V.V.V.V.V.V.V.V.V.V.V..+o.@   H a ` . & @ r+X I.[+>+D.J 8.l _ b.6.+ J Z.0..+>+V.>+;+V.;+&+j+l.+ b 6.+.2 _.n.4+!+I.[+;+!+&+. b 7.7.8.$.Q $.& @ h+=+;+^+.+.+>+.+V.>+!+>+V.p 7+A+l+3.1 . J [+V..+X ^+>+Y.=+ +S.G+l+!.&   _._.}+ +V.;+;+I.X _.n.b.>   6 o.K.V.D.>+.+.+V..+V..+>+X D..+>+V. + + + +;+0.n.>+.+p .+^+ + +V..+U. + + + + + + + + + + + + + + + + + + + + + + + + + + + + + + + + + + + + + + + + + + + + + + + + + + + + + + + + + + + + + + + + + + + + + + + +;+;+;+;+;+;+;+;+;+;+;+;+;+;+;+;+;+;+;+;+;+;+;+;+;+;+;+;+;+;+;+;+ +;+;+;+;+;+;+ +;+;+;+;+;+;+;+;+;+;+;+;+;+;+;+;+;+;+;+;+;+;+;+;+;+;+;+;+;+;+;+;+;+;+;+;+;+;+;+;+;+;+;+;+;+;+;+;+;+;+;+;+;+;+;+;+;+;+;+;+;+;+;+;+;+;+;+;+;+;+;+;+;+;+;+;+;+;+;+;+;+;+;+;+;+;+!+!+[+^+&+/.% 0.4+{+h+0.% 9+n+&+b.9 @.&+5+#+4+6+^+=+1+^+^+!+{+=+|+A.T ].].].~.5.Z 1 G+>+!+=+^+^+!+=+!+!+!+!+!+!+!+!+!+!+;+;+;+;+;+!+!+;+;+;+;+;+;+!+;+[+0.!+!+;+;+;+;+;+;+;+;+;+;+;+;+;+;+;+;+;+;+;+;+;+;+;+;+;+;+;+;+!+;+;+;+[+0.V.!+;+;+!+;+!+;+[+I.D.!+!+;+!+;+;+;+;+;+;+;+;+;+;+;+;+;+;+;+;+;+;+;+;+;+;+;+;+;+;+;+;+;+;+;+;+;+;+;+;+;+;+;+;+;+;+>+>+>+>+>+.+.+.+;+;+;+;+;+;+;+;+;+;+;+;+;+;+;+;+;+;+;+;+;+;+;+!+^+ +4+[+U.4+i+: ~ ; . ; ; ; ; 2 * * * * . 2 l 6 ` ` H ^ ^ m = & & 9 | M F M t 9 9 m t t ",
"I.I.I.I.I.I.I.I.I.I.I.V.V.V.V.V.V.V.V.V.V.V.V..+0._ D & + l.x.i . &+p >+>+V.>+>+l+| . 8.R.f 6 X I..+.+V..+;+ + +V.j+l.j j A+{.5 n..+[+V.>+!+ +[+]+. < ,.!.L L 5.$.& @ 9+=+;+>+>+.+>+.+V.V.>+>+>+0.d.y+)+ .. _ p I.!+.+_.D.>+[+=+[+.+` . . @ n+.+o.0.V.[+ +_._.o.C.I.d._ _ d.2+X.>+o.>+V..+.+V..+ +>+o._.>+>+V. + + + +;+V.p ^+>+X S.>+ + +V. +V. + + + + + + + + + + + + + + + + + + + + + + + + + + + + + + + + + + + + + + + + + + + + + + + + + + + + + + + + + + + + + + + + + + + + + + + +;+;+;+;+;+;+;+;+;+;+;+;+;+;+;+;+;+;+;+;+;+;+;+;+;+;+;+;+;+;+;+;+;+;+;+;+;+;+;+;+;+;+;+;+;+;+;+;+;+;+;+;+;+;+;+;+;+;+;+;+;+;+;+;+;+;+;+;+;+;+;+;+;+;+;+;+;+;+;+;+;+;+;+;+;+;+;+;+;+;+;+;+;+;+;+;+;+;+;+;+;+;+;+;+;+;+;+;+;+;+;+;+;+;+;+;+;+;+;+;+;+;+!+!+;+;+!+!+W.4+}+]+&+p : I.&+% >+[+[+.+a+d.&.t z.g+{+>+1+1+!+^+}+!+{+{+8+A.'.].2.2.< j Z I G+>+!+=+^+^+!+=+!+!+!+!+!+[+[+!+[+!+!+!+!+!+!+!+!+!+;+;+;+;+;+;+!+!+0.4+;+ +!+;+!+!+;+;+;+;+;+;+;+;+;+;+;+;+;+;+;+;+;+;+;+;+;+;+;+!+ +!+!+;+_.[+!+;+!+!+;+ +[+!+0.>+>+!+!+ +;+!+;+;+;+;+;+;+;+;+;+;+;+;+;+;+;+;+;+;+;+;+;+;+;+;+;+;+;+;+;+;+;+;+;+;+;+;+;+;+;+;+>+>+>+>+>+>+.+.+;+;+;+;+;+;+;+;+;+;+;+;+;+;+;+;+;+;+!+!+;+;+!+!+!+[+;+[+h+:+_ @ . ; ~ ; ; ; ~ 2 * * . . 2 D ` D ` H H ^ ^ m / & & 9 | M t M t 9 9 m t t ",
"I.I.I.I.I.I.I.I.I.I.V.V.V.V.V.V.V.V.V.V.V.V.V.V.`.S.u+t . M s+^.. h d.[+;+ +>+!+l+k.& ).F+,+. /.!+.+V..+.+ + + +`.S.)+3.' 5.+ # [+[+I.V.[+;+ +4+&+* b 7.B [ L k.$.. _ 9+Z.;+;+>+V..+>+.+V.V..+V.>+_.`   * J Q.`. +;+^+>+X !+ + +>+p d._ d.>+U.{+^+_.!+ +n.X S.4+;+ +.+`.`.>+>+.+>+I.V..+.+>+V..+ +V.!+p .+;+ + + + + + +!+p >+^+S._.V. +;+V. + + + + + + + + + + + + + + + + + + + + + + + + + + + + + + + + + + + + + + + + + + + + + + + + + + + + + + + + + + + + + + + + + + + + + + + + + +;+;+;+;+;+;+;+;+;+;+;+;+;+;+;+;+;+;+;+;+;+;+;+;+;+;+;+;+;+;+;+;+;+;+;+;+;+;+;+;+;+;+;+;+;+;+;+;+;+;+;+;+;+;+;+;+;+;+;+;+;+;+;+;+;+;+;+;+;+;+;+;+;+;+;+;+;+;+;+;+;+;+;+;+;+;+;+;+;+;+;+;+;+;+;+;+;+;+;+;+;+;+;+;+;+;+;+;+;+;+;+;+;+;+;+;+;+;+;+;+;+!+!+!+;+;+;+!+[+W.;+4+]+|+D.:   d.h+ +[+4+4+0.<+8.i ` `.5+{+3+[+^+^+!+{+{+4+A.'.].2.i.< ! j Z G+>+!+=+^+^+!+{+!+;+;+!+!+!+!+!+[+!+!+!+!+!+!+!+!+!+!+!+!+!+!+!+[+V.o.4+;+ +!+;+!+!+;+;+;+;+;+;+;+;+;+;+;+;+;+;+;+;+;+;+;+;+;+;+;+[+V.!+4+n.D.[+;+!+!+;+!+;+[+I.0.[+V.!+;+;+;+!+;+;+;+;+;+;+;+;+;+;+;+;+;+;+;+;+;+;+;+;+;+;+;+;+;+;+;+;+;+;+;+;+;+;+;+;+;+;+;+;+>+>+>+>+>+>+>+>+;+;+;+;+;+;+;+;+;+;+;+;+;+;+;+;+;+;+!+!+;+;+!+!+!+!+[+9+:+_ @ . ~ ~ ~ ; ~ 2 ^ ; * . . . D ` D l ` H H ^ ^ m } & & 9 | M t M t 9 9 m t t ",
"I.I.I.I.I.I.I.I.V.V.V.V.V.V.V.V.V.V.V.V.V.V.V.V.`.&+k+{.= } F+l+6 _ &+.+Z.{+V.I.)+x.d d {.l   T.!+V.V..+V. + + +Z.]+G+A+1 . . _ V.!+>+>+!+;+[+!+&+  b v.W +.).).$.. _ 9+Z.;+ +>+V..+.+.+.+>+>+.+>+V.@ /.d.0.>+g+^+;+;+}+0.0.^+}+_.n.2+>+2+Z.L.=+V.!+X >+p ^+;+ +.+ +=+`.`.`.=+ +.+>+o.>+V..+V..+;+V.[+0.0.!+>+ + + +;+V.!+_.o.^+}+p  +V.;+ + + + + + + + + + + + + + + + + + + + + + + + + + + + + + + + + + + + + + + + + + + + + + + + + + + + + + + + + + + +;+;+;+;+;+;+;+;+;+;+;+;+;+;+;+;+;+;+;+;+;+;+;+;+;+;+;+;+;+;+;+;+;+;+;+;+;+;+;+;+;+;+;+;+;+;+;+;+;+;+;+;+;+;+;+;+;+;+;+;+;+;+;+;+;+;+;+;+;+;+;+;+;+;+;+;+;+;+;+;+;+;+;+;+;+;+;+;+;+;+;+;+;+;+;+;+;+;+;+;+;+;+;+;+;+;+;+;+;+;+;+;+;+;+;+;+;+;+;+;+;+;+;+;+;+;+;+;+;+;+;+;+;+;+;+;+!+!+!+!+;+;+;+!+=+[+[+>+>+>+>+4+d.@ o.h+!+4+;+n.g+9+x...{.&+}+]+[+>+^+;+{+{+4+A.T ].].i.2.Z d Z G+>+!+=+^+^+!+{+!+!+;+!+!+!+!+!+!+!+!+!+!+!+!+!+!+!+!+!+!+!+!+!+[+o.;+!+[+;+!+!+!+!+!+!+;+;+;+;+;+;+;+;+;+;+;+;+;+;+;+;+;+;+;+;+;+[+ +!+!+_.[+!+;+!+[+ +[+[+;+n..+[+>+[+;+;+;+!+;+;+;+;+;+;+;+;+;+;+;+;+;+;+;+;+;+;+;+;+;+;+;+;+;+;+;+;+;+;+;+;+;+;+;+;+;+;+;+;+>+>+>+>+>+>+>+>+;+;+;+;+;+;+;+;+;+;+;+;+;+;+;+;+;+!+!+!+;+!+!+!+!+4+n+T.  ; . = ~ ~ ; ; ~ 3 ~ ; * . . . ` ` D l ` H H 3 & 9 } & & 9 | F t M t m 9 m t t ",
"V.V.I.I.I.I.I.I.V.V.V.V.V.V.V.V.V.V.V.V.V.V.V.V.U.&+)+x.m . 8.> @ /..+.+Y.;+I.>+o+F+,+v   @ @ T..+V.V..+V.V. + + +&+/.. &   A.S.V..+>+!+.+;+[+!+T.. b 7.B +.6.$.).& h h+Z.!+ +>+>+.+V.V.V..+>+>+!+>+p ]+h+S.o.=+V.4+I.!+4+p &+S.p [+4+V..+Z.{+Y.>+.+0.: .+S..+V.!+;+Z.U.L.Z.>+V.V.!+o..+V..+.+.+ + + +.+X !+.+ + + +;+V.;+D._.>+>+X .+.+V..+;+W. + + + + + + + + + + +;+ + + + + + + + + + + + + + + + + + + + + + + + + + + + + + + + + + + + + + + + + + + + +;+;+;+;+;+;+;+;+;+;+;+;+;+;+;+;+;+;+;+;+;+;+;+;+;+;+;+;+;+;+;+;+;+;+;+;+;+;+;+;+;+;+;+;+;+;+;+;+;+;+;+;+;+;+;+;+;+;+;+;+;+;+;+;+;+;+;+;+;+;+;+;+;+;+;+;+;+;+;+;+;+;+;+;+;+;+;+;+;+;+;+;+;+;+;+;+;+;+;+;+;+;+;+;+;+;+;+;+;+;+;+;+;+;+;+;+;+;+;+;+;+;+;+;+;+;+;+;+;+;+;+;+;+;+;+;+!+!+!+!+!+;+!+!+;+!+!+;+[+4+[+[+|+]+p # .+;+;+I.{+5+i+)+..^.)+2+[+}+}+!+[+[+7+A.T 4.].i.i.~.d (.G+>+[+{+^+^+!+{+!+!+!+!+!+!+!+;+;+;+;+;+!+!+!+!+!+!+!+!+!+[+[+[+!+0.[+ +[+[+!+[+!+!+!+!+!+!+!+!+;+;+;+;+;+;+;+;+;+;+;+;+;+;+;+;+!+;+!+[+n.I.[+;+;+!+[+ +[+[+I.n.4+>+>+!+;+!+;+!+;+;+;+;+;+;+;+;+;+;+;+;+;+;+;+;+;+;+;+;+;+;+;+;+;+;+;+;+;+;+;+;+;+;+;+;+;+;+;+;+>+>+>+>+>+>+>+>+;+;+;+;+;+;+;+;+;+;+;+;+;+!+!+!+!+!+!+!+!+!+[+[+4+i+d.@ ~ . 3 & . ; ~ ; . . ^ l { .   * ` D D D ` H U 8 & 9 9 = & 9 ^ F t M t m 9 m t t ",
"V.V.V.I.I.I.I.I.V.V.V.V.V.V.V.V.V.V.V.V.V.V.V.V.Z.S.f+F+)+l .   @ d..+[+=+V.D..+.+/.} . @ 0.!+S.V.V.V..+V.V. +;+S.n.@ @ X S.S._+[+.+V..+>+;+;+[+A.. Q ,.B f 6.).).& h h+Z.!+V.>+>+>+.+V.V.V..+.+.+V.p p ^+4+0.4+^+>+[+!+[+D.X ` >+^+V. +!+ + +;+!+>+.+% >+^+>+!+Z.V.V.>+>+;+>+.+V.>+V.I..+.+.+.+ +;+.+^+X I.>+.+;+ +;+ +;+ +X >+.+D.0.>+V..+ + + + + + + + + + + +;+;+;+;+ + + + + + + + + + + + + + + + + + + + + + + + + + + + + + + + + + + + + + + + + + + +;+;+;+;+;+;+;+;+;+;+;+;+;+;+;+;+;+;+;+;+;+;+;+;+;+;+;+;+;+;+;+;+;+;+;+;+;+;+;+;+;+;+;+;+;+;+;+;+;+;+;+;+;+;+;+;+;+;+;+;+;+;+;+;+;+;+;+;+;+;+;+;+;+;+;+;+;+;+;+;+;+;+;+;+;+;+;+;+;+;+;+;+;+;+;+;+;+;+;+;+;+;+;+;+;+;+;+!+!+;+;+;+;+;+;+;+;+;+;+;+;+;+;+;+;+;+;+;+!+!+!+!+!+!+!+!+;+!+!+!+!+!+!+!+>+ +!+[+;+ +!+;+[+.+9+&+@ X d.]+}+{+#+[+k+x.8.T.>+^+4+[+5+[+7+A.'.j.2.2.~.I j k.G+>+[+{+^+^+!+{+!+!+!+!+!+!+!+;+;+;+!+!+!+!+!+!+!+!+!+!+!+!+!+!+;+n.[+ +[+[+!+!+!+!+!+!+!+!+!+!+!+!+!+!+!+;+;+;+;+;+;+;+;+;+;+;+!+;+!+[+_.[+;+!+!+;+[+;+[+!+n.V.!+>+.+;+!+;+!+!+;+;+;+;+;+;+;+;+;+;+;+;+;+;+;+;+;+;+;+;+;+;+;+;+;+;+;+;+;+;+;+;+;+;+;+;+;+;+;+;+>+>+>+>+>+>+>+>+;+;+;+;+;+;+;+;+;+;+;+!+!+!+!+!+!+!+!+!+!+[+[+[+7+X @ ~ ; 8 . ^ ; ; ^ ~ . . 2 ` 2 . 6 6 ` D ` l ` H U l & 9 m - & 9 ^ F t M t m m m t t ",
"V.V.I.I.I.I.I.I.V.V.V.V.V.V.V.V.V.V.V.V.V.V.V.V.Y.S.)+l.D   @ /.7+.+>+Z.J..+>+&+C.@ . ` S.L.{+.+V..+.+V.V.V.V.;+_+@ 2+`.`.`.^+ +V.>+>+V.>+!+ +4+A.^ 7.7.i.f 6.$.$.. h 9+Z.!+V.^+.+.+>+>+>+.+.+>+>+I.0.D.n.}+S.o.^+.+ +!+ +4+o.J 8+>+^+ +;+ +.+&+V..+X n.0.>+V..+`..+>+_+.+.+.+Z..+V.!+n.>+.+V.>+ + +>+.+n.0.!+Z.;+ + +;+;+;+p >+^+^+: 2+>+.+I.!+ + + + + + + + +;+;+;+;+;+ + + +;+;+;+;+;+;+;+;+ + + + + + + + + + + + + + + + + + + + + + + + + + + + + + + + +;+;+;+;+;+;+;+;+;+;+;+;+;+;+;+;+;+;+;+;+;+;+;+;+;+;+;+;+;+;+;+;+;+;+;+;+;+;+;+;+;+;+;+;+;+;+;+;+;+;+;+;+;+;+;+;+;+;+;+;+;+;+;+;+;+;+;+;+;+;+;+;+;+;+;+;+;+;+;+;+;+;+;+;+;+;+;+;+;+;+;+;+;+;+;+;+;+;+;+;+;+;+;+;+;+;+;+!+!+;+;+;+;+;+;+;+;+;+;+;+;+;+;+;+;+;+;+;+!+!+!+!+!+!+!+!+;+!+!+!+!+!+!+!+>+4+[+;+=+{+{+{+!+4+^+&+j+d.@ A.|+6+6+{+#+2+)+&.I..+}+[+[+{+7+A.T 4.].2.~.Z Z k.G+>+[+{+^+^+!+{+!+;+;+;+!+!+!+;+!+!+!+!+!+!+;+;+!+!+!+!+!+!+!+!+ +I.!+;+!+!+!+;+>+!+!+!+!+!+!+!+!+!+!+!+!+!+!+!+;+;+;+;+;+;+;+;+!+!+;+!+0.[+!+!+!+ +!+!+!+;+_.4+.+4+!+ +4+ +!+!+;+;+;+;+;+;+;+;+;+;+;+;+;+;+;+;+;+;+;+;+;+;+;+;+;+;+;+;+;+;+;+;+;+;+;+;+;+;+;+;+>+>+>+>+>+>+>+>+;+;+;+;+;+;+;+;+;+;+;+!+!+!+!+!+!+!+[+[+[+[+[+4+X # @ / = & 3 . ^ ; ; ; . . 3 H 2 { ` D ` D ` { ` H U l & } m } & | ^ F t M t m m m t t ",
"I.V.V.V.V.V.V.V.I.V.V.V.V.V.V.V.V.V.V.V.V.V.V.V..+>+_.# @ : `.L.>+.+V.I.>+V.]+S.: 0.`.`..+;+>+ +V..+.+;+S..+V.>+/._.>+>+.+.+V..+ + + +;+;+;+!+[+A.. W ,.k.k.).Z t . h 9+>+>+.+V. + + + + + + + + +S._.|+p >+>+0.[+ +>+.+.+|+o.@ >+>+[+V..+!+V..+>+.+p 4+p  +;+;+ +;+;+ + + + + + +;+ + +o. +;+ +!+W.;+;+;+: >+>+=+Y.;+!+S..+o.d.;+[+_. +!+V.!+;+;+;+;+;+;+;+;+;+;+;+;+;+ + + + + + + + +;+;+;+;+ + +;+;+;+;+ + +;+;+ + + + +;+;+;+;+;+;+;+;+;+;+;+;+;+;+;+;+;+;+;+;+;+;+;+;+;+;+;+;+;+;+;+;+;+;+;+;+;+;+;+;+;+;+;+;+;+;+;+;+;+;+;+;+;+;+;+;+;+;+;+;+;+;+;+;+;+;+;+;+;+;+;+;+;+;+;+;+;+;+;+;+;+;+;+;+;+;+;+;+;+;+;+;+;+;+;+;+;+;+;+;+;+;+;+;+;+;+;+;+;+;+;+;+;+;+;+;+;+;+;+;+;+;+;+;+;+!+!+;+;+;+;+;+;+;+;+;+;+;+;+;+;+;+;+;+;+;+;+;+;+;+;+;+;+;+!+!+!+!+!+!+!+!+!+!+!+!+!+!+!+!+!+[+!+!+!+2+0._.` A.|+8+}+[+!+=+M.O.<+5+g+{+x+A.V j.].w.].Z G R.y+:+!+{+^+^+;+{+!+!+!+!+!+!+;+;+!+!+!+!+!+!+!+!+!+;+!+!+;+!+[+!+n.[+!+;+[+!+!+;+!+!+!+!+!+!+!+!+;+!+!+!+!+!+!+!+!+!+!+!+!+!+!+!+}+ +h+_.}+^+>+^+.+}+.+>+[+0.^+^+;+!+!+!+!+!+!+!+;+;+;+;+;+;+;+;+;+;+;+;+;+;+;+;+;+;+;+;+;+;+;+;+;+;+;+;+;+;+;+;+;+;+;+;+;+;+;+;+;+;+;+;+;+;+;+;+;+;+;+;+;+;+;+;+!+;+ +;+!+!+!+!+}+;+[+[+!+n+&+_ . ^ ^ ^ ^ & & ^ ^ * * *   ^ | M } 8 ` D J D D l F U U m ^ 8 8 . & | | & ^ ^ & & ^ . ; ; ",
"I.I.I.V.V.V.V.V.V.V.V.V.V.V.V.V.V.V.V.V.V.V.V.V.V.o.p n.n.Q.2+Z..+.+.+ + +.+&+_.n.Q.2+>+.+.+ + +.+.+V.;+S.>+.+>+J S.>+V..+.+>+V. + +;+;+;+;+!+[+d.+ !.V 5.6.5.Z M . J 9+>+>+.+.+ + + + + + + + +;+.+p |+S.p n+I.n.;+V.}+>+.+0.S.X [+V.!+>+I.!+.+[+p D.>+V._.;+ + + + + + +;+ + + + +;+ +I. +;+ + + +;+ +;+0.D.>+=+!+ +;+.+>+S.X !+[+n.n.;+!+;+ +;+;+;+;+;+;+;+;+;+;+;+;+ + + + + + + + + +;+;+;+ + +;+;+;+;+ + +;+;+ + + + +;+;+;+;+;+;+;+;+;+;+;+;+;+;+;+;+;+;+;+;+;+;+;+;+;+;+;+;+;+;+;+;+;+;+;+;+;+;+;+;+;+;+;+;+;+;+;+;+;+;+;+;+;+;+;+;+;+;+;+;+;+;+;+;+;+;+;+;+;+;+;+;+;+;+;+;+;+;+;+;+;+;+;+;+;+;+;+;+;+;+;+;+;+;+;+;+;+;+;+;+;+;+;+;+;+;+;+;+;+;+;+;+;+;+;+;+;+;+;+;+;+;+;+;+!+!+!+!+;+;+;+;+;+;+;+;+;+;+;+;+;+;+;+;+;+;+;+;+;+;+;+;+;+;+!+!+!+!+!+!+!+!+!+!+!+!+!+!+!+!+[+;+;+[+4+[+I.`.d.X _.&+h+}+}+[+0+b.b.)+)+)+b.A.].4.].4.4.(.1 ,+k+>+!+[+}+}+!+[+!+!+!+!+!+!+;+;+!+!+!+!+!+!+!+!+!+;+!+!+;+;+[+[+n.!+!+;+!+;+;+;+!+!+!+!+!+!+!+!+;+!+!+!+!+!+!+!+!+!+!+!+!+!+!+!+^+4+I.n.}+^+^+^+>+;+[+>+.+0.}+>+!+!+!+!+!+!+!+!+!+!+!+;+;+;+;+;+!+!+!+;+;+;+;+;+;+;+;+;+;+;+;+;+;+;+;+;+;+;+;+;+;+;+;+;+;+;+;+;+;+;+;+;+;+;+;+;+;+;+;+;+;+;+;+!+;+!+[+!+!+!+!+;+ +4+4+;+n+&+_ . & ^ ^ ^ 3 ^ & ^ & .   2 l {.t 9 t 9 ` l J ` D 3 U {.U m & ^ 8 3 & | 9 9 m t m m l l 8 l ",
"I.I.I.I.V.V.V.V.V.V.V.V.V.V.V.V.V.V.V.V.V.V.V.V.^+o.X :+.+2+V.V..+S..+;+V.>+&+_ >+>+>+V.V.V..+.+.+.+V. +S.>+>+.+_ :+.+V.>+V.>+V. + +;+;+;+;+!+[+d./ ,.A ).).5.(.M . J 9+>+>+.+.+ + + + + + + +;+!+>+p &+|+X o.4+n.>+!+;+ +>+p 2+0.n..+!+>+>+.+.+>+p >+>+[+_.D.[+;+ + + +;+;+ + +;+ +;+ +V.I.;+ + +;+ + +;+V.X >+ +[+ + +;+!+>+p [+!+;+X !+!+ + +;+;+;+;+;+;+;+;+;+;+;+;+;+ + + + + + + + + + + + +;+;+;+;+;+;+ +;+;+;+ + +;+;+;+;+;+;+;+;+;+;+;+;+;+;+;+;+;+;+;+;+;+;+;+;+;+;+;+;+;+;+;+;+;+;+;+;+;+;+;+;+;+;+;+;+;+;+;+;+;+;+;+;+;+;+;+;+;+;+;+;+;+;+;+;+;+;+;+;+;+;+;+;+;+;+;+;+;+;+;+;+;+;+;+;+;+;+;+;+;+;+;+;+;+;+;+;+;+;+;+;+;+;+;+;+;+;+;+;+;+;+;+;+;+;+;+;+;+;+;+;+;+;+;+;+;+!+!+!+!+;+;+!+!+!+!+!+!+!+!+!+!+!+!+!+!+!+!+!+!+!+!+!+!+!+!+!+!+!+!+!+!+!+!+!+!+!+!+!+!+!+!+[+!+;+!+[+I.>+4+n+]+_.p d.|+9+]+#+4+A.3.u.j.< f 4.j.].].4.5.. R.:+S. +{+!+^+;+{+!+!+!+!+!+!+!+!+;+;+;+;+;+;+;+;+!+;+!+!+;+;+!+!+n.!+!+;+!+;+;+!+!+!+!+!+!+!+!+!+!+!+!+!+!+!+!+!+!+!+!+!+!+!+!+!+>+h+0.;+}+^+^+^+^+^+!+[+0..+^+^+!+!+!+!+!+;+;+;+!+!+;+;+;+;+;+;+!+!+!+!+!+!+!+!+;+;+;+;+;+;+;+;+;+;+;+;+;+;+;+;+;+;+;+;+;+;+;+;+!+;+;+;+;+;+;+!+;+;+;+;+!+!+!+!+;+!+[+;+;+[+[+[+4+ +!+x+o.@ * . ^ 3 ^ ^ 3 ^ & & . . 8 D D {.F 9 m m U l D D H l {.t 9 ^ & 3 5 = & | 9 m M U M U t t m M ",
"I.I.I.I.I.V.V.V.V.V.V.V.V.V.V.V.V.V.V.V.V.V.V.V.S.0.0.S..+S..+ +.+.+V.V.I.>+S.J ;+ +V.V.V.`.`.`..+.+V. +V.>+>+D.J :+S.>+!+V. +>+ + + +;+;+;+!+[+b.9 ,.].Z ).).(.+.. ` 4+>+>+>+>+;+ + + + + +;+;+ +4+n.0.]+>+p [+Z.0.[+ + +4+X 2+[+p !+ +[+;+ +!+0.D.>+!+.+ +_.;+!+;+ + +;+;+ +;+;+ +;+ + +I. +;+ +;+ +;+ + +p >+.+;+;+ + + +[+_.V.;+[+X ;+;+ +!+;+;+;+;+;+;+;+;+;+;+;+;+;+;+ + + + + + + + + + +;+;+;+;+;+;+;+;+;+;+;+;+;+;+;+;+;+;+;+;+;+;+;+;+;+;+;+;+;+;+;+;+;+;+;+;+;+;+;+;+;+;+;+;+;+;+;+;+;+;+;+;+;+;+;+;+;+;+;+;+;+;+;+;+;+;+;+;+;+;+;+;+;+;+;+;+;+;+;+;+;+;+;+;+;+;+;+;+;+;+;+;+;+;+;+;+;+;+;+;+;+;+;+;+;+;+;+;+;+;+!+!+;+;+;+!+!+;+;+;+;+;+;+;+;+;+;+;+;+;+;+;+;+;+;+;+;+!+!+!+!+!+!+;+!+!+!+!+!+!+!+!+!+!+!+!+!+!+!+!+!+!+!+!+!+!+!+!+!+!+!+!+!+!+!+!+!+!+!+!+!+!+!+!+;+[+[+!+[+o.!+;+.+]+h+&+X X &+j+5+g+<+x.V , R.;.4.j.].4.4.5.+ ,+r+>+{+{+!+]+^+[+!+!+!+!+!+!+!+!+;+;+;+;+;+;+;+;+!+!+!+!+;+[+!+V.I.!+[+!+!+!+!+[+!+!+!+!+!+!+!+!+!+!+!+!+!+!+!+!+!+!+!+!+!+!+[+[+^+ +0.4+^+}+^+^+^+}+[+.+0.4+^+^+!+!+!+!+!+;+;+;+;+;+;+;+;+;+;+;+;+;+;+;+!+!+!+!+!+!+!+!+!+!+!+!+!+!+!+!+!+!+!+!+;+;+;+;+;+;+;+;+!+!+;+;+;+;+!+!+!+!+!+!+!+!+!+!+;+;+;+!+!+[+[+!+[+9+h+d.@   . 9 3 3 ^ ^ ^ & . . | H {.` 8 U t n n m {.D D D H H m 9 } = = 5 / . & | 9 m F F m t t m M M ",
"I.I.I.I.V.V.V.V.V.V.V.V.V.V.V.V.V.V.V.V.V.V.V.V.&+_.o.S.!+V.>+I.S.>+V.V.V..+0.d.>+.+V. +.+`.`.`.V..+V. +.+.+>+0.0.&+.+!+.+ +.+^+ + + +;+;+;+!+4+b.n ].j.~.6.).~.+.. ` 4+>+>+.+>+;+ + + + + +;+;+ +4+>+p 9+^+n.0.4+0.V.[+!+.+X 2+}+I._.4+.+>+>+4+p >+[+V.!+!+0.0.!+;+;+;+;+ + +;+;+ +;+ +;+I.V.;+ +;+ +;+;+!+0.o.[+V.!+;+;+ +>+D._.4+>+n.n.^+.+^+;+;+;+;+;+;+;+;+;+;+;+;+;+;+;+;+ + + + + + + +;+;+;+;+;+;+;+;+;+;+;+;+;+;+;+;+;+;+;+;+;+;+;+;+;+;+;+;+;+;+;+;+;+;+;+;+;+;+;+;+;+;+;+;+;+;+;+;+;+;+;+;+;+;+;+;+;+;+;+;+;+;+;+;+;+;+;+;+;+;+;+;+;+;+;+;+;+;+;+;+;+;+;+;+;+;+;+;+;+;+;+;+;+;+;+;+;+;+;+;+;+;+;+;+;+;+;+;+;+;+!+!+!+;+;+!+!+!+!+;+;+;+;+;+;+;+;+;+;+;+;+;+;+;+;+;+;+!+!+!+!+!+!+!+!+!+!+!+!+!+!+!+!+!+!+!+!+!+!+!+!+!+!+!+!+!+!+!+!+!+!+!+!+!+!+!+!+!+!+!+!+!+!+!+!+;+[+[+!+[+n.[+!+}+4+}+9+9+o.` /.2+|+8+j+_+/.A+1.].4.].j.].(.k ,+r+}+{+{+!+|+^+[+!+!+!+!+!+!+!+!+;+;+;+;+;+;+;+;+;+!+!+;+;+4+!+n.;+!+[+;+!+[+!+[+!+!+!+!+!+!+!+!+!+!+!+!+!+!+!+!+!+!+!+!+!+[+[+[+}+0. +}+^+}+^+^+}+^+4+0.>+[+}+^+[+[+!+!+!+!+!+!+!+!+!+!+!+!+!+!+!+!+!+!+!+!+!+!+!+!+!+!+!+!+!+!+!+!+!+!+!+!+!+!+;+;+;+;+;+;+;+;+!+!+!+!+!+!+!+!+!+!+!+!+!+!+!+!+!+!+[+4+[+;+;+!+4+x+_.  * . = } 3 3 3 ^ ^ & . . {.{.{.U l {.P k P m U l D ` H } & m +.m & = 5 / & | | 9 t t m m 9 } {.t ",
"I.V.V.V.V.V.V.V.V.V.V.V.V.V.V.V.V.V.V.V.V.V.V.V.]+_.o..+>+V.S.S.S.>+V.V..+.+p S.>+.+ + +V.V.V.`.V.V.V. +.+.+>+X Q..+>+>+V.;+>+&+;+ + + +;+;+[+4+/.G ].t.~.6.).~.{.. /.}+!+>+.+>+ + + + + +;+;+;+!+S.4+_.S.^+^+X .+[+n.^+4+D.0.:+>+h+_.D.>+^+>+D.0.V.[+.+!+;+ +_.V. +;+;+ + + + + +;+;+ +;+V.V. + +;+ + + +[+S.p 4+.+>+;+!+;+Z.{+p h+.+>+p h+.+>+;+;+;+;+;+;+;+;+;+;+;+;+;+;+;+;+ + + + +;+;+;+;+;+;+;+;+;+;+;+;+;+;+;+;+;+;+;+;+;+;+;+;+;+;+;+;+;+;+;+;+;+;+;+;+;+;+;+;+;+;+;+;+;+;+;+;+;+;+;+;+;+;+;+;+;+;+;+;+;+;+;+;+;+;+;+;+;+;+;+;+;+;+;+;+;+;+;+;+;+;+;+;+;+;+;+;+;+;+;+;+;+;+;+;+;+;+;+;+;+;+;+;+;+;+;+;+;+;+;+;+!+!+!+!+;+;+!+!+!+!+;+;+!+!+!+!+!+!+!+!+!+!+!+!+!+!+!+!+!+!+!+!+!+!+!+!+!+!+!+!+!+!+!+!+!+!+!+!+!+!+!+!+!+!+!+!+!+!+!+!+!+!+!+!+!+!+!+!+!+!+!+!+!+!+!+!+[+;+;+[+4+n.[+[+;+ +^+^+]+h+9+S.U A.}+5+g+d.{.W 4.4.4.w.].Z Q l+a+>+=+=+^+|+>+;+!+!+!+!+!+!+!+!+!+!+!+!+!+!+!+!+!+!+!+;+!+4+;+n.[+!+!+;+;+[+!+!+!+!+!+!+!+!+!+!+!+!+!+!+!+!+!+!+!+!+!+!+[+[+[+[+;+0.4+^+^+}+^+^+}+}+>+n.4+[+}+^+[+[+[+[+[+[+[+[+[+[+[+[+[+[+!+!+[+[+[+!+!+!+;+;+!+!+!+!+!+!+!+!+!+!+!+!+!+!+!+!+!+!+!+!+!+!+!+!+!+!+!+!+!+!+!+!+!+!+!+!+!+!+!+!+!+!+[+[+!+!+4+n+a+J @ ; ^ } & 3 3 8 3 3 3 & & ^ l.8.U H l 8.P e P m U 3 6 l l = } U {.t = = 5 / & ^ | 9 t m 9 m 9 } l.t ",
"V.V.V.V.V.V.V.V.V.V.V.V.V.V.V.V.V.V.V.V.V.V.V.V.&+X n.`.V.V.S.>+.+.+.+V..+2+% &+V. +V.V.V.V..+.+V.V.V. +.+.+>+p Q.>+2+V.>+>+]+&+;+ +;+;+;+;+[+4+{.k 4.j.~.).6.~.{.. /.}+!+>+.+>+ + +;+;+;+;+;+;+[+S.4+S.X 9+^+D._.4+o.S.8+S.d.7+}+.+4+p }+.+}+X .+>+>+>+.+;+[+I.n.V.!+;+ + +;+ + +!+ + +;+ +I. + +;+ + + +!+>+X S.^+>+>+;+;+>+{+X >+>+4+X >+>+>+;+;+;+;+;+;+;+;+;+;+;+;+;+;+;+;+;+;+;+;+;+;+;+;+;+;+;+;+;+;+;+;+;+;+;+;+;+;+;+;+;+;+;+;+;+;+;+;+;+;+;+;+;+;+;+;+;+;+;+;+;+;+;+;+;+;+;+;+;+;+;+;+;+;+;+;+;+;+;+;+;+;+;+;+;+;+;+;+;+;+;+;+;+;+;+;+;+;+;+;+;+;+;+;+;+;+;+;+;+;+;+;+!+!+!+!+!+!+!+!+!+!+!+!+!+!+!+!+;+;+;+!+!+!+!+!+;+!+!+!+!+!+!+;+!+!+!+!+!+!+!+!+!+!+!+!+!+!+!+!+!+!+!+!+!+!+!+!+!+!+!+!+!+!+!+!+!+!+!+!+!+!+!+!+!+!+!+!+!+!+!+!+!+!+!+!+!+!+!+!+!+!+!+!+!+!+!+!+4+;+;+[+!+o.!+[+!+4+}+}+4+}+^+h+0+/.0.V.7+0+6.(.j.4.4.j.].(.k A+7+>+{+[+}+|+^+[+!+!+!+!+!+!+!+!+!+!+!+!+!+!+!+!+!+!+!+!+!+[+ +o.[+;+[+!+;+[+;+!+!+!+!+!+!+!+!+!+!+!+!+!+!+!+!+[+!+!+!+!+[+[+[+[+n.V.}+}+^+}+^+^+^+4+n.>+!+4+^+^+[+[+[+[+[+[+[+[+}+}+}+}+}+^+^+^+4+}+}+}+^+^+^+^+!+!+!+!+!+!+!+!+!+!+!+!+!+!+!+!+!+!+!+!+!+!+!+!+!+!+!+!+!+!+!+!+!+!+!+!+!+!+!+!+!+[+!+!+[+4+4+!+h 2 . = } / 8 * 8 3 & ^ 8 3 8 H 8.{.+.H m {.L e L n t ; ; 8 t t m +.+.m = / / = & & & 9 m m 9 m l 8 8.l ",
"V.V.V.V.V.V.V.V.V.V.V.V.V.V.V.V.V.V.V.V.V.V.V.V.&+X D.`.`.`.Q.Q..+I.>+.+V.2+% (+V. + +V. + + +I.V.V.V.V..+.+^+p Q.2+`.V.4+.+.+]+ + +;+!+!+!+[+4+U k 4.'.~.Q 7.$.{.. /.}+!+>+V.>+ + +;+;+;+;+;+ + +4+>+]+X >+}+4+_.S.|+S.8+/.J :+>+^+}+>+p h+>+X >+!+!+V.[+;+;+!+_.D.!+;+ +;+;+ + +!+ +;+;+;+I.V. + + +!+;+;+}+D._.4+>+>+ + +{+{+n.n.9+^+0.o.>+>+;+;+;+;+;+;+;+;+;+;+;+;+;+;+;+;+;+;+;+;+;+;+;+;+;+;+;+;+;+;+;+;+;+;+;+;+;+;+;+;+;+;+;+;+;+;+;+;+;+;+;+;+;+;+;+;+;+;+;+;+;+;+;+;+;+;+;+;+;+;+;+;+;+;+;+;+;+;+;+;+;+;+;+;+;+;+;+;+;+;+;+;+;+;+;+;+;+;+;+;+;+;+;+;+;+;+;+;+;+;+;+;+!+!+!+!+!+!+!+!+!+!+!+!+!+!+!+!+;+;+;+!+!+!+!+!+;+!+!+!+!+!+!+;+!+!+!+!+!+!+!+!+!+!+!+!+!+!+!+!+!+!+!+!+!+!+!+!+!+!+!+!+!+!+!+!+!+!+!+!+!+!+!+!+!+!+!+!+!+!+!+!+!+!+!+!+!+!+!+!+!+!+!+!+!+!+!+!+!+>+[+!+.+I.[+;+[+;+!+!+!+!+[+[+6+a+&+` 7.,+k.m.j.4.4.4.].5.1 F+7+!+[+{+>+]+^+^+!+!+!+!+!+!+!+!+!+!+!+!+!+!+!+!+[+;+;+[+[+!+ +I.[+ +[+[+;+[+;+!+!+!+!+!+!+!+!+!+!+!+!+!+!+!+!+[+!+!+!+!+[+[+[+[+_.n+;+4+}+^+^+}+}+}+0.4+[+!+4+^+!+!+!+!+!+!+!+!+^+^+^+^+^+^+^+^+}+}+}+}+}+}+4+4+!+!+!+!+!+!+!+!+!+!+!+!+!+!+!+!+!+!+!+!+!+!+!+!+!+!+!+!+!+!+!+!+!+!+!+!+!+!+!+!+!+[+[+[+i+i+D.p * . } 9 - } 6 6 8 ^ . & 8 l H U l.8.U U m {.v e P [ } . ^ U {.{.9 M +.M = + = / & & & | m 9 9 m ; . 3 . ",
"S.S.S.S.S.S.S.S.S.S.S.S.S.S.S.S.V.V.V.V.V.V.V.V._+X d.(+.+.+ +I..+.+.+V.!+.+: &+.+V.V.V.V.V.V.V..+S..+.+V.>+]+h >+>+>+^+>+.+>+.+>+>+.+>+>+>+>+9+Q e !.Q e $.k.!.$.. 0.^+]+]+>+Z.>+>+>+>+>+>+>+!+&+!+=+{+T.b.a+1+5+J 0+Q.>+@.g 2+#+&+_+Z.0.T.-.S.[+>+.+!+>+V.>+>+[+p !+ +[+ +V.;+;+;+ + +;+>+ +I. +;+!+;+ +;+!+!+p 4+]+.+>+^+;+!+^+p }+^+>+X >+4+>+>+>+>+>+>+>+>+;+;+;+;+;+;+;+;+;+;+;+;+;+;+;+;+;+;+;+;+;+;+;+;+;+;+;+;+;+;+;+;+;+;+;+;+;+;+;+;+;+;+;+;+;+;+;+;+;+;+;+;+;+;+;+;+;+;+;+;+;+;+;+;+;+;+;+;+;+;+;+;+;+;+;+;+;+;+;+;+;+;+;+;+;+;+;+;+;+;+;+;+;+;+;+;+;+;+;+!+!+;+;+;+!+!+!+!+!+!+!+!+;+;+;+;+;+;+;+;+;+;+;+!+!+;+;+;+!+!+!+!+!+!+!+!+^+^+^+^+^+^+^+^+^+^+^+^+^+^+^+^+^+^+^+^+^+^+^+^+^+^+^+^+^+^+^+^+^+^+^+^+^+^+^+^+^+^+^+^+^+^+^+^+^+^+^+^+^+^+^+^+^+^+^+^+^+^+^+^+}+^+}+^+o.^+}+>+^+^+^+^+^+^+}+}+^+[+g+4+A.W V m.(.3.W 2.2.2.1 E+}+}+^+^+^+^+^+^+^+^+^+^+^+^+^+^+^+^+^+^+^+^+^+^+^+}+^+;+^+}+n.}+^+^+^+^+^+^+^+^+^+^+^+^+^+^+^+^+^+^+^+^+^+^+^+^+[+!+[+!+!+[+9+n. +[+;+4+!+[+4+[+n+0.!+!+!+[+;+[+[+[+[+[+[+[+[+[+[+[+[+[+[+[+[+[+!+!+!+[+[+[+[+4+[+[+[+!+!+!+!+!+!+!+!+!+!+!+!+!+!+!+!+!+!+!+!+[+!+!+!+!+!+!+!+!+[+[+>+>+|+9+^+4+[+5+{+4+i+d.. . 3 l 6 ~ ~ 6 ~ 3 *   . . 9 M F U k.l.U U l {.M f +.= & & H {.).$.f ).{.+.& & 3 ; * 3 ^ . m t m } *   & 1 ",
"S.S.S.S.S.S.S.S.S.S..+.+S.S.S.S.V.V.V.V.V.V.V.V._+X d.(+.+.+ +V..+.+.+V.!+>+: :+.+.+V.V..+.+V.V..+S..+.+V.>+]+h >+>+.+^+>+.+>+.+>+>+.+>+>+>+>+9+z z 5.5.Q !.k.5.Q . 0.}+]+]+>+Z.>+>+>+>+>+>+>+!+&+!+{+4+&+g /._+5+d.d.2+n.-.@.(+{+8+.+g+2+K @.n.V.!+!+.+>+!+V.!+;+D.0.!+;+;+ +;+;+;+;+ +;+>+ +V.V. +;+;+;+;+!+!+0.n.]+^+>+^+ +[+4+p ^+^+>+X >+>+>+>+>+>+>+>+>+>+;+;+;+;+;+;+;+;+;+;+;+;+;+;+;+;+;+;+;+;+;+;+;+;+;+;+;+;+;+;+;+;+;+;+;+;+;+;+;+;+;+;+;+;+;+;+;+;+;+;+;+;+;+;+;+;+;+;+;+;+;+;+;+;+;+;+;+;+;+;+;+;+;+;+;+;+;+;+;+;+;+;+;+;+;+;+;+;+;+;+;+;+;+;+;+;+;+;+!+!+!+!+;+;+!+!+!+!+!+!+!+!+;+;+;+;+;+;+;+;+;+!+!+!+!+!+!+;+!+!+!+!+!+!+!+!+^+^+^+^+^+^+^+^+^+^+^+^+^+^+^+^+^+^+^+^+^+^+^+^+^+^+^+^+^+^+^+^+^+^+^+^+^+^+^+^+^+^+^+^+^+^+^+^+^+^+^+^+^+^+^+^+^+^+^+^+^+^+^+^+}+^+}+^+o.^+}+^+^+^+^+^+^+^+}+}+4+!+[+4+Q.W 0 ].5.k.,.2.2.2.+ ,+}+}+^+^+^+^+^+^+^+^+^+^+^+^+^+^+^+^+^+^+^+^+^+^+^+^+^+^+}+4+0.^+^+^+^+^+^+^+^+^+^+^+^+^+^+^+^+^+^+^+^+^+^+^+^+^+!+[+!+!+[+;+[+0.[+[+[+4+!+!+[+[+;+o.[+[+!+4+[+[+[+[+[+[+[+[+[+[+!+!+!+[+[+[+[+[+!+!+!+!+!+[+[+[+[+[+[+[+[+[+[+[+!+!+!+!+!+!+!+!+!+!+!+!+!+!+!+!+!+!+!+!+!+!+!+!+[+!+^+}+}+>+>+9+!+[+4+i+d.  . 9 ; ~ 2 6 6 6 ~ ^ ^ ^ & . t {.M P v.8.t {.H {.M f m - 8 8 H {.$.P L {.+.+.& & 3 & | . | t m } m = . [ !.t.",
"S.S.S.S.S.S.S.S.S..+.+.+S.S.S.S.V.V.V.V.V.V.V.V._+_.d.2+.+.+ +V..+.+.+V.>+>+% :+>+.+.+.+.+.+.+.+.+.+.+.+V.>+]+J .+>+.+>+>+.+>+.+>+>+>+>+>+>+^+h+e Q 5.k.!.!.5.5.Q . 0.}+]+]+>+Z.>+>+>+>+>+>+>+>+&+>+=+[+:+` D &+{+6+p X.i+K c Q.;+>+{+5+T.( c `.!+!+!+>+.+[+V.>+ +[+X  +V.[+ +;+;+>+>+;+;+>+;+ +I.V.;+!+;+;+;+!+.+X |+^+>+>+;+!+}+0.D.^+^+0.D.^+^+>+>+>+>+>+>+>+;+;+;+;+;+;+;+;+;+;+;+;+;+;+;+;+;+;+;+;+;+;+;+;+;+;+;+;+;+;+;+;+;+;+;+;+;+;+;+;+;+;+;+;+;+;+;+;+;+;+;+;+;+;+;+;+;+;+;+;+;+;+;+;+;+;+;+;+;+;+;+;+;+;+;+;+;+;+;+;+!+!+!+!+!+!+!+!+!+!+!+!+!+!+!+!+;+;+!+!+!+!+;+;+!+!+!+!+!+!+!+!+!+!+!+!+!+!+!+!+!+!+!+!+!+!+!+!+!+!+!+!+!+!+!+!+^+^+^+^+^+^+^+^+^+^+^+^+^+^+^+^+^+^+^+^+^+^+^+^+^+^+^+^+^+^+^+^+^+^+^+^+^+^+^+^+^+^+^+^+^+^+^+^+^+^+^+^+^+^+^+^+^+^+^+^+^+^+^+^+^+^+}+}+o.^+}+^+^+^+^+^+^+^+}+}+4+!+[+4+(+l.Q (.k.].A 2.i.7.- l+}+}+^+^+^+^+^+^+^+^+^+^+^+^+^+^+^+^+^+^+^+^+^+^+}+>+^+}+^+}+n.}+^+^+^+^+^+^+^+^+^+^+^+^+^+^+^+^+^+^+^+^+^+^+^+^+!+[+;+!+!+[+D.D.9+;+[+[+!+!+4+[+o.V.4+4+;+4+[+[+[+[+[+[+[+[+[+[+!+!+!+[+[+[+[+[+[+!+!+!+!+!+[+[+[+[+[+[+[+[+[+[+!+!+!+[+[+[+[+[+!+!+!+!+!+!+!+!+!+!+!+!+!+[+[+[+^+^+[+[+[+[+[+;+8+n+h+J   ~ & n l 8 8 8 3 ; . . & m t . M +.L P k.l.H U H 8.+.[ } } U H H {.).$.[ +.{.+.- } m & & . = } t } + . ] R }.h.",
"S.S.S.S.S.S.S.S.S.S.S..+.+.+S.S.V.V.V.V.V.V.V.V.&+_.0.2+.+.+ +.+.+.+.+.+.+^+: &+>+.+.+.+.+>+.+.+.+.+.+.+.+>+]+X Q.2+>+>+>+>+>+>+>+>+>+>+^+>+^+h+e !.k.!.!.Q 7.!.Q . 0.4+]+]+>+=+>+>+>+>+>+>+>+>+^+;+.+.+j+A.F {.[+6+>+p 7+k.  (+6+{+g+>+-...g K.h+;+ +4+ +!+;+ +[+ + +_.;+ +!+;+>+>+>+>+;+>+>+>+I.V.;+!+;+;+;+!+}+X .+^+>+;+4+ +>+>+X ^+}+>+X 9+^+^+>+>+>+>+>+>+;+;+;+;+;+;+;+;+;+;+;+;+;+;+;+;+;+;+;+;+;+;+;+;+;+;+;+;+;+;+;+;+;+;+;+;+;+;+;+;+;+;+;+;+;+;+;+;+;+;+;+;+;+;+;+;+;+;+;+;+;+;+;+;+;+;+;+;+;+;+;+;+!+!+!+!+!+!+!+!+!+!+!+!+!+!+!+!+!+!+!+!+!+!+!+!+;+!+!+!+!+!+!+;+!+!+!+!+!+!+!+!+!+!+!+!+!+!+!+!+!+!+!+!+!+!+!+!+!+!+!+!+!+!+!+!+^+^+^+^+^+^+^+^+^+^+^+^+^+^+^+^+^+^+^+^+^+^+^+^+^+^+^+^+^+^+^+^+^+^+^+^+^+^+^+^+^+^+^+^+^+^+^+^+^+^+^+^+^+^+^+^+^+^+^+^+^+^+^+^+^+^+}+}+o.^+}+^+^+^+^+^+^+^+}+}+!+}+6+4+7+<+k.4.3.j ! W 2.~.1 E+}+}+^+^+^+^+^+^+^+^+^+^+^+^+^+^+^+^+^+^+^+^+^+^+}+^+^+^+}+I.I.4+^+^+^+^+^+^+^+^+^+^+^+^+^+^+^+^+^+^+^+^+^+^+^+^+[+;+!+[+;+h+0.[+[+;+!+!+[+!+h+;+n.!+[+[+;+4+[+!+[+[+[+[+[+[+[+[+[+[+[+[+[+[+[+[+[+[+[+[+[+[+[+[+[+[+[+[+!+!+!+[+!+!+!+[+[+[+[+[+!+[+[+[+[+!+!+!+[+[+!+!+[+[+[+[+^+^+[+[+!+[+4+[+p+&+h @ * & 9 [ 8 ^ ^ ; & . ^ . . U {.+ L L L P 6.R.U U l {.+.' 9 9 U H l +.).).t +.{.{.} . = - ).6.P ' ' + + } f.t.}.#.",
"S.S.S.S.S.S.S.S.S.S.S..+.+.+.+.+V.V.V.V.V.V.V.V.&+0.0.(+.+.+ +.+.+.+.+>+.+}+p S.>+>+.+.+.+.+.+.+.+.+.+>+>+.+]+X Q.2+>+>+>+>+>+>+>+>+>+>+^+>+^+h+e !.5.z 5.Q 5.$.Q . d.4+]+]+>+=+>+>+>+>+>+>+>+>+^+>+^+>+}+:+U - A._+4+z.(+E+'+/._+{+X.0+^.i d.X .+}+>+}+>+>+^+.+!+ +[+n.n.!+!+;+>+>+>+>+;+;+>+^+ + + +;+!+;+;+!+^+D._.}+>+>+}+>+>+9+p ^+}+9+p ^+^+^+^+>+>+>+>+>+;+;+;+;+;+;+;+;+;+;+;+;+;+;+;+;+;+;+;+;+;+;+;+;+;+;+;+;+;+;+;+;+;+;+;+;+;+;+;+;+;+;+;+;+;+;+;+;+;+;+;+;+;+;+;+;+;+;+;+;+;+;+;+;+;+;+;+;+;+;+;+;+!+!+!+!+!+!+!+!+!+!+!+!+!+!+!+!+!+!+!+!+!+!+!+!+!+!+!+!+!+!+!+!+!+!+!+!+!+!+!+!+!+!+!+!+!+!+!+!+!+!+!+!+!+!+!+!+!+!+!+!+!+!+!+!+^+^+^+^+^+^+^+^+^+^+^+^+^+^+^+^+^+^+^+^+^+^+^+^+^+^+^+^+^+^+^+^+^+^+^+^+^+^+^+^+^+^+^+^+^+^+^+^+^+^+^+^+^+^+^+^+^+^+^+^+^+^+^+^+^+^+}+;+I.^+}+^+^+^+^+^+^+^+}+}+{+4+8+^+[+i+8.].3.V V W W Z d E+^+^+}+}+^+^+^+^+^+^+^+^+^+^+^+^+^+^+^+^+^+^+^+^+^+}+^+^+4+n.^+}+^+^+^+^+^+^+^+^+^+^+^+^+^+^+^+^+^+^+^+^+^+^+^+^+[+;+[+[+4+V.n.h+[+[+!+!+4+;+4+o.V.4+!+[+!+4+[+[+[+[+[+[+[+[+[+[+[+[+[+[+[+[+[+[+[+[+[+[+[+[+[+[+[+[+[+[+[+[+[+[+[+[+[+[+[+[+[+[+[+[+[+[+[+[+[+!+[+[+[+!+[+[+[+!+9+>+[+[+=+!+h+n+T.    8 & & & 9 8 8 l 3 3 & l & . U {.+ M L v L k.v.U {.H 9 9 f m 9 H l l +.).$.m . = +.M - {.R.v.L e e + + P l.>.[.'.S ",
"S.S.S.S.S.S.S.S.S.S.S..+.+.+.+.+V.V.V.V.V.V.V.V.&+0._.(+.+.+ +.+.+.+.+.+.+^+_.d.>+>+.+.+.+.+.+.+.+.+.+>+>+.+]+_.o.2+>+.+^+>+>+>+>+>+>+>+^+>+^+h+1 !.5.z 5.$.k.Q Q . d.9+]+]+>+{+>+>+>+>+>+>+>+!+!+>+|+^+>+}+T.R.,+-.h+#+d.'+^.` 4+2+a+E+'+J i+.+_.^+}+.+^+>+>+^+ +4+V.[+X ;+;+;+>+;+;+>+>+;+;+^+;+ + +;+!+;+;+!+&+}+p 4+.+!+.+}+}+>+0.S.}+}+n.o.^+^+^+>+>+>+>+^+;+;+;+;+;+;+;+;+;+;+;+;+;+;+;+;+;+;+;+;+;+;+;+;+;+;+;+;+;+;+;+;+;+;+;+;+;+;+;+;+;+;+;+;+;+;+;+;+;+;+;+;+;+;+;+;+;+;+;+;+;+;+;+;+!+!+!+!+!+!+!+!+!+!+!+!+!+!+!+!+!+!+!+!+!+!+!+!+!+!+!+!+!+!+!+!+!+!+!+!+!+!+!+!+!+!+!+!+!+!+!+!+!+!+!+!+!+!+!+!+!+!+!+!+!+!+!+!+!+!+!+!+!+!+!+!+^+^+^+^+^+^+^+^+^+^+^+^+^+^+^+^+^+^+^+^+^+^+^+^+^+^+^+^+^+^+^+^+^+^+^+^+^+^+^+^+^+^+^+^+^+^+^+^+^+^+^+^+^+^+^+^+^+^+^+^+^+^+^+^+^+^+}+I. +^+}+^+^+^+^+^+^+^+}+}+5+}+]+_+5+4+{.4.k.3.2.2.~.Z I E+^+^+}+}+^+^+^+^+^+^+^+^+^+^+^+^+^+^+^+^+^+^+^+^+>+}+^+4+4+0.4+^+^+^+^+^+^+^+^+^+^+^+^+^+^+^+^+^+^+^+^+^+^+^+^+^+[+[+[+;+n+_.!+4+!+9+!+[+9+!+;+n.[+4+!+[+[+[+[+[+[+[+[+[+[+[+[+[+[+[+[+[+[+[+[+[+[+[+[+[+[+[+[+[+[+[+[+[+[+[+[+[+[+[+[+[+[+[+[+[+[+[+[+[+[+[+[+[+[+[+[+[+[+[+!+!+|+}+[+[+4+n+|+A.@ . . 9 ^ & t = } / = . . . } . . 8 5 . t M 9 - 6.R.U H ^ } m v t 9 H H H {.).$.8 . . = } = L L - [ + + ! i.i.W S ].4.4.",
"S.S.S.S.S.S.S.S..+.+.+.+.+.+.+S.V.V.V.V.V.V.V.V.&+n.X (+.+.+ +.+.+.+V..+.+>+o.X !+>+.+.+.+.+.+.+.+>+.+.+!+.+]+d.0.>+>+.+^+>+>+>+>+>+>+>+^+^+^+h+1 5.5.!.$.$.k.$.Q . d.9+]+]+>+{+!+!+!+>+>+!+!+!+;+]+]+!+=+5+j+A+u.k..+g+(+c+O.h 5+2+E+m+^.p g+_+0.n.4+.+^+^+>+^+;+;+!+;+V.0.[+;+^+;+;+^+^+>+;+>+!+ +V.;+!+!+;+;+]+}+0.D.^+[+.+}+}+>+S.0.4+>+>+X ^+^+^+>+>+>+>+^+;+;+;+;+;+;+;+;+;+;+;+;+;+;+;+;+;+;+;+;+;+;+;+;+;+;+;+;+;+;+;+;+;+;+;+;+;+;+;+;+;+;+;+;+;+;+;+;+;+;+;+;+;+;+;+;+;+;+;+;+;+;+;+;+!+!+!+!+!+!+!+!+;+;+;+;+;+;+;+;+!+!+!+!+!+!+!+!+!+!+!+!+!+!+!+!+!+!+!+!+!+!+!+!+!+!+!+!+!+!+!+!+!+!+!+!+!+!+!+!+!+!+!+!+!+!+!+!+!+!+!+!+!+!+!+!+^+^+^+^+^+^+^+^+^+^+^+^+^+^+^+^+^+^+^+^+^+^+^+^+^+^+^+^+^+^+^+^+^+^+^+^+^+^+^+^+^+^+^+^+^+^+^+^+^+^+^+^+^+^+^+^+^+^+^+^+^+^+^+^+^+}+}+o.}+^+^+^+^+^+^+^+^+^+}+}+5+}+<+6+5+g+/.i.k.V 2.i.2.I I E+^+^+}+}+^+^+^+^+^+^+^+^+^+^+^+^+^+^+^+^+^+^+^+^+^+^+}+4+;+D.4+^+^+^+^+^+^+^+^+^+^+^+^+^+^+^+^+^+^+^+^+^+^+^+^+^+!+[+[+!+;+n.4+[+[+[+[+[+9+4+I. +h+[+[+[+[+[+[+[+[+[+[+[+[+[+[+[+[+[+[+[+[+[+[+[+[+[+[+[+[+[+[+[+[+[+[+[+[+[+[+[+[+[+[+[+[+[+[+[+[+[+[+[+[+[+4+4+4+[+[+[+[+[+[+[+^+9+4+[+n+h+b.* @ ; ^ & 9 3 . l 9 & } 9 m . {.U   * . . a M = . P R.U ^ . m +.[ t 9 H H H +.$.$.^ & = & m +.{.- } + + Q i.,.] N f.[.,.,.",
"S.S.S.S.S.S.S..+.+.+.+.+.+S.S.S.V.V.V.V.V.V.V.V.&+n.X (+.+.+ +.+.+S.V..+>+>+Q.J !+!+>+.+.+.+.+.+.+>+.+.+>+.+|+o.0.>+>+.+^+>+>+>+>+>+>+>+^+^+}+h+e k.7.5.z z 5.!.Q . d.h+]+]+>+{+!+!+!+!+!+!+!+!+;+8+&+!+{+{+&+)+/+k.d.g+0+q+&.h #+i+C+F.1 z.g+_+}+p 4+4+.+^+^+.+!+V.;+[+!+0.I.!+^+>+;+^+^+>+;+>+!+ +V.;+[+!+;+;+|+>+}+p 9+!+}+.+.+9+>+p 9+}+4+X }+^+^+>+>+>+^+^+;+;+;+;+;+;+;+;+;+;+;+;+;+;+;+;+;+;+;+;+;+;+;+;+;+;+;+;+;+;+;+;+;+;+;+;+;+;+;+;+;+;+;+;+;+;+;+;+;+;+;+;+;+;+;+;+;+;+;+;+;+;+;+;+!+!+!+!+!+!+!+!+;+;+;+;+;+;+;+;+!+!+!+!+!+!+!+!+!+!+!+!+!+!+!+!+!+!+!+!+!+!+!+!+!+!+!+!+!+!+!+!+!+!+!+!+!+!+!+!+!+!+!+!+!+!+!+!+!+!+!+!+!+!+!+!+^+^+^+^+^+^+^+^+^+^+^+^+^+^+^+^+^+^+^+^+^+^+^+^+^+^+^+^+^+^+^+^+^+^+^+^+^+^+^+^+^+^+^+^+^+^+^+^+^+^+^+^+^+^+^+^+^+^+^+^+^+^+^+^+^+}+}+n.h+^+^+^+^+^+^+^+^+^+}+}+`.9+a+_+{+g+/.2.k.3.i.2.2.~.$.E+^+^+}+}+^+^+^+}+^+^+^+^+^+^+^+^+^+^+^+^+^+^+^+^+4+^+^+}+D. +^+}+^+^+^+^+^+^+^+^+^+^+^+^+^+^+^+^+^+^+^+^+^+^+^+^+!+[+4+4+0.4+[+9+9+!+h+4+4+h+n.h+h+[+n+[+4+[+4+4+4+4+4+4+4+4+4+4+[+[+4+4+4+4+4+4+[+[+[+[+[+4+4+4+4+4+4+4+4+4+4+4+4+4+4+4+4+4+[+[+4+4+[+[+[+4+4+4+h+9+4+4+9+9+9+9+h+4+[+n+n+d.. . _ ; ^ 8 & & 6 @ & . 9 {.{.. t } @ @ . # 5 H ; . f v.m ^ & t +.[ t 9 H l 8 t P ).^ . . & m [ v = . / P 7.7 4 u #.N.=.y 7 ",
"S.S.S..+.+.+.+.+.+.+.+.+.+.+.+.+.+.+.+.+.+.+.+.+V.S.p 7+>+.+>+V.>+.+V..+.+.+^+: >+^+>+.+>+&+&+&+.+.+.+.+>+>+_+S.. k+&+&+_+>+^+>+>+>+>+^+^+^+4+h+I ~.7.~.Z ~.i.~.$.. d.9+!+[+^+>+^+>+>+>+>+>+>+^+^+^+^+^+>+^+^+}+b+k.M <+<+T.k.& Q.f+C+3.# g+{+3+^+^+X |+]+|+.+^+.+}+>+.+}+^+p }+^+^+.+4+.+>+}+.+>+^+>+I.^+^+^+>+>+^+4+X >+}+>+^+^+}+4+X >+}+h+n.o.4+>+>+>+^+^+>+;+;+;+;+;+;+;+;+;+;+;+;+;+;+;+;+>+>+>+>+>+>+>+>+^+^+^+^+^+^+^+^+>+>+>+>+>+>+>+>+^+^+^+>+>+>+>+>+^+^+^+^+^+^+^+^+^+^+^+^+^+^+^+^+^+^+^+^+^+^+^+^+^+^+^+^+^+^+^+^+^+^+^+^+^+^+^+^+^+^+^+^+^+^+^+^+^+^+^+^+^+^+^+^+^+^+^+^+^+^+^+^+^+^+^+^+^+^+^+^+^+^+^+^+^+^+^+^+^+^+^+^+^+^+^+^+^+^+^+^+^+^+^+^+^+^+^+^+^+^+^+^+^+^+^+^+^+^+^+^+^+^+^+^+^+^+^+^+^+^+^+^+^+^+^+^+^+^+^+^+^+^+^+^+}+^+^+^+^+^+^+^+^+^+^+^+^+^+^+^+^+}+}+o.}+^+}+}+^+^+^+}+}+}+}+}+_+2+{+_+_+5+Q.A . ).5.i.2.~.~.E+}+^+^+}+}+}+^+}+}+}+^+^+^+^+^+^+^+^+^+^+^+^+^+^+[+!+!+h+0.[+4+[+^+^+^+^+^+^+^+^+^+^+^+^+^+^+^+^+!+!+!+[+[+[+[+[+|+8+4+;+n.[+n+4+4+n+n+4+n+V.i+n+n+n+4+4+x+n+n+n+n+4+n+n+h+n+n+4+g+n+h+8+4+n+n+4+4+4+4+h+g+5+g+g+g+[+4+h+n+}+n+n+n+[+n+4+4+4+n+4+4+4+g+5+5+g+4+n+6+t+n+4+4+i+h+8+h+n+x+r+` . ' - = = } } / / + = . = = v 8.. & . . | . + 9 M + + . } M +.k Q Q d i i G F 5 ` /./.= . 9 m / . . . < 2.].w '.w =.p.=.0 R w ",
"S.S..+.+.+.+.+.+.+.+.+.+.+.+.+.+.+.+.+.+.+.+.+.+>+>+p .+>+S.>+.+.+>+>+>+]+&+]+X >+>+.+>+>+.+}+.+.+}+.+>+>+^+^+.+@ (+.+!+ +[+V.>+>+>+!+!+!+!+[+4+I i.2.~.Z Z i.~.H . d.h+[+[+[+4+!+>+>+!+[+[+!+!+!+!+!+[+!+[+[+[+,+,+M . )+{.G 1 Q.F m.[ (+2+{+_+}+|+o.S.8+}+;+ +^+>+>+^+.+4+D.0.4+.+}+S.}+>+.+^+>+^+>+V.>+^+^+>+>+}+>+D.0.h+>+^+^+^+^+o.n.}+^+^+X 4+^+^+>+^+>+^+;+;+;+;+;+;+;+;+;+;+;+;+;+;+;+;+>+>+>+>+>+>+>+>+^+^+^+^+^+^+^+^+>+>+>+>+>+>+>+>+^+^+^+^+>+>+>+>+^+^+^+^+^+^+^+^+^+^+^+^+^+^+^+^+^+^+^+^+^+^+^+^+^+^+^+^+^+^+^+^+^+^+^+^+^+^+^+^+^+^+^+^+^+^+^+^+^+^+^+^+^+^+^+^+^+^+^+^+^+^+^+^+^+^+^+^+^+^+^+^+^+^+^+^+^+^+^+^+^+^+^+^+^+^+^+^+^+^+^+^+^+^+^+^+^+^+^+^+^+^+^+^+^+^+^+^+^+^+^+^+^+^+^+^+^+^+^+^+^+^+^+^+^+^+^+^+^+^+^+^+^+^+^+^+}+^+^+^+^+^+^+^+^+^+^+^+^+^+^+^+^+}+>+I.4+^+}+^+^+^+}+}+}+}+}+}+6+5+2+6+6+g+(+(.[ Q I + d I k.E+4+}+}+}+}+}+^+}+}+}+}+^+^+^+^+^+^+^+^+^+^+^+^+^+[+!+[+[+n.4+[+[+^+^+^+^+^+^+^+^+^+^+^+^+^+^+^+^+[+[+[+[+[+[+[+[+8+]+.+I.4+h+n+>+}+]+S.S.A./.d.d.d.h h h /.d.d.d.A.A.A.A.A.A.A.T.D.]+S.J   X S..+&+]+&+&+.+>+>+.+^+>+9+&+S._ h /.|+&+|+h+h+h+n+n+n+n+h+n+x+n+S.X d.&+h+n+n+n+n+n+n+x+|+J   ; = + l H 5 = = + = . 6 6 . H +./ . . . & . / 5 H / . & H F U M M t m / t M 9 } U m U / a m 9 = = + t t.].w w '.'.f.R $ w 1.1.",
".+.+.+.+.+.+.+.+.+.+.+.+.+.+.+.+.+.+.+.+.+.+.+.+.+^+p S.>+!+>+=+.+>+.+&+&+&+]+d.X h+^+.+!+ +[+;+ +4+V.>+V.>+^+6+% Q.2+{+=+5+U.`.;+!+[+[+[+[+[+4+d k.Z Z Z d k.(.H . d.n+4+!+^+4+9+4+}+}+4+}+^+}+4+9+h+h+9+9+9+9+)+| 6.x.k.5.v.v.R.k.m.& 7+i+9+<+&+a+&+/.&+>+!+[+}+>+>+}+.+}+4+_.S.4+>+>+^+.+>+>+^+^+>+>+.+^+^+^+^+^+>+4+X ^+^+>+^+}+>+}+X 4+.+n+X >+}+^+^+^+>+^+!+!+!+!+!+!+!+!+!+!+!+!+!+!+!+!+>+>+>+>+>+>+>+>+^+^+^+^+^+^+^+^+>+>+>+>+>+>+>+>+^+^+^+^+^+^+>+>+^+^+^+^+^+^+^+^+^+^+^+^+^+^+^+^+^+^+^+^+^+^+^+^+^+^+^+^+^+^+^+^+^+^+^+^+^+^+^+^+^+^+^+^+^+^+^+^+^+^+^+^+^+^+^+^+^+^+^+^+^+^+^+^+^+^+^+^+^+^+^+^+^+^+^+^+^+^+^+^+^+^+^+^+^+^+^+^+^+^+^+^+^+^+^+^+^+^+^+^+^+^+^+^+^+^+^+^+^+^+^+^+^+^+^+^+^+^+^+^+^+^+^+^+^+^+^+^+^+^+^+^+^+^+^+^+}+^+^+^+^+^+^+^+^+^+^+^+^+^+^+^+^+}+V. +4+^+}+^+^+}+}+}+}+}+}+}+_+2+2+_+6+g+(+(.(.w.i.Z Z e . . h+4+}+}+}+}+}+}+}+}+}+}+^+^+^+^+^+^+^+^+^+^+^+^+[+!+[+;+o.h+!+!+^+^+^+^+^+^+^+^+^+^+^+^+^+^+^+^+[+[+[+[+[+[+[+[+8+n+4+n.4+x+d.@ . . . ; . . + = ^ . 5 . . = = = . = = / } = . + & . . M m ;     . . . . . ; @   . . . . = 5 / . . . ; ; . . . . . ; . @ @ . ~ ^ @   _ h @ @ _ @ _ @ _   _ l = M H U / / / / l / ~ 8 5 9 } = ^ H ~ l U U / / 5 5 = - m m } ^ 8 5 a , , t P E 1 E / / } } + !.!.;.%.'.[.f.t.,.W $ 0 1.t.1.",
".+.+.+.+.+.+.+.+.+.+.+.+.+.+.+.+.+.+.+.+.+.+.+.+.+>+0._.]+.+V.V..+!+.+.+>+>+|+]+h ]+9+>+[+!+;+{+.+}+>+9+^+4+I.}+# X i+.+[+!+.+^+^+^+}+4+4+4+4+9+Q k.).Q Q I ).).[ & A.o+r+a+<+<+<+<+)+T.T.A.T.)+A.T.T.T.A.A.A.A.A.8.$.'+m.m.R.W ,.i. .  @ %   ( l 3 U D @ /.h+>+^+^+>+>+}+.+4+.+_.^+>+}+.+^+^+>+^+>+>+^+S.>+^+^+}+.+4+4+0.n.h+^+^+}+^+4+X ^+^+}+n.o.4+.+^+^+^+^+!+!+!+!+!+!+!+!+!+!+!+!+!+!+!+!+^+^+^+^+^+^+^+^+^+^+^+^+^+^+^+^+^+^+^+^+^+^+^+^+^+^+^+^+^+^+^+^+^+^+^+^+^+^+^+^+^+^+^+^+^+^+^+^+^+^+^+^+^+^+^+^+^+^+^+^+^+^+^+^+^+^+^+^+^+^+^+^+^+^+^+^+^+^+^+^+^+^+^+^+^+^+^+^+^+^+^+^+^+^+^+^+^+^+^+^+^+^+^+^+^+^+^+^+^+^+^+^+^+^+^+^+^+^+^+^+^+^+^+^+^+^+^+^+^+^+^+^+^+^+^+^+^+^+^+^+^+^+^+^+^+^+^+^+^+^+^+^+^+^+^+^+^+^+^+^+^+^+^+^+^+^+^+^+}+}+^+^+^+^+^+^+^+^+^+^+^+^+}+}+}+4+D.^+4+^+}+^+}+}+}+}+}+}+}+}+_+2+2+_+_+g+(+(.].i.].~.I ).9 ^ n+4+}+}+}+}+}+}+}+}+}+}+}+^+^+^+}+}+}+}+}+}+}+}+[+!+h+D. +h+!+!+}+}+}+}+}+}+}+}+}+}+}+}+}+}+}+}+[+[+[+[+[+[+[+[+]+^+o.9+h+:+h . + + ! ! , < ! , - < , + ] w =.u R w 0 0 0 0 w 0 w ] , , ! + + + < , , , , , , ! , 7 y , , , , + + , , + , , ! + , + , , , , + + ! + + + + + = , + + [ = - , , + ! , + + + + + = [ + + + , , ' + + ' + ' + = + , < ! < , ' f f [ < ! f f P $.5.- / f + ! !.v.y 7 h.:.N.N.w ] ,.7 1.1.R 0 ",
".+.+.+.+.+.+.+.+.+.+.+.+.+.+.+.+.+.+.+.+.+.+.+.+>+S.|+h ]+&+8+}+.+!+>+[+4+}+}+4+/.h A.h+|+}+[+[+n+|+]+&+o.S.: d.U U <+T.<+<+)+)+T.T.T.T.T.T.A.A.Q ).$.e G Q z Q 2.I G v [ n P $.U M P F n n n F 9 9 [ [ } ' ' ' / . 1 V j + W , T < .   @   . & + d < G 9 t A.T.^+^+^+.+4+.+>+h+o.0.n+.+>+4+.+^+^+>+>+}+S.>+^+^+}+>+4+>+^+X 4+}+^+^+^+}+o.n.h+>+>+X 4+.+^+^+^+^+!+!+!+!+!+!+!+!+!+!+!+!+!+!+!+!+^+^+^+^+^+^+^+^+^+^+^+^+^+^+^+^+^+^+^+^+^+^+^+^+^+^+^+^+^+^+^+^+^+^+^+^+^+^+^+^+^+^+^+^+^+^+^+^+^+^+^+^+^+^+^+^+^+^+^+^+^+^+^+^+^+^+^+^+^+^+^+^+^+^+^+^+^+^+^+^+^+^+^+^+^+^+^+^+^+^+^+^+^+^+^+^+^+^+^+^+^+^+^+^+^+^+^+^+^+^+^+^+^+^+^+^+^+^+^+^+^+^+^+^+^+^+^+^+^+^+^+^+^+^+^+^+^+^+^+^+^+^+^+^+^+^+^+^+^+^+^+^+}+^+^+^+^+^+^+}+^+^+^+^+^+^+^+^+}+}+^+^+^+^+^+^+^+^+^+^+^+}+}+}+4+}+o.}+}+^+}+}+}+}+}+}+}+}+}+}+6+5+5+_+_+g+(+(.].j.].i.$.).c 3 n+4+}+}+}+}+}+}+}+}+}+}+}+}+^+^+}+}+}+}+}+}+}+}+[+!+h+n.[+[+[+[+}+}+}+}+}+}+}+}+}+}+}+}+}+}+}+}+[+[+[+[+[+[+[+[+n+n+n.x+d.2 . + [.[.f.%.f.t.N.}.t.@+~+$+d+$+r.<.$+<.<.q.$+d+w+$+%+d+~+p.N.N.t.@+N.N.N.p.h.p.p.N.p.}.h.%.~+h.}.N t.N.N.[.N.}.f.[.$+f.N.h.t.~+t.N.h.}.}.}.N.}.#.9.s :.:.N :.=.1.R %.#.[.%.:.t.[.[.'.S |.|.p.t.t.f.[.@+N.f.f.}.:.N.$+$+N.p.N.@+'.w S 4.< $.+., a f + + b i.W w 0 R N.p.}.0 0 0 W 1.f.R ] 0 ",
".+.+.+.+.+.+.+.+.+.+.+.+.+.+.+.+.+.+.+.+.+.+.+.+.+.+9+/.A.<+&+]+9+h+|+9+|+a+]+|+/.* /.T.A.T.A.T./.J J 6 { J   J ).G $.F F  .C i $.L k e e e [ ' e 1 k 1 k Q k G A A I I I Z Z I I I I Z ~.Z I d I I I I I I I I +.P l+].A ].I 7.W $.U D     3 F I Z A ~.Q . F & h+.+4+>+>+^+^+^+}+0.S.>+^+}+.+^+^+>+^+}+.+.+>+}+^+}+^+>+n+_.S.9+}+>+^+}+>+X 4+}+}+X >+}+^+>+}+^+!+!+!+!+!+!+!+!+!+!+!+!+!+!+!+!+^+^+^+^+^+^+^+^+^+^+^+^+^+^+^+^+^+^+^+^+^+^+^+^+^+^+^+^+^+^+^+^+^+^+^+^+^+^+^+^+^+^+^+^+^+^+^+^+^+^+^+^+^+^+^+^+^+^+^+^+^+^+^+^+^+^+^+^+^+^+^+^+^+^+^+^+^+^+^+^+^+^+^+^+^+^+^+^+^+^+^+^+^+^+^+^+^+^+^+^+^+^+^+^+^+^+^+^+^+^+^+^+^+^+^+^+^+^+^+^+^+^+^+^+^+^+^+^+^+^+^+^+^+^+^+^+^+^+^+^+^+^+^+^+^+^+^+^+^+^+^+^+}+}+^+^+^+^+}+}+^+^+^+^+^+^+^+^+}+}+}+^+^+^+^+^+^+^+^+^+}+}+}+}+4+^+D.}+}+^+}+}+}+}+}+}+}+}+}+}+_+5+2+6+6+g+(+(.4.4.].~.$.[ | 8 n+4+}+}+}+}+}+}+}+}+}+}+}+}+}+^+}+}+}+}+}+}+}+}+4+!+[+n.h+!+4+[+}+}+}+}+}+}+}+}+}+}+}+}+}+}+}+}+[+[+[+[+[+[+[+[+9+S.|+A._ . = y %.:.:.q h.h.e.q >.s g.:.<.*.o <.<.*.q.q.o o <.*.*.a.*.O }.N q s.4 #.%.O q O *.O G.a.e.G.e.G.$+*.q #.N N N.#.9.p.O %.p.r 4 :.q O $+*.a.E.%+E.q.O q.G.e.e.d+e.<.r.$+$+d+e.e.d+q.<.%+d+d+d+q.e.<.h.:.g.O *.%+d+%+d+%+a.e.e.O G.$+s.s.w+V P / a , + + i.7.,.0 0 R @+h.u u 0 u '.[.w ,.0 ] ,.",
".+.+.+.+.+.+.+.+.+.+.+.+.+.+.+.+.+.+.+.+.+.+.+.+.+^+&+T.2 l.H U H H 5 5 ^ 9 | 9 ^ & 8 3 3 ; . ^ & & ^     & . . j j d b b I Z Z !.Q z z z e e e G k G G G $.Q Q P ).$.$.).).).).).$.Q $.$.$.$.$.I I Q Q Q Q Q Q d , A ,.2.W A 5.$.& . / . & . ~ } M [ [ +.. .   n+.+4+^+>+^+^+>+4+>+_.^+^+>+^+>+^+^+^+^+^+.+>+}+^+4+>+>+h+.+_.4+}+^+>+}+}+X .+4+}+n.n.4+^+>+}+^+!+!+!+!+!+!+!+!+!+!+!+!+!+!+!+!+^+^+^+^+^+^+^+^+^+^+^+^+^+^+^+^+^+^+^+^+^+^+^+^+^+^+^+^+^+^+^+^+^+^+^+^+^+^+^+^+^+^+^+^+^+^+^+^+^+^+^+^+^+^+^+^+^+^+^+^+^+^+^+^+^+^+^+^+^+^+^+^+^+^+^+^+^+^+^+^+^+^+^+^+^+^+^+^+^+^+^+^+^+^+^+^+^+^+^+^+^+^+^+^+^+^+^+^+^+^+^+^+^+^+^+^+^+^+^+^+^+^+^+^+^+^+^+^+}+}+^+^+^+^+^+^+^+^+^+^+^+^+^+^+^+^+^+^+^+^+^+^+}+}+^+^+^+^+}+}+}+}+}+}+}+}+}+}+}+}+}+^+^+^+^+}+^+^+^+}+}+}+}+}+4+;+V.}+}+}+}+}+}+}+}+}+}+}+}+}+_+2+2+6+6+g+(+Z Z 2.2.2.5.1 & & n+4+}+}+}+}+}+}+}+}+}+}+}+}+}+}+}+}+}+}+}+}+}+}+[+[+ +I.4+!+[+[+}+}+}+}+}+}+}+}+}+}+}+}+}+}+}+}+[+[+[+[+[+[+4+4+h+0.x+/.; , 7 t.}.N.h.h.~+~+~+$+N.>.N.N.$+$+N.r.N.h.9.9.h.N.N.p.G.d+~+p.h.g.e.G.h.p.N.N.M.++$+%+d+E.%+%+*.%+$+*.9.N.h.h.N.:.9.p.|.g.9.N #.h.h.|.d+o <.G.%+d+w+q.e.$+q.O N.<.<.r.<.<.e.O <.$+G.e.M.G.a.G.a.*.#.r %.p.*.O a.a.a.E.G.<.$+d+<.$+$+e.$+@+B +./ / + , t.N.'.0 N f.t.=.] 0 R u =.}.:.N R R 0 1.",
".+.+.+.+.+.+.+.+.+.+.+.+.+.+.+.+.+.+.+.+.+.+.+.+;+>+&+T.& 9 n n < d I W I ~.V V } . + L P v L L v P i . . $.v.v.,+b+l+v.,.! A j $.Q Q G k k G Q $.Q G Q k 1 G [ 8 c | [ 9 [ F ).).P F [ . . 9 P P $.$.).$.$.P P S A 2.R ,.7.~.^.| ; H m F . . # @   . * .   *   n+^+^+^+^+>+>+4+^+^+o.o.}+>+}+^+^+^+^+>+4+.+.+}+}+}+^+^+^+h+p }+^+4+.+4+}+n.D.^+4+^+X 4+^+^+4+>+!+!+!+!+!+!+!+!+!+!+!+!+!+!+!+!+^+^+^+^+^+^+^+^+^+^+^+^+^+^+^+^+^+^+^+^+^+^+^+^+^+^+^+^+^+^+^+^+^+^+^+^+^+^+^+^+^+^+^+^+^+^+^+^+^+^+^+^+^+^+^+^+^+^+^+^+^+^+^+^+^+^+^+^+^+^+^+^+^+^+^+^+^+^+^+^+^+^+^+^+^+^+^+^+^+^+^+^+^+^+^+^+^+^+^+^+^+^+^+^+^+^+^+^+^+^+^+^+^+^+^+^+^+^+^+^+^+^+^+^+^+^+^+^+}+}+}+^+^+^+^+^+^+^+^+^+^+^+^+^+^+^+^+^+^+^+^+^+}+}+}+^+^+}+}+}+}+}+}+}+}+}+}+}+}+}+}+^+^+^+^+}+^+^+^+}+}+}+}+}+}+ +;+^+}+}+^+}+}+}+}+}+}+}+}+}+6+5+2+6+6+g+&+A Z i.~.w.2.Q [ t n+4+}+}+4+}+}+}+}+}+}+}+}+}+}+}+}+}+}+}+}+}+}+}+[+9+I.;+[+[+[+[+}+}+}+}+}+}+}+}+}+}+}+}+}+}+}+}+[+[+[+[+[+[+4+4+S.>+9+@ . b N.h.u 1.4 4 N 4 q N >.0 N N ] s p.#.N %.N N }.}.:.h.<.<.}.#.u N *.o }.q 4 s s 4 O s.a.a.a.*.%+a.*.O q N.%.#.%.N N %.h.h.q N #.N h.p.=.u %.>.s.>.#.#.%.h.N.%.h.:.%.9.g.:.N q %.h.|.%.O *.*.G.s.#.%.u }.p.h.|.|.g.q.%+#.%.q <.g.d+<.q.=.$ f a . & G 1 f.h.w N t.f.'.w 7 y N.h.%.}.g.O f.t.R 1.",
"&+&+&+&+&+&+&+&+&+&+&+&+&+&+&+&+.+.+.+.+.+.+.+>+=+>+]+T.F G I d L !.!.).).).P n ;.9 v $.8.{.P P . . . . m $.w.m.,+A+A+F+F+E+,+Y i l X ` F Y G /   . . . . # + . . ; .   ;   & . & | . 3 ^ ^ 2     & &     . = . & + ,.f.R ,.M ;         *       @   @ @     @   .+|+|+8+^+|+]+.+]+8+]+_.]+|+]+]+.+|+|+]+8+]+.+|+^+|+]+|+]+]+>+_.h+|+.+9+]+]+X 8+]+|+X ]+8+8+]+]+^+^+^+^+^+^+^+^+^+^+^+^+^+^+^+^+^+^+^+^+^+^+^+^+^+^+^+^+^+^+^+^+^+^+^+^+^+^+^+^+^+^+^+^+^+^+^+^+^+^+^+^+^+^+^+^+^+^+^+^+^+^+^+^+^+^+^+^+^+^+^+^+^+^+^+^+^+^+^+^+^+^+^+^+^+^+^+^+^+^+^+^+^+^+^+^+^+^+^+^+^+^+^+^+^+^+^+^+^+^+^+^+^+^+^+^+^+^+^+^+^+^+^+^+^+^+^+^+^+^+^+^+^+^+^+^+}+}+}+}+}+}+}+}+}+}+}+}+}+}+}+}+}+}+}+}+}+}+}+}+}+}+}+}+}+}+}+}+}+}+}+}+}+}+}+}+}+}+}+}+}+}+}+}+^+^+^+^+^+^+^+^+^+^+}+}+}+}+}+}+4+n.4+}+}+^+4+^+}+}+}+}+}+}+}+}+4+4+|+4+4+9+)+I 4.i.2.i.j.].[ J n+4+[+[+[+[+[+[+}+}+}+}+}+}+}+}+}+}+}+}+}+}+}+}+}+h+n.^+4+4+^+^+[+[+[+[+[+[+[+[+}+}+}+}+}+}+}+}+4+^+}+4+^+}+4+4+0.i+_ + $ O f.A w w f.|.s V W Q f.h.N.N.p.$+$+%.%.>.>.|.*.|.O *.9.e.e.a.*.e.g.f.%+G.q.G.q.q.*+*+%+G.G.q.%+*.a.q.E.%+%+q.a.e.<.q.N.r.9.9.9.#.$+9.9.9.=.r.r.9.=.9.g.*.q.O <.<.*.<.9.r =.r =.R 9.:.<.q.q.E.a.o *.o q e.e.a.*.*.q.G.N <.O O |.N.y b @ 6 + + , f.f.R R w =.R R R 0 R =.1.=.] t.[.w ].[.N N [.",
"&+&+&+&+&+&+&+&+&+&+&+&+&+&+&+&+.+.+.+.+.+.+>+>+V.>+]+A.c n L L M t m t c & . * +.} U 8.U 9 | . ^     2 3 |  .. k > & 9 U ,+E+E+x.& . . & > . = / ).(.5.9 a a m * . @           . . * *     . * . .     @ @   . . I t.'.,.! .   _ _ J /.% d.d.A.A.S.S.&+:+:+7+7+0.>+]+^+|+>+]+|+]+|+]+]+0.|+]+]+]+8+^+>+|+|+.+.+8+|+>+^+|+8+>+_.|+]+|+^+|+]+X ]+]+8+D.n.h+.+|+]+^+^+^+^+^+^+^+^+^+^+^+^+^+^+^+^+^+^+^+^+^+^+^+^+^+^+^+^+^+^+^+^+^+^+^+^+^+^+^+^+^+^+^+^+^+^+^+^+^+^+^+^+^+^+^+^+^+^+^+^+^+^+^+^+^+^+^+^+^+^+^+^+^+^+^+^+^+^+^+^+^+^+^+^+^+^+^+^+^+^+^+^+^+^+^+^+^+^+^+^+^+^+^+^+^+^+^+^+^+^+^+^+^+^+^+^+^+^+^+^+^+^+^+^+^+^+^+^+^+^+^+^+^+^+^+^+}+}+}+}+}+}+}+}+}+}+}+}+}+}+}+}+}+}+}+}+}+}+}+}+}+}+}+}+}+}+}+}+}+}+}+}+}+}+}+}+}+}+}+}+}+}+}+}+}+}+}+}+}+}+}+}+^+}+}+}+}+}+}+}+4+o.4+}+}+^+4+^+}+}+}+}+}+}+}+}+4+4+|+4+4+9+)+Q 4.i.2.i.j.].[ J n+4+[+[+[+[+[+[+}+}+}+}+}+}+}+}+}+}+}+}+}+}+}+}+4+^+o.}+4+}+}+}+[+[+[+[+[+[+[+[+}+}+}+}+}+}+}+}+}+^+}+4+}+}+h+.+.+^+J f h.e.}.T j.T [.f.|.T w 0 0 '.4.'.T 0 0 ] ) R =.=.r r #.r.! 7 R }.f.f.].W 0 ].t.O.].[.N.N.N.1.w ] R w '.f.4.j.t.[.1.1.T T S j j.>.>.c.j.S >.>.>.g.|.j.O.|.].'.'.w t.[.=.'.|.>.f.'.[.V c.x i.'.>.s.$+p.N.7 B i.T [.f.%.f.[.}.~+N.p.}.,.< , ; . + !.t.R R T R 1.1.0 ] w R 1.t.] w T [.w T T 0 ] w '.",
"&+&+&+&+&+&+&+&+&+&+&+&+&+&+&+&+.+.+>+>+>+>+>+>+!+}+]+T.` ` D . . .     _ b.d.d.U m F U | & &     * . . *   ( . . = . . / . P ,+F+,+E . .   ; {.7 w.m.w.f a M t   *     ;   .   @     @ _         @ X X d.d./.A.5.i.,.W + / A.x+i+n+i+i+V.n.2+2+2+2+2+2+2+2+2+2+I.0.8+8+>+^+|+]+]+.+|+8+n.o.|+|+|+|+]+>+|+8+]+.+|+8+>+>+|+8+^+o.n.8+|+>+|+8+n.D.|+|+|+X n+.+8+|+^+^+^+^+^+^+^+^+^+^+^+^+^+^+^+^+^+^+^+^+^+^+^+^+^+^+^+^+^+^+^+^+^+^+^+^+^+^+^+^+^+^+^+^+^+^+^+^+^+^+^+^+^+^+^+^+^+^+^+^+^+^+^+^+^+^+^+^+^+^+^+^+^+^+^+^+^+^+^+^+^+^+^+^+^+^+^+^+^+^+^+^+^+^+^+^+^+^+^+^+^+^+^+^+^+^+^+^+^+^+^+^+^+^+^+^+^+^+^+^+^+^+^+^+^+^+^+^+^+^+^+^+^+^+^+^+}+}+}+}+}+}+}+}+}+}+}+}+}+}+}+}+}+}+}+}+}+}+}+}+}+}+}+}+}+}+}+}+}+}+}+}+}+}+}+}+}+}+}+}+}+}+}+}+}+}+}+}+}+}+}+}+}+}+}+}+}+}+}+}+}+D.4+}+}+^+4+^+}+}+}+}+}+}+}+}+4+}+|+4+4+9+)+!.].i.2.i.j.].9 h n+4+[+[+[+[+[+[+}+}+}+}+}+}+}+}+}+}+}+}+}+}+}+}+4+V..+4+}+^+}+}+[+[+[+[+[+[+[+[+}+}+}+}+}+}+}+}+}+^+4+}+}+}+h+o.n+h+7+)+=.<.#.1.].'.f.s.g.s.|.O s S V V 4.].4.i.7.v.i.i.i.i.t.~+i.,.}.}.g.g.:.*.'.[.j.N.].[.@+g.@+@+t.f.f.f.1.t.[.'.[.'.f.t.[.j.>.S ~+c.S >.S S g.s.g.>.|.g.g.>.'.f.T '.$+|.*.O S |.M.f.S S g.c.'.#.q g.M.N.@+1.2.,.w f.M.O q :.|.t.R $ , , [ > + $.7.t.[.[.w f.R R w 0 ] 1.1.=.R ] 0 w t.'.w w 0 w ,.1.",
"&+&+&+&+&+&+&+&+&+&+&+&+&+&+&+&+&+&+&+&+&+&+&+]+.+>+|+a+]+j+j+A.C > . . @ @ @   | c &   &     (   *   . 6   . . ; ^ . . . . & . 8.E+q+x # #   C R N.j.j.b f ;.G g   h A.d.  @ 6 ]+S.j+T.h @ d.d.A.i+2+i+n+o.p+T.j 2.b ! . A.h+n+!+n+!+[+i+0.I.4+4+4+[+[+[+!+!+[+8+0.D.8+]+]+8+>+^+8+.+}+h+X ^+}+]+^+|+8+|+|+|+^+.+8+8+]+]+|+|+]+X h+]+8+>+8+>+X 8+^+}+_.^+}+^+}+^+^+}+}+}+}+^+^+^+^+^+^+^+^+^+^+^+^+^+^+^+^+^+^+^+^+^+^+^+^+^+^+^+^+^+^+^+^+^+^+^+^+^+^+^+^+^+^+^+^+^+^+^+^+^+^+^+^+^+^+^+^+^+^+^+^+^+^+^+^+^+^+^+^+^+^+^+^+^+^+^+^+^+^+^+^+^+^+^+^+^+^+^+^+^+^+^+^+^+^+^+^+^+^+^+^+^+^+^+^+^+^+}+}+}+}+}+}+}+}+}+}+}+}+}+}+}+}+}+}+}+}+}+}+}+}+}+}+}+}+}+}+}+}+}+}+}+}+}+}+}+}+}+}+}+}+}+}+}+}+}+}+}+}+}+}+}+}+}+}+}+}+}+}+}+}+}+}+}+}+}+}+}+}+}+}+}+}+}+}+}+}+}+}+}+}+}+}+}+}+>+S.4+}+}+}+}+}+}+}+}+}+}+}+}+}+4+}+|+}+4+9+T.!.].i.2.i.j.2.9 6 n+4+[+4+[+[+[+[+}+}+}+}+}+}+}+}+}+}+}+}+}+}+}+}+4+o.^+4+}+^+4+}+[+[+[+[+[+[+[+[+}+}+}+}+}+}+}+}+}+}+4+^+4+4+>+o.6+n+x+b.1.O N 1.< w '.N O q.%+%+M.>.S s V ].i.,.s S 0 s >.S s S o o a.E.*+*+*+*+d+a.O <.O O E.*.4 o 4 q o O O *.e.e.e.a.a.a.*.a.r.R =.r R 9.9.9.e.r.<.9.e.<.#.*.a.E.a.a.*+E.*+E.G.9.9.#.r %.r.<.E.*+*+e+E.a.*.*.*.q.%+E.*+d+*+*+].V < a a = & . N ~+t.[.R 0 1.T w R ] R 1.1.0 0 #.w [.[.T 0 w 0 y 7 y W ",
"&+&+&+]+]+]+]+]+>+>+>+>+>+>+>+.+>+>+>+>+>+>+>+:+>+:+|+^+&+|+9+o.d = . . .     . . ^   . *   * . # # /     # # #       # #   *   . j B+b+= J T.8.R t.>.3.! v ).G *   y+:+# _ d.r+r+h+i+% h 7+r+r+2+2+2+2+`.|+o+T.< I = . :+h+4+Y.8+]+]+8+8+]+_.&+]+|+]+&+]+|+]+8+^+9+X .+]+9+^+]+8+V.9+>+|+8+_.]+8+^+]+8+]+>+]+|+S.]+8+|+]+]+|+h+0.V.8+9+.+|+8+X >+8+|+.+0.h+^+>+}+}+}+}+}+}+}+}+}+}+}+}+^+^+^+^+^+^+^+^+^+^+^+^+^+^+^+^+^+^+^+^+^+^+^+^+^+^+^+^+^+^+^+^+^+^+^+^+^+^+^+^+^+^+^+^+^+^+^+^+^+^+^+^+^+^+^+^+^+^+^+^+^+^+^+^+^+^+^+^+^+^+^+^+^+^+^+^+^+^+^+^+^+^+^+^+}+^+^+^+^+^+^+}+^+^+^+^+^+^+^+^+}+}+}+}+}+}+}+}+}+}+}+}+}+}+}+}+}+}+}+}+}+}+}+}+}+}+}+}+}+}+}+}+}+}+}+}+}+}+}+}+}+}+}+}+}+}+}+}+}+}+}+}+}+}+}+}+}+}+}+}+}+}+}+}+}+}+}+}+}+}+}+}+}+}+}+}+}+}+}+}+}+}+}+}+}+}+}+4+.+.+4+^+}+}+}+}+}+}+}+}+}+}+}+}+4+}+8+}+4+h+T.!.4.i.2.i.j.4.9 6 n+4+[+4+[+[+4+[+}+}+}+}+}+}+}+}+}+}+}+}+}+}+}+}+4+o.}+4+}+}+4+^+[+[+[+[+[+[+[+[+}+}+}+}+}+}+}+}+}+4+4+^+4+4+o.^+4+6+9+A.0 r.9.w w T '.:.O O *.a.e.o o q q q #.N r #.#.9.r.9.*.9.%.:.p.$+$+G.E.E.d+g.>.[.'.] N.g.'.T '.4.t.j.'.w u N :.}.[.|.>.g.R.1.y y y R 1.,.=.u R 1.=.=.1.=.%.:.|.|.a.g.E.a.N.=.R y R ,.1.=.s.%+++d+g.:.T w s f.~+g.g.%+|.g.5.1 , , + . [ k.$+%.:.f.[.'.R R w R 1.t.R ] ] w N.%.N w 0 0 ,.,.W y 7 7 ",
"&+&+]+]+]+]+]+]+:+:+:+>+>+>+>+.+&+&+]+]+&+&+]+]+]+:+>+2+^+^+|+d.5.6.{./ . . ; & . . ; { ^ . l   @   # # # h h J /.d.d.S.&+/._ @ _ . E E+,+b.o+b.B v.3.m.- L ).E *   J @ % S.7+x+j+A.@ _.r+:+}+4+7+i+2+2+o.h+)+-.P +   /.n+!+!+n+a+S.|+a+]+j+S.d._+j+6+_+_+_+_+_+8+.+|+_.|+>+9+]+>+}+>+4+^+9+I.n.h+8+]+|+|+]+]+|+.+.+|+|+]+|+]+8+>+_.8+|+|+|+8+I.0.9+4+h+p 9+4+^+}+}+}+4+4+}+}+}+}+}+}+}+^+^+^+^+}+}+}+}+}+}+}+}+^+^+^+^+^+^+^+^+^+^+^+^+^+^+^+^+^+^+^+^+^+^+^+^+^+^+^+^+^+^+^+^+^+^+^+^+^+^+^+^+^+^+^+^+^+^+^+^+^+^+^+^+^+^+^+^+^+^+^+^+^+^+^+^+^+^+^+^+^+^+^+^+}+}+^+^+^+^+}+}+^+^+^+^+^+^+^+^+}+}+}+}+}+}+}+}+}+}+}+}+}+}+}+}+}+}+}+}+}+}+}+}+}+}+}+}+}+}+}+}+}+}+}+}+}+}+}+}+}+}+}+}+}+}+}+}+}+}+}+}+}+}+}+}+}+}+}+}+}+}+}+}+}+}+}+}+}+}+}+}+}+}+}+}+}+}+}+}+}+}+}+}+}+}+4+4+S.^+4+^+}+}+}+}+}+}+}+}+}+}+}+}+4+}+8+}+4+h+T.7.4.i.2.i.j.].[ h n+4+[+4+[+[+4+[+4+}+}+}+}+}+}+}+}+}+}+}+}+}+}+}+^+I.}+}+4+}+4+}+[+[+[+[+[+[+[+[+}+}+}+}+}+}+}+}+}+}+4+^+4+^+o.h+4+n+x+l.1.9.#.W [.1.'.'.#.<.G.%+G.G.q.G.d+$+$+d+{.H H 5 M a f +.M 5 5 m t v e I e [ t U 8 . H 9 U 8 3 8 U H U H m 5 5 5 m m } m > [ G 1 [ G G G k i 1 k 1 1 i 1 5 = m } - e e + 1 - | c ( > 1 E & > - ' f / 5 2 9 9 [ ' = . ; 2 L } } . + !.i.t.g.N ] N.'.T T =.0 1.,.R R ] R t.t.%.u u R 1.v.W d < < < ",
"&+&+&+]+]+]+]+]+:+:+:+:+&+&+&+&+&+&+:+:+:+:+:+:+|+>+>+2+7+]+|+/.& . . @ @ @   . . ~ ; . D . 2   Q.i+d.  @ &+x+7+h+|+h+h+}+x+p+_ ` 7+  t l+^.8 J a {.k.k.G M 6.E ~ @   /.r+r+9+]+J _ T.:+&+i+4+4+]+>+4+`.Q.r+-.C / ` S.i+[+4+>+]+9+4+4+^+4+.+4+_.n.]+|+&+|+|+]+]+8+>+n+.+_.8+>+8+^+}+4+^+}+}+4+n..+8+8+]+|+8+]+|+|+.+]+|+]+|+]+]+9+_.S.|+8+|+|+h+X >+4+h+n.S.h+4+}+4+4+4+4+4+4+}+}+}+}+}+^+^+^+^+}+}+}+}+}+}+}+}+}+}+^+^+^+^+^+^+^+^+^+^+^+^+^+^+^+^+^+^+^+^+^+^+^+^+^+^+^+^+^+^+^+^+^+^+^+^+^+^+^+^+^+^+^+^+^+^+^+^+^+^+^+^+^+^+^+^+^+^+^+^+^+^+^+^+^+^+^+^+^+^+}+}+^+^+^+^+}+}+}+}+}+}+}+}+}+}+}+}+}+}+}+}+}+}+}+}+}+}+}+}+}+}+}+}+}+}+}+}+}+}+}+}+}+}+}+}+}+}+}+}+}+}+}+}+}+}+}+}+}+}+}+}+}+}+}+}+}+}+}+}+}+}+}+}+}+}+}+}+}+}+}+}+}+}+}+}+}+}+}+}+}+}+}+}+}+}+}+}+}+}+}+}+4+4+D.}+4+^+4+}+}+}+}+}+}+}+}+}+}+}+4+}+9+}+4+h+A.7.4.2.~.i.j.].[ J n+4+[+4+[+[+4+[+4+}+}+}+}+}+}+}+}+}+}+}+}+}+4+4+.+>+4+}+4+}+}+4+[+[+[+[+[+[+[+[+}+}+}+}+}+}+}+}+}+^+4+^+4+D.>+n+4+[+7+T.R p.N W w '.T w N %.e.e.e.q.e.a.G.q.a.E.(   *   . &   & ' + & & & & + 1 < d 1 L n ' [ 1 ' [ f f + = + + e [ [ ' ! f ! v j 1 A j j Z j j k Z > . 1 1 [ 1 P [ ' = = f B W A d . & i ( & + & - f , f + , - , ! + = + / J _ # = = ' ! j.h.N |.q f.w ! w R #.0 ] ] 0 ,.,.t.1.4 N.[.0 '.,.7 y I d d I ",
"&+&+&+]+]+]+]+]+:+:+:+:+:+:+&+&+&+&+:+:+:+:+:+:+]+>+>+2+2+&+p+T.D b.d.o.Q.:+d.* . b.H . A.2 . . Q.i+n+p+J { &+h+8+^+^+4+>+^+h+]+@ i+i+b.'+'+( % # ; 8.i +.} 6.1 . @ Q.r+r+i+S.% ` <+A.S.i+}+!+4+j+h+>+o.i+<+ ..   d.i+{+5+4+]+a+`.2+2+2+2+i+2+2+X `.2+2+2+2+2+2+.+h+]+]+I.n.9+8+4+4+^+^+}+^+4+}+_.]+h+]+|+|+]+|+8+V.|+8+^+|+]+|+8+.+_.h+^+]+|+9+0..+4+4+4+0.9+}+4+4+4+4+4+4+4+4+}+}+}+^+^+^+^+^+}+}+}+}+}+}+}+}+}+}+^+^+^+^+^+^+^+^+^+^+^+^+^+^+^+^+^+^+^+^+^+^+^+^+^+^+^+^+^+^+^+^+^+^+^+^+^+^+^+^+^+^+^+^+^+^+^+^+^+^+^+^+^+^+^+^+^+^+^+^+^+^+^+^+^+^+^+^+^+^+}+}+}+^+^+}+}+}+}+}+}+}+}+}+}+}+}+}+}+}+}+}+}+}+}+}+}+}+}+}+}+}+}+}+}+}+}+}+}+}+}+}+}+}+}+}+}+}+}+}+}+}+}+}+}+}+}+}+}+}+}+}+}+}+}+}+}+}+}+}+}+}+}+}+}+}+}+}+}+}+}+}+}+}+}+}+}+}+}+}+}+}+}+}+}+}+4+}+}+}+}+}+}+}+D.4+4+^+4+4+}+4+}+}+}+}+}+}+}+}+4+4+h+}+4+9+b.!.].2.~.i.j.V [ ` n+4+[+4+[+[+4+[+4+}+}+}+}+}+}+}+}+}+}+}+}+4+4+4+D.}+4+^+4+}+^+4+[+[+[+[+[+[+[+[+}+}+}+}+}+}+}+}+4+^+h+}+h+0.n+4+4+4+n+A.y }.0 i.:.[.,.1.1.#.<.e.|.s.q.*.a.E.*+E.o ) G.%+d+d+%+*+G.G.N.j.[.|.g.G.*+*+a.G.q.G.q.%+q.G.e.q.a.%+%+%+E.%+%+E.G.G.e.q.$+$+G.G.G.q.G.$+9.:.#.9.9.p.N.p.q.q.q.G.$+q.q.$+r.r.9.R 1.h.h.r.s.G.G.G.q.q.%+d+d+G.%+d+G.}.] , # . - O.>.s N %.p.%.0 < 7 t.f.f.0 0 w ,.N.1.,.0 #.>.0 0 w w y 7 Z A j W ",
"]+&+&+&+]+]+&+]+]+&+&+]+]+&+&+]+&+&+]+]+]+]+]+]+]+]+]+]+]+]+]+]+9+9+9+}+}+n+^+0.  A.b.% x+p @ . Q.i+8+4+h+d.  o+|+]+|+^+2+2+4+h+# )+n+g+Q.q+c.. .   2 & } k ^ . { @ p+r+7+p @ Q.n+^+_.i+7+7+!+4+5+.+&+f+f+A._ Q.h+9+4+}+}+^+^+>+^+}+4+4+}+}+}+4+S.p 9+^+4+>+4+^+|+|+]+|+9+X ]+9+]+|+9+|+]+9+|+9+&+n.]+9+]+|+|+]+}+4+.+9+4+^+}+}+|+n+p h+]+]+9+|+|+X h+|+n+X h+h+|+|+|+|+9+|+|+9+}+}+}+}+}+}+}+}+}+}+4+4+4+4+}+^+}+}+^+^+^+^+^+^+^+^+^+^+^+^+^+^+^+^+^+^+^+^+^+^+^+^+^+^+^+^+^+^+^+^+^+^+^+^+^+^+}+^+^+^+^+^+^+}+^+^+^+^+^+^+^+^+}+}+}+^+^+}+}+}+^+^+^+^+^+^+^+^+^+^+^+^+^+^+^+^+^+^+}+}+}+}+}+}+}+}+}+}+}+}+}+}+}+}+}+}+}+}+}+}+}+}+}+}+}+}+}+}+}+}+}+}+}+}+}+}+}+}+}+}+}+}+}+}+}+}+}+}+}+}+}+}+}+}+}+}+}+}+}+}+}+}+}+}+}+}+}+}+}+}+}+}+}+}+}+}+}+}+}+}+}+}+}+}+}+}+}+4+>+4+}+^+S.^+4+}+^+4+4+}+}+}+}+}+}+}+4+4+9+}+9+4+4+n+M ].g.j.~.2.t.A 9 /.n+4+4+4+4+4+}+4+4+4+4+4+}+}+}+}+4+4+^+h+^+4+}+h+n.}+4+^+}+4+}+}+}+}+}+}+}+}+}+}+}+}+}+}+}+}+}+}+9+}+4+h+o.}+h+9+4+n+9+A.!.N g.s 0 N '.S s >.S s s #.%.O O O *.g.N + q.E.M.%+a.%.:.:.g.@+|.) |.s.%+d+a.*.O :.$ '.N N N 4 q *.*.a.:.*.O |.g.:.4 N *.<.O *.O o O a.N ] 0 0 4 N e.o q O 4 *.*.q q #.r r w + ] 0 N =.<.O %.N |.O a.*+%+G.p.t.! f ! + + j.j.T f.4 :.@+W 7 w w '.f.=.9.T w w '.f.w N w i.f.u :.4 T ! z v = < ].",
"]+&+|+9+]+&+]+|+]+]+|+|+]+&+&+]+]+]+]+]+]+]+]+]+]+]+]+]+]+]+]+]+>+^+}+^+>+4+9+>+h b.A./.n+D.@ {.Q.7+|+}+9+&+J d.9+|+|+}+2+2+4+h+# &+8+g+(+'+'+F 9 . . / - ' |   @   r+S.@ % i+7+4+^+n.:+:+4+4+4+ +&+a+f+8.* &+i+4+4+}+^+^+^+^+^+^+}+}+}+}+}+}+}+}+_.n.4+>+h+.+9+9+&+9+|+&+n+X ]+n+&+]+9+]+|+]+9+9+0.&+|+|+h+&+|+}+4+.+}+^+4+^+}+|+]+&+0.|+h+h+]+h+X |+9+]+S.S.9+9+9+9+|+|+|+9+|+}+}+}+}+}+}+}+}+}+}+4+4+4+4+}+}+}+}+}+^+^+^+^+}+}+}+}+}+}+}+}+}+^+^+^+^+^+^+^+^+^+^+^+^+^+^+^+^+^+^+^+^+}+}+}+}+}+}+^+^+^+^+}+}+^+^+^+^+^+^+^+^+}+}+}+^+^+}+}+}+^+^+^+^+^+^+^+^+^+^+^+^+^+^+^+^+^+^+}+}+}+}+}+}+}+}+}+}+}+}+}+}+}+}+}+}+}+}+}+}+}+}+}+}+}+}+}+}+}+}+}+}+}+}+}+}+}+}+}+}+}+}+}+}+}+}+}+}+}+}+}+}+}+}+}+}+}+}+}+}+}+}+}+}+}+}+}+}+}+}+}+}+}+}+}+}+}+}+}+}+}+}+}+}+}+}+}+4+^+4+4+.+>+}+4+4+}+}+4+}+}+}+}+}+}+}+4+4+9+4+9+4+4+n+{.].u.j.Z i.j.W & d.n+h+4+4+4+4+4+4+4+4+4+4+}+}+}+}+4+4+}+9+}+4+4+^+D.4+4+^+4+4+}+4+}+}+}+}+}+}+}+}+}+}+}+}+}+}+}+4+}+9+}+9+n.n+}+h+4+^+n+A.i.#.*.}.R }.'.'.t.f.T [.f.f.|.N.g.|.$+|.W . g.*+N.<.a.u s.s.$+g.|.|.%.$+G.a.q.d+N.N.}.N 4 4 q g.$+%+d+q.q.G.%+q.$+$+h.h.$+G.s.$+s.M./+M.N.%.R t.@+h.$+d+G.s.d+G.q.d+$+r.d+G.h.~+~+p.4 4 q $+$+s.G.$+d+d+G.:.0 7 < , + f t.@+'.N N.p.t.#.7 R T [.f.N 4 =.f.[.f.N '.T [.'.1., u @+'.,.!.f - + d '.",
"S.7+:+S.:+7+&+&+]+]+&+&+&+]+]+]+]+]+]+]+]+]+]+]+]+]+]+]+]+]+]+]+>+>+>+>+>+>+}+n+A.h A.d.i+n+@ 8.d.7+^+]+^+7+T._ 7+9+|+}+2+2+}+6+# T.|+5+i+w.'+).$.& . 5 ! ! M { .   ` % X 9+x+|+9+>+o.|+9+|+}+^+S.p+T./.  A.r+7+}+}+}+^+^+^+^+}+}+^+^+}+}+}+}+}+^+n+% >+4+^+4+}+|+9+&+n+|+9+&+0.9+9+]+]+h+&+h+|+|+9+0.]+h+]+9+]+4+}+>+S.4+9+^+}+|+|+9+_.|+9+h+|+9+S.n.9+|+h+X n+9+9+9+|+]+9+9+|+}+}+4+4+4+4+}+}+}+4+4+4+4+4+}+}+}+}+}+}+}+}+}+}+}+}+}+}+}+}+}+}+^+^+^+^+^+^+^+^+^+^+^+^+^+^+^+^+}+}+}+}+}+}+}+}+}+}+^+^+^+^+}+}+}+}+}+}+}+}+}+}+}+}+}+}+}+}+}+}+}+}+}+}+}+}+}+}+}+}+}+}+}+}+}+}+^+^+}+}+}+}+}+}+}+}+}+}+}+}+}+}+}+}+}+}+}+}+}+}+}+}+}+}+}+}+}+}+}+}+}+}+}+}+}+}+}+}+}+}+}+}+}+}+}+}+}+}+}+}+}+}+}+}+}+}+}+}+}+}+}+}+}+}+}+}+}+}+}+}+}+}+}+}+}+}+}+}+}+}+}+}+}+}+4+}+}+4+}+}+h+D.4+4+4+4+4+}+}+}+}+}+}+}+}+}+4+4+9+4+4+4+4+n+8.T j.j.~.].j.~.& d.n+h+4+4+4+4+4+4+4+4+4+4+4+}+}+}+}+4+}+4+4+}+h+S..+4+4+}+4+4+}+4+4+}+}+}+}+}+}+4+}+}+}+}+}+4+4+4+4+}+n+D..+9+h+9+4+n+h+)+< h.O t.4 q 4 s [.=.0 R [.>.q :.q O $+|.7 . %.a.[.q *.t.<.*.s.q %.[.s t.%+*.q.s.:.:.h.#.N h.N O s.%+%+q.*.a.a.o O <.#.#.N.q *.~+O :.s.O q q 4 T f.N |.$+*.a.w+a.O %+*.o E.a.O a.q.O *.G.:.|.<.o O |.4 4.N.,.! ! + + i.R.:.N.N }.@+}.R ] ] R j.t.s 4 4 h.t., N 0 '.t.~+t.=.u [.N.i.< + = , B 1.f.",
"@ h S.i+:+&+7+:+9+|+]+]+]+]+]+&+]+]+]+]+]+]+]+|+]+]+|+|+|+]+]+]+]+|+]+]+|+]+&+9+a+@ A./.i+n+h g ` i+8+|+>+7+j+@ &+9+]+]+2+2+^+6+_ A.h+2+7+f+R.w.Q m . 5 M b ;.H a     :+x+n+|+|+.+h+9+9+9+9+]+o.r+A.h @ A.j+4+[+^+}+}+^+^+^+^+}+}+^+^+}+}+4+}+^+}+9+S.p n+4+^+^+|+]+|+9+9+&+n+n.0.x+|+9+]+h+|+|+|+9+]+0.9+9+]+|+9+>+4+o.9+4+4+}+]+h+]+S.o.h+|+9+|+x+p 9+h+h+_.h+9+|+9+9+|+9+9+]+4+4+4+4+4+4+4+4+4+4+4+4+4+4+}+}+4+}+}+}+}+}+}+}+^+^+^+^+^+^+^+^+}+}+}+}+}+}+}+}+}+}+}+}+}+}+}+}+}+}+}+}+}+}+}+}+}+}+}+}+}+}+}+}+}+}+}+}+}+}+}+}+}+}+}+}+}+}+}+}+}+}+}+}+}+}+}+}+}+}+}+}+}+}+}+}+^+}+}+}+}+}+}+}+}+}+}+}+}+}+}+}+}+}+}+}+}+}+}+}+}+}+}+}+}+}+}+}+}+}+}+}+}+}+}+}+}+}+}+}+}+}+}+}+}+}+}+}+}+}+}+}+}+}+}+}+}+}+}+}+}+}+}+}+}+}+}+}+}+}+}+}+}+}+}+}+}+}+}+}+}+}+}+}+4+}+}+4+4+^+h+o.4+}+}+4+4+}+}+4+4+}+}+}+}+4+4+4+9+9+4+4+4+n+l.T |.j.i., ].I & d.n+h+4+4+4+4+4+4+4+4+4+4+4+4+}+}+}+4+4+}+9+}+h+o.}+4+4+}+4+}+^+4+4+}+}+}+}+}+}+4+}+}+}+4+4+4+4+4+9+^+h+0.n+^+n+4+h+h+n+)+< #.g.f.s.N.d+@+h.t.N.N.N.@+N.f.f.g.s.$+N.& g.*+@+e.o b+d+%+$+$+N.[.t.t.M.M.$+s.e.e.r.r.p.:.p.N.s.q.G.%+*+*+d+%+%+d+G.$+g.~+N.~+N.~+N.N.M.N.f.j.~+@+@+~+q.E.%+d+d+d+<.G.%+d+%+d+d+N.$+$+~+N.d+%+%+~+W Q } . [ + ! w.j.0 *.s.N.$+=.$ y 0 '.:.#.s.O #.N.N w $ 0 w N.t.'.w 4 N '.T < + + 9 7 W '.%.",
"7+d.% J :+i+&+:+&+&+]+|+|+&+&+]+]+]+]+]+]+]+|+|+]+]+|+|+|+]+]+]+>+:+:+:+7+7+:+:+h+6 b./.n+4+d.* J r+|+|+^+&+n+J Q.i+]+]+:+2+]+6+_ S.i+9+|+x+l.m.d +.. = M b P M = . i+x+]+n+^+8+x+4+^+h+|+o.&+p+)+{   A.r+]+}+^+^+}+}+}+^+^+^+}+}+^+^+^+}+}+}+^+^+4+9+_.n.h+^+^+]+|+h+]+|+h+]+9+0.S.9+]+9+|+|+]+|+h+|+S.o.|+9+|+9+^+4+D.^+4+}+}+]+9+h+|+X n+]+9+9+h+0.S.n+|+]+n.n+9+9+9+9+9+9+|+4+4+4+4+4+4+4+4+4+4+4+4+4+4+}+}+4+}+}+}+}+}+}+}+^+^+^+^+^+^+^+^+}+}+}+}+}+}+}+}+}+}+}+}+}+}+}+}+}+}+}+}+}+}+^+^+}+}+}+}+}+}+}+}+}+}+}+}+}+}+}+}+}+}+}+}+}+}+}+}+}+}+}+}+}+}+}+}+}+}+}+}+}+}+}+}+}+}+}+}+}+}+}+}+}+}+}+}+}+}+}+}+}+}+}+}+}+}+}+}+}+}+}+}+}+}+}+}+}+}+}+}+}+}+}+}+}+}+}+}+}+}+}+}+}+}+}+}+}+}+}+}+}+}+}+}+}+}+}+}+}+}+}+}+}+}+}+}+}+}+}+}+}+}+}+}+}+}+}+}+}+}+}+}+4+}+4+}+4+}+4+o.4+}+^+4+4+}+}+4+4+4+4+4+4+4+4+4+4+9+}+4+[+n+l.T j.w.w., V A ^ d.n+h+4+4+4+4+4+4+4+4+4+4+4+4+4+4+}+4+4+}+h+4+4+n.h+4+}+}+4+}+^+4+4+4+}+}+}+}+4+4+4+4+4+4+4+4+4+4+9+h+D..+h+h+9+9+h+4+n+)+W q |.t.4 |./+s.) $ ) $ ] %.s $ q q ) |.f.+ %+*+q.d+a.q *.*.O |.:., ] ! $ S |.O q O o o N q q q O q q q.*+*+*+*+a.a.o o q 4 q g.q ] ] w ) q T w 0 , < >.E.d+*+*+%+d+<.O , s.|.N.] ] , < , q *.o *.0 7.} & } + !.w.4.w 0 G.$+N.N 0 u y 1.N #.N.@+O |.f.#.T t.@+N.[.[.[.w N.t.,.< ' [ 1 n ,.,.R N ",
":+i+:+J @ /.7+i+9+]+&+&+]+|+|+|+]+]+]+]+]+|+|+|+]+|+|+|+|+]+]+]+&+|+|+]+]+]+|+9+h+` ` /.i+9+S.  h r+]+|+4+2+9+d./.i+|+|+|+7+|+h+* Q.i+|+_+4+A.V < 8.. . M b e F = = r+r+n+>+9+|+2+4+>+o.S.8+j+&+* { d.i+>+h+^+]+}+}+}+}+^+^+^+^+}+}+^+}+}+}+^+^+9+.+4+9+: }+>+9+|+|+|+9+9+9+9+9+9+p h+]+|+h+&+9+h+&+9+n+0.&+9+9+4+9+>+^+S.9+^+4+|+]+h+h+S.S.9+9+9+|+]+_.n+9+x+X h+n+9+|+9+|+|+h+|+|+9+9+9+9+|+|+4+4+4+4+4+4+4+}+4+}+}+}+}+}+}+}+^+^+^+^+^+^+^+^+}+}+}+}+}+}+}+}+}+}+}+}+}+}+}+}+}+}+}+}+}+}+}+}+}+}+}+}+}+}+}+}+}+}+}+}+}+}+}+}+}+}+}+}+}+}+}+}+}+}+}+}+}+}+}+}+}+}+}+}+}+}+}+}+}+}+}+}+}+}+}+}+}+}+}+}+}+}+}+}+}+}+}+}+}+}+}+}+}+}+}+}+}+}+}+}+}+}+}+}+}+}+}+}+}+}+}+}+}+}+}+}+}+}+}+}+}+}+}+}+}+}+}+}+}+}+}+}+}+}+}+}+}+}+}+}+4+}+}+}+4+4+}+}+}+}+}+}+}+}+}+}+4+}+4+}+4+4+^+S.h+4+}+4+4+}+}+4+4+4+4+4+4+4+4+4+4+9+4+4+4+n+l.T c.w.w.].].W & A.n+h+4+4+4+4+4+4+4+4+4+4+4+4+4+4+4+4+9+}+h+4+>+S.h+4+}+4+4+}+}+}+4+4+4+}+}+4+4+4+4+4+4+4+4+4+4+4+9+}+n.h+4+n+}+h+h+4+x+/.7.N :.@+*.a.g.*.*.h.h.N.N.@+t.t.N.$+~+d+t.- %+e+/+d+*+N.G.d+$+$+~+N.t.~+@+~+$+N.|.$+$+G.N.$+$+d+~+/+d+q.E.E.*+*+*+d+%+%+d+d+/+~+@+N.N.N.N.t.N.N.~+~+/+/+d+E.d+m+%+%+G.N.@+~+[.@+t.N.i.R.c+d+d+%.R , {.9 . = W N.'.T 0 N.t.s #.w w 1.,.R N h.g.s.g.N %.u [.~+'.u '.'.'.t.t.] , [ + 1 !.d T T N #.",
":+S.:+r+:+h % d.|+h+h+|+|+9+|+&+]+]+]+]+]+]+|+|+|+|+|+|+|+]+]+]+:+:+:+:+&+:+:+:+h+/.H ` j+h+|+{ # r+]+|+}+2+|+S.h r+a+a+]+9+|+h+  2+2+a+6+g+7+c.A 6.* . t e G F ^ . y+a+|+h+h+.+D.S..+^+h+p+A.g { /.r+2+9+}+&+a+^+^+^+^+^+^+^+^+^+}+}+}+^+^+^+^+}+}+>+h+S.X n+>+h+&+h+9+|+9+9+|+9+|+X x+]+&+n+]+9+]+|+|+h+_.h+]+4+9+^+h+S.^+4+}+9+|+]+h+h+X 9+9+|+h+n+X 9+n+n+o.S.h+h+]+9+9+|+9+|+9+9+9+9+9+9+|+9+9+4+4+4+4+4+4+}+}+}+}+}+}+}+}+}+}+}+}+}+}+}+}+}+}+}+}+}+}+}+}+4+4+4+4+4+4+4+4+}+}+}+}+}+}+}+}+}+}+}+}+}+}+}+}+}+}+}+}+}+}+}+}+}+}+}+}+}+}+}+}+}+}+}+}+}+}+}+}+}+}+}+}+}+}+}+}+}+}+4+4+}+}+}+}+}+}+}+}+}+}+}+}+}+}+}+}+}+}+}+}+}+}+}+}+}+}+}+}+}+}+}+}+}+}+}+}+}+}+}+}+}+}+}+}+}+}+}+}+}+}+}+}+}+}+}+}+}+}+}+}+}+}+}+}+}+}+}+}+4+}+}+}+4+4+}+}+}+}+}+}+}+}+}+}+4+}+4+}+4+h+.+>+4+4+4+4+4+4+4+4+4+4+4+4+4+4+4+4+9+9+h+4+4+n+{.].g.j.w.w.j.~.& d.n+h+4+4+4+4+4+4+4+4+4+4+4+4+4+4+4+}+9+4+9+9+S.>+4+}+}+4+}+}+4+}+4+4+4+}+}+4+4+4+4+4+4+4+4+4+4+4+h+D.>+9+h+4+9+h+h+x+>+A.< h.*.N.G.E.E.G.%+G.#.4 w 4 N q q #.q 4 0 . O a.s O o R q e.O q O O q f.#.N q q ) :.%.O O O ) *.g.q O O o a.E.%+d+%+%+E.E.o O <.q 4 h.}.u 4 w 4 |.s.a.a.a.*.E.E.4 q O q s N N q q ] ! j E.%+~+7 ! f + . y 1.'.q ) h.~+t.A 0 '.T f.T 0 0 :.p.$+#.#.u u 1.t.'.0 N f.f.[.T d < [ ' $.1 d V V '.[.f.",
"&+:+:+&+:+i+S.J % d.h+h+]+]+|+]+]+]+]+]+]+]+]+|+|+|+]+]+]+|+|+|+7+&+&+:+:+:+7+:+8+` {.` r+9+p+/.# 7+9+8+>+7+|+&+# r+a+|+]+9+]+6+* 2+2+k+_+g+2+y.V $.    9 G Q G ^ 3 T.&+Q.o.o..+7+2+^+n+8+S.D * /.j+:+2+^+>+a+&+^+>+>+^+^+}+^+>+^+}+4+}+^+^+^+^+^+}+}+}+9+0.D.9+&+n+]+|+9+|+]+9+|+]+&+0.9+h+]+|+]+|+h+&+9+9+X x+9+}+9+9+>+S.n+^+|+|+h+|+h+o.S.h+|+n+|+S.o.9+n+9+_.9+n+]+9+h+]+|+9+9+9+9+9+9+9+9+9+9+4+4+4+4+4+4+}+}+}+}+}+}+}+}+}+}+}+}+}+}+}+}+}+}+}+}+}+}+}+}+4+4+4+4+4+4+4+4+}+}+}+}+}+}+}+4+}+}+}+}+}+}+}+}+}+}+}+}+}+}+}+}+}+}+}+}+}+}+}+}+}+}+}+}+}+}+}+}+}+}+}+}+}+}+}+}+}+}+4+4+}+}+}+}+}+}+}+}+}+}+}+}+}+}+}+}+}+}+}+}+}+}+}+}+}+}+}+}+4+}+}+}+}+}+}+}+}+}+}+}+}+}+}+}+}+}+}+}+}+}+}+}+}+}+}+}+}+}+}+}+}+}+}+}+}+}+}+}+4+}+}+}+4+4+4+}+}+}+}+}+}+}+}+}+4+}+4+}+}+h+D.}+}+4+4+4+4+4+4+4+4+4+4+4+4+4+4+4+9+9+h+4+4+x+{.4.u.j.i.4.4.W 9 d.n+h+4+4+4+4+4+4+4+4+4+4+4+4+4+4+4+}+9+4+9+9+o.9+4+}+4+4+}+4+4+}+4+4+4+}+}+4+4+4+4+4+4+4+4+4+4+4+h+0.h+4+h+9+4+h+n+4+.+0+y q |.:.d+E.%+-+++/+$+h.f.N h.u #.N.}.N.).@ j.%+i.f.*.!.h.N.|.p.|.g.M.d+h.p.p.p.p.@+h.h.g.<.G.$+$+s.g.s.s.M.%+-+d+E.d+%+d+%+G.e.<.*.N.$+1.=.R N N.%+E.E.E.%+%+d+g.s.f.f.g.$+$+q.<.s.g.s.e+E.4 ! = + + v.[.:.q q p.N.=.] < I i.V w < T '.N.r.p.4 #.}.p.1.T w N w [.t.'.0 ! + P t 6.1 A 0 4.4.'.s ",
"]+&+&+&+]+|+9+9+T.h % A.r+a+&+a+]+|+]+]+a+]+&+a+:+:+:+:+:+:+:+:+]+]+|+|+]+]+|+|+h+` {.` i+9+h+A.@ <+:+9+^+8+|+h+  7+r+]+|+|+j+]+@ r+j+8+9+i+0+x.5.$.  . 9 z L 8.c   T.T.7+i+9+9+2+2+9+a+)+D   /.h+9+]+]+]+|+]+]+]+]+]+]+]+|+|+|+|+|+|+|+|+|+|+|+|+|+|+]+]+9+_.9+4+n+.+9+}+9+>+4+]+9+h+0.S.9+|+9+|+|+9+|+9+9+S.S.n+^+n+^+h+o.>+h+9+]+9+h+]+n+X h+h+]+h+h+X x+]+n+d.|+|+n+]+9+h+|+9+9+9+9+9+9+9+9+9+9+9+9+|+|+|+|+4+}+}+}+}+}+}+}+}+}+}+}+}+}+}+}+8+8+8+8+8+8+8+8+8+8+8+8+8+|+|+|+|+|+|+|+|+|+|+|+}+}+}+}+}+4+4+4+}+}+}+}+}+}+}+}+}+}+}+}+}+}+}+}+}+}+}+}+}+}+}+}+}+}+4+4+4+4+}+}+}+}+}+}+}+}+}+}+}+}+}+}+}+}+}+}+}+}+}+}+}+}+}+}+}+}+}+}+}+}+}+}+}+}+}+}+}+}+}+}+}+}+}+}+}+}+}+}+4+4+4+4+4+4+4+4+}+}+}+}+}+}+}+}+}+}+}+}+}+}+}+}+}+}+}+}+}+}+}+}+4+4+4+4+4+4+4+4+8+8+|+8+|+h+o.8+4+4+4+4+4+4+4+4+4+4+4+4+4+4+4+4+4+4+8+4+h+p+6.>.j.w.k.4.4.V = A.n+h+4+4+4+4+4+4+4+4+4+4+4+4+4+4+4+}+4+4+}+n+n.h+8+8+8+8+8+8+8+8+}+4+4+4+4+4+4+4+|+9+9+8+8+8+8+h+S..+8+8+n+8+h+n+n+>+|+)+W :.4 |.*.%.%.[.[.0 , ! ) y 4 0 4 #.s.|.q @ 9 a.}.i.N.w O g.<.E.%+O o :.a.a.a.a.*.*.O O *.G.*.e.*.*.*.q.*+*+*+a.O *.|.|.=.}.<.<.q.<.9.:.[.%.|.g.E.*+*+*+*+E.E.a.a.E.*+a.[.#.#.#.N T '.'.a a & & . b R r W 7 R N.r.) u ] W W y < 0 N N.N.|.M.t.u R R 7 y W '.[.t.:.T ,.b , W ].] [.0 w 2.4.[.w y ",
"&+&+&+&+]+]+|+|+a+j+A.% _ T.j+:+|+&+|+a+&+|+a+&+7+7+:+:+:+:+:+:+]+]+|+|+]+]+|+|+n+J {.J 7+9+n+A.  A.a+9+^+8+|+h+@ 7+:+]+9+8+h+&+# r+j+&+>+i+y+6.w.> * . t e [ -   . o+a+7+2+^+4+!+n+|+<+D @ b.(+9+|+]+]+|+|+|+]+]+]+]+]+]+|+|+|+|+|+|+|+|+|+|+|+&+9+]+|+|+h+&+p h+]+|+h+9+|+9+9+|+h+&+n+_.S.n+]+9+]+]+n+]+|+n+d.S.n+&+9+9+]+|+|+]+h+|+h+9+9+S.o.h+n+9+n+_.9+h+9+]+d.n+9+h+9+]+h+9+9+9+9+9+9+9+9+9+9+9+9+9+|+|+|+4+4+}+}+}+}+}+}+4+4+4+4+4+4+4+4+8+8+8+8+8+8+8+8+8+8+8+8+8+8+|+|+|+|+|+|+|+|+|+|+}+}+}+}+4+4+4+4+}+}+}+}+}+}+}+}+}+}+}+}+}+}+}+}+}+}+}+}+}+}+}+}+}+}+4+4+4+4+}+}+}+}+}+}+}+}+}+}+}+}+}+}+}+}+}+}+4+4+4+4+4+4+4+4+}+}+}+}+}+}+}+}+}+}+}+}+}+}+}+}+}+}+}+}+}+}+}+}+4+4+4+4+4+4+4+4+}+}+}+}+}+}+}+}+}+}+}+}+}+}+}+}+4+4+4+4+4+4+4+4+4+4+4+4+4+4+4+4+8+8+|+8+|+h+D.8+4+4+4+4+4+4+4+4+4+4+4+4+4+4+4+4+4+4+8+4+h+j+).>.j.w.k.j.j.W & A.n+h+4+4+4+4+4+4+4+4+4+4+4+4+4+4+4+}+4+4+4+4+D.h+8+8+8+8+8+8+8+8+4+4+4+4+4+4+4+4+8+8+|+8+h+n+^+n+n.8+h+8+8+h+h+h+h+D.x+<+1.}.h.#.g.g.t.t.t.f.f.'.*.G.q.<.e.e.e.G.a.@ f o q T $+[.4.@+@+N.N.s T i.f.f.f.f.f.[.[.[.t.O.'.1.,.'.[.N.G.s.G.g.'.[.].V V W T [.f.T ].V R #.r.G.$+%+B.*+$+|.g.g.M.M.~+|.T 2.].V i.i.W j a + + - i.W =.4 < [.h.4 4 4 1.@+!.y ! 0 t.~+:.:.q N.~+=.0 0 , 1.f.f.f.:.:.w I b I A T 0 N.t.t.,.T T w y ",
"&+&+&+]+]+]+]+]+:+:+a+a+d.% J T.a+a+a+a+:+&+&+a+&+&+:+:+:+:+:+:+]+]+|+|+]+]+|+|+n+h b.h i+h+n+A.; h r+|+^+|+9+h+@ :+:+|+|+9+h+A.` j+|+h+x+.+T.).'+. * . t e P F   . r+i+9+4+4+}+_+|+a+J   ` a+n+|+|+]+]+|+|+|+]+]+]+]+]+|+|+|+|+]+]+]+]+]+]+]+]+|+]+]+9+9+&+x+X n.n+9+9+]+9+9+]+9+]+9+9+9+_.|+|+|+9+9+]+|+h+9+|+0.|+n+]+9+9+S.n+|+h+]+9+h+|+h+_.9+9+h+n+&+d.n+h+n+_.n+|+h+h+|+9+9+9+9+9+9+9+9+9+9+9+9+9+9+9+9+|+4+4+4+4+4+4+4+}+4+4+4+4+4+4+4+4+8+8+8+8+8+8+8+8+8+8+8+8+8+8+8+8+|+|+|+|+|+|+|+|+}+}+}+}+4+4+4+4+}+}+}+}+}+}+}+}+}+}+}+}+}+}+}+}+}+}+}+}+}+}+}+}+}+}+4+4+4+4+}+}+}+}+}+}+}+}+}+}+}+}+}+}+}+}+}+}+4+4+4+4+4+4+4+4+4+4+4+4+4+4+4+4+4+4+4+4+4+4+4+4+4+4+4+4+4+4+4+4+4+4+4+4+4+4+4+4+4+4+4+4+4+4+4+4+4+4+4+4+4+4+4+4+4+4+4+4+4+4+4+4+4+4+4+4+4+4+4+4+8+8+8+8+8+8+S.8+4+4+4+4+4+4+4+4+4+4+4+4+4+4+4+4+4+4+h+4+h+j+).>.c.j.k.i.j.W & A.n+h+4+4+4+4+4+4+4+4+4+4+4+4+4+4+4+4+4+}+h+V.>+h+8+8+8+8+8+8+8+8+4+4+4+4+4+4+4+4+h+|+|+9+h+h+9+]+o.n+9+h+8+h+h+n+&+^+n+<+7 r.4 p.s #.q q %.O |.d+e+*+e+m+G.*.*.r.*.@ ;.E.q.|.E.|.$.$.Z I (.Z $.P v L L v v v L v 9 F } M M +.f $.d d z e z +.M t k G Q ).L [ k Q G k E Z Z ^.].3.6.L P G ).P $.e Q Q $.$.z z e 1 [ , ! N.R u 0 '.M.|.4 }.u [.f.w A < 0 t.f.f.q #.q ~+p.u u ] R N.[.u :.u R y !.! W T w w N.,.y W 0 w 0 7 ",
"&+&+&+&+]+]+]+]+&+:+:+:+a+:+d.% J &+a+&+:+j+:+&+7+7+7+:+:+&+:+7+]+]+|+|+]+]+|+|+n+_ A.J i+9+h+d.` @ r+|+^+^+9+h+_ &+a+h+]+]+n+_.d.:+a+8+!+Q.)+1 O.. . . t 1 !.{.* @ a+4+[+4+4+}+t+T.` # J r+7+^+]+]+|+|+|+]+|+|+]+]+|+|+|+|+|+|+]+]+]+]+]+]+]+]+9+]+|+]+9+&+h+9+X &+n+]+]+h+|+]+|+|+h+|+|+n+X 9+n+&+h+9+]+h+9+n+|+d.9+h+9+h+]+S.n+]+9+|+h+|+9+S.S.h+9+9+n+X n+9+n+S.S.n+9+h+n+|+9+9+9+9+9+9+9+9+9+9+9+9+9+9+9+9+4+4+4+4+4+4+4+4+4+4+4+4+4+4+4+4+8+8+8+8+8+8+8+8+8+8+8+8+8+8+8+8+8+8+8+8+8+8+8+8+4+4+4+4+4+4+4+4+}+}+}+}+}+}+}+}+}+}+}+}+}+}+}+}+4+4+4+4+4+4+4+4+}+4+4+4+4+4+4+}+}+}+}+}+}+}+}+}+4+4+4+4+4+4+4+4+4+4+4+4+4+4+4+4+4+4+4+4+4+4+4+4+4+4+4+4+4+4+4+4+4+4+4+4+4+4+4+4+4+4+4+4+4+4+4+4+4+4+4+4+4+4+4+4+4+4+4+4+4+4+4+4+4+4+4+4+4+4+4+4+4+4+4+4+4+4+4+4+8+8+8+8+8+]+.+8+4+4+4+4+4+4+4+4+4+4+4+4+4+4+4+4+4+4+h+4+h+j+).>.j.j.5.i.j.Z & A.n+h+4+4+4+4+4+4+4+4+4+4+4+4+4+4+}+4+4+4+h+o.4+4+8+8+8+8+8+8+8+8+4+4+4+4+4+4+4+4+h+8+9+8+8+]+x+n.]+n+8+n+h+8+n+h+S.x+x+0+y #.%.9.:.:.q O O o O d+*+*+E.*+%+G.*.4 *.@ 6.*+%+$+*+++. . . . . . & . . . . . . . . . & . . . . . . & & . . . . . . . & . . & . & .       * > *       . . . . ; . . . . . . & - P ).- + i.=.4 4 9.f.@+a.*.$+h.}.1.A < V '.@+j.$ N.#.|.h.%.q #.4 N t.N ] u :.0 ,.B ! f 1.R '.[.R , 7 W u N 0 7 ",
"]+]+&+&+&+]+]+]+:+:+:+:+:+:+:+:+d.@ h &+r+:+:+:+:+:+:+:+:+:+:+:+]+]+|+|+]+]+|+|+h+_ A.J i+4+8+/.b.@ a+7+}+^+9+h+J A.r+9+]+|+n+% Q.r+a+9+i+d.A.$.k.|   ; M 1 P M * @ r+n+4+[+9+h+0+@.  J r+2+h+>+]+|+|+|+|+]+]+]+|+|+|+|+|+|+|+|+]+]+]+]+]+]+]+]+|+|+|+&+9+9+]+h+&+h 9+h+h+9+]+h+&+n+|+&+h+]+]+0.]+h+]+9+h+|+h+|+9+|+d.|+n+9+|+S.h+9+h+|+h+9+|+h+_.p+a+j+j+A.&+a+n+9+X x+n+]+9+h+9+9+9+9+9+9+9+9+9+9+9+9+9+9+9+9+4+4+4+4+4+4+4+4+4+4+4+4+4+4+4+4+8+8+8+8+8+8+8+8+8+8+8+8+8+8+8+8+8+8+8+8+8+8+8+8+4+4+4+4+4+4+4+4+}+}+}+}+}+}+4+4+4+4+4+4+4+4+4+4+4+4+4+4+4+4+4+4+4+4+4+4+4+4+4+4+}+}+}+}+}+}+}+}+}+}+}+}+}+}+}+}+4+4+4+4+4+4+4+4+4+4+4+4+4+4+4+4+4+4+4+4+4+4+4+4+4+4+4+4+4+4+4+4+4+4+4+4+4+4+4+4+4+4+4+4+4+4+4+4+4+4+4+4+4+4+4+4+4+4+4+4+4+4+4+4+4+4+4+4+4+4+4+4+8+8+|+8+8+.+]+8+4+4+4+4+4+4+4+4+4+4+4+4+4+4+4+4+4+4+h+4+n+j+).>.u.w.5.i.j.Q & A.n+h+4+4+4+4+4+4+4+4+4+4+4+4+4+4+}+4+4+4+4+o.h+4+8+8+8+8+8+8+8+8+4+4+4+4+4+4+4+4+8+h+h+8+8+9+|+o.n+9+8+n+n+8+n+>+|+n+r+H W 9.9.=.t.}.}.$+g.G.a.*.:.<.*.g.O *.++++<.@ f a.*.s.E.q.f + a / ; . / / } } } } } } } = & & 5 5 5 + - - . . > & - = + } - + = / # / / & 7 ! , , , , a a ^ & & & 8 ^ ^ ^ ; 3 ^ } m = . . ~.i.N #.O N.f.] *+%+q.N.] 7 0 < [.N.'.s #.N.%.N 1.4 #.*.e.$+s ] N %.t.2.7 < < < f.t.[.0 w 0 w '.N R 0 7 ",
"]+]+&+&+&+]+]+]+:+&+:+:+:+&+:+i+a+:+d.% _ A.a+:+:+:+:+:+7+7+:+&+]+]+|+|+]+]+|+|+8+_ A.J i+4+h+/.A.h A.7+9+}+|+9+` A.j+:+:+i+:+@ r+i+a+4+i+r+u+5.l+l.  ; t e P U & @ r+n+[+4+h+a+@.* D a+7+2+>+4+|+|+|+|+|+]+]+]+|+|+|+|+|+|+|+|+|+|+|+|+|+|+|+|+]+|+]+9+]+|+|+|+n+d._.h+n+|+]+h+9+|+9+9+|+9+9+S.d.h+9+]+n+9+&+h+9+|+S.&+]+|+x+&+S.n+9+9+h+|+9+n+T.d.x+a+j+r+J r+h+n+d.&+n+9+9+h+9+9+9+9+9+9+9+9+9+9+9+9+9+9+9+9+9+9+9+9+9+9+9+9+4+4+4+4+4+4+4+4+8+8+8+8+8+8+8+8+8+8+8+8+8+8+8+8+8+8+8+8+8+8+8+8+4+4+4+4+4+4+4+4+}+}+}+}+4+4+4+4+4+4+4+4+4+4+4+4+4+4+4+4+4+4+4+4+4+4+4+4+4+4+4+4+4+4+4+4+4+4+4+4+}+}+}+}+}+}+}+}+4+4+4+4+4+4+4+4+4+4+4+4+4+4+4+4+4+4+4+4+4+4+4+4+4+4+4+4+4+4+4+4+4+4+4+4+4+4+4+4+4+4+4+4+4+4+4+4+4+4+4+4+4+4+4+4+4+4+4+4+4+4+4+4+4+4+4+4+4+4+4+4+8+8+8+8+8+S.8+8+4+4+4+4+4+4+4+4+4+4+4+4+4+4+4+4+4+4+h+4+h+j+).>.j.k.5.5.2.Z ; A.n+h+4+4+4+4+4+4+4+4+4+4+4+4+4+4+}+4+4+4+^+S.n+4+8+8+8+8+8+8+8+8+4+4+4+4+4+4+4+4+8+n+8+8+n+x+0.8+n+|+h+8+n+n+h+I.x+x+% . 1.9.:.}.R u q $+|.G.|.O N.) ) p.q S /+-+B.@ f a.M.|.a.<.;.+ + = a a a = - - - - - ' - - - - = + + + 5.5.k.5.k.).).).).6.,.! ! + = + } } + , , a a , , + - ' ' + = + + = = 5 t f - + ! $.0 0 u h.$+9.q q E.E.g.] 0 0 W N.f.u N f.N.N.] N T 4 :.q.q.$+:.#.[.1.W < < 7 7 ,.t.'.T w < T g.|.:.}.w b ",
"]+]+]+&+&+]+]+]+&+:+:+&+&+:+:+&+:+a+a+a+A._ % A.7+i+i+:+&+:+:+:+]+]+|+|+]+]+|+|+]+_ l.` i+}+h+` A.b.` i+7+}+|+h+J A.j+:+7+i+d.h i+9+|+9+7+(+f+E+E+,+{ . = 1 L U = . i+4+[+h+|+d.. l j+h+|+]+:+:+|+|+|+|+|+|+|+|+|+|+|+|+|+|+|+|+|+|+|+|+|+|+|+|+|+]+]+h+]+]+9+h+|+x+J A.a+a+a+a+9+|+&+h+h+|+|+n+S.d.i+i+&+i+i+i+j+a+a+d.]+x+a+a+S.h+9+9+h+|+h+9+r+/.r+a+r+x+J a+h+n+9+d.h+h+n+|+9+9+9+9+9+9+9+9+9+9+9+9+9+9+9+9+9+9+9+9+9+9+9+9+4+4+4+4+4+4+4+4+8+8+8+8+8+8+8+8+8+8+8+8+8+8+8+8+8+8+8+8+8+8+8+8+4+4+4+4+4+4+4+4+}+}+}+4+4+4+4+4+4+4+4+4+4+4+4+4+4+4+4+4+4+4+4+4+4+4+4+4+4+4+4+4+4+4+4+4+4+4+4+4+4+4+4+4+4+4+4+4+4+4+4+4+4+4+4+4+4+4+4+4+4+4+4+4+4+4+4+4+4+4+4+4+4+4+4+4+4+4+4+4+4+4+4+4+4+4+4+4+4+4+4+4+4+4+4+4+4+4+4+4+4+4+4+4+4+4+4+4+4+4+4+4+4+4+4+4+4+4+4+4+8+8+8+8+8+D.h+8+4+4+4+4+4+4+4+4+4+4+4+4+4+4+4+4+4+4+h+4+h+a+).S 4.5.).~.~.z * o.n+h+4+4+4+4+4+4+4+4+4+4+4+4+4+4+4+4+h+4+S.^+h+4+8+8+8+8+8+8+8+8+4+4+4+4+4+4+4+4+8+h+8+9+n+8+n.x+h+8+n+8+n+n+]+8+o+J   = 1.p.:.'.p.h.}.N.t.t.g.@+h.p.N.N.p.N.g.g.B.# t %+q+f.q.$+!.< M t t 9 m n v v n n v L P L P +.+.+.P z ,+k.).G G G G 5.k.k.q+A , + {.M L 1 K K c ( * * D D f L +.L v L +.+.} f f + + !.v.y #.h.}.N.0 %.%.9.E.G.#.w ! W t.w ) =.N p.}.R u 0 4.t.|.%+%+$+N.N.2.< + = < W f.'.'.w 0 V '.g.q.%+9.}.W b ",
"&+]+]+]+]+&+&+&+:+:+:+:+:+:+:+:+:+:+:+:+a+a+A._ % d.:+i+7+:+:+:+]+]+|+|+]+]+|+|+&+_ l./.i+}+h+g T.T._ 7+2+}+:+n+_ &+j+:+:+i+X /.i+9+9+2+2+r+x.^.5.9   . . e P U + . x+i+9+h+A.* , (+p+6+6+|+:+(+9+|+|+|+|+|+|+|+|+|+|+|+|+|+|+|+|+|+|+|+|+|+|+|+]+|+9+&+|+h+]+|+a+a+|+J a+a+a+a+9+|+h+|+]+9+9+|+i+A.d.i+r+7+i+:+a+j+j+j+d.|+p+j+&+]+h+9+n+9+h+9+a+:+d.r+a+j+a+d.n+9+n+d.n+|+n+9+9+9+9+9+9+9+9+9+9+9+9+9+9+9+9+9+9+9+9+9+9+9+9+9+4+4+4+4+4+4+4+4+8+8+8+8+8+8+8+8+8+8+8+8+8+8+8+8+8+8+8+8+8+8+8+8+4+4+4+4+4+4+4+4+}+}+}+4+4+4+4+4+4+4+4+4+4+4+4+4+4+4+4+4+4+4+4+4+4+4+4+4+4+4+4+4+4+4+4+4+4+4+4+4+4+4+4+4+4+4+4+4+4+4+4+4+4+4+4+4+4+4+4+4+4+4+4+4+4+4+4+4+4+4+4+4+4+4+4+4+4+4+4+4+4+4+4+4+4+4+4+4+4+4+4+4+4+4+4+4+4+4+4+4+4+4+4+4+4+4+4+4+4+4+4+4+4+4+4+4+4+4+4+4+8+8+8+8+h+D.h+8+4+4+4+4+4+4+4+4+4+4+4+4+4+4+4+4+4+4+h+4+h+a+$.S ].5.).Z ~.z * o.n+h+4+4+4+4+4+4+4+4+4+4+4+4+4+4+h+4+h+4+o.h+4+4+8+8+8+8+8+8+8+8+4+4+4+4+4+4+4+4+8+h+8+h+n+o.h+h+h+h+h+h+n+n+.+G+g     + w |.N j.N 4 4 0 ] s V S q ) q q ) 9.4 N o _ + *.'.w o r j = G t F F C i t t m 9 m t U U F U M M M k ,+(.+.[ 9 n F ).).C q+j j F l.n G E n L n f [ ' f f +.M M M M {.+.f f ! , y 1.,.u u %.9.'.< A [.r.9.a.G.%.0 1.y N #.=.$+4 u =.1.R 1.j.s O %+G.$+9.4 < + ! $.i.,.f.q ].V V 4.S s.E.E.#.#.7 ' ",
"&+&+]+]+]+]+]+]+:+:+:+:+:+:+:+:+:+:+:+:+:+:+:+7+T.J @ /.&+a+:+a+:+:+:+:+:+&+:+i+A.` /.d.j+a+a+h Q.i+@ r+|+8+n+_+@ r+]+]+a+j+@ a+h+7+:+h+4+9+y++. .. . / [ k $.+.;   x+i+h+&+@ ; 4+4+4+4+}+}+}+^+2+2+2+2+2+2+2+2+|+|+|+|+|+|+|+|+|+|+|+|+|+|+|+|+|+|+|+|+|+|+|+|+|+9+h+S.X |+n+|+9+9+]+|+9+|+9+|+h+|+d.&+h+h+|+n+n+h+|+n+9+_.h+h+9+&+h+h+9+n+9+9+h+h+d.h+h+n+n+X h+n+n+|+d.n+h+9+9+9+9+h+h+h+9+9+9+9+9+9+9+9+9+9+9+9+9+9+9+9+9+9+9+9+9+9+9+9+9+9+|+|+|+|+9+9+9+9+8+8+8+8+8+8+8+8+|+9+9+9+9+9+|+9+8+8+8+8+8+8+8+8+8+8+8+8+8+8+8+8+8+8+8+8+8+8+8+8+8+8+8+8+8+8+8+8+8+8+8+8+8+8+8+8+8+8+8+8+8+8+8+8+8+8+8+8+8+8+8+8+8+8+8+8+8+8+8+8+8+8+8+8+8+8+8+8+8+8+8+8+8+8+8+8+8+8+8+8+8+8+8+8+8+8+8+8+8+8+8+8+8+8+8+8+8+8+8+8+8+8+8+8+8+8+8+8+9+9+8+8+8+8+8+8+8+8+8+8+8+8+8+8+8+8+9+8+.+|+|+h+8+8+8+8+8+8+8+8+8+8+8+8+8+8+9+9+4+h+6+h+n+7+f V Q 6.$.$.V e   S.n+h+9+9+h+9+9+9+9+9+8+8+8+8+8+8+|+h+8+h+D.8+h+9+8+8+8+8+8+8+8+8+8+8+8+9+9+9+9+9+h+^+h+j+0+A.h+n+4+n+4+n+n+r+(+_   l = + i.T f.:.[.>.|.s.f.N.N.O.e.G.%+a.E.*+*+*+%+1 m d+%+$+N.%+R . K a f i C a a 5 t 9 m P M M F U F m U [ R.~.).).t 9 +.6.$. .b+d M +.). .n m v v n n 9 > 9 P I z Q k F $.9 f . + W 1.R 4 N h.N.4 R r R t.g.S E.s.M.'.w 0 u.c.@+=.0 0 '.|.s.E.q.o q.G.t.w I + ! , B i.W 0 T w #.}.T T w @+s.g.7 ! = = ",
"&+&+]+]+]+]+]+]+:+:+:+:+:+:+:+:+:+:+:+:+:+:+:+:+:+j+:+` @ /.&+:+7+7+:+:+:+7+:+&+d.b.J A.a+|+p+% Q.r+h d.|+j+&+S._ r+]+a+j+A._ r+4+7+:+9+9+9+o+U F . . a v G P M ; @ r+n+]+J _ A.9+9+|+|+|+|+|+|+:+:+:+:+:+:+:+7+|+|+|+|+|+|+|+|+|+|+|+|+|+|+|+|+|+|+|+|+|+|+|+|+|+n+9+|+S.d.]+n+h+S.n+h+&+9+9+|+|+n+h+_.|+h+9+|+]+n+9+|+n+]+d.x+x+]+]+n+h+]+n+h+n+]+n+_.x+n+h+S.S.n+h+h+d.x+]+n+9+9+h+h+h+h+9+9+9+9+9+9+9+9+9+9+9+9+9+9+9+9+9+9+9+9+9+9+9+9+9+9+|+|+|+9+9+9+9+9+8+8+8+8+8+8+8+8+|+9+9+9+9+9+9+9+8+8+8+8+8+8+8+8+8+8+8+8+8+8+8+8+8+8+8+8+8+8+8+8+8+8+8+8+8+8+8+8+8+8+8+8+8+8+8+8+8+8+8+8+8+8+8+8+8+8+8+8+8+8+8+8+8+8+8+8+8+8+8+8+8+8+8+8+8+8+8+8+8+8+8+8+8+8+8+8+8+8+8+8+8+8+8+8+8+8+8+8+8+8+8+8+8+8+8+8+8+8+8+8+8+8+8+8+8+8+8+8+9+9+8+8+8+8+8+8+8+8+8+8+8+8+8+8+8+8+9+9+V.8+8+h+8+8+8+8+8+8+8+8+8+8+8+8+8+8+9+9+4+h+6+h+n+(+f x $.).P Z V z * S.n+h+9+9+h+9+9+9+9+9+8+8+8+8+8+8+8+h+9+|+V.9+h+8+8+8+8+8+8+8+8+8+8+8+9+9+9+9+9+9+4+h+h+j+&+]+h+n+8+n+h+x+x+d.h   . . + v.T }.u :.%.q.%+d+O q ] s N g.q.%+E.%+d+E.q.+ + |.o #.f.O r . g a f C C a a m m | | t M M F P M m P [ R.2.).{.m } U 6.).$.'+d f +.). .F t n v n [ n 9 n n B L P F F v = + , W W R 4 #.N.R }.%.R R R 4 s s.s.M.:.w 0 0 @+[.] R w w t.|.d+M.r.q.s.|.f.0 , ! f W !.W w 0 T %.}.:.w T T t.%.N , = = = ",
"&+]+]+]+]+]+]+]+&+&+&+&+:+:+:+:+:+:+:+:+:+:+:+:+a+:+:+r+a+/.@ _ S.&+7+7+:+:+:+i+` A.J T.a+]+p+@ A.a+&+@ p+j+p+@ A.a+a+a+a+@ &+r+4+7+a+9+4+h+k+F ).. . a e k P M . ; r+r+/.@ /.r+9+9+|+|+|+|+|+|+7+:+:+:+:+:+7+7+|+|+|+|+|+|+|+|+|+|+|+|+|+|+|+|+|+|+|+|+|+|+|+|+9+9+9+9+9+_.o.h+]+x+&+|+n+]+|+h+h+]+n+x+X ]+n+h+h+h+9+n+9+n+S.d.n+h+S.n+|+n+h+h+9+n+n+d.]+n+x+9+_.n+h+n+S.d.x+h+h+h+h+h+h+h+h+h+9+9+9+9+9+9+9+9+9+9+9+9+9+9+9+9+9+9+9+9+9+9+9+9+9+9+9+9+9+9+9+9+8+8+8+8+8+8+8+8+9+9+9+9+9+9+9+9+8+8+8+8+8+8+8+8+8+8+8+8+8+8+8+8+8+8+8+8+8+8+8+8+8+8+8+8+8+8+8+8+8+8+8+8+8+8+8+8+8+8+8+8+8+8+8+8+8+8+8+8+8+8+8+8+8+8+8+8+8+8+8+8+8+8+8+8+8+8+8+8+8+8+8+8+8+8+8+8+8+8+8+8+8+8+8+8+8+8+8+8+8+8+8+8+8+8+8+8+8+8+8+8+8+8+8+8+9+9+9+9+8+8+8+8+8+8+8+8+8+8+8+8+8+8+8+8+8+8+8+h+I.8+8+9+8+8+8+8+8+8+8+8+8+8+8+8+8+9+9+9+4+h+6+h+n+(+f x ~.5.).2.V z * S.n+h+9+9+h+9+9+9+9+9+9+8+8+8+8+8+h+8+h+V.^+h+h+8+8+8+8+8+8+8+8+8+9+9+9+9+9+9+9+9+8+n+|+n+S.n+4+h+n+n+x+x+:+  . ; & + v.@+#.N %.h.$+d+*+%+*.<.<.g.h.p.w+d+d+%+d+%+d+f } t.q.@+~+E.=.> K a f i c a n n t | | F U U Q P U n - k l+~.).{.m } U 6.).).b+d f M C C F 5 F n F n F 9 n n t M M M - + = B i.R =.%.h.p.f.N.#.#.0 R u ] f.++1.4 N N %.=.] y N u [.t.] 0 M.G.$+9.u 0 V d b !.y 7 W ] 0 s t.:.g.f.'.'.T R u u f } = ; ",
"]+]+]+]+]+]+]+]+:+&+&+&+&+:+:+:+:+:+:+:+:+:+:+:+:+&+:+a+:+r+r+T.% h /.&+7+7+7+i+` A.h A.|+|+j+d./.a+r+_ d.r+` _ p+p+a+j+J J r+(+4+a+a+9+9+h+0+L k.. + a e d P +.. . G+T._ % a+r+9+|+|+|+]+|+|+|+|+|+|+|+|+|+9+9+|+|+|+|+|+|+|+|+|+|+|+|+|+|+|+|+|+|+|+|+|+|+|+9+9+]+n+]+h+S.d.S.n+9+9+]+|+h+|+9+|+h+9+n+n+_.|+n+|+n+9+h+h+h+h+S.S.n+|+]+|+x+|+|+h+9+n+9+_.n+n+n+d.|+n+h+x+X x+h+h+h+h+h+9+h+h+h+9+9+9+9+9+9+9+9+9+9+9+9+9+9+9+9+9+9+9+9+9+9+9+9+9+9+9+9+9+9+9+9+8+8+8+8+8+8+8+8+9+9+9+9+9+9+9+9+8+8+8+8+8+8+8+8+8+8+8+8+8+8+8+8+8+8+8+8+8+8+8+8+8+8+8+8+8+8+8+8+8+8+8+8+8+8+8+8+8+8+8+8+8+8+8+8+8+8+8+8+8+8+8+8+8+8+8+8+8+8+8+8+8+8+8+8+8+8+8+8+8+8+8+8+8+8+8+8+8+8+8+8+8+8+8+8+8+8+8+8+8+8+8+8+8+8+8+8+8+8+8+8+8+8+9+9+9+9+9+9+8+8+8+8+8+8+8+8+8+8+8+8+8+8+8+8+8+8+8+n+I.9+8+9+8+8+8+8+8+8+8+8+8+8+8+8+9+9+9+9+4+8+6+h+n+(+f x V i.k.i.A 1   S.n+h+9+9+h+9+9+9+9+9+9+9+8+8+8+8+h+8+n+D.8+h+9+9+8+8+8+8+8+8+8+8+9+9+9+9+9+9+h+h+h+h+n+&+>+n+n+x+x+x+a+/.@   U } - w.@+@+) %.q p.:.*.O 4 <.9.h.:.=.w q q s.d+G.%+$+L . @+%+@+#.*.=.. g a f i C a k k F | c {.{.8.$.$.$.6.).Q ,+(.).{.m } M 8.).$.q+I } m i i n 5 n n M n L ' [ L H H 5 9 + + W i.=.u %.h.#.N :.s #.h.u u w [.t.S y ) r g.s.g.) ) #.N.N.w T 4 d+g.u 0 0 j d !.$.! ] w T N t.}.|.|.g.N.f.'.w y ,.y 5 / ; ; ",
"]+]+]+]+]+]+]+]+:+:+:+&+:+:+:+:+:+:+:+:+:+:+:+:+&+a+]+&+]+]+&+j+i+&+X % h S.i+i+` A._ (+j+a+]+&+@ :+r+j+@ J _ 7+a+|+j+A.@ :+j+(+7+a+a+:+4+h+0+).6.. / a G E $.M . . y+` @ T.x+a+9+|+|+|+|+|+|+|+|+|+|+9+9+9+|+|+|+|+|+|+|+|+|+|+|+|+|+|+|+|+|+|+|+|+|+|+9+9+9+9+h+|+n+]+9+h+S.d.]+9+n+|+|+h+9+9+9+h+h+&+n+n+_.]+x+|+h+h+9+n+h+n+d.|+h+]+n+]+x+|+n+|+n+x+o.S.n+n+]+d.n+9+n+]+d.n+h+h+h+h+9+9+h+h+9+9+9+9+9+9+9+9+9+9+9+9+9+9+9+9+9+9+9+9+9+9+9+9+9+9+9+9+9+9+9+9+9+9+9+9+9+9+9+9+9+9+9+9+9+9+9+9+8+8+8+8+8+8+8+8+8+8+8+8+8+8+8+8+8+8+8+8+8+8+8+8+8+8+8+8+8+8+8+8+8+8+8+8+8+8+8+8+8+8+8+8+8+8+8+8+8+8+8+8+8+8+8+8+8+8+8+8+8+8+8+8+8+8+8+8+8+8+8+8+8+8+8+8+8+8+8+8+8+8+8+8+8+8+8+8+8+8+8+8+8+8+8+8+8+8+8+8+8+8+8+8+h+h+h+9+9+9+9+9+8+8+8+8+8+8+8+8+8+8+8+8+8+8+8+8+8+8+8+9+S.h+8+8+8+8+8+8+8+8+8+8+8+8+8+9+9+9+9+9+4+8+6+h+n+(+f V A i.i.w.A 1   >+n+h+9+h+h+h+9+9+9+9+9+9+9+8+8+8+h+8+h+I.h+h+8+h+9+9+9+9+9+9+9+9+9+9+9+9+h+h+h+h+h+9+x+o.n+h+x+n+r+`   @ 2 & ' + j.@+@+g.|.N N }.R #.O q N ] ,.j.1.#.q q d+/+d+%+*.t 3 C+C+b+:.*.R . g a f C C a k k m | c {.8.8.2.,+v.6.6.).,+(.F F | ^ H {.).$.q+Q ' m i C F 5 9 n M [ n v v P 5 m = , 7 ,.t.'.N N N O O q [.~+N R 0 =.N.,.] T y h.M.E.a.%+|.h.*.:.[.w '.N.%.q R 7 < b 1 - < W R R }.[.%.#.g.|.|.4.T w W W ;.< . . + = ",
"]+]+]+]+]+]+]+]+:+:+:+:+:+:+:+:+:+:+:+:+:+:+:+:+a+&+|+a+]+a+j+]+:+:+i+i+d.% _ d.` T.  (+a+|+|+r+/.@ d.`   _ /.j+p+j+` @ &+r+&+r+7+a+a+a+9+j+u+v.k.. 5 M G E $.m ; ; A.* J x+7+9+9+9+9+9+9+9+9+|+|+|+9+9+9+9+|+|+|+|+|+|+|+|+|+|+|+|+|+|+|+|+|+|+|+|+|+9+9+9+9+9+9+h+|+n+|+h+9+d.d.n+|+|+n+]+9+9+9+9+9+h+|+h+h+d.]+h+h+x+]+n+n+|+h+d.9+9+&+x+&+n+h+n+]+n+h+d.n+n+n+_.n+n+9+x+_.x+h+h+h+h+9+9+h+h+9+9+9+9+9+9+9+9+9+9+9+9+9+9+9+9+9+9+9+9+9+9+9+9+9+9+9+9+9+9+9+9+9+9+9+9+9+9+9+9+h+h+h+9+9+9+9+9+8+8+8+8+8+8+8+8+8+8+8+8+8+8+8+8+8+8+8+8+8+8+8+8+8+8+8+8+8+8+8+8+8+8+8+8+8+8+8+8+8+8+8+8+8+8+8+8+8+8+8+8+8+8+8+8+8+8+8+8+8+8+8+8+8+8+8+8+8+8+8+8+8+8+8+8+8+8+8+8+8+8+8+8+8+8+8+8+8+8+8+8+8+8+8+8+4+9+9+9+9+9+9+9+h+h+h+9+9+9+8+8+8+8+8+8+8+8+8+8+8+8+8+8+8+8+8+8+8+9+8+]+.+h+8+8+8+8+8+8+8+8+8+8+8+8+9+9+9+9+9+9+4+8+h+h+n+T.f V ].w.2.w.].Q   >+n+h+9+h+h+h+9+9+9+9+9+9+9+9+8+8+9+h+]+.+h+8+8+h+9+9+9+9+9+9+9+9+9+h+h+h+h+h+h+h+h+n+>+.+n+x+T./.  { { { . . + 3.~+~+M.M.|.%.%.u ,.f.g.$+1.7 7 V u %.f.M.a.a.q.a.o = . ].O 4.@+G.=.& g t f i c a C i m ^ | P ).k.b+b+l+,+).$.,+< c | ^ ^ t {.6.).q+!.' t C C n 5 9 F M - f l.;.B = + ! y y R }.:.u q N.<.O p.:.0 4 ] w [.t.w ] i.2.0 g.a.E.c+>.t.$+|.N.f.t.0 N 0 ,.y B e ' e ,.w }.h.N 0 4 %.[.[.V 0 0 T ,.y ! + + = f B ",
"]+]+]+]+]+]+]+]+:+:+:+:+:+:+:+:+:+:+:+:+:+:+:+:+]+|+]+a+a+]+&+a+&+7+7+:+7+r+&+/.@ h # (+a+j+a+:+i+S./.d.7+:+/.@ @ @ h r+:+]+p+&+7+a+j+a+h+j+u+,+x.& M t k E $.9 ; . `   j+a+i+4+a+a+a+a+a+a+a+a+a+a+a+a+a+a+a+|+|+|+|+|+|+|+|+|+|+|+|+9+9+|+|+|+7+7+7+7+7+7+7+7+|+9+]+n+|+|+h+&+S.d.9+n+]+h+9+|+|+|+h+n+9+|+x+&+X h+n+h+h+|+9+n+n+|+d.|+|+|+n+9+h+9+n+9+h+]+d.n+h+S.S.n+h+|+S.&+h+h+h+h+9+9+h+h+9+9+9+9+9+9+9+9+9+9+9+9+9+9+9+9+9+9+9+9+9+9+9+9+9+9+9+9+9+9+9+9+9+9+9+9+9+9+9+9+h+h+h+9+9+9+9+9+8+8+8+8+8+8+8+8+8+8+8+8+8+8+8+8+8+8+8+9+9+9+8+8+8+8+8+8+8+8+8+8+8+8+8+8+8+8+8+8+8+8+8+8+8+8+8+8+8+8+8+8+8+8+8+8+8+8+8+8+8+8+8+8+8+8+8+8+8+8+8+8+8+8+8+8+8+8+8+8+8+8+8+8+8+8+8+8+8+8+8+8+8+8+8+8+9+9+9+9+9+h+h+h+h+h+9+9+9+9+9+8+8+8+8+8+8+8+9+9+8+8+8+8+8+8+8+8+8+h+9+.+|+h+8+8+8+8+8+8+8+8+8+8+9+9+9+9+9+9+9+9+4+8+h+h+n+T.f ].[.O.2.t.4.!.  ^+n+h+9+h+h+h+9+h+9+9+9+9+9+9+9+9+9+h+V.|+h+9+8+h+9+9+9+9+9+9+9+9+h+h+h+h+h+h+h+h+h+n+o.n+x+j+6 .         | 1 (.b+P.++M.++s N T 7 u *.O g.q 4 0 0 u q M.g.g.a.q.q.*.! * A ] w f.o =.. g a f C C a F c l ^ } P 5.O.C+j.w.E+,+).R.= ( ( 3 3 H {.8.).q+i.' m C C 9 5 9 F L 9 f l.B ! , , y =.r r %.}.w :.h.N.p.:.N 0 R '.t.0 0 W 1.y < < |.$+g.) ] N.q.s.N.N w w 0 =.i.! , [ e I f.}.[.R u R R [.t.w 0 0 T '.W b + = , ! y ,.",
"]+]+]+]+]+]+]+]+:+:+:+:+:+:+&+&+:+:+:+:+:+:+:+:+]+]+]+]+&+]+|+|+7+:+:+7+7+:+7+r+A.@ # % J A.a+a+i+7+7+i+7+7+r+h+j+a+r+:+:+|+a+|+7+:+k+a+9+a+k+,+k.. M t d E $.9 . l . b.r+j+9+9+a+a+a+a+a+a+a+a+a+a+a+a+a+a+a+a+|+|+|+|+|+|+|+|+|+|+9+9+9+9+|+|+7+7+7+7+7+7+7+7+9+|+h+|+|+n+|+9+S.S.S.|+n+9+9+|+h+|+9+9+|+h+h+h+n+_.|+|+h+n+h+9+9+x+h+_.n+]+h+h+9+h+h+h+9+h+d.|+n+x+J n+n+n+n+_.h+h+h+9+9+9+h+h+9+9+9+9+9+9+9+9+9+9+9+9+9+9+9+9+9+9+9+9+9+9+9+9+9+9+9+9+9+9+9+9+9+9+9+9+9+9+9+9+h+h+h+9+9+9+9+9+9+9+9+9+9+9+9+9+8+8+8+8+8+8+8+8+8+8+8+9+9+9+8+8+9+8+8+8+8+8+8+8+8+8+8+8+8+8+8+8+8+8+8+8+8+8+8+8+8+8+8+8+8+8+8+8+9+9+9+9+9+9+9+9+8+8+8+8+8+8+8+8+8+8+8+8+8+8+8+8+8+8+8+8+8+8+8+8+8+8+8+8+8+8+8+8+h+h+h+h+h+h+h+h+9+9+9+9+9+9+9+9+8+8+8+8+8+8+9+9+8+8+8+8+8+8+8+8+8+h+9+S.9+h+8+8+8+8+8+8+8+8+8+8+9+9+9+9+9+9+9+9+i+8+n+h+n+T.f ].>.N.4.j.].Q   h+n+h+9+h+h+h+9+h+9+9+9+9+9+9+9+9+h+n+o.h+h+9+9+9+9+9+9+9+9+9+9+9+h+h+h+h+h+h+h+h+h+|+>+h+x+` . '   . 8 & F 5.O.u.++P./+M.>.0 W ,.o E.*+*+q.G.$+a.}.N.|.a.a.a.a.q.q.M   j.s.t.t.a.9.& g a f i c a c 8 l 3 } Q w.q+@+]., w.b+R.O.< ( ( ^ 3 8 +.8.).q+v.= } i C 9 t n n n v f ;.+ + y w =.r N r.h.q < T ~+p.4 N u R t.[.[.0 f.y y 7 x A N.9.r r 0 t.G.O s w T '.N.R ] < b [ k.,.u q f.w w w T w '.w 7 W 1.'.0 b + } f 7 y R ",
"]+&+]+|+]+]+]+9+|+]+]+]+]+]+]+]+]+]+]+]+]+]+|+|+|+|+]+]+]+]+|+|+:+:+:+:+:+:+:+:+:+S.:+i+&+h % J S.:+r+i+:+7+7+:+:+:+:+:+:+:+7+7+h+:+:+7+n+h+s+k.+.+ +.9 m M M 9 > ~ @ r+i+2+a+a+9+9+|+|+|+9+9+9+h+9+9+9+9+|+9+9+|+|+|+|+|+|+9+9+a+a+a+a+a+a+a+a+h+9+9+9+|+|+9+9+9+9+9+9+9+9+9+9+|+S.o.S.n+9+|+9+9+9+9+9+9+9+9+h+n+|+d.&+x+n+|+n+h+9+h+x+_.&+h+n+n+9+h+h+|+n+9+d.x+j+d.j+a+p+p+&+S.n+h+n+|+n+|+h+9+9+9+9+9+9+9+9+9+9+9+9+9+9+9+9+9+9+9+9+9+9+9+9+9+9+9+9+9+9+9+9+9+9+h+h+h+h+h+h+9+9+9+9+9+9+9+9+9+9+9+9+9+9+9+9+8+8+8+8+8+8+8+8+9+9+9+9+9+9+9+9+9+9+9+9+9+9+9+9+8+8+8+8+8+8+8+8+8+8+8+8+8+8+8+8+9+9+9+9+9+9+9+h+8+8+8+8+8+8+8+8+8+8+8+8+8+8+8+8+9+9+9+9+9+9+9+9+9+9+9+9+9+9+9+4+9+9+9+9+9+h+h+h+h+h+h+h+h+h+h+9+9+9+9+9+9+9+9+9+8+8+8+8+8+8+8+8+9+9+9+9+9+9+9+9+9+8+x+o.h+9+9+8+9+9+9+9+9+9+9+9+8+8+8+8+h+h+h+h+8+8+h+h+p+T.Z ].j.O.k.j.4.Q   n+n+h+h+h+h+h+h+h+8+h+h+h+8+8+8+8+8+8+S.h+h+8+n+8+8+8+8+h+h+h+h+h+h+h+j+p+a+n+n+i+n+n.r+u+R.+.. . . {   & j.M.M.O.M.P./+++0 w }.*.a.%+B.B.a.B.d+o O O *.q e.<.O q r y - B #.*.<.>.=.. g t f C C a e n 5 ; } G q+b+= | & C x.E+O.'.= = 5 5 } $.).$.,+k..   8 F } G [ U } t = + + 7.R =.=.9.N.t.4 ] O N.p.%.w '.t.N.w T [.s #.}.) 4 a.q.$+s.N N 4 =.R 0 %.u 1.!., / , d ,.,.1.w R 4 1.=.1.u #.4 %.#.1.v.,.7 7 ! I 1 w w R =.",
"|+|+]+]+]+]+&+&+]+]+]+]+]+]+]+]+]+]+]+]+]+]+|+|+|+]+]+]+]+]+]+|+:+:+:+:+:+:+:+:+:+:+:+:+7+i+:+S.J % h d.:+7+7+i+7+7+7+7+7+7+:+:+]+:+j+i+h+a+s+R.n - +.n L n L P 9 ; d.i+7+7+9+j+9+9+|+|+|+9+9+9+h+9+9+9+9+|+9+9+|+|+|+|+|+|+9+9+a+a+a+a+a+a+a+a+9+9+9+9+|+9+9+9+9+9+9+9+9+9+9+9+|+]+h+d.&+n+|+h+9+9+9+9+9+9+9+9+h+h+n+d.]+n+h+h+9+h+h+9+n+d.&+n+|+h+|+n+|+9+x+d.T.p+a+d.x+p+a+j+d.n+|+9+n+|+x+9+9+9+9+9+9+9+9+9+9+9+9+9+9+9+9+9+9+9+9+9+9+9+9+9+9+9+9+9+9+9+9+9+9+9+h+h+h+h+h+h+9+9+9+9+9+9+9+9+9+9+9+9+9+9+9+9+8+8+8+8+8+8+8+8+9+9+9+9+9+9+9+9+9+9+9+9+9+9+9+9+8+8+8+8+8+8+8+8+8+8+8+8+8+8+8+8+9+9+9+9+9+9+9+h+8+8+8+8+8+8+8+8+8+8+8+8+8+8+8+8+9+9+9+9+9+9+9+9+9+9+9+9+9+9+9+9+9+9+9+9+h+h+h+h+h+h+h+h+h+h+h+9+9+9+9+9+9+9+9+9+8+8+8+8+8+8+8+8+9+9+9+9+9+9+9+9+9+9+n+S.h+9+9+8+9+9+9+9+9+9+9+9+8+8+8+8+h+h+h+h+h+h+h+h+p+T.Z ].j.O.k.4.4.e   h+n+h+h+h+h+h+h+h+8+h+h+h+8+8+8+h+h+]+&+h+h+8+n+8+8+8+8+h+h+h+h+h+h+h+h+j+j+n+4+n+8+]+x+0+M . . & & { * | w.++P.O.M.M./+P.[.0 }.q *+d+*+*+*+*+*+*+q.$+e.G.d+N.r.#.r W + !.:.B.q.M.r.. * a f i c a n 9 l / = P ,+q+;.. i  .5.l+w.i.a a +.{.+.{.P $.O.,+> & l 8 9 f U [ +.+ = ;.v.,.R 4 =.p.:.q %.:.}.4 N.:.[.f.0 '.R [.'.0 |.~+N.h.g.|.$+N.N }.=.u ,.0 f.t.R y ! + d W ,.w T ] N N =.R R u w T f.4.y W < !.7 7 d I R R R =.",
"]+]+]+&+]+|+|+|+]+]+]+]+]+]+]+]+]+]+]+]+]+]+]+]+|+]+]+]+]+]+]+|+:+:+:+:+:+:+:+:+7+7+:+:+:+i+7+:+r+7+S./._ _ /.&+7+7+7+7+7+7+7+7+n+a+:+:+h+p+f+O.1 P $.[ L k k k M . r+i+7+7+9+a+9+9+9+|+|+|+9+9+9+9+9+9+9+9+9+9+|+|+|+|+|+9+9+9+a+a+a+a+a+a+a+a+9+9+9+9+9+9+9+9+9+9+9+9+9+|+9+9+9+9+]+9+_.|+n+h+9+9+9+9+9+9+9+9+|+n+9+n+d.&+h+n+9+9+h+9+x+|+J h+n+h+h+|+h+n+|+h+d.p+a+d.j+j+x+p+S.S.n+h+|+n+9+9+9+9+9+9+9+9+9+9+9+9+9+9+9+9+9+9+9+9+9+9+9+9+9+9+9+9+9+9+9+9+9+h+9+9+h+h+h+h+h+h+9+9+9+9+9+9+9+9+9+9+9+9+9+9+9+9+8+8+8+8+8+8+8+8+9+9+9+9+9+h+h+h+9+9+9+9+9+9+9+9+8+8+8+8+8+8+8+8+8+8+8+8+8+8+8+8+9+9+9+9+9+9+h+h+8+8+8+h+h+8+8+8+8+8+8+8+8+8+8+8+9+9+9+9+9+9+9+9+9+9+8+8+8+8+9+9+9+9+h+h+h+h+h+h+h+h+h+h+h+h+h+9+9+9+9+9+9+9+9+9+8+8+8+8+8+8+8+8+9+9+9+9+9+9+9+9+9+h+]+>+n+9+h+8+9+9+9+9+9+9+9+9+8+8+8+h+h+h+h+h+h+h+h+h+p+T.Z 4.j.w.k.4.4.1   n+n+h+h+h+h+h+h+h+8+h+h+h+8+8+h+h+n+S.|+h+h+h+h+h+8+h+h+h+h+h+h+h+i+9+n+h+t+n+8+x+A.y+<+` ; . .   & * * [ O.++M.u.++s.++++T =.q *.E.*+*+e+*+a.a.*+*.<.<.O 4 q q #.h.,.+ B 9.<.o 0 r . K M f C C a t } l ~ . +.x.E+l+[ [ ).,+E+O.i.;.6.;.+.v {.F P O.w.. . . t l.f G f + , ,.W '.4 T '.[.0 #.N.<.O #.4 N.h.:.w u '.7 7 ] #.N.N.h.#.g.g.t.:.u %.u u W t.'.0 0 < + ;.i.j 7 w T R N.R r #.4 u 1.i.w 7 7 d < 7.y 7 y W w w R R ",
"&+]+|+|+]+&+]+|+]+]+]+]+]+]+]+]+]+]+]+]+]+]+]+]+]+]+]+]+]+]+]+]+:+:+:+:+:+:+:+:+:+:+:+7+:+&+&+7+&+7+i+7+7+:+d.h @ J A.:+i+i+i+i+|+a+r+i+h+a+)+w.. 6.6.- v v L k H . G+a+7+h+9+:+9+9+9+|+|+|+9+9+9+9+9+9+9+9+9+9+9+9+|+|+|+9+9+9+a+a+a+j+j+a+a+a+9+9+9+9+9+9+9+9+9+9+9+9+9+9+9+9+9+n+9+S.h+d.&+n+9+9+9+9+9+9+9+9+]+n+9+|+x+d.S.h+9+n+n+9+|+n+n+d.h+9+h+n+|+|+x+n+]+d.x+&+A.p+p+a+n+_.x+h+9+h+|+h+9+9+9+9+9+9+9+9+9+9+9+9+9+9+9+9+9+9+9+h+h+9+9+9+9+9+9+9+9+9+h+h+9+h+h+h+h+h+h+h+9+9+9+9+9+9+9+9+9+9+9+9+9+9+9+9+8+8+8+8+8+h+h+h+h+h+h+h+h+h+h+h+9+9+9+9+9+9+9+9+8+8+8+8+8+8+8+8+8+8+8+8+8+8+8+8+9+9+9+9+9+h+h+h+8+8+8+h+h+8+8+8+8+8+8+8+8+8+8+8+9+9+9+9+9+9+9+9+8+8+8+8+8+8+8+h+h+h+h+h+h+h+h+h+h+h+h+h+h+h+h+9+9+9+9+9+9+9+9+9+9+9+9+9+9+9+9+9+9+9+9+9+9+9+9+9+h+h+.+8+h+8+h+9+9+9+9+9+9+9+9+9+8+8+h+h+h+h+h+h+h+h+h+h+p+T.~.f.j.w.k.j.j.e   n+n+h+h+h+h+h+h+h+h+h+h+h+h+h+h+h+h+S.h+h+h+h+8+h+h+h+h+h+h+h+h+h+i+i+n+h+p+h+p+n+T.k+D . . *     9 ^ * [ O.M.M.O.M.++++@+T 0 :.s.a.*.E.%+E.E.*+a.<.r.N.G.r.r.9.N 9.1.+ i.N.d+q.@+$+> g M B C C M M l H 8 8 {.).l+F+l+,+A+E+l+i.i.!.7.Q L L ).F P m.'+k | l M ;.y + , i.v.0 4 N G.t.0 0 N.p.p.q.O }.p.:.#.4 0 f.1.7 ] 0 t.$+|.q q t.t.'.4 4 }.w '.7 y W W , 7 W ! W w ] T t.[.f.u N #.9.h.,.W < + j 7 I W 0 0 R 0 R w R R ",
"&+&+]+|+|+]+&+]+]+]+]+]+]+]+]+]+]+]+]+]+]+]+]+]+]+]+]+]+]+]+]+]+:+:+:+:+:+:+:+:+:+:+:+:+:+7+7+:+7+:+:+:+:+:+7+7+i+&+/._ % h d.&+j+r+r+r+r+x+f+'+& x.k.[ n 9 F F = . y+j+:+9+h+7+9+9+9+9+|+|+9+9+9+9+9+9+9+9+9+9+9+9+|+|+9+9+9+9+a+a+a+j+j+a+a+a+9+9+9+9+9+9+9+9+9+9+9+9+9+9+9+h+9+n+]+h+&+|+d.9+9+h+h+9+9+9+h+9+h+h+|+|+n+n+d.S.n+h+|+h+n+|+n+|+d.9+n+9+n+9+9+n+p+A.&+x+/.x+a+a+n+&+d.x+9+9+h+n+9+9+9+9+9+9+9+9+9+9+9+9+9+9+9+9+9+h+h+h+h+h+9+9+9+9+9+9+9+h+h+h+h+h+h+h+h+h+h+9+9+9+9+9+9+9+9+h+9+9+9+9+9+9+9+9+9+9+9+h+h+h+h+h+h+h+h+h+h+h+h+h+9+9+9+9+9+9+9+9+8+8+8+8+8+8+8+8+8+8+8+8+8+8+8+8+9+9+9+h+h+h+h+h+8+8+h+h+h+h+8+8+8+8+8+8+8+8+8+8+9+9+9+9+9+9+9+9+8+8+8+8+8+8+h+h+h+h+h+h+h+h+h+h+h+h+h+h+h+9+9+9+9+9+9+9+9+9+9+9+9+9+9+9+9+9+9+9+9+9+9+9+9+9+9+9+h+h+I.h+h+9+h+9+9+9+9+9+9+9+9+9+h+h+h+h+h+h+h+h+h+h+h+h+x+l.(.f.j.w.3.j.4.Q @ x+n+h+h+h+h+h+h+h+h+h+h+h+h+h+h+h+8+S.n+h+h+h+8+h+h+h+h+h+h+h+h+h+i+i+h+h+h+a+x+&+s+/.. . . .   ^ m 3 ^ 1 @+++M.P.M.++++~+< R 4 M.h.q #.O 4 <.q.O q o %.4 q %.%.N N y + < %.4 o >.r . g = + & ( , & ^ & = / | & F L 6.$.6.$.- Q v.R.v.v.R.R.R.6.x.w.I . 9 } M W + 0 1.=.u R N s.g.w 0 N.t.%.N.q.<.N.h.N N f.N.'.0 ] y =.}.}.|.:.|.t.w 0 w w f.[.=.< W < < ! 7 0 0 1.T 1.f.w ] t.N 9.h.}.R ,.< + L A j W ,.0 u =.0 R w w w ",
"9+]+&+&+]+|+|+|+]+]+]+]+]+]+]+]+]+]+]+]+]+]+]+]+]+]+]+|+|+]+]+]+:+:+:+:+:+:+:+:+7+7+:+:+:+:+:+&+7+:+&+:+7+:+:+7+7+7+i+r+r+&+d.X _ h ` A.:+r+,+w.U l.U | M m t F . ~ y+r+j+h+7+7+9+9+9+9+9+9+9+9+9+9+9+9+9+9+9+9+9+9+|+|+9+9+9+9+a+a+a+j+j+a+a+a+9+9+9+9+9+9+9+9+9+9+9+9+9+9+9+h+h+]+h+n+S.&+|+d.|+h+h+9+9+9+9+9+n+]+n+n+&+n+n+S.d.n+n+|+h+n+9+n+&+d.9+9+9+x+|+h+a+x+/.a+T.&+p+a+]+G+_.9+h+n+9+h+h+h+9+9+9+9+9+9+9+9+9+9+9+9+9+9+h+h+h+h+h+h+9+9+9+9+9+9+h+h+h+h+h+h+h+h+h+h+9+9+9+9+9+9+9+9+h+h+h+h+9+9+9+9+9+9+9+9+9+h+h+h+h+h+h+h+h+h+h+h+h+h+9+9+9+9+9+9+9+9+8+8+8+8+8+8+8+8+8+8+8+8+8+8+8+8+h+h+h+h+h+h+h+h+8+h+h+h+h+h+h+8+8+8+8+8+8+8+8+8+9+9+9+9+9+9+9+9+8+8+8+8+h+h+h+h+h+h+h+h+h+h+h+h+h+h+h+9+9+9+9+h+9+9+9+9+9+9+9+9+9+9+9+9+9+9+9+9+9+9+9+9+9+9+9+9+h+h+S.n+h+9+h+9+9+9+9+9+9+9+9+9+h+h+h+h+h+h+h+h+h+n+h+h+x+l.~.4.j.w.3.j.4.Q @ n+n+h+h+h+h+h+h+h+h+h+h+h+h+h+h+h+]+]+n+h+h+h+h+h+h+h+h+h+h+h+h+h+i+n+h+n+n+p+x+A.l.* * ; . . & U m 3 3 k @+M.M.M.M.++++P.'.$ :.O 9.=.h.9.N :.G.$+s.e.d+#.#.<.q #.#.W + 2.N.%+%+/+N.. * a f ( ( , & } . = = & &   + . . [ + + = + < ! , + = 1 < 1 ' = - +.t + + '.~+p.u u N.$+q #.[.f.%.q N :.e.:.#.) N N N.=., ] y y R w %.h.}.:.0 ] w T '.[.w R y B ! 7 7 0 w %.1.1.f.R w w t.t.p.N N =.W 7 b 7 W R R f.R =.=.R w R R w ",
"&+|+9+]+&+]+]+&+]+]+]+]+]+]+]+]+]+]+]+]+]+]+]+]+]+]+]+|+|+]+]+]+:+:+:+:+:+:+:+:+:+:+:+:+:+:+:+7+&+:+7+:+:+:+:+:+:+&+&+:+7+i+7+7+r+a+T.d.X ` | j m m & = H U H U . ~ <+A.]+h+7+2+9+9+9+9+9+9+9+9+9+9+9+9+9+9+9+9+9+|+|+|+|+9+9+9+a+a+a+a+a+a+a+a+9+9+9+9+9+9+9+9+9+9+9+9+9+9+9+9+]+n+h+&+h+S.n+S.S.]+h+h+9+9+9+9+]+n+9+9+h+]+x+n+]+_.x+h+9+h+9+h+n+]+o.&+n+9+9+h+j+j+a+/.p+d.p+j+9+n+h+_.x+9+9+|+h+h+h+9+9+9+9+9+h+h+9+9+9+9+9+9+h+h+h+h+h+h+h+9+9+9+h+h+h+h+h+h+h+h+h+h+h+h+9+9+9+9+9+9+9+9+h+h+h+h+h+9+9+9+9+9+9+9+9+9+h+h+h+h+h+h+h+h+9+9+9+9+9+9+9+9+9+9+9+9+h+h+h+8+8+8+8+8+8+8+8+8+8+8+h+h+h+h+h+h+h+h+h+h+8+h+h+h+h+h+h+8+8+8+8+8+8+8+8+8+9+9+9+9+9+9+9+9+h+h+h+h+h+h+h+h+h+h+h+h+h+h+h+h+h+h+h+9+9+9+9+h+9+9+9+9+9+9+9+9+9+9+9+9+9+9+9+9+9+9+9+9+9+9+9+9+h+8+.+n+9+h+h+8+9+9+9+9+9+9+9+9+h+h+h+h+h+h+h+h+h+n+h+h+x+b.Z ].4.w.3.4.4.Q @ n+n+h+h+h+h+h+h+h+h+h+h+h+h+h+h+n+S.h+h+h+h+h+h+h+h+h+h+h+h+h+h+h+9+n+h+n+x+x+T.` *   *   . & > F 9 3 8 1 @+M.M.M.M.++++++'.=.h.*.=.R r #.%.O O *.O e.O q <.*.<.q N < + < g.G.E.>.R . @.;.;.-.-.M {.).L 7.f $.+.U {.} M 9 } U 9 | l+v.v.5.~+b+b+@+v.$.f 9 + d 4.@+e.%.#.N.R 0 w '.@+u 4 u N h.%.4 #.#.9.=.=., R 1.,.R w }.h.h.}.u < W ,.W ,.1.] =.!.B ! , < w h.h.u 0 h.:.T '.t.N N T =.1.W < , y R u u h.R R w w R =.=.=.",
"_ o.h+9+]+|+|+&+]+]+]+]+]+]+]+]+]+]+]+]+]+]+]+]+]+]+|+|+|+|+]+]+:+:+:+:+:+:+:+:+:+:+:+:+:+:+:+:+:+:+:+:+:+:+:+:+:+:+:+:+:+:+:+7+a+0+k+r+r+r+R.O.. / 5 5 = = / 5 @   ` @ d.9+7+i+|+9+9+9+9+9+9+9+9+9+9+9+9+9+9+9+|+|+|+|+|+9+9+9+a+a+a+a+a+a+a+a+9+9+9+9+9+9+9+9+9+9+9+9+9+9+9+9+n+|+9+n+|+&+|+n+d.S.9+9+9+9+9+9+h+|+9+h+9+h+|+n+h+9+_.h+n+h+9+h+h+]+9+S.S.n+n+h+j+j+j+S.&+/.j+a+n+9+n+d.&+n+h+h+h+h+h+9+9+9+9+9+h+h+h+9+9+9+9+9+h+h+h+h+h+h+h+9+9+h+h+h+h+h+h+h+h+h+h+h+h+h+9+9+9+9+9+9+9+h+h+h+h+h+h+9+9+9+9+9+9+9+9+9+9+9+9+9+h+h+h+9+9+9+9+9+9+9+9+9+9+9+9+9+h+h+h+h+8+8+8+8+8+8+8+8+8+h+h+h+h+h+h+h+h+h+h+h+8+h+h+h+h+h+h+8+8+8+8+8+8+8+8+8+9+9+9+9+9+9+9+9+h+h+h+h+h+h+h+h+h+h+h+h+h+h+h+h+h+h+9+9+9+9+9+h+9+9+9+9+9+9+9+9+9+9+9+9+9+9+9+9+9+9+9+9+9+9+9+9+n+8+.+n+9+h+9+8+9+9+9+9+9+9+9+9+h+h+h+h+h+h+h+h+8+h+h+h+x+8.Z ].4.j.k.].4.z { x+n+h+h+h+h+h+h+h+h+h+h+h+h+h+h+n+S.x+8+n+h+h+n+h+h+h+h+h+h+h+h+h+h+n+n+6+x+p+h + b.      . . [ [ n c l 1 @+M.++++M./+P.++'.1.~+g.N q q e.e.*.*.*.*.%+q.e.e.<.<.*.h.2.+ W :.%+%+s.h.. g +.+. . .;.P P Q v., G 9 m 9 m U 5 H H . 3 l+G I k.b+t.S , ! M = + v w.j.>.e.<.9.4 u w 2.W 4 r r h.@+}.4 #.%.=.#.R 0 R R ] 7 R N :.#.4 =.r 2.W y 7 w 1.=.R , < f ! !.f.}.q u R @+}.N N T s W T y ,.! 7 y W R 4 R =.=.R T 0 w R =.R ",
"@   6 &+:+a+|+|+>+>+|+&+&+a+:+:+]+]+&+&+]+|+|+]+]+]+]+]+]+]+|+|+]+]+]+]+]+]+]+]+|+|+|+|+|+|+|+|+]+]+]+]+]+]+]+]+|+|+|+|+|+|+|+|+:+a+9+h+j+u+6.k.F U } F ).L v - ; . @ d.r+i+2+7+9+9+|+|+|+9+9+9+a+a+a+a+a+a+a+a+9+9+9+9+9+9+9+9+a+a+a+a+a+a+a+a+9+9+9+9+9+9+9+9+9+9+9+9+9+9+9+9+h+9+9+9+9+|+]+]+n+o.S.h+|+9+9+h+a+a+a+j+j+a+j+j+9+n+9+d.S.h+n+9+n+|+|+n+S.S.h+n+j+j+a+x+d.a+/.p+j+p+a+x+/.a+x+a+9+9+n+n+|+h+n+9+h+h+h+h+h+h+h+h+h+h+h+h+h+h+h+h+h+h+h+h+h+h+h+h+h+h+h+h+h+h+h+h+h+h+h+h+h+h+h+h+9+9+9+9+9+9+9+9+9+9+9+h+h+h+h+h+h+h+h+h+h+h+h+h+h+h+h+h+h+h+h+h+9+h+h+h+h+h+h+h+h+h+h+h+h+h+h+h+h+h+h+h+h+h+h+h+h+h+h+h+h+h+9+9+h+h+8+8+8+8+8+h+9+9+9+9+h+h+h+h+h+h+h+h+h+h+h+h+h+h+h+h+h+h+9+9+9+h+h+h+h+h+h+h+9+9+h+h+h+h+h+h+h+h+h+h+h+h+h+h+9+9+h+h+h+h+h+h+n+S.h+|+n+9+8+h+h+h+h+h+h+h+h+h+h+h+h+h+h+h+h+h+j+n+h+h+y+$.4.j.4.j.3.w.4.[   x+n+n+h+h+h+n+h+h+h+h+n+9+n+h+n+9+S.n+h+n+n+8+n+n+n+|+n+9+h+n+h+r+p+a+x+t+j+J T.r+_ @     / v Z V n 9 m e @+M.++@+++++@+N.q %.p.N <.a.E.*+*+*+*+q.%.9.:.}.}.N 9.r h.=.. 9 #.o >.u =.+ 8 ` F Q Q F M 8.{.l.} t } m | 8 c 9 9 9 } & F+E S /+/+< 9 { n + < i.1.r 4 e.#.#.q u N h.9.4 ] 1.t.}.%.#.$+++#.N N 0 T ,.< 7 0 1.1.R u R t.t.w w 7 7 W 7.;.= + d V j.}.4 u 0 s |.f.%.w =.u =.W !.< 7 7 w 0 f.=.}.u R R =.u R R w w w ",
")+/.    /.&+a+a+9+&+&+h+]+&+]+&+]+|+9+|+]+]+&+&+]+]+]+]+]+]+|+|+]+]+]+]+]+]+]+]+|+|+|+|+|+|+|+|+]+]+]+]+]+]+]+]+]+|+|+|+|+|+|+|+:+a+9+h+o+y+k.5.- ).9 n k $.P + . l A.r+r+7+7+&+9+9+|+|+|+9+9+9+a+a+a+a+a+a+a+a+9+9+9+9+9+9+9+9+a+a+a+a+a+a+a+a+9+9+9+9+9+9+9+9+9+9+9+9+9+9+9+9+9+9+9+9+9+9+|+]+]+n+d.S.n+h+|+h+j+a+a+j+j+j+j+j+n+|+|+n+S.S.n+n+|+n+9+9+n+S.d.9+p+j+j+a+p+/.d.p+p+|+p+p+]+A.j+j+n+h+9+9+h+h+|+h+h+h+h+h+h+h+h+h+h+h+h+h+h+h+h+h+h+h+h+h+h+h+h+h+h+h+h+h+h+h+h+h+h+h+h+h+h+h+h+h+9+9+9+9+9+9+9+9+9+9+9+h+h+h+h+h+h+h+h+h+h+h+h+h+h+h+h+h+h+h+h+h+9+9+h+h+h+h+h+h+h+h+h+h+h+h+h+h+h+h+h+h+h+h+h+h+h+h+h+h+h+h+h+9+h+h+h+h+h+h+h+h+9+9+h+h+h+h+h+h+h+h+h+h+h+h+h+h+h+h+h+h+h+h+h+9+9+9+h+h+h+h+h+h+h+h+h+h+h+h+h+h+h+h+h+h+h+h+h+h+9+h+h+h+h+h+h+h+n+S.h+8+n+8+8+h+h+h+h+h+h+h+h+h+h+h+h+h+h+h+h+h+j+n+h+n+y+).4.4.j.w.3.w.].e @ x+n+n+h+h+h+n+h+h+n+h+n+9+n+h+n+]+9+n+h+n+h+8+n+h+p+G+x+x+n+h+n+h+x+h+j+p+x+&+G+J . @   . 9 !.2.j.n 9 m k @+M.++@+P.++M.M.%.:.h.#.N *.a.*+*+%+%+<.q N 4 N N 9.#.O <.r = i <.a.s #.%.+ l ` c P P m t +.M {.} m } m c c 8 9 9 9 } & f+Z V q+~+A n ` + z v.,.=.r 9.9.%.4 q h.9.u u ) =.=.u w }.N.%.%.N u 4 u R 0 0 W f.'.u u R ,.,.W w 7 y !.W < ! 1 $.7.,.'.u u =.1.}.f.'.w N [.=.1.7 < ] ,.0 T R T N N u =.1.=.u y w w R R ",
"|+r+T._     /.&+:+r+&+&+|+]+|+|+]+]+]+]+|+|+|+|+]+]+]+]+]+]+]+|+]+]+]+]+]+]+]+]+|+|+|+|+|+|+|+|+]+]+]+]+]+]+]+]+]+]+]+|+|+|+|+|+:+a+9+h+a+u+k.d Q Q 1 ' k.6.v.e & ; A.r+r+:+a+r+9+9+9+|+|+9+9+9+a+a+a+a+a+a+a+a+9+9+9+9+9+9+9+9+a+a+a+a+a+a+a+a+9+9+9+9+9+9+9+9+9+9+9+9+9+9+9+9+9+9+9+9+9+9+9+|+&+]+n+d.&+9+h+|+j+a+a+j+j+j+j+j+9+n+h+9+h+|+d.|+x+h+]+]+n+h+h+o.a+a+p+x+j+p+/.d.x+j+p+j+j+d.p+a+9+9+n+h+h+n+9+h+h+h+h+h+h+h+h+h+h+h+h+h+h+h+h+h+h+h+h+h+h+h+h+h+h+h+h+h+h+h+h+h+9+9+9+9+9+9+9+9+9+9+9+9+9+9+9+9+9+9+9+9+h+h+h+h+h+h+h+h+h+h+h+h+h+h+h+h+h+h+h+h+9+9+9+h+h+h+h+h+h+h+h+h+h+h+h+h+h+h+h+h+h+h+h+h+h+h+h+h+h+h+h+h+h+h+h+8+8+h+h+h+h+h+h+h+h+h+h+h+h+h+h+h+h+h+h+h+h+h+h+h+h+h+h+h+9+9+9+h+h+h+h+h+h+h+h+h+h+h+h+h+h+h+h+h+h+h+h+h+h+h+h+h+h+h+h+h+h+S.h+8+h+8+h+8+h+h+h+h+h+h+h+h+h+h+h+h+h+h+h+h+j+n+4+n+u+).4.4.j.O.].j.].z @ x+n+n+n+h+n+n+h+h+n+n+h+h+n+h+n+S.n+8+x+9+n+G+x+G+A.g b.v+y+x+t+x+n+x+x+j+]+x+:+@ . . . ^ P k.w.N.n } m k ~+M.++@+/+P.M.~+:.:.h.#.1.f.g.G.E.<.h.R N p.$+:.}.N.<.o a.<.+ Y %+*+F.%+~++ ^ D m P t M t F m t - m 9 9 c c 9 9 9 9 } & l+).1 7.$.b ' + V N.2.w =.u 4 =.h.R u R #.%.h.}.w ] [.t.N.q N %.u u ] R [.[.t.t.N u =.h.=.y < < I I W Q e ! e Q 1 I T T w }.R u N }.u w T T 0 0 7 , 7 t.1.R w R 0 N =.=.=.u u R w R ,.R ",
"|+&+|+a+&+_   @ /.:+a+:+a+]+&+]+|+]+]+]+]+]+]+|+]+]+]+]+]+]+]+]+|+|+|+|+|+|+|+|+|+|+|+|+|+|+|+|+]+]+]+]+]+]+]+]+]+]+]+|+|+|+|+|+:+a+9+9+a+k+k.' Q Q $.$.R.6.l+l+8.8   d.p+&+r+&+9+9+9+|+|+9+9+9+a+a+a+a+a+a+a+a+9+9+9+9+9+9+9+9+a+a+a+a+a+a+a+a+9+9+9+9+9+9+9+9+9+9+9+9+9+9+9+h+9+9+9+9+9+9+9+9+&+|+h+h+d.S.n+9+a+a+a+a+j+j+j+j+h+h+|+x+|+9+h+d.S.h+x+&+|+h+h+h+A.&+p+a+p+j+|+@ p+x+a+|+x+a+/.x+n+9+h+n+h+h+n+9+h+h+h+h+h+h+h+h+h+h+h+h+h+h+h+h+h+h+h+h+h+h+h+h+h+h+h+h+h+h+h+h+9+9+9+9+9+9+9+9+9+9+9+9+9+9+9+9+9+9+9+9+h+h+h+h+h+h+h+h+h+h+h+h+h+h+h+h+h+h+h+h+9+9+9+h+h+h+h+h+h+h+h+h+h+h+h+h+h+h+h+h+h+h+h+h+h+h+h+h+h+h+h+h+h+h+h+h+h+h+h+h+h+h+h+h+h+h+h+h+h+h+h+h+h+h+h+h+h+h+h+h+h+h+h+h+9+9+9+h+h+h+h+h+h+h+h+h+h+h+h+h+h+h+h+h+h+h+h+h+h+h+h+h+h+h+h+h+8+S.h+h+h+8+h+8+h+h+h+h+h+h+h+h+h+h+h+h+h+h+h+h+j+n+4+n+k+).4.4.4.w.3.j.].G { x+n+n+n+h+n+n+h+h+n+n+9+n+n+h+n+S.n+h+n+n+G+T.@   + . 9 & /.0+x+n+n+n+x+x+0+T.@ @ = = / n $.~.].T n } m G ~+M.++@+P.++M.M.f.:.N :.w R q O o q q 4 r 4 p.N #.O *.a.E.r.+ ^.%+*+/+d+w+, & U F U m H M F t 9 } 9 m } 9 9 9 9 9 9 } = !.e +.M ' + ! 7 T t.0 R ] ] w i.h.=.4 u h.N.p.#.S '.~+t.) 4 u h.1.w $ =.N.h.:.4 N u h.1.0 $ 7 !.I I I d e Q !.Q , I 2.f.:.p.R R 4 }.u '.[.T < < < ,.,.T w =.w 0 u }.}.R 0 0 u R =.'.[.R ",
"&+&+]+&+r+r+A.      d.:+]+9+9+&+&+]+|+|+]+&+]+|+]+]+]+]+]+]+]+]+|+|+|+|+|+|+|+|+|+|+|+|+|+|+|+|+]+]+]+]+]+]+]+]+]+]+]+]+|+|+|+|+:+]+9+h+o+0+x.1 d !.b < + + ' ' H 6 b.@ _ /.o+k+9+9+9+|+|+9+9+9+a+a+a+a+a+a+a+a+9+9+9+9+9+9+9+9+a+a+a+a+a+a+a+a+9+9+9+9+9+9+9+9+9+9+9+9+9+9+9+h+9+9+h+h+9+9+9+9+|+]+9+n+h+d.S.h+j+j+j+j+j+j+j+j+h+|+n+|+n+n+|+n+S.d.h+|+&+x+]+n+j+&+d.p+a+p+j+T.A.p+j+x+a+x+&+A.x+n+&+h+n+|+n+h+h+h+h+h+h+h+h+h+h+h+h+h+h+h+h+h+h+h+h+h+h+h+h+h+h+h+h+h+h+h+h+h+9+9+9+9+9+9+9+9+9+h+h+h+h+h+h+9+h+9+9+9+h+h+h+h+h+h+h+h+h+h+h+h+h+h+h+h+h+h+h+h+h+h+h+h+h+h+h+h+h+h+h+h+n+n+n+n+h+h+h+h+h+h+h+h+h+h+h+h+h+h+h+h+h+h+h+h+h+h+h+h+h+h+h+h+h+h+h+h+h+h+h+h+h+h+h+h+h+h+h+h+h+h+h+h+h+h+h+h+h+h+h+h+h+h+h+h+h+h+h+h+h+h+h+h+h+h+h+h+h+h+h+h+h+h+h+h+|+&+h+h+8+h+n+8+h+h+h+h+h+h+h+h+h+h+h+h+h+h+h+h+j+n+h+n+0+$.4.4.j.w.5.4.4.z 6 x+n+n+n+n+n+n+n+h+n+n+h+n+h+h+h+&+h+x+n+:+b.. f ;.,.,.W W f 2 G+x+x+x+G+y+)+{ * . + . - Q k.O.t.f.n } m k ~+M.++@+P.y.M.@+|.|.9.#.u e.d+d+%+G.q.$+9.h.p.h.q g.%+E.%+9.+ . o *.>.r.g.+ F U | +.M l M M M m } } m 9 9 9 9 9 9 9 9 } b B +.= = b ,.R #.@+u 4 =.R ,.i.u r u }.N.N q }.>.N.s u u #.}.}.0 ] R p.h.N q N N.f.h.u 0 w 7 7 B < 1 k 1 d B W y y ,.R ) R 0 =.R 1.w R ,.T T ,.1.,.w w w N u %.}.=.u R 0 R u R R N R u ",
"]+&+|+]+&+&+j+a+T.@   @ /.:+a+]+9+|+]+&+]+|+|+|+]+]+]+]+]+]+]+]+|+|+|+|+|+|+|+|+|+|+|+|+|+|+|+|+]+]+]+]+]+]+]+]+]+]+]+|+|+|+|+|+:+|+|+h+o+T.x.1 $.!.b f f {.} . . ~ G+T./.A.r+0+9+9+9+|+|+9+9+9+a+a+a+a+a+a+a+a+9+9+9+9+9+9+9+9+a+a+a+a+a+a+a+a+9+9+9+9+9+9+9+9+9+9+9+9+9+9+9+9+9+h+h+h+9+9+9+9+h+|+&+h+h+n+d.&+a+j+p+j+j+j+j+a+h+n+h+9+n+]+n+n+h+|+d.S.&+n+h+h+p+p+j+A.S.x+x+p+/.&+x+a+j+j+x+d.S.x+h+|+x+9+9+n+h+h+h+h+h+h+h+h+h+h+h+h+h+h+h+h+h+h+h+h+h+h+h+h+h+h+h+h+h+h+h+h+h+h+h+h+h+h+h+h+h+h+h+h+h+h+h+h+h+h+9+9+h+h+h+h+h+h+h+h+h+h+h+h+h+h+h+h+h+h+h+h+h+h+h+h+h+h+h+h+h+h+h+n+n+n+n+n+h+h+h+h+h+h+h+h+h+h+h+h+h+h+h+h+h+h+h+h+h+h+h+h+h+h+h+h+h+h+h+h+h+h+h+h+h+h+h+h+h+h+h+h+h+h+h+h+h+h+h+h+h+h+h+h+h+h+h+h+h+h+h+h+h+h+h+h+h+h+h+h+h+h+h+h+h+h+h+h+]+|+h+h+h+h+h+h+h+h+h+h+h+h+h+h+h+h+h+h+h+h+h+h+j+n+h+n+<+$.4.4.u.w.k.].4.e h x+n+n+n+n+n+n+n+h+h+n+n+n+h+h+|+|+n+n+x+/.. f ,.R 4 =.R y y + A.A.T.&+<+b.M . & | ;.v G 5.O.@+N.M.v } 9 k ~+M.M.@+y.++@+N.f.|.N #.<.e.$+E.a.a.a.d+q $ q %.q 4 G.%+%+9.+ * r o >.o :.+ | D m P M t m t M m } 9 m 9 m m 9 } } 9 f f !.B + + 7 N.9.q N.h.q @+h.'.R ] u p.h.4 N N }.h.u ] 0 N N.p.h.:.u }.p.}.u 4 s :.0 w w 0 =.t.1.0 7 ! 1 1 = = y 1.1.W w u u }.R 1.y y ] y R W w T W T w R R h.}.u =.N 0 }.R R 0 R w w T T ",
"&+]+|+]+&+]+|+]+:+a+T.h     ` <+|+9+|+]+]+|+]+&+]+]+]+]+]+]+]+]+|+|+|+|+|+|+|+|+|+|+|+|+|+|+|+|+|+|+|+|+|+|+|+|+|+|+|+|+|+|+|+|+:+|+|+h+o+b.6.' !.B L f M +.= ; . /.y+r+A.h &+j+9+9+9+|+|+|+9+9+a+a+a+a+a+a+a+a+9+9+9+9+9+9+9+9+a+a+a+a+a+a+a+a+9+9+9+9+9+9+9+9+9+9+9+9+9+9+9+9+9+9+h+9+9+9+9+9+|+h+&+&+h+h+n+o.&+|+j+j+j+j+j+a+n+9+n+h+9+n+h+]+h+x+9+n+d._.x+n+a+p+j+j+a+d.&+x+a+% j+p+j+j+a+p+d.9+x+h+h+n+h+h+n+n+n+n+n+n+n+n+n+h+h+h+h+h+h+h+h+h+h+h+h+h+h+h+h+h+h+h+h+h+h+h+h+h+h+h+h+h+h+h+h+h+h+h+h+h+h+h+h+h+9+9+9+h+h+h+h+h+h+h+h+h+h+h+h+h+h+h+h+h+h+h+h+h+h+h+h+h+h+h+h+n+n+n+n+n+n+n+h+h+h+h+h+h+h+h+h+h+h+h+h+h+h+h+j+j+j+j+j+j+j+j+j+j+j+j+j+j+j+j+h+h+h+h+h+h+h+h+h+h+h+h+h+h+h+h+j+j+j+j+j+j+j+j+h+h+h+h+h+h+h+h+h+h+h+h+h+h+h+h+h+h+h+h+h+h+n+n+&+j+j+a+j+j+j+j+h+h+h+h+h+h+h+h+h+h+h+h+h+h+h+h+o+n+4+x+0+).4.].u.w.5.].4.1 _ x+n+n+n+n+n+n+n+h+n+n+n+n+h+n+&+n+h+x+y+= , 1.:.#.,.] y w < = ; @ *   . M t e + 5.;.e j m.'+++M.M.L } 9 e ~+M.M.P.P.y.@+@+%.#.N N r.<.e.G.d+$+<.q.|.g.N.4 u 4 $+%+e+r.. * =.*./+r.h., . D U k G M m t t m } m m } m 9 9 9 m t f } = + , f.h.r.:.$+9.q ) ~+}.] 0 '.@+h.#.u h.N R u ] =.R f.q p.N.%.9.e.q 4 :.f.f.N ! W y 0 R %.#.u 7 7 e ' ' I ,.1.W 0 u N :.h.R R 7 < < y y R 0 ) w w w =.}.%.N u u u R 1.u u u R N '.[.[.",
"&+:+T.&+]+]+.+}+]+|+:+j+T.6     J S.h+n+|+]+|+9+]+]+]+]+]+]+]+]+|+|+|+|+|+|+|+|+|+|+|+|+|+|+|+|+|+|+|+|+|+|+|+|+|+|+|+|+|+|+|+|+:+|+|+n+v+b.6.1 7.f = + = b.. ; @ J y+i+r+T._ a+9+9+9+|+|+|+9+9+a+a+a+a+a+a+a+a+9+9+9+9+9+9+9+9+a+a+a+a+a+a+a+a+9+9+9+9+9+9+9+9+9+9+9+9+9+9+9+9+9+9+9+9+9+9+9+9+h+|+h+&+]+n+n+h+A.&+a+j+j+j+j+j+h+n+9+n+9+h+9+h+h+|+h+9+x+S.d.&+x+a+p+x+j+x+&+A.]+d.d.a+x+a+p+x+9+d.|+x+9+n+h+n+n+n+n+n+n+n+n+n+n+n+h+h+h+h+h+h+h+h+h+h+h+h+h+h+h+h+h+h+h+h+h+h+h+h+h+h+h+h+h+h+h+h+h+h+h+h+h+h+h+h+9+9+9+h+h+h+h+h+h+h+h+h+h+h+h+h+h+h+h+h+h+h+h+h+h+h+h+h+h+h+n+n+n+n+n+n+n+n+h+h+h+h+h+h+h+h+h+h+h+h+h+h+h+h+j+j+j+j+j+j+j+j+j+j+j+j+j+j+j+j+h+h+h+h+h+h+h+h+h+h+h+h+h+h+h+h+j+j+j+j+j+j+j+j+n+n+h+h+h+h+h+h+h+h+h+h+h+h+h+h+h+h+h+h+h+h+n+n+S.p+j+a+j+j+a+j+h+h+h+h+h+h+h+h+h+h+h+h+h+h+h+n+t+n+4+x+0+5.4.V j.w.3.4.4.e @ x+n+n+n+n+n+n+n+h+n+h+n+h+n+n+S.n+h+x+D . i.N <.<.B W y 2.I &   @   . {.6.- + w.w.;.e A u.++++M.$+$.9 9 e ~+M.M.y.P.P.~+@+:.:.%.h.#.4 4 :.h.N ) N O g.g.4 N N O *.a.o [ . 9.*.>.o R < ; D U k G F t M m m = m m } 9 9 9 t +.+.f + } z '.O e.G.e.9.h.) u %.] 4 @+t.%.N :.#.=.4 R ) 0 R '.4 N h.|.g.G.q.q h.N.'.T 0 f !.y w }.:.%.:.7 ! ! e Q 2.=.4 7 y =.R #.N u w f ! b y ] R r r w N.f.4 N N 4 N R R =.R u u R ] 0 T [.N ",
"&+&+]+]+]+&+]+]+]+]+&+]+9+n+S.h     h A.j+r+]+|+|+&+|+h+]+&+|+]+:+:+:+:+:+7+:+:+]+|+|+|+|+|+|+|+|+|+|+|+|+|+|+|+|+|+|+|+|+|+|+|+^+a+9+2+r+5.Y a 7.P . | / ;.. . @ ` x+p+p+a+<+2 :+r+a+r+:+a+:+a+a+a+a+a+a+a+a+a+9+9+9+9+|+|+|+|+a+a+a+a+a+a+a+a+a+a+a+a+a+a+a+a+a+a+a+a+a+a+a+a+9+9+9+9+9+9+9+9+9+9+n+9+d.h+h+|+p+T.A.j+p+j+|+j+j+a+a+j+j+j+j+a+j+j+a+j+j+j+|+&+d.T.j+p+p+x+p+x+2+n.n.0.7+x+i+i+r+:+d.n+x+0+y+u+A+u+p+p+t+t+t+t+p+a+p+p+t+t+t+t+h+h+h+h+n+h+|+n+a+j+j+j+j+j+j+j+j+j+j+j+j+j+j+j+n+n+n+h+h+h+h+h+h+h+h+h+h+h+h+h+h+h+h+h+h+h+h+h+h+h+h+h+h+h+h+h+h+h+h+h+h+h+h+h+n+n+n+n+n+h+h+h+n+n+n+h+h+h+h+h+h+h+h+h+h+h+h+h+h+h+h+n+n+n+n+n+n+n+n+n+n+h+h+h+h+h+h+h+h+h+h+h+h+h+h+h+h+h+h+h+n+n+h+h+h+h+h+h+h+h+h+h+h+h+h+h+h+h+h+h+h+h+h+h+h+h+n+h+h+n+9+n+&+9+n+n+h+n+n+9+h+h+h+h+h+h+h+h+h+h+h+h+h+h+h+h+j+x+4+n+k+!., W u.m.(.4.4.[ @ n+n+n+n+h+h+h+h+h+n+9+n+h+h+9+]+n+n+n+h q e.1.y *.y R %.d+++/+b+A , B R.+ - O.O.y.!.f v w.++%+M.N.;.} | Q '+M.M.M.M.++M.~+t.}.}.:.}.t.h.N q N N.d+p.$+$+$+$+%+E.E.%+B.< / G.r.N.B.r.< & l M G k U F F v k 1 G - v i P 8.;.a , = 3.r.#.#.<.M.O s.s.}.%.N N #.h.N.<.u h.}.#.u 0 y 7.N =.=.w R u w t.h.r.p.#.T '.T t.j.0 0 u =.1.,.7 ! < y t.1.N }.N 4 =.}.,.R y 7 < b 7 7 7 w 1.%.[.f.#.}.4 N 4 #.[.s %.:.:.=.[.[.T [.'.u 0 ",
"]+]+]+]+]+]+|+]+&+]+]+]+&+|+9+|+T.J     @ /.:+r+a+p+a+&+]+a+|+|+:+7+7+:+:+:+:+:+|+|+|+|+|+|+|+|+|+|+|+|+|+|+|+|+|+|+|+|+|+|+|+|+}+a+|+g+x+k.Y + 7.$.[ | / ;.; *   ` x+n+h+a+p+&+J :+r+:+a+j+a+:+a+a+a+a+a+a+a+a+9+9+9+9+|+|+|+|+a+a+a+a+a+a+a+a+a+a+a+a+a+a+a+a+a+a+a+a+a+a+a+a+9+9+9+9+9+9+9+9+9+h+h+]+9+o.n+n+a+p+]+d.j+a+x+a+j+j+j+j+a+a+a+j+j+j+a+j+j+j+a+&+x+]+A.d.S.a+p+j+t+G+-.T.@.T.0+y+r+x+|+S.p+p+o+A.b.J 2+x+i+9+n+i+i+7+D.`.i+2+i+i+9+9+h+h+h+9+h+h+a+a+j+j+j+j+j+j+j+j+j+j+j+j+j+j+n+n+h+h+h+h+h+h+h+h+h+h+h+h+h+n+h+h+h+h+h+h+h+h+h+h+h+h+h+h+h+h+h+h+h+h+h+h+h+h+n+n+n+n+n+h+h+h+h+h+h+h+h+h+h+h+h+h+h+h+h+h+h+h+h+h+h+n+n+n+n+n+n+n+n+n+n+n+h+h+h+h+h+h+h+h+h+h+h+h+h+h+h+h+h+h+n+n+h+h+h+h+h+h+h+h+h+h+h+h+h+h+h+h+h+h+h+h+h+h+h+h+n+h+h+n+h+9+|+h+n+n+h+n+n+h+h+h+h+h+h+h+h+h+h+h+h+h+h+h+h+n+a+n+n+x+0+!.! W u.w.5.4.].e h x+n+n+n+h+h+h+h+h+n+h+n+h+n+&+h+n+n+n+j+p.q.,.7.e.W 7 t.~+~+O.Z [ $.7.+ + (.m.@+y.!.[ L w.++%+M.N.W } | G '+M.M.M.s.M.++~+s }.N #.%.4 u q q %.4 O ) *.O *.<.q.a.O a.B.< . <.O 1.a.e.! = l F P F l t P {.n - v n 9 n M ;.! , , i.].4 N N.~+$ *.d+G.s s q :.N.N }.p.t.1.}.%.u 1.,.b w R [.R w 0 0 t.N.:.#.4 w '.'.].0 0 [.p.1.R 7 7 y W W ,.R w }.N =.R u 0 y y < ! ! 7 y R R '.N N u %.f.#.t.f.#.4 q :.:.#.t.'.T 0 N w N [.",
"&+&+&+&+&+&+&+&+|+]+]+|+&+&+|+h+a+a+&+d._     J &+:+a+a+j+:+&+:+&+]+]+]+]+a+a+a+|+|+|+|+|+|+]+]+|+|+|+|+|+|+|+|+|+|+|+|+|+|+|+|+4+a+a+g+i+^.Y a 7.Q k . = ;..     ` G+h+9+9+h+j+A.h r+a+:+a+a+a+a+a+a+a+a+a+a+a+|+|+|+|+|+|+9+9+a+a+a+a+a+a+a+a+a+a+a+a+a+a+a+a+a+a+a+a+a+a+a+a+9+9+9+9+9+9+9+9+9+9+h+|+h+&+S.n+a+j+j+j+d.a+a+x+]+x+p+a+j+p+a+a+a+j+j+j+j+j+a+|+p+x+p+p+a+T.T.A.S.S.x+o.x+S.0.S.d.d.&+` <+u+y+U $.+ (+r+r+r+i+x+y+0+# T.7+x+i+r+x+n+|+n+n+|+n+9+j+j+j+j+j+j+j+j+p+p+p+p+p+p+p+p+n+n+h+h+h+h+h+h+h+h+h+h+h+h+h+h+h+h+h+h+h+h+h+h+h+h+h+h+h+h+h+h+h+h+h+h+h+h+h+h+n+n+n+n+h+h+h+h+h+h+h+h+h+h+h+h+h+h+h+h+h+h+h+h+n+n+n+n+n+n+n+n+n+n+n+n+n+n+n+n+h+h+h+h+h+h+h+h+h+h+h+h+h+h+n+n+n+n+h+h+h+h+h+h+h+h+h+h+h+h+h+h+h+h+h+h+h+h+h+h+h+h+h+h+h+n+n+&+h+n+n+h+h+h+h+h+h+h+h+h+h+h+h+h+h+h+h+h+n+n+n+n+o+n+n+x+0+!.y W u.w.5.4.V e /.x+n+n+n+h+h+h+h+n+n+n+n+h+x+S.n+n+n+n+j+N e.,.y :.< W l+i.I ' . l i.- + I 2.w.~+g.$.' v w.++++s.t.W } | G @+M.M.++++/+M.~+N.q #.%.#.%.p.e.O <.<.d+G.$+<.q.q.d+$+G.q.%+! + q.e.[.B.G.] = l m U {.H U F m M & +.t M t t + , 0 f.t.] t.@+N.|.g.G.G.a.4 %.:.p.4 ) f.}.R u N N =.f.! ! R '.R ] 0 [.f.f.%.9.N u N.[.0 T w 1.1.R w 7 I d y W w R R R }.R R 0 w R w y < 7 7 R R =.=.R u u N #.t.t.:.w w N N N.[.t.R 0 0 w f.f.f.f.",
"]+]+&+&+&+]+]+]+]+&+&+|+]+]+&+&+]+9+|+a+a+A.6     _ d.a+j+a+a+a+a+a+]+]+]+|+]+]+|+|+|+|+|+|+|+|+|+|+|+|+|+|+|+|+|+|+|+|+|+|+|+|+}+a+a+g+7+^.Y M i.Q G > } {.. *   @ i+r+i+9+|+i+x+d./.r+a+:+a+j+a+a+a+a+a+a+a+a+|+|+|+|+|+|+9+9+a+a+a+a+a+a+a+a+a+a+a+a+a+a+a+a+a+a+a+a+a+a+a+a+9+9+9+9+9+9+9+9+|+h+|+h+|+n+o.]+j+j+j+a+p+d.]+j+x+]+a+x+a+a+p+a+a+j+j+j+j+j+j+a+]+j+j+p+j+a+p+x+r+r+@ d.r+r+(+A.)+u+y+A.^ f+A+v.c.m.A+E+E+A+F U C+C+E+E+ .> x.x.&+n+h+h+h+|+n+9+j+j+j+j+j+j+j+j+p+p+p+p+p+p+p+p+n+n+h+h+h+h+h+h+h+h+h+h+h+h+h+h+h+h+h+h+h+h+h+h+h+h+h+h+h+h+h+h+h+h+h+h+h+h+n+n+n+n+n+h+h+h+h+h+h+h+h+h+h+h+h+h+h+h+h+h+h+h+h+n+n+n+n+n+n+n+n+n+n+n+n+n+n+n+n+n+h+h+h+h+h+h+h+h+h+h+h+h+n+n+n+n+n+n+h+h+h+h+h+h+h+h+h+h+h+h+h+h+h+h+h+h+h+h+h+h+h+h+9+n+h+n+n+S.n+n+h+h+h+h+h+n+h+h+h+h+h+h+h+h+h+h+n+n+n+n+n+n+o+h+n+n+)+!.2.2.u.m.5.i.].1 b.x+n+n+n+n+h+h+n+n+n+n+n+n+n+S.n+n+n+n+x+t.<.!.B }.z $.).+ . . @ J ' + ,+V @+|.++++Q ' v w.++++s.t.W } > G O.M.M.++++M.++~+#.}.:.q %.:.:.%.e.O O o *.*.o O o *.o o <.a.+ . <.<.f.*+d+] . 8 & & ^ * n 9 | 9 & 9 } v a + , s.++M.:.N.N.] g.~+G.O G.*.q p.}.f.N :.%.u u u u u =.1.7 W f.w 0 =.'.R 0 0 #.}.p.}.f.] 0 T u h.R 7 0 w W d R =.w =.1.=.=.=.1.R ,.W ] 0 , y R 1.R R R w R R :.t.#.] w :.N :.}.%.#.}.R T [.0 N R N w ",
"&+&+]+&+&+&+]+|+&+&+]+|+&+]+|+]+&+&+]+a+:+a+a+)+/._   @ J T.r+:+a+a+a+a+a+a+a+a+|+|+|+|+|+|+|+|+|+|+|+|+|+|+|+|+|+|+|+|+|+|+|+|+|+0+a+g+r+x.Y } i.I G [ m {.. * . ~ r+r+:+i+i+|+a+r+/./.r+r+:+a+a+a+a+a+a+a+a+a+|+|+|+|+|+|+|+|+a+a+a+a+a+a+a+a+a+a+a+a+a+a+a+a+a+a+a+a+a+a+a+a+9+9+9+9+9+9+9+9+|+n+|+9+n+|+9+S.p+a+a+a+a+x+T.T.a+p+j+a+a+a+a+j+a+j+j+j+a+j+j+j+a+|+p+p+p+p+j+p+'+P.c.C+c.q+q+q+v.v.F+F+A+R.w.~+B+B+q+b+C+'+& . . 3.'+l+| | & . J n+x+9+9+9+n+9+j+j+j+j+j+j+j+j+p+p+p+p+j+j+j+j+h+h+h+h+h+h+h+h+h+h+n+n+n+h+h+h+h+h+h+h+h+h+h+h+h+h+h+h+h+h+h+h+h+h+h+h+h+n+n+n+n+n+h+h+h+h+h+h+h+h+h+h+h+h+h+h+h+h+h+h+h+n+n+n+n+n+n+n+n+n+n+n+n+n+n+n+n+n+n+n+h+h+h+h+h+h+h+h+h+h+n+n+n+n+n+n+n+n+h+h+h+h+h+h+h+h+h+h+h+h+h+h+h+h+h+h+h+h+h+h+n+n+h+n+n+n+n+S.n+n+h+h+n+h+h+n+h+h+h+h+h+h+h+h+n+n+n+n+n+n+n+n+v+h+n+x+)+$.2.,.u.m.(.2.].[ d.x+n+n+n+n+n+n+n+n+n+h+n+n+|+|+h+n+p+n+a+t.s.B + ] R.).. . . @     - w.~+~+t.++++g.!.[ L w.++++M.N.;.} & k @+M.++M.++++++~+t.#.q p.O %.e.q.$+q.q.q.a.*.a.a.<.e.*.e.r.E.! + O <.N.*+$+] + H c [ | & - + & & 8.+.f ! + W ~+s.%+d+$+N ] >.g.M.O O $+G.N #.h.N.t.w 0 T 1.=.R =.=.f.,.< R 0 N [.=.] w '.h.:.N u [.N '.[.R R ] 0 W w T 2.=.=.R u u 0 w R i.W 0 < , T w 1.R =.u u R R '.=.N #.N u ] }.f.}.#.u :.}.0 N w ] 0 ] 0 R ",
"]+]+]+]+&+&+&+&+]+|+|+]+&+&+|+]+9+]+]+]+]+:+a+:+a+a+d._     h d.a+a+a+a+]+&+]+a+|+|+|+|+|+|+|+|+|+|+|+|+|+|+|+|+|+|+|+|+|+|+|+|+9+k+a+i+r+O.Y f 7.d i k m +.. * . ` G+r+:+i+i+]+:+j+r+X d.r+j+:+a+a+a+a+a+a+a+a+|+|+|+|+|+|+|+|+a+a+a+a+a+a+a+a+a+a+a+a+a+a+a+a+a+a+a+a+a+a+a+a+9+9+9+9+9+9+9+9+h+]+h+9+h+]+h+]+&+a+j+p+|+j+x+T.A.j+p+|+p+p+a+j+a+j+j+a+a+j+j+j+|+]+j+j+a+j+a+x+b+w.V w.+ j A j + . & } + + , + [ + , + = . # X ` /.J # d.d.X _.d.n+h+9+n+h+9+h+j+j+j+j+j+j+p+p+p+p+p+j+j+j+j+j+h+h+h+h+h+h+h+h+n+n+n+n+n+n+h+h+h+h+h+h+h+h+h+h+h+h+h+h+h+h+h+h+h+h+h+h+n+n+n+n+h+h+h+h+h+h+h+h+h+h+h+h+h+h+h+h+n+n+n+n+n+n+n+n+n+n+n+n+n+n+n+n+n+n+n+n+n+h+h+h+h+h+h+h+n+n+n+n+n+n+n+n+n+n+n+n+n+n+h+h+h+h+h+h+h+h+h+h+h+h+h+h+h+h+h+h+h+h+h+h+n+n+n+n+n+n+n+&+n+h+h+h+n+h+h+n+h+h+h+h+h+h+n+n+n+n+n+n+n+n+n+n+v+h+n+x+)+I 4.,.u.m.(.4.].' A.x+n+n+n+n+n+n+n+n+n+h+n+n+&+n+9+x+p+x+:+s *.+ M @+n & ; ;   . . | w.O.O.~+M.@+~+S !.f v k.M.M.M.@+;.} & G '+++++M.M.++++M.|.4 h.q h.N q O q *.O $+w+d+d+%+d+d+<.*.<.a.f . O <.f.a.G.$ + 9 1 d z [ I z 9 l.l.f + ! 1.~+>.4 %+q.N N s @+:.O *.G.G.G.|.#.p.f.0 0 w W R u 0 }.}.T < + [.[.'.R 0 w '.R :.%.q 4 N.N.}.=.,.R < < W T '.f.}.}.R 4 R 1.1.=.7 7 < 7 0 1.'.t.u u u u R w R w #.:.0 N [.}.w N #.%.#.}.0 [., T w =.f.t.",
"]+]+]+]+|+|+]+]+&+&+&+&+]+|+|+&+&+a+&+&+9+|+&+9+a+j+a+j+a+d.@ @   h d.a+r+r+:+:+|+|+|+|+|+|+|+|+|+|+|+|+|+|+|+|+|+|+|+|+|+|+|+|+|+k+j+i+a+'+&.t i.(.C P n {.. * . . A.0+r+a+|+x+a+r+:+r+J A.r+:+a+a+a+a+a+a+a+a+9+9+|+|+|+|+|+|+a+a+a+a+a+a+a+a+a+a+a+a+a+a+a+a+a+a+a+a+a+a+a+a+9+9+9+9+9+9+9+9+h+]+n+h+]+n+|+n+A.|+x+a+p+a+|+x+a+d.&+x+j+a+p+a+a+j+j+a+a+j+j+j+j+a+a+j+x+x+j+a+r+Q.: # J h _.d.T.b.)+T.A.U R.P = # Q.(+)+<+x+G+G+`.o.i+x+G+x+`.x+n+9+n+n+h+9+n+j+j+j+j+j+p+p+p+p+p+p+j+j+j+j+j+h+h+h+h+h+h+h+n+i+i+i+i+i+i+i+i+h+h+h+h+h+n+n+n+n+n+n+n+n+n+n+n+h+h+h+n+n+n+n+n+h+h+h+h+h+h+h+h+h+h+h+h+h+h+h+h+n+n+n+n+n+n+n+n+n+n+n+n+n+n+n+n+n+h+h+h+h+h+h+h+h+h+h+h+n+n+n+n+n+n+n+n+n+n+n+n+n+n+h+h+h+h+h+h+h+h+h+h+h+h+h+h+h+h+h+h+h+h+h+h+n+n+n+n+n+n+9+]+n+n+n+h+h+h+n+n+h+h+h+n+n+n+n+n+n+n+n+n+n+n+n+n+o+n+x+x+)+< 2.2.j.w.(.].].' A.x+n+n+n+n+n+n+n+n+n+h+n+n+S.x+h+n+x+h+j+t.O [ M + . . ;     & 1 A P.++++M.M.@+j.O.!.f v 5.M.M.M.@+W } | G '+++++M.++M.M.++|.}.q }.h.u u #.q N q N.*+*+*+%+d+d+<.<.O a.b . :.<.1.a.<., + n d j j j 0 d f R.' - 7 N.[.q O $+G.O N u g.|.O |.G.g.O N.N.N.#.] 0 2.W y =.R ] u =.w , W =.w 0 =.'.R =.u #.#.N.t.:.}.=.u W y 7 < ,.f.=.r r r u 0 R 1.R y , I y 2.,.T 0 f.r N =.u R R w w N f.f.:.4 w #.w q %.f.}.R 0 w ~+R 1.,.w ",
"o.o.o.S.&+|+]+&+|+]+]+|+]+&+]+]+:+&+:+a+&+&+}+}+]+&+|+9+|+h+h+&+J _     h d.:+r+9+9+9+9+9+|+|+|+|+|+|+|+|+|+|+|+|+|+|+|+|+|+|+|+|+0+a+i+r+b+&.} i.k. .$.[ +.. . & | H ` :+r+a+a+a+j+a+j+r+h A.r+a+a+a+a+a+a+a+a+9+9+9+|+|+|+|+|+a+a+a+a+a+a+a+a+a+a+a+a+a+a+a+a+a+a+a+a+a+a+a+a+9+9+9+9+9+9+9+9+|+n+|+9+9+9+n+9+j+]+]+p+j+j+j+a+p+p+T.A.|+x+j+a+a+j+j+a+a+j+j+j+j+j+]+j+p+j+p+p+p+x+a+x+a+j+S.x+p+x+]+9+a+&+r+)+l.m 8.l.x.l+)+A.A.p+|+p+t+j+o+&+n+9+x+n+|+n+x+h+j+j+j+j+p+p+p+p+p+p+p+p+j+j+j+j+h+h+h+h+h+h+n+n+i+i+i+i+i+i+i+i+h+h+h+h+h+n+n+n+n+n+n+n+n+n+n+n+h+h+h+n+n+n+n+n+h+h+h+h+h+h+h+h+h+h+h+h+h+n+n+n+n+n+n+n+n+n+n+n+n+n+n+n+n+n+n+n+h+h+h+h+h+h+h+h+h+h+h+n+n+n+n+n+n+n+n+n+n+n+n+n+n+n+h+h+h+h+h+h+h+h+h+h+h+h+h+h+h+h+h+h+h+h+h+h+n+h+n+h+n+n+]+9+n+n+n+h+h+n+n+n+h+h+n+n+n+n+n+n+n+n+n+n+n+n+n+n+o+p+n+x+T.! i.O.].O.5.].].' A.n+n+n+n+n+n+n+n+n+n+n+n+n+S.x+n+n+j+x+j+j., n U d . .     l [ Z &./+M.-+M.M.@+w.w.7.f v 5.M.M.M.@+B } | G '+++++++M.++/+++f.#.p.}.}.}.}.p.N.h.h.p.*+e+*+E.E.a.a.d+w+*+z . $+p.1.a.<.$ L R.'+N.N.~+b+2.z + + B @+:.q |.$+4 9.#.[.4.d+s.$+s.O g.g.~+<.4 q #.[.0 W < 1.}.}.u 4 f.W < w [.[.[.R w R u f.[.[.4 0 }.=.=.y ! < d ,.1.N r r N 9.}.=.0 ] R < !.I 7.W 0 0 t.#.N 9.N =.R R '.%.}.N N %.N }.t.}.:.N t.N u R N.R w 0 0 ",
"_ /.&+&+A.A.A.A.]+|+9+9+]+]+]+|+:+:+:+:+:+:+:+:+:+:+:+:+:+:+7+7+h+j+&+`     @ * d.&+p+x+j+a+a+a+:+:+7+:+:+:+:+:+:+:+a+a+:+:+:+a+<+a+7+0+s+,+k.+ v.6.+.8 { { @ _   #     h <+o+j+n+]+h+|+i+:+h &+r+a+j+a+a+a+:+j+|+|+|+|+|+|+|+|+|+|+9+9+9+9+|+|+a+a+a+a+a+a+a+a+a+a+a+a+a+a+a+a+a+a+a+a+a+a+a+a+9+9+9+9+9+9+9+9+p+]+A.p+a+a+p+j+j+a+j+a+A.S.a+p+j+j+j+a+a+j+j+a+j+p+a+]+a+p+j+j+n+n+h+]+S.x+d.|+t+u+s+t+t+)+x.O.^.8.T.&+a+]+:+i+x+h+|+n+n+n+x+S.p+p+a+j+j+a+a+p+j+p+p+p+p+p+p+p+p+p+p+j+j+j+j+j+j+j+j+j+j+j+j+j+j+j+p+p+p+p+j+j+j+j+j+j+j+j+j+j+p+j+j+j+j+j+j+j+n+n+n+n+n+h+h+h+j+j+j+j+j+j+j+j+j+j+j+j+j+j+j+j+p+p+p+p+p+p+p+p+p+p+p+p+p+p+p+p+j+j+j+j+j+p+p+p+p+p+p+p+p+p+p+p+n+n+n+n+n+h+h+h+h+h+h+n+n+n+n+n+h+h+h+h+h+n+n+n+h+h+h+n+n+n+n+n+p+j+p+p+p+p+S.p+p+p+j+j+j+j+p+p+n+n+n+n+n+n+n+n+n+n+n+n+n+n+n+n+p+n+n+x+x.V ].j.j.j.j.,.7.. T.x+n+n+n+n+n+n+n+n+n+n+h+]+h+n+h+n+p+n+x+  - #.:.}.=.y ! [ k 5.'.M.++++s.++M.s.++M.2.[ m ).t.M.M.t.B 9 | G ~+++s.M.M.M.++$+g./+g.G.9.q q 9.p.4 q 4 a.%+E.O O *.o G.d+*+4 . 6.*.o N R y V '+O.O.y y f +.+ + 1.t.4 h.N.r 0 4 }.}.s q ~+s.p.q #.$+t.4.7 w N.*.O q R ,.s.%.%.'.j.w y 7 7 1.W w =.R =.r.[.0 =.r p.1.0 7 , 7 ,.w R ] R y q =.R y ] 7 W ].W < 0 '.u [.f.[.0 =.#.N N %.}.[.r R r R %.#.}.}.=.N q *.*.p.}.N =.0 w 0 ",
"  @   @ h d.&+a+A.d.d.A.]+j+a+]+]+]+]+]+]+]+]+]+:+:+:+:+:+:+:+:+|+9+a+j+p+:+/.      @ J A.<+u+u+r+i+7+7+7+7+7+:+|+|+|+|+|+|+|+9+j+:+2+r+G+f+k.. $.e - & 8 6   @ # b.b.    A.T.<+h+n+|+n+7+r+i+% T.r+a+a+a+j+a+:+|+|+|+|+|+|+|+|+|+|+9+9+9+9+|+|+a+a+a+a+a+a+a+a+a+a+a+a+a+a+a+a+a+a+a+a+a+a+a+a+9+9+9+9+9+9+9+9+a+a+p+A.p+p+]+p+j+j+a+p+j+&+A.&+j+a+j+p+p+a+a+j+a+a+j+&+p+p+x+j+]+p+p+x+d.]+x+d.x+i+r+x+2+i+)+v.A . /.T.a+j+x+r+p+p+|+j+p+j+j+/.j+j+j+p+p+j+j+j+j+p+p+p+p+p+p+p+p+p+p+j+j+j+j+j+j+j+j+j+j+j+j+j+j+j+j+p+p+j+j+j+j+j+j+j+j+j+j+j+p+j+j+j+j+j+j+j+n+n+n+n+n+h+h+h+j+j+j+j+j+j+j+j+j+j+j+j+j+j+p+p+p+p+p+p+p+p+p+p+p+p+p+p+p+p+p+j+j+j+p+p+p+p+p+p+p+p+p+p+p+p+p+p+n+n+n+n+n+n+h+h+h+h+n+n+n+n+n+n+h+h+h+h+h+n+n+n+h+n+n+n+n+n+n+n+p+j+p+p+p+p+&+p+p+p+p+j+p+p+p+p+n+n+n+n+n+n+n+n+n+n+n+n+n+n+n+n+p+n+n+x+x.].4.j.m.j.V ,.7.. T.x+n+n+n+n+n+n+n+n+n+x+n+&+n+n+n+n+p+x+n+@ + [.q u u 0 d 1 k.A @+M.++M.++++M.s./+M.2.1 m ).w.M.M.N.z } | G ~+M.s.M.P./+/+++|.G.<.*.9.h.N.h.h.%.h.$+G.G.G.q.G.G.G.d+%+d+q . M *.E.f.p.+ I 5.' ,+v.! B + W v.R N h.h.0 R R N @+}.q p.|.0 #.%.~+%.] >.1.=.#.g.~+%.u 7 :.f.N.'.0 , d W 7.7 , R R u %.#.] 4 N.h.=.w 7 < y W t.'.N R 4 R N =.R y y 7 A 7 w ! ] t.N.f.N N 0 R u 9.r q q [.u u R 9.h.}.:.N 4 N N M.g.N.p.#.R 0 '.f.",
"r+&+/._ @ @     ` A.:+:+T.d.A.T.]+a+j+a+|+]+|+a+]+]+]+]+]+|+|+]+|+]+]+&+]+a+j+p+0+T.`       _ h A.&+j+p+j+a+a+a+h+9+4+4+4+9+h+h+h+7+i+x+<+l.U . + 1 v t {.l . *   J y+d.{ 0+T.` h+9+|+h+:+:+x+:+/.:+a+:+j+:+a+:+|+|+|+|+|+|+|+|+|+|+|+9+9+9+9+9+a+a+a+a+a+a+a+a+a+a+a+a+a+a+a+a+a+a+a+a+a+a+a+a+9+9+9+9+9+9+9+9+a+p+a+&+&+p+p+a+j+j+p+j+a+j+a+T.A.&+a+a+a+j+p+a+j+p+a+a+&+j+j+a+x+j+r+j+r+T.:+T.0.7+(+7+2+i+G++.k 5 r+G+A.t+j+i+a+r+&+r+r+r+r+T.p+p+p+j+a+j+p+j+j+p+p+p+p+p+p+p+p+p+j+j+j+j+j+j+j+j+j+j+j+j+j+j+j+j+j+j+j+j+j+j+j+j+j+j+j+j+j+j+p+j+j+j+j+j+j+j+n+n+n+n+n+h+h+h+j+j+j+j+j+j+j+j+j+j+j+p+p+p+p+p+p+p+p+p+p+p+p+p+p+p+p+p+p+p+p+p+p+p+p+p+p+p+p+p+p+p+p+p+p+p+p+p+n+n+n+n+n+n+n+h+h+n+n+n+n+n+n+n+h+h+h+n+n+n+n+n+n+n+n+n+n+n+n+n+p+j+p+p+p+j+&+p+p+p+p+p+p+p+p+p+n+n+n+n+n+n+n+n+n+n+n+n+n+n+n+n+p+n+n+x+x.].4.j.j.j.w 2.7.. &+x+n+n+n+n+n+n+n+n+h+x+n+S.x+n+x+n+a+x+x+2 b f.#.%.:.h.T w.i.].M.M.++++++/+|.++/+M.2.e 9 Q t.M.s.N.P } | G @+M.M.M.P.++++++g.s.e.<.p.%.N ) N #.q $+#.4 4 o o o <.o *.a.] @ t O O R '.< b f } P , , , T R 0 R }.:.$ w t.f.] }.p.p.#.>.:.h.N N.q #.g.}.q $ |.d+N ) R f.[.T ] 0 W W b 0 w T t.f.N #.N q :.h.u $ ] y B w 0 =.u :.=.4 R w W y y y < < 7 w t.f.[.=.'.u N [.}.u 9.%.%.#.[.=.=.=.#.u N %.h.9.N.#.*.s.$+s.4 N u R R ",
"&+:+a+a+:+A./._         h d.T.:+&+T.A.A.<+a+<+<+a+a+a+a+a+|+]+&+|+|+9+h+9+a+|+|+a+j+r+r+a+A.J @ * @ @ { /.T.a+v+h+h+h+h+h+n+n+n+p+D.X %   & m . i.v.!.n +.t . . @ ` r+]+@ ` T.` n+|+n+]+i+i+:+r+T.h a+r+:+a+a+a+|+|+|+|+|+|+|+|+|+|+|+9+9+9+9+9+a+a+a+a+a+a+a+a+a+a+a+a+a+a+a+a+a+a+a+a+a+a+a+a+9+9+9+9+9+9+9+9+p+]+a+x+d.a+p+j+p+]+j+j+j+a+x+j+|+T.A.]+p+p+a+j+j+p+j+x+&+j+j+p+|+x+j+j+]+d.j+|+T.A.f+0+t+G+A+i . . r+G+T.)+y+x+p+p+]+x+a+p+a+|+p+j+j+j+j+j+p+j+j+p+p+p+p+p+p+p+j+j+j+j+j+j+j+j+j+j+j+j+j+j+j+p+j+j+j+j+j+j+j+j+j+j+j+j+j+j+j+j+p+j+j+j+j+j+j+j+n+n+n+n+n+n+n+n+j+j+j+j+j+j+j+j+j+j+p+p+p+p+p+p+p+p+p+p+p+p+p+p+p+p+p+p+p+p+p+p+p+p+p+p+p+p+p+p+p+p+p+p+p+p+p+p+n+n+n+n+n+n+n+n+n+n+n+n+n+n+n+n+n+n+n+n+n+n+n+n+n+n+n+n+n+n+n+n+p+j+j+p+p+a+]+p+p+p+p+p+p+p+p+p+n+n+n+n+n+n+n+n+n+n+n+n+n+n+n+n+p+n+n+x+R.].].4.w.j.].2.7.. |+x+n+n+n+n+n+n+n+n+h+x+h+&+x+n+n+n+p+x+x+. W :.:.:.%.%.'.t.j.s.M.M.++++++/+>.++++M.,.e } Q t.s.s.@+$.- | Q @+++%+M.P.P.P.++g.N #.%.%.9.N.N.p.9.N d+h.N %.q.e.q.d+E.<.q.'.. $.%+a.p.c.j v.;.a } + Z }.}.N }.p.u 0 u 4.T , 0 N.p.%.#.N.[.f.$+N.|.s.|.9.4 q *.$+:.4 1.,.w ! 7 7 W 7 < T j.'.'.%.N h.@+%.N.N $ 0 W y B u u }.}.@+N u 4 y W y 7 y < w W [.[.w w R R u [.R =.h.r #.q f.f.h.%.u u q }.:.h.#.) q :.M.g.M.g.q q #.:.",
"]+]+|+]+|+a+j+p+:+T.d.h @         h /.d.d.A.T.&+|+|+a+a+a+a+a+a+a+]+&+]+|+a+a+9+9+9+9+|+9+n+n+n+<+&+A.` * @ @ * ` b.T.<+)+b.J @   @ h /.)+l+,+> 6.v.).[ +.U = &   /.G+x+d.@ @ 0+x+7+i+7+h+h+h+&+r+T.h r+r+a+a+:+|+|+9+9+|+|+|+|+|+|+|+9+9+9+9+9+a+a+a+a+a+a+a+a+a+a+a+a+a+a+a+a+a+a+a+a+a+a+a+a+9+9+9+9+9+9+9+9+]+j+j+|+x+/.j+p+a+p+j+|+x+a+a+p+j+x+j+T.d.T.a+p+x+a+x+j+j+&+p+p+n+]+]+|+x+&+9+x+t+A.k+t+6+_+f+5.L . a y+)+-.)+p+n+]+n+n+n+n+n+|+j+a+a+p+p+p+j+j+p+p+p+p+p+p+p+j+j+j+j+j+j+j+j+j+j+j+j+j+j+j+j+j+j+j+j+j+j+j+j+j+j+j+j+j+j+j+j+j+p+j+j+j+j+j+j+j+n+n+n+n+n+n+n+n+j+j+j+j+j+j+j+j+p+p+p+p+p+p+p+p+p+p+p+p+p+p+p+p+j+p+p+p+p+p+p+p+p+p+p+p+p+p+p+p+p+p+p+p+p+p+p+p+n+n+n+n+n+n+n+n+n+n+n+n+n+n+n+n+n+n+n+n+n+n+n+n+n+n+n+n+n+n+n+n+p+p+j+p+p+|+a+p+p+p+p+p+p+p+p+p+n+n+n+n+n+n+n+n+n+n+n+n+n+n+n+n+p+n+n+x+R.].].].O.4.4.A $.  a+x+n+n+n+n+n+n+n+n+n+n+]+|+x+n+n+x+x+h+r+. f.|.}.=.%.q N t.|./+s.M.++++/+g.s.M./+/+,.e } Q t.s.s.@+!.= | Q @+++%+M.++++P.++g.4 N #.%.#.%.:.#.:.N %.|.q g.d+d+E.E.E.<.a.q + t.*+o :.u.V f a a + ~.].N.p.#.q 4 u }.=.w w [.t.N u }.p.:.w %.d+g.O g.O N.O O |.N.h.u u 7 0 w 1.W 7 < y '.'.N f.f.%.}.%.9.$+#.u w W 7 y =.=.#.4 }.] N =.W 7 < < T w =.=.u N u R =.1.=.w w u :.4 9.%.t.0 #.q #.}.}.p.#.N :.q #.}.c+g.s >.q #.:.h.",
"&+&+]+]+]+]+]+]+:+:+:+a+a+&+A./.h _       @ @ @ @ _ J d.A.&+a+j+k+o+r+p+j+a+j+p+4+n+x+x+n+n+n+n+y+u+o+0+<+A.` @   .           * x.<+G+G+F+A+,+& L 8.8.M M t . . . /.&+&+h+d.  H r+:+:+i+|+&+n+n+r+j+&+h j+r+a+a+|+9+9+9+9+|+|+|+|+|+|+|+9+9+9+9+a+a+a+a+a+a+a+a+a+a+a+a+a+a+a+a+a+a+a+a+a+a+a+a+9+9+9+9+9+9+9+9+a+p+a+j+a+x+d.j+a+x+p+]+a+p+j+a+j+|+a+p+p+]+T.A.T.T.j+x+x+a+j+p+p+a+x+j+p+p+A.x+n+x+_.i+n+x+r+l.k.1 l.l.Q > -.&+a+T.p+j+x+p+x+j+p+p+p+j+p+j+j+p+p+p+p+p+p+p+j+j+j+j+j+j+j+j+j+j+j+j+j+j+j+j+j+j+j+j+j+j+j+j+j+j+j+j+j+j+j+j+j+j+p+j+j+j+j+j+j+j+h+h+h+n+n+n+n+n+j+j+j+j+j+p+p+p+r+r+r+r+r+r+r+r+p+p+p+p+p+p+p+p+p+p+p+p+p+p+p+p+p+p+p+p+p+p+p+p+p+p+p+p+p+p+p+p+n+n+n+n+n+n+n+n+n+n+n+n+n+n+n+n+n+n+n+n+n+n+n+n+n+n+n+n+n+n+n+n+p+p+j+p+p+]+j+p+p+p+p+p+p+p+p+p+n+n+n+n+n+n+n+n+n+n+n+n+n+n+n+n+p+n+n+x+x.].4.4.O.].4.< k   p+x+n+n+n+n+n+n+n+n+n+n+S.n+n+n+h+x+n+n+r+m t.e.}.'.:.}.s N.g./+s.s.M.++M.g.M.++/+c+2.e 9 $.O.M.M.~+!.= | Q @+++%+M.P.++++++t.#.}.}.9.%.#.h.%.q q q q q e.d+%+*+E.*+q.d+<.+ i.*+B.#.5.I ! , 1.W T t.$+p.4 q %.}.=.}.S @+j.0 u t.'.] %.'.'.f.N q s.*.N.|.%.f.'.0 y ] w R R ,.=.,.R R w [.'.'.[.R w 0 =.}.w w < 0 R R R u R u }.N.R R 7 < 0 w '.#.}.#.N N }.N.=.0 0 R N =.h.9.:.#.}.s #.:.:.h.#.%.q u %.N p.}.4 q s *.u N N R ",
"]+]+]+]+]+]+]+]+]+]+]+]+]+|+a+a+j+a+a+:+A.d.J _ @ @     @ @           @ h J h _ ` h _ _ h _ @     @ @ @         h ` d.A.d.` _     @ #   * c {.8 m 9 & & H U & . . b.G+h+n+h+J   S.r+r+:+h+n+]+|+:+a+a+&+J j+x+:+9+9+9+9+9+|+|+|+9+9+|+|+|+9+9+9+a+a+a+a+a+a+a+a+a+a+a+a+a+a+a+a+a+a+a+a+a+a+a+a+9+9+9+9+9+9+9+9+p+a+a+|+p+p+a+T.p+a+a+p+a+a+j+p+a+p+p+a+a+p+j+a+a+a+T.T.d.A.d.T.T.` * y+u+u+)+u+r+y+y+A.G+y+A+~+m.! A+Q k.).l.:+u+)+0+G+0+T.k+)+]+x+x+a+j+j+j+x+p+p+p+p+p+j+j+j+j+j+j+j+j+j+j+j+j+j+j+j+j+j+j+j+j+j+j+j+j+j+j+p+j+j+j+j+j+j+j+j+p+j+j+j+j+j+j+j+h+h+h+n+n+n+n+n+j+j+j+p+p+p+p+p+r+r+r+r+r+r+r+r+p+p+p+p+p+p+p+p+p+p+p+p+p+p+p+p+p+p+p+p+p+p+p+p+p+p+p+p+p+p+p+p+n+n+n+n+n+n+n+n+n+n+n+n+n+n+n+n+n+n+n+n+n+n+n+n+n+n+n+n+n+n+n+n+p+p+j+p+p+&+p+p+p+p+p+p+p+p+p+p+n+n+n+n+n+n+n+n+n+n+n+n+n+n+n+n+p+n+n+x+x.].4.4.w.3.4.A G   p+x+n+n+n+n+n+n+n+n+n+n+S.x+h+n+n+n+n+x+y++.[.*.N 0 u T S |.++s.++M.M./+g.++M./+/+/+2.1 9 ).O.M.++~+$.- | Q @+++%+M.y.y.P.@+f.:.:.:.h.#.4 #.#.q #.$+%.#.o o 4 O q.*.O a.N = v.e.<.f = + b W '.q %.O R 0 w t.N :.u u h.4 N T '.V 0 , t.[.w '.f.g.$+<.r.h.'.4.7 + 7 y u R R R u N N =.u t.=.R =.u 0 y 0 ] 7 w 0 u R r =.y 0 0 0 f.7 < 7 < ].|.g.<.r.o #.9.}.=.0 R R w '.}.#.9.N }.}.s s.s.#.:.q #.u N @+}.=.R 0 u #.@+=.'.w 0 ",
"]+]+]+]+]+]+]+]+]+]+]+]+]+]+]+]+|+|+|+a+a+a+j+p+r+a+:+&+T.A.d./.` ` D 6 2 2 { @ . * 6 l D D ` /.d.d.A.T.:+j+r+r+n+n+n+n+h+n+n+x+k+(+Q._.J       . . . . 3 ^ . . + A.x+x+n+n+j+2 J r+7+7+h+|+|+h+a+:+r+j+A.d.:+r+9+9+9+9+9+|+|+|+9+9+9+|+|+|+9+9+a+a+a+a+a+a+a+a+a+a+a+a+a+a+a+a+a+a+a+a+a+a+a+a+9+9+9+9+9+9+9+9+j+a+a+p+a+a+p+&+T.p+p+j+j+p+|+j+j+a+a+j+j+a+j+p+a+p+p+j+x+x+j+a+R.v.).Q F+v.6.R.O.P.++'+^.b+m+e+'+j ].O.m.k..   ).$.e F+G + + e /.a+p+a+p+x+j+p+p+p+p+p+p+j+j+j+j+j+j+j+j+j+j+j+j+j+j+j+j+j+j+j+j+j+j+j+j+j+p+p+j+j+j+j+j+j+j+j+p+j+j+j+j+j+j+j+h+h+h+n+n+n+n+n+j+j+p+p+p+p+p+p+r+r+r+r+r+r+r+r+p+p+p+p+p+p+p+p+p+p+p+p+p+p+p+p+p+p+p+p+p+p+p+p+p+p+p+p+p+p+p+p+n+n+n+n+n+n+n+n+n+n+n+n+n+n+n+n+n+n+n+n+n+n+n+n+n+n+n+n+n+n+n+n+p+p+j+p+p+&+x+p+p+p+p+p+p+p+j+j+n+n+n+n+n+n+n+n+n+n+n+n+n+n+n+n+p+n+n+x+x.].].4.w.3.4.2.$.  t+n+n+n+n+n+n+n+n+n+n+n+&+x+h+x+x+h+n+n+y+v :.*.}.T 0 '.T t.P.++M.++++++s./+++M./+++2.' 9 ).t.M.++~+!.} | Q ~+++++M.w.j.u.@+t.|.*.g.#.#.q q %.#.%.$+#.r r =.%.9.$+:.=.O '.* U 4 ] @ + ' v.].s |.e.*.w T R [.] h.}.h.N.q f.N w 0 2.~.0 u T ].S |.$+a.N.:.u 0 B W b 7 u R 9.}.%.u q q N.R ] R w 7 R 7 7 y 7 0 T %.#.%.R R w =.w 7 7 7 W w [.s.M.G.G.o 9.%.N =.R 0 ] R 0 =.%.9.q h.t.f.*.s.g.N.:.%.#.%.N ] y y y 4 f.t.w W 0 0 ",
"]+]+]+]+]+]+]+]+]+]+]+]+]+]+]+]+]+]+]+|+|+|+]+]+|+|+|+9+9+h+h+h+h+h+h+h+h+h+n+n+]+&+S.S.S.S.S.S.&+]+|+h+n+h+9+|+9+9+9+h+h+h+h+h+o+p+n+x+x+G+,+!.. U 9 . . | .   @   d.j+r+j+&+6+  d.o+a+a+9+h+|+9+n+|+9+n+d.d.n+n+|+9+]+9+h+9+|+9+9+9+9+9+9+9+9+9+9+9+9+9+9+9+9+a+a+a+a+a+a+a+a+9+9+9+9+9+9+9+9+9+9+9+9+9+9+9+9+a+a+a+a+a+j+j+j+A.|+a+j+p+a+a+j+j+j+a+a+a+a+a+j+j+j+j+j+j+j+j+p+k.$.k k v.1 k k c > } 5 ; @ & I Z >     | n .                   @ ]+x+j+p+p+p+j+j+j+j+j+j+j+j+j+j+j+j+j+j+j+j+j+j+j+j+j+j+j+j+j+j+j+j+j+j+j+j+j+j+j+j+j+j+j+j+j+j+j+j+j+j+j+j+j+j+j+j+p+p+p+p+p+j+p+p+p+p+p+p+p+p+p+p+p+p+p+p+p+p+p+p+p+p+p+p+p+p+p+p+p+p+p+p+p+p+p+p+p+p+p+p+p+p+p+p+p+p+p+p+p+p+p+p+p+p+j+j+j+p+p+p+p+p+p+p+p+p+p+p+p+p+p+j+j+p+p+p+p+p+p+p+p+p+j+p+p+a+j+j+p+p+p+p+p+p+p+j+j+p+p+p+p+p+p+p+p+p+p+p+p+p+p+p+p+t+n+x+y+l.4.4.4.w.j.j.,.$.. o+x+p+p+p+p+p+p+p+p+p+&+p+x+a+t+p+p+r+n+r+:.q.,.y O w N s M.++/+M.M./+|./+/+s.g./+M.2.1 n $.t.M.%+/+W & 2 v ++%+M.O.5.5.2.O.t.s |.O <.$+$+e.d+<.e.s.e.|.h.:.p.e.a.a.o r.i.L U & + ' '.4 :.<.q.O d+$+,.0 R h.9.9.N p.c+>.< V 2.,.1.9.] w u R %.p.@+%.0 w j d B j 0 0 q N N N #.R '.=.u =.w 1.,.y 7 y ] y y R 0 p.N h.=.R R R R T ].T 4 =.h.t.t.}.N u f.%.%.}.}.u u 1.=.R u r.h.h.N >.O :.O |.g.*.O :.}.#.4 #.u }.u u 0 T w w ",
"]+]+]+]+]+]+]+]+]+]+]+]+]+]+]+]+]+]+]+]+]+]+]+]+]+]+]+]+|+|+|+|+|+|+|+|+|+|+|+|+h+9+9+|+9+9+9+9+]+&+S.S.o.o.o.S.o.o.o.S.S.S.S.S.T.T.]+&+a+)+R.V . {.+.k n m . @ # h g @ /.T.]+x+T.  &+p+a+h+|+h+|+h+|+|+n+|+d.d.h+h+]+n+]+|+|+9+9+9+9+9+9+9+9+9+9+9+9+9+9+9+9+9+a+a+a+a+a+a+a+a+9+9+9+9+9+9+9+9+9+9+9+9+9+9+9+9+a+a+a+a+a+j+j+j+p+A.a+j+p+j+a+j+j+j+a+a+a+a+a+j+j+j+j+j+j+j+j+j+)+T.3 * * l {.D /.b.l.T./.A.x.I O.[ 8 0+l.R.k+T.b.y+y+)+<+G+G+T.|+x+x+j+p+j+j+p+j+j+j+j+j+j+j+j+j+j+j+j+j+j+j+j+j+j+j+j+j+j+j+j+j+j+j+j+j+j+j+j+j+j+j+j+j+j+j+j+j+j+j+j+j+j+j+j+j+j+p+p+p+p+p+p+j+p+p+p+p+p+p+p+p+p+p+p+p+p+p+p+p+p+p+p+p+p+p+p+p+p+p+p+p+p+p+p+p+p+p+p+p+p+p+p+p+p+p+p+p+p+p+p+p+p+p+p+p+p+p+p+p+p+p+p+p+p+p+p+p+p+p+p+p+p+p+j+p+p+p+p+p+p+p+p+p+j+p+p+]+p+j+p+p+p+p+p+p+p+p+p+p+p+p+p+p+p+p+p+p+p+p+p+p+p+p+p+t+n+n+y+l.].].4.m.j.4.W $.. o+x+p+p+p+p+p+p+p+p+t+S.p+p+p+p+t+p+r+x+r+#.*.1.W o h.] >.++++++++M.M.s./+/+M.s./+++~.1 9 $.N.M.++/+W = 2 L @+%+M.w.5.Z Z O.t.#.|.g.a.a.e.*.e.O 4 q O O e.*.O q *.*.#.~+W = + + I w 0 #.g.G.<.*.N.h.! 0 u 4 9.#.q }.s.>., 2.2.0 }.h.w ,.u u N %.:.] T w 0 d < < 0 j.p.}.q N %.f.=.w N f.T w 7 y 7 ! R R u =.=.h.#.N R y y =.w 0 w '.=.0 R }.4 4 =.u %.[.f.[.R R u =.}.t.%.%.9.%.:.s N p.~+h.N #.:.h.:.%.:.%.%.}.#.4 ] '.'.[.",
"]+]+]+]+]+]+]+]+]+]+]+]+]+]+]+]+]+]+]+]+]+]+]+]+]+]+]+]+]+]+]+]+]+]+]+]+]+]+]+]+|+|+|+|+|+9+|+|+9+9+|+|+|+|+9+9+|+|+|+|+9+9+9+9+j+&+9+|+&+f+O.O.. U +.$.P m   @   A.y+b.  % |+j+v+/.@ j+a+j+9+9+|+9+h+|+|+n+|+d.d.n+|+9+|+]+9+9+9+9+9+9+9+9+9+9+9+9+9+9+9+9+9+9+a+a+a+a+a+a+a+a+9+9+9+9+9+9+9+9+9+9+9+9+9+9+9+9+j+a+a+a+a+a+j+j+j+j+A.a+j+j+j+a+j+j+a+a+a+a+a+j+j+j+j+j+j+j+j+j+a+j+x+G+T.G+x+x+&+G+y+y+&+r+F+,+].I & b.b.0+G+/.<+<+T.<+v+v+v+<+j+x+a+a+p+j+j+x+j+j+j+j+j+j+j+j+j+j+j+j+j+j+j+j+j+j+j+j+j+j+j+j+j+j+j+j+j+j+j+j+j+j+j+j+j+j+j+j+j+j+j+j+j+j+j+j+p+p+p+p+p+p+p+p+p+p+p+p+p+p+p+p+p+p+p+p+p+p+p+p+p+p+p+p+p+p+p+p+p+p+p+p+p+p+p+p+p+p+p+p+p+p+p+p+p+p+p+p+p+p+p+p+j+j+p+p+p+p+p+p+p+p+p+p+p+p+p+p+p+p+p+p+p+p+p+p+p+p+p+p+p+p+p+p+p+p+p+x+&+p+p+p+p+p+p+p+p+p+p+p+p+p+p+p+p+p+p+p+p+p+p+p+p+p+p+p+t+n+n+y+l.].V 4.m.j.4.W ).. o+x+p+p+p+p+p+p+p+p+p+&+p+p+x+j+p+p+r+n+x+f.*.w W a.p.N g.g.++M.s.++g.++/+++++++++++~.[ 9 $.O.++++++W / 2 v ~+/+M.i.Q d i.w.N.#.g.N.a.e.%+%+q.%+G.d+N.e.%+%+%+$+~+f.=.W , ' - W }.%.:.|.e.$+<.:.4 ] w =.u 9.N %.N |.#.t.N '.'.[.f.q ! T =.}.p.N %.[.[.T 7 < 7 ,.w w p.h.:.:.4 =.w '.R [.R w 0 7 7 y u u u R N w #.w y y 0 R 0 0 w i.'.1.w ] R R w 1.'.%.4 u u =.R 1.'.=.4 q 9.N s S N.#.:.N #.#.:.:.p.:.#.q N u 4 u j.'.s T ",
"]+]+]+]+]+]+]+]+]+]+]+]+]+]+]+]+]+]+]+]+]+]+]+]+]+]+]+]+]+]+]+]+|+|+|+|+|+|+|+|+]+]+]+]+]+]+]+]+]+|+|+9+9+9+|+]+|+|+|+|+|+|+|+|+|+n+9+9+y+F+E+c.. ^ [ G L m .   @ b.G+v+@   r+a+j+x+_ h p+j+j+|+9+9+h+9+]+h+n+9+d.S.9+|+9+9+9+|+9+9+9+9+9+9+9+9+9+9+9+9+9+9+9+9+a+a+a+a+a+a+a+a+9+9+9+9+9+9+9+9+9+9+9+9+9+9+9+9+j+a+a+a+a+a+a+j+a+j+j+A.a+j+j+a+j+j+a+a+a+a+a+j+j+j+j+j+j+j+j+j+n+&+9+n+S.n+n+x+o.x+r+r+h+j+)+R.s.2.{.* )+T.v+X @ T.j+x+p+j+x+&+]+x+p+j+p+p+j+j+j+j+j+j+j+j+j+j+j+j+j+j+j+j+j+j+j+j+j+j+j+j+j+j+j+j+j+j+j+j+j+j+j+j+j+j+j+j+j+j+j+j+j+j+j+j+j+j+j+j+j+p+p+p+p+p+p+p+p+p+p+p+p+p+p+p+p+p+p+p+p+p+p+p+p+p+p+p+p+p+p+p+p+p+p+p+p+p+p+p+p+p+p+p+p+p+p+p+p+p+p+p+p+p+p+p+p+p+p+p+p+p+p+p+p+p+p+p+p+p+p+p+p+p+p+p+p+p+p+p+p+p+p+p+p+p+p+p+p+p+&+p+p+p+p+p+p+p+p+p+p+p+p+p+p+p+p+p+p+p+p+p+p+p+p+p+p+p+t+n+n+y+8.].].j.m.j.].,.).. 0+x+p+p+p+p+p+p+p+p+j+]+p+p+p+p+p+p+r+x+r+:.*.1.1.*.:.h.$+g.++++M.++g./+/+++M.++++M.2.1 n ).@+%+%+++W / 2 F ~+/+t.$.' $.w.O.'.[.|.N.G.O O q.a.a.a.%+|.O a.*.O <.i.! b ! + b i.@+e.e.|.g.G.s.:.N 0 2.=.=.4 N.}.#.S >.h.N %.:.[.'.>.%.t.t.h.4 }.N f.f.[.T T w W T w %.h.#.#.u u =.w =.T w 0 T w ] y i.h.h.h.}.#.4 '.[.y R 7 7 w W T 1.T 0 w T w f.N.'.s :.%.N }.@+h.u 0 N %.u %.N.s s u #.%.u u 4 }.#.#.}.N 4 q N.p.}.j.>.>.t.",
"]+]+]+]+]+]+]+]+]+]+]+]+]+]+]+]+]+]+]+]+]+]+]+]+]+]+]+]+]+]+]+]+]+]+]+]+]+]+]+]+|+|+|+|+|+|+|+|+9+|+|+|+|+|+|+|+|+|+|+|+|+|+|+|+a+h+]+n+T.,+3.&.  . } L v m   @   /.&+/.  d.r+a+a+p+|+@ d.x+]+p+9+9+|+9+h+9+9+n+9+J 9+]+n+h+|+|+9+9+9+9+9+9+9+9+9+9+9+9+9+9+9+9+a+a+a+a+a+a+a+a+9+9+9+9+9+9+9+9+9+9+9+9+9+9+9+9+j+a+a+a+a+a+a+a+a+j+p+j+A.a+j+p+j+j+a+a+a+a+a+j+j+j+j+j+j+j+j+j+p+p+&+j+p+d.x+j+&+|+r+i+x+x+0+x.M.2.U J 2 A.A.S.j+x+p+t+x+p+p+A.&+x+x+j+j+j+p+j+j+j+j+j+j+j+j+j+j+j+j+j+j+j+j+j+j+j+j+j+j+j+j+j+j+j+j+j+j+j+j+j+j+j+j+j+j+j+j+j+j+j+j+j+j+j+j+j+p+p+p+p+p+p+p+p+p+p+p+p+p+p+p+p+p+p+p+p+p+p+p+p+p+p+p+p+p+p+p+p+p+p+p+p+p+p+p+p+p+p+p+p+p+p+p+p+p+p+p+p+p+p+p+p+p+p+p+p+p+p+p+p+p+p+p+p+p+p+p+p+p+p+p+p+p+p+p+p+p+p+p+p+p+p+p+p+p+p+p+p+&+p+p+p+p+p+p+p+p+p+p+p+p+p+p+p+p+p+p+p+p+p+p+p+p+p+p+p+t+n+n+y+8.].].j.3.4.].2.$.. <+x+p+p+p+p+p+p+p+p+&+a+p+x+j+t+p+p+r+x+x+%.O ,.1.*.:.h.$+++M.M.M.S M./+++++M.++/+M.2.1 9 $.O.%+%+++W } 2 n @+++4.k 1 Q v.W '.%.}.h.*.s.<.q o a.G.E.N.G.%+%+d+N.7.f + ! Q ,.w q q.o #.:.g.q N :.w 2.7 R u :.$+q >.g.N.) #.g.:.0 '.t.N s N }.p.:.'.'.:.:.1.7 T '.[.}.h.u N 4 R =.w u y 7 0 < < w ,.1.:.N %.%.u T T T 7 7 7 7 W R w w ] w w w ,.1.R 0 %.N :.:.h.R 0 4 T w N q q %.0 '.u u #.}.N.N N u |.#.#.}.h.h.u #.f.f.N.N.",
"]+]+]+]+]+]+]+]+]+]+]+]+]+]+]+]+]+]+]+]+]+]+]+]+]+]+]+]+]+]+]+]+]+]+]+]+]+]+]+]+]+]+]+]+]+]+|+|+]+]+]+]+]+|+|+|+|+|+|+|+|+|+|+|+a+a+|+h+o+U l+C+. . L !.L 9   *   A.&+@ # 7+r+j+h+9+p+&+@ T.j+o+|+9+9+9+h+9+]+9+h+n+J &+9+|+n+|+9+9+9+9+9+9+9+9+9+9+9+9+9+9+9+9+a+a+a+a+a+a+a+a+9+9+9+9+9+9+9+9+9+9+9+9+9+9+9+9+a+a+a+a+a+a+a+a+j+a+j+p+a+d.a+p+j+j+a+a+a+a+a+j+j+j+j+j+j+j+j+j+a+o+a+<+v+d.o+y+n+&+r+a+h+x+y+R.|.A b.* @ A.<+x+&+x+j+a+j+p+p+A.&+a+a+j+p+j+p+p+j+j+j+j+j+j+j+j+j+j+j+j+j+j+j+j+p+j+j+j+j+j+j+j+j+j+j+j+j+j+j+j+j+j+j+j+j+j+p+p+j+j+j+j+j+j+j+p+p+p+p+p+p+p+p+p+p+p+p+p+p+p+p+p+p+p+p+p+p+p+p+p+p+p+p+p+p+p+p+p+p+p+p+p+p+p+p+p+p+p+p+p+p+p+p+p+p+p+p+p+p+p+p+p+p+p+p+p+p+p+p+p+p+p+p+p+p+p+p+p+p+p+p+p+p+p+p+p+p+p+p+p+p+p+p+p+p+p+p+a+]+p+p+p+p+p+p+p+p+p+p+p+p+p+p+p+p+p+p+p+p+p+p+p+p+p+p+p+t+n+x+y++.].].4.3.4.].2.Q . a+x+p+p+p+p+p+p+p+p+S.p+p+x+a+x+p+t+r+n+x+}.*.0 ,.G.q *.*.s.++++P.t.++++++/+M.s./+M.2.1 [ $.O.++++++W } 2 n @+M.].n Q !.Q W 0 [.%.h.p.<.q O q.*.*.O *.O :.p.N.W + + 2.W w w [.9.9.o }.N N q :.t.w ,.7 W 0 N p.O M.++N.|.e.s.|.s [.w s q q h.N N w 4.%.%.R 0 1.f.}.4 }.R h.R =.w 0 0 7 < y 7 w ,.'.R r q N :.=.[.T T 7 ! < 7 W 7 y W ,.W w w w w w W t.t.t.4 u u R R , '.t.#.:.[.t.S N :.h.#.}.%.u N g.g.t.g.N.}.:.h.'.s %.s ",
"&+]+]+]+]+]+]+|+]+]+]+]+]+]+]+&+]+]+]+]+]+]+]+]+|+|+|+|+|+|+]+]+]+]+]+]+]+|+|+|+]+|+|+|+]+]+|+|+|+|+9+9+|+|+]+&+]+]+]+|+|+|+|+|+<+a+h+]+j+u+,+'+* . +.7.L 9   * # ` { @ /.d.T.a+9+9+9+x+d.@ a+a+|+h+9+9+9+|+9+h+9+9+9+J |+9+9+h+9+9+9+9+9+9+9+9+9+9+9+9+9+9+9+9+a+a+a+a+a+a+a+a+9+9+9+9+9+9+9+9+9+9+9+9+9+9+9+9+a+a+a+a+a+a+a+a+j+a+a+j+j+|+d.j+j+j+a+a+a+a+a+j+j+j+j+j+j+j+j+j+o+a+v+<+o+o+T.a+a+T.k+x+h+h+y+x.>.$.<+j+p+T.b./.&+p+p+p+p+p+x+j+a+j+j+p+p+j+j+a+j+j+j+j+j+j+j+j+j+j+j+j+j+j+j+j+p+j+j+j+j+j+j+j+j+j+j+j+j+j+j+j+j+j+j+j+j+p+p+p+j+j+j+j+j+p+p+p+p+p+p+p+p+p+p+p+p+p+p+p+p+p+p+p+p+p+p+p+p+p+p+p+p+p+p+p+p+p+p+p+p+p+p+p+p+p+p+p+p+p+p+p+p+p+p+p+p+p+p+p+p+p+p+p+p+p+p+p+p+p+p+p+p+p+p+p+p+p+p+p+p+p+p+p+p+p+p+p+p+p+p+p+p+p+p+p+p+p+p+]+j+p+p+p+p+p+p+p+p+p+p+p+p+p+p+p+p+p+p+p+p+p+p+p+p+p+p+p+t+n+x+y+L ].4.4.m.4.].2.z ^ y+x+p+p+p+p+p+p+p+p+&+p+p+p+p+x+p+x+r+x+x+#.e.1.1.*.e.g.|.s./+M.>.@+++++++++++s./+++2.[ 9 $.O.++++++W / 2 n O.s.].t $.Q I j '.}.:.}.}.%.9.e.$+q.G.q.O :.W B ! + ! '.r.q }.'.w N R =.T w %.h.h.p.N t.d W ] :.<.e.%+E.M.q.g.G.s.#.w , s M.g.%.4 f.'.V #.N u 1.f.u q N }.=.=.R =.w 0 ] 7 , W W ,.'.R N N 9.=.=.R w 7 ] 7 ! < 7 7 7 R ,.,.0 0 W 0 y 1.i.f.%.#.w =.u 0 u w w N u %.s N.t.p.N N N %.q q h.M.:.|.:.p.q q p.}.4 #.N ",
"&+]+]+]+]+]+]+|+|+]+]+]+]+]+]+&+]+]+]+|+|+|+]+]+]+]+]+]+]+]+]+]+]+]+]+]+]+|+|+|+]+|+|+|+]+]+]+|+]+]+]+]+|+|+|+|+|+|+|+|+|+|+|+9+a+a+9+4+r+k+8.i.^ . P 7.L t   . + T._ b.r+/.j+p+9+n+|+a+x+J h o+n+|+|+h+9+9+9+]+]+n+9+9+X |+h+9+9+9+9+9+9+9+9+9+9+9+9+9+9+9+9+9+a+a+a+a+a+a+a+a+9+9+9+9+9+9+9+9+9+9+9+9+9+9+9+9+a+a+a+a+a+a+a+a+a+a+a+j+j+j+j+A.j+j+a+a+a+a+a+j+j+j+j+j+j+j+j+j+h+n+n+h+S.n+o.x+y+)+T.r+x+h+y+R.|.G A.]+x+T.o+<+r+r+r+j+j+r+r+a+&+j+j+j+j+j+p+j+j+j+j+j+j+j+j+j+j+j+j+j+j+j+j+j+p+j+j+j+j+j+j+j+j+j+j+j+j+j+j+j+j+j+j+j+j+p+p+p+j+j+j+j+p+p+p+p+p+p+p+p+p+p+p+p+p+p+p+p+p+p+p+p+p+p+p+p+p+p+p+p+p+p+p+p+p+p+p+p+p+p+p+p+p+p+p+p+p+p+p+p+p+p+p+p+p+p+p+p+p+p+p+p+p+p+p+p+p+p+p+p+p+p+p+p+p+p+p+p+p+p+p+p+p+p+p+p+p+p+p+p+p+p+p+p+p+p+p+&+p+p+j+p+p+p+p+p+p+p+p+p+p+p+p+p+p+p+p+p+p+p+p+p+p+p+p+p+t+n+x+y+n 4.j.4.m.j.4.,.1 8 G+n+x+p+p+p+p+p+p+p+]+x+p+p+x+p+p+t+x+n+x+:.%+W y o :.q g.M.M.M.c.~+M.++++++/+s.c+/+~.1 n ).O.++++++W / 2 F O.s.].U e $.B W T }.%.:.p.R :.#.%.*.<.e.q.t.!./ ; M 2.f.G.e.q N 0 T W y y y '.%.}.}.q N ' Z 0 }.d+$+q.*.g.g.a.a.*.%., y s $+d+N.h.N ! V q N.=.R ] =.h.9.#.R u R R w y 7 7 7 1.,.T w R =.r 9.R u R ] W 7 < 7 y W 7 R R y y y y y W W y 7 N N #.#.}.}.R u ].0 N h.h.[.>.s :.:.*.|.:.|.s.:.|.g.|.:.|.:.N :.=.4 }.R ",
"]+]+]+]+]+]+]+]+|+]+]+]+]+|+|+|+a+|+|+|+|+|+]+]+]+]+]+]+]+]+]+]+|+|+]+]+]+]+|+|+|+|+|+|+]+]+]+|+]+]+]+]+]+]+]+]+]+|+|+|+|+|+|+|+<+<+7+h+9+o+E w+K . 9 k.E G . #   <+d.@ &+x+d.a+i+|+8+p+]+x+  /.r+r+|+a+a+a+:+j+9+&+9+h+|+J h+h+|+]+9+h+|+9+|+9+a+a+a+a+a+a+a+a+a+a+a+a+a+a+a+a+a+a+a+a+a+a+a+a+a+a+a+a+a+a+a+a+a+a+a+a+a+a+a+a+a+a+a+a+a+a+a+a+A.j+j+j+j+j+j+j+j+j+a+a+j+j+j+j+p+j+a+p+j+]+]+&+p+r+A.p+n+n+u+,+|.~.b.x+n+a+T.x+j+p+x+a+p+j+p+p+]+a+p+j+p+j+p+j+j+j+j+j+j+j+j+j+j+j+j+j+p+p+p+p+j+j+j+j+j+j+j+j+p+p+p+p+p+p+p+p+j+j+j+j+j+j+j+j+j+j+j+j+j+j+j+j+p+p+p+p+p+p+p+p+p+p+p+p+p+p+p+p+p+p+p+p+p+p+p+p+o+o+o+o+o+o+o+o+v+v+v+v+v+v+v+v+v+v+v+v+v+v+o+o+p+p+p+p+p+p+p+p+p+p+p+p+p+p+p+p+p+p+p+p+p+p+p+p+p+p+p+p+p+p+p+p+p+p+p+p+p+p+p+p+p+p+x+T.x+p+p+p+p+p+p+p+p+p+p+p+p+p+p+p+p+p+p+p+p+p+p+p+p+p+p+p+p+x+p+y+7.].W 7.4.V 4.(.1 l y+x+x+p+p+p+p+t+p+&+p+p+p+p+p+p+p+p+n+t+A+1.r V ].r %+e.g.@+@+|.++M.++/+++/+M.s.c+m+2.[ [ 5.O.++++/+!.- F k w.O.2.d j ,.W d W '.:.9.e.O O #.u R W i.U & [ + ! [.q M.p.R r R p.u 0 u I 7 [.}.u T j I W < T u %.[.w w N.:.$ '.T t.:.$+s t.N.#.N 0 u =.}.#.%.N h.:.9.N #.N h.f.T y < < w R R 0 R }.h.}.=.R R y y ! b b 7 W 7 W y < y y u 4 N R t.=.4 N w f.N.f.u N u 4 =.=.}.}.h.4 u 4 }.%.%.N.:.#.#.N.:.N N h.}.N :.#.R w R R ",
"&+&+]+]+]+]+]+]+]+]+]+]+]+|+|+|+|+|+|+|+|+|+]+]+|+|+|+|+|+|+|+|+|+|+|+]+]+]+|+|+|+|+a+|+|+]+|+|+]+]+]+]+]+|+|+|+|+|+|+|+|+|+|+|+<+<+a+h+9+o+E w+-.. = 6.E G . @ @ T.x+A.@ J |+&+7+n+p+a+j+j+:+  A.r+j+j+a+a+a+:+9+9+|+h+]+x+% 9+n+h+h+|+9+|+h+]+a+a+a+a+a+a+a+a+a+a+a+a+a+a+a+a+a+a+a+a+a+a+a+a+a+a+a+a+a+a+a+a+a+a+a+a+a+a+a+a+a+a+a+a+a+a+a+a+j+A.a+j+j+j+a+j+a+a+a+j+j+j+j+j+a+j+j+p+j+a+]+A.p+j+<+a+h+x+u+R.g.2.b.n+|+r+&+j+p+p+p+p+p+j+p+j+a+a+p+j+p+j+p+j+j+j+j+j+j+j+j+j+j+j+j+j+p+p+p+p+j+j+j+j+j+j+j+j+p+p+p+p+p+p+p+p+j+j+j+j+j+j+j+j+j+j+j+j+j+j+j+j+p+p+p+p+p+p+p+p+p+p+p+p+p+p+p+p+p+p+p+p+p+p+p+p+o+o+o+o+o+o+o+o+v+v+v+v+v+v+v+v+v+v+v+v+v+o+o+o+p+p+p+p+p+p+p+p+p+p+p+p+p+p+p+p+p+p+p+p+p+p+p+p+p+p+p+p+p+p+p+p+p+p+p+p+p+p+p+p+p+p+x+&+x+p+p+p+p+p+p+p+p+p+p+p+p+p+p+p+p+p+p+p+p+p+p+p+p+p+p+p+p+x+p+u+!.4.~.!.j.4.4.(.[ 3 y+n+p+p+p+p+x+p+t+&+p+p+p+p+p+p+p+p+x+t+s+1.=.].4.%.%+e.|.@+g.s.M.++++++M./+++M.c+c+~.1 | $.O./+++/+!.= 9 F '+w.A I W W W I y =.9.<.p.p.$+h.N.f.W 7 ' + , 7.T [.:.*.4 N =.N ) =.=.R 7 W =.R u '.! Z W < 0 #.}.w '.2.#.4 0 1.N.R q $+>.4 0 N N R R u u %.h.}.%.N N #.h.R =.=.w w 7 I u R R R R }.=.u =.R 1.=.y ! 7 b y W y W y ] W y u N }.h.N.}.u N t.[.R R ] 4 u N =.h.R 4 R u N }.}.}.#.N #.:.t.|.N N q p.}.%.#.N =.w ] ] ",
"&+&+]+]+]+]+|+|+:+:+:+:+:+:+:+:+:+:+:+:+:+:+:+:+|+|+|+|+|+|+|+|+|+|+|+|+|+|+|+|+|+|+a+a+a+|+|+|+]+]+]+]+|+|+|+|+a+a+|+|+|+|+a+a+<+a+a+9+h+o+d w+l.. . 8.E $..     <+r+x+|+_ @ J T.:+p+j+a+j+x+&+% &+a+p+a+a+j+:+9+|+h+n+&+h+h+J &+n+9+9+h+9+]+n+a+a+a+a+a+a+a+a+a+a+a+a+a+a+a+a+a+a+a+a+a+a+a+a+a+a+a+a+a+a+a+a+a+a+a+a+a+a+a+a+a+a+a+a+a+a+a+a+j+a+A.a+j+j+j+a+a+a+j+j+j+j+j+j+a+p+j+j+j+p+a+A.|+r+o+&+h+x+u+R.|.2.b.x+]+x+:+&+x+p+a+x+j+j+x+j+a+a+j+j+p+j+p+p+j+j+j+j+j+j+j+j+j+j+j+p+p+p+p+p+j+j+j+j+j+j+j+j+p+p+p+p+p+p+p+p+p+p+p+p+p+p+p+p+p+p+p+p+p+p+p+p+p+p+p+p+p+p+p+p+p+p+p+p+p+p+p+p+p+p+p+p+p+p+p+p+o+o+o+o+v+v+v+v+v+v+v+v+v+v+v+v+v+v+v+o+o+o+o+o+p+p+p+p+p+p+p+p+p+p+p+p+p+p+p+p+p+p+p+p+p+p+p+p+p+p+p+p+p+p+p+p+p+p+p+p+p+p+p+p+p+x+j+a+x+p+p+p+p+p+p+p+p+p+p+p+p+p+p+p+p+p+p+p+p+p+p+p+p+p+p+p+p+x+x+u+$.4.].' ].4.4.(.1 3 y+x+p+x+p+p+x+p+p+]+p+p+p+p+p+p+p+p+x+t+A+1.#.V ].9.a.*.*.@+g.++s.M.++++M./+++M./+++~.e 9 $.O./+/+/+!.' | P '+4.0 B A ,.I d ,.[.:.r.s.#.q R ,.!.7 , , i.,.,.R #.#.O q u %.u =.R 0 R ,.T u N ] f.7 ! ,.W [.}.h.#.[.T 4 T '.W ,.T [.f.N.}.s #.R R u u %.h.}.}.4 u %.N.}.R R R 0 7 7 y R =.R R R =.=.R R u R y 7 < y B 7 y y ,.W 7 W y w R 1.1.f.=.w R w w 4 w u }.}.u 4 #.#.}.#.:.h.p.}.q N 4 %.h.|.:.u N q h.:.}.p.N.t.[.N w ",
"]+]+]+]+]+]+]+|+:+:+:+:+:+:+:+:+:+:+:+:+:+:+:+:+|+|+|+|+|+|+|+]+|+|+|+|+|+|+|+]+|+|+a+a+a+a+|+|+]+]+|+|+|+|+a+a+a+a+a+a+a+a+a+a+0+r+a+9+n+o+' c+x.. . 8.k )..     <+r+p+x+p+&+@   ` ` a+j+j+]+n+d.@ j+|+j+j+|+j+]+n+|+]+n+|+h+S._.9+9+n+]+9+n+]+a+a+a+a+a+a+a+a+a+a+a+a+a+a+a+a+a+a+a+a+a+a+a+a+a+a+a+a+a+a+a+a+a+a+a+a+a+a+a+a+a+a+a+a+a+a+a+a+a+a+a+A.a+p+j+j+a+j+j+j+j+j+j+j+a+p+j+j+j+p+p+]+o.r+o+T.h+n+u+R.|.2.b.x+&+x+j+T.a+x+a+x+j+j+p+j+]+a+x+p+a+j+p+p+j+j+j+p+p+j+j+j+p+p+p+p+p+p+p+p+j+j+j+j+j+j+j+j+p+p+p+p+p+p+p+p+p+p+p+p+p+p+p+p+p+p+p+p+p+p+p+p+p+p+p+p+p+p+p+p+p+p+p+p+p+p+p+p+p+p+p+p+p+p+p+p+o+o+o+v+v+v+v+v+v+v+v+v+v+v+v+v+o+o+o+o+o+o+o+o+p+p+p+p+p+p+p+p+p+p+p+p+p+p+p+p+p+p+p+p+p+p+p+p+p+p+p+p+p+p+p+p+p+p+p+p+p+p+p+p+p+x+]+p+p+j+p+p+p+p+p+p+p+p+p+p+p+p+p+p+p+p+p+p+p+p+p+p+p+p+p+p+p+p+x+u+(.].V + j 4.].(.k 8 G+x+p+t+p+p+x+x+]+a+p+p+p+p+p+p+p+p+r+t+F+1.R ].4.9.G.e.g.s.s.++++M.++++M./+++M.++M.~.e 9 $.O./+/+/+!.9 9 n 5.V j Q W I W !.W =.}.%.O h.=.1.!.b + 7.t.] N =.}.N q O q %.h.4 R 4 u h.W , N p.N T 0 ~.i.w t.f.f.0 ] %.:.f.0 0 t.1.] < ~+~+f.N ] u u =.}.R 4 =.N =.R }.R w R R w 0 0 ,.h.9.=.R R R R R R 7 ] 7 7 7 y y 7 7 y ,.y 7 W 7 0 R '.w 0 0 0 '.w ] #.h.h.h.#.4 4 u %.h.u u :.}.%.N 4 h.p.}.|.#.u N %.p.:.%.:.p.=.R R N ",
"&+]+]+]+]+]+|+|+:+:+:+:+:+:+:+:+:+:+:+:+:+:+:+:+|+|+|+|+]+]+]+]+|+|+|+|+|+|+|+]+|+|+a+a+a+a+a+a+:+:+:+:+:+:+:+a+:+:+a+a+a+a+:+:+:+o+a+a+n+o++ ~+R.. . {.k ).. @   <+r+a+n+p+j+p+/.  @ &+p+p+h+h+p+_ X j+j+|+j+a+9+|+9+9+|+h+|+x+&+J n+|+h+h+]+9+a+a+a+a+a+a+a+a+a+a+a+a+a+a+a+a+a+a+a+a+a+a+a+a+a+a+a+a+a+a+a+a+a+a+a+a+a+a+a+a+a+a+a+a+a+a+a+a+a+j+j+a+A.a+j+j+j+j+j+j+a+a+j+j+j+j+a+j+j+j+x+p+d.:+y+]+&+x+u+R.g.2./.x+&+r+r+a+&+p+p+p+j+p+j+p+a+]+j+x+p+j+p+j+j+j+p+p+p+p+j+j+p+p+p+p+p+p+p+p+j+j+j+j+j+j+j+j+p+p+p+p+p+p+p+p+p+p+p+p+p+p+p+p+p+p+p+p+p+p+p+p+p+p+p+p+p+p+p+p+p+p+p+p+p+p+p+p+p+p+p+p+p+p+p+p+o+o+o+v+v+v+v+v+v+v+v+v+v+v+v+v+o+o+o+o+o+o+o+o+p+p+p+p+p+p+p+p+p+p+p+p+p+p+p+p+p+p+p+p+p+p+p+p+p+p+p+p+p+p+p+p+p+p+p+p+p+p+p+p+p+x+&+x+p+j+p+p+p+p+p+p+p+p+p+p+p+p+p+p+p+p+p+p+p+p+p+p+p+p+p+p+x+p+x+s+Z ].].I A 4.].(.k 8 y+n+p+p+x+p+p+x+S.p+p+p+p+p+p+p+p+p+x+t+y+y 4 ].4.*.q.<.|.|.s.M./+M.++++++++++M.++++2.1 [ $.O.++++/+7.} 3 m I V W W W ,.W I ,.'.%.9.N.#.0 7 ! + W @+|.q h.}.#.N }.$+p.%.N h.=.h.R =., T p.N N [.w A w T t.w ] 4 :.h.[.#.#.[.[.T T W #.N %.:.4 }.h.r r R R =.u w R T w w 0 w w w =.f.=.R R R R y y y y ] 7 y y y 7 7 7 7 7 W 7 7 y 7 0 w R w 0 w w R %.}.N.#.N $+9.q #.N.N.%.:.:.:.N N %.p.N.N h.q g.%.#.:.:.:.q N }.0 w N T ",
"&+&+:+:+:+:+:+:+:+:+:+:+:+:+:+:+:+:+:+:+:+:+:+:+:+:+:+:+:+:+:+:+:+:+:+:+:+:+:+:+:+:+a+a+:+:+:+:+:+:+:+:+a+a+a+a+:+a+a+a+a+a+:+:+:+0+a+j+n+o++ @+R.& . M v ).. .   T.G+p+|+a+a+p+y+A.@   A.r+a+p+p+j+@ /.r+p+j+|+|+9+n+]+9+]+n+9+n+&+J n+n+9+&+n+a+a+a+a+a+a+a+a+a+a+a+a+a+a+a+a+a+a+a+a+a+a+a+a+a+a+a+a+a+a+a+a+a+a+a+a+a+a+a+a+a+a+a+a+a+a+a+a+a+j+j+j+a+A.a+a+j+j+j+j+a+a+a+j+j+j+a+p+j+a+p+p+]+A.y+p+S.n+u+R.g.2.` x+|+a+r+r+T.a+p+p+p+p+j+p+j+A.T.x+x+p+j+p+p+p+p+p+p+p+p+p+p+p+p+p+p+p+p+p+p+p+p+p+p+p+p+p+p+p+p+p+p+p+p+p+p+p+p+p+p+p+p+p+p+p+p+p+p+p+p+p+p+p+p+p+p+p+p+p+p+p+p+p+p+p+p+p+p+p+p+p+p+p+p+p+o+o+v+v+v+v+v+v+v+v+v+v+v+o+o+o+o+o+o+o+o+o+o+o+p+p+p+p+p+p+p+p+p+p+p+p+p+p+p+p+p+p+p+p+p+p+p+p+p+p+p+p+p+p+p+p+p+p+p+p+p+p+p+p+p+p+&+x+p+p+p+p+p+p+p+p+p+p+p+p+p+p+p+p+p+p+p+p+p+p+p+p+p+p+p+p+v+p+v+f+(.V 4.Z 4.j.].(.k l G+x+t+p+x+p+p+x+S.x+p+p+p+p+p+p+p+p+x+t+y+y $ V |.<.a.*.q g.s.M.++s.++++++++++++++++2.e | $.O.++++c+7.+ . t Z V ,.B W d W W w [.p.9.:.h., + y t.}.:.t.:.4 h.p.N q d+}.#.#.p.}.N u R ,.0 }.:.}.%.] b N #.w w w ] h.s.:.|.%.$ :.'.w 7 4 %.h.h.N r r 4 R 9.9.u 0 w ,.,.W W 0 w w R }.}.u u w w y 7 7 7 ] 7 y R 7 0 w w W 7 7 7 7 7 y 7 ,.w 0 w w ,.T w %.%.}.N %.$+h.9.9.#.N #.N.#.%.h.h.h.u }.q p.|.|.p.%.#.4 %.N :.h.w N T '.",
"&+:+:+:+:+:+:+:+<+<+<+<+<+<+<+<+<+<+<+<+<+<+<+<+:+:+:+:+:+:+:+:+:+:+:+:+a+a+:+:+<+0+0+0+<+<+<+<+:+:+:+a+a+a+a+a+a+a+a+a+a+a+a+a+a+0+0+p+p+o+= N.R.& + a +.)..   @ T.x+p+n+x+j+a+|+x+a+T.  h y+a+j+p+:+@ T.x+]+j+n+&+|+n+9+9+&+9+|+x+S._.h+9+x+]+a+a+a+a+a+a+a+a+a+a+a+a+a+a+a+a+a+a+a+a+a+a+a+j+a+a+a+a+a+a+a+a+a+a+a+a+a+a+j+j+a+a+a+a+a+a+a+a+j+a+j+j+j+a+A.a+a+a+j+j+j+a+j+j+j+j+a+p+j+a+p+j+p+T.<+x+&+|+y+R.a.i.` x+n+a+j+r+a+&+p+p+j+p+p+p+j+A.A.p+p+p+p+p+p+p+p+p+p+p+p+p+p+p+p+p+p+p+p+p+p+p+p+p+p+p+p+p+p+p+p+p+p+p+p+p+p+p+p+p+p+p+p+p+p+p+p+p+p+p+p+p+p+p+p+p+p+p+p+p+p+p+p+p+p+p+p+p+p+p+p+p+p+p+p+p+v+v+v+v+v+v+v+v+v+v+v+o+o+o+o+o+o+o+o+o+o+o+o+o+p+p+p+p+p+p+p+p+p+p+p+p+p+p+p+p+p+p+p+p+p+p+p+p+p+p+p+p+p+p+p+p+p+p+p+p+p+p+p+p+x+p+]+x+p+p+p+p+p+p+p+p+p+p+p+p+p+p+p+p+p+p+p+p+p+p+p+p+p+p+p+p+o+p+y+f+5.].].(.O.4.4.(.k H G+x+x+p+x+p+t+j+]+x+p+p+p+p+p+p+x+x+r+t+G+;.) 4.t.B.%+e.*.s.s.@+M.++++++++++M.++++++i.k [ $.O./+++++B + . F !.V ,.B W ,.W I W [.9.%.h.R , v.,.%.O q.w =.R p.N 4 q g.#.%.q q #.u }.=.0 ] p.r.#.#.T A q }.w w w %.p.*.g.e.d+q.<.%.T w q h.h.N N 4 R r.=.=.R u ,.2.T , I W W ,.R R }.%.'.'.T y < , , ! < 7 7 R 7 0 w T W 7 7 7 7 y y y ,.y w w w ,.w w 4 }.:.#.:.p.<.N N :.:.4 }.h.$+p.%.N h.%.4 :.:.@+:.N %.N :.N q %.0 w N T ",
":+:+:+:+:+:+:+:+<+<+<+<+<+<+<+<+<+<+<+<+<+<+<+<+a+a+a+:+:+:+:+:+:+:+:+a+a+a+a+a+0+0+0+0+<+<+<+0+:+:+:+a+a+a+a+a+a+a+a+:+:+:+a+a+j+k+o+v+j+r+, N.R.& + = {.6.. .   <+x+p+n+j+j+a+p+a+r+r+0+*   0+p+j+r+T.@ &+p+j+|+n+9+|+9+h+n+|+h+|+n+S._.9+n+|+a+a+a+a+a+a+a+a+a+a+a+a+a+a+a+a+a+a+a+a+a+a+a+j+a+a+a+a+a+a+a+a+a+a+a+a+j+j+j+j+a+a+a+a+a+a+a+a+a+j+a+j+j+p+p+A.|+a+j+p+j+j+j+j+j+j+a+p+j+j+p+j+x+j+b.p+n+S.y+R.|.w.` n+n+:+a+r+x+A.j+p+a+p+x+j+p+]+a+x+a+p+x+j+p+p+p+p+p+p+p+p+p+p+p+p+p+p+p+p+p+p+p+p+p+p+p+p+p+p+p+p+p+p+p+p+p+p+p+p+p+p+p+p+p+p+p+p+p+p+p+p+p+p+p+p+p+p+p+p+p+p+p+p+p+p+p+p+p+p+p+p+p+p+p+p+v+v+v+v+v+v+v+v+v+v+o+o+o+o+o+o+o+o+o+o+o+o+o+o+p+p+p+p+p+p+p+p+p+p+p+p+p+p+p+p+p+p+p+p+p+p+p+p+p+p+p+p+p+p+p+p+p+p+p+p+p+p+p+p+x+j+]+p+p+p+p+p+p+p+p+p+p+p+p+p+p+p+p+p+p+p+p+p+p+p+p+p+p+p+p+p+t+x+y+)+(.].j.k.O.4.4.(.k U y+n+x+p+t+p+x+]+j+p+p+p+p+p+p+x+x+x+y+t+G+;.4 V S o q.O O g.N.~+g.++++M.++M.M.++++++2.k [ Q O./+M.g., + . m Q T W ;.W W !.W y [.h.N =.1.W !.W 9.G.%+w T ] 0 =.%.#.$+|.:.:.~+}.u [.f.0 =.p.r.9.:.< j #.}.f.1.T }.g.G.q e.d+e.o g.'.i.:.:.:.N =.=.=.r r R 1.1.,.w 7 0 d W 7.1.w #.p.h.w T T I b [ f f 7 y y ,.y w 0 w 7 7 7 7 y W y y y W W ,.7 y 7 7 q h.%.}.}.N q #.4 :.:.%.$+#.q 9.}.#.h.N :.}.t.g.N N :.#.#.N q }.[.f.f.f.",
"7+7+7+7+(+(+(+(+<+<+<+<+<+<+<+<+<+<+<+<+<+<+<+<+<+0+0+0+0+0+<+<+<+<+0+0+0+0+0+0+0+0+0+0+0+0+0+0+0+0+0+0+0+k+k+k+0+0+0+0+0+0+0+0+7+0+u+o+p+o++ 1.'+n . * +.{.. .   <+y+o+o+r+a+a+0+0+0+k+y+o+b.  )+y+o+G+/.  y+0+i+7+7+|+p+a+j+a+j+a+|+p+&+/.j+r+:+j+a+a+a+a+p+|+a+a+a+a+a+a+a+a+a+a+a+a+a+a+a+j+a+j+j+j+j+j+a+a+a+a+j+j+a+j+j+a+a+a+a+j+j+j+j+a+j+j+j+j+j+j+j+j+S.]+p+p+a+j+p+j+a+a+j+j+p+p+j+j+p+v+A.<+x+S.y+,+|.w.t y+v+T.v+r+x+a+T.r+r+r+j+r+v+<+<+o+v+o+o+o+o+o+o+o+o+o+o+o+o+o+o+o+o+o+o+o+o+o+o+o+o+o+o+o+o+o+o+o+o+o+o+o+o+o+o+o+o+o+o+o+p+p+p+p+p+p+p+p+o+o+o+o+o+o+o+o+o+o+o+o+o+o+o+v+o+o+o+o+o+o+o+o+o+o+o+v+v+v+v+v+p+p+p+p+p+p+p+p+p+p+p+p+p+p+p+p+p+p+p+p+p+p+p+p+p+p+p+p+p+p+p+p+p+p+p+p+p+p+p+p+p+p+p+p+p+p+p+p+p+p+p+p+p+p+p+p+x+&+p+p+x+j+p+p+p+p+p+p+p+p+p+p+p+p+p+p+p+p+p+p+p+p+p+p+p+p+p+p+x+n+x+0+!.].].7.O.4.2.~.n ` G+t+p+p+x+p+x+&+p+x+v+v+y+v+o+v+v+v+t+y+s+L 0 #.9.9.N.e.s.|.g./+++++M.++++++++++P.++j.I [ ).O.O.).9 @ ; = e !.W W W W W !.I W t.h.4 a.t.w R h.q N.b+[.:.4 %.t.u :.}.R 0 =.h.h.N |.|.] N h.f.f.0 0 ,.[.'.h.=.9.q :.p.s.<.p.%.N }.R R O f.t.R 1.u u N R r u 1.W 0 R =.u u }.%.u %.u #.y y y 7 ! < 7 b W W R R y y y B T 0 T w w W w 0 w y W w 0 w w W p.p.}.4 4 :.%.%.1.N.9.4 9.:.R R W A '.|.:.|.:.}.=.=.=.=.w [.t.t.<.<.e.e.",
"0+0+k+0+0+0+0+<+<+<+<+<+<+<+<+<+<+<+<+0+0+0+<+<+0+0+0+0+0+0+<+<+<+<+0+0+0+0+0+0+0+0+0+0+0+0+0+0+0+0+0+0+k+k+k+k+k+k+0+0+0+0+0+0+r+0+u+y+x+k++ N.,+n   . +.{.. .   <+y+o+o+r+j+j+0+o+k+0+o+y+0+T.@ T.y+y+y+J h y+a+p+j+o+<+a+a+j+a+j+p+j+p+A.d.j+r+a+p+a+j+j+&+p+a+a+a+a+a+a+a+a+a+a+a+a+a+a+a+a+j+j+j+j+j+j+j+a+a+j+j+j+a+j+j+a+a+a+a+j+j+j+j+j+j+j+j+j+j+j+j+j+x+&+T.p+x+a+j+|+j+p+p+j+j+j+j+p+p+v+k+T.j+j+T.f+g.w.m y+v+<+v+r+r+r+&+a+r+r+r+r+v+<+<+o+v+o+o+o+o+o+o+o+o+o+o+o+o+o+o+o+o+o+o+o+o+o+o+o+o+o+o+o+o+o+o+o+o+o+o+o+o+o+o+o+o+o+o+o+p+p+p+p+p+p+p+p+o+o+o+o+o+o+o+o+o+o+o+o+o+o+o+v+o+o+o+o+o+o+o+o+o+o+o+v+v+v+v+v+p+p+p+p+p+p+p+p+p+p+p+p+p+p+p+p+p+p+p+p+p+p+p+p+p+p+p+p+p+p+p+p+p+p+p+p+p+p+p+p+p+p+p+p+p+p+p+p+p+p+p+p+p+p+p+p+x+&+p+p+x+p+p+p+p+p+p+p+p+p+p+p+p+p+p+p+p+p+p+p+p+p+p+p+p+p+p+p+x+p+x+f+~.].V Z w.4.4.~.n ` G+x+x+p+x+p+x+&+p+x+o+v+v+v+v+v+v+v+x+y+f+b w %.%.9.O <.$+M.g./+M.s.++++/+++++++++++j.I [ P 2.].I [ @ ; = e !.W W W 2.W !.W I '.%.p.a.N ,.w :.O N.0 R f.R R [.[.[.0 u =.u N N.#.N $+w R }.#.:.[.0 ] T :.h.N N ) :.h.h.%.p.}.%.u N =.N.:.N u R u u #.r.=.w W W w W R =.N =.}.=.=.=.}.W 7 7 7 7 < < 7 w T R R R y < ! w 0 ,.W ,.,.W T w y W y w W y W h.%.N u u N u :.=.#.N q %.%.w W + ! 4.f.:.#.#.%.N }.=.=.4 N #.t.w W ,.,.",
"0+k+k+k+k+k+0+0+0+0+0+0+0+0+<+<+0+0+0+0+0+0+0+0+0+0+0+0+0+0+0+<+<+0+0+0+0+k+k+k+0+0+0+k+k+0+0+0+0+0+k+k+k+o+o+o+k+k+0+0+0+0+0+k+r+o+u+k+o+0+' @+l+n     +.{.. . . <+y+o+o+o+j+j+a+r+r+j+j+r+x+x+T.  A.G+y+y+@ /.G+u+k+u+a+o+0+o+p+a+j+a+x+r+A.d.r+j+a+j+a+a+j+j+a+a+a+a+a+a+a+a+a+a+a+a+a+a+a+a+a+j+j+j+j+j+j+j+a+j+j+j+j+j+j+a+j+j+j+j+j+p+j+j+j+j+j+j+j+j+j+j+j+x+j+A.]+x+j+p+a+j+p+j+j+j+j+p+p+o+u+T.p+a+A.)+g.w.5 y+t+a+o+r+r+r+r+T.r+r+r+r+v+0+a+o+v+o+o+o+o+o+o+o+o+o+o+o+o+o+o+o+o+o+o+o+o+o+o+o+o+o+o+o+o+o+o+o+o+o+o+o+o+o+o+o+o+o+o+o+p+p+p+p+p+p+p+p+o+o+o+o+o+o+o+o+v+o+o+o+o+o+o+v+o+o+o+o+o+o+o+o+v+v+v+v+o+o+o+o+p+p+p+p+p+p+p+p+p+p+p+p+p+p+p+p+p+p+p+p+p+p+p+p+p+p+p+p+p+p+p+p+p+p+p+p+p+p+p+p+p+p+p+p+p+p+p+p+p+p+p+p+p+p+p+p+p+&+p+p+x+p+p+p+p+p+p+p+p+p+p+p+p+p+p+p+p+p+p+p+p+p+p+p+p+p+p+p+x+p+x+)+~.].V I w.4.4.~.n ` G+x+x+p+x+p+j+a+x+p+v+v+o+v+v+v+v+v+x+<+)+b w }.%.#.e.#.O |.|.++M.++@+++++P.++++++++w.z } P W A I n @ ; + e !.W W W W W Q W A [.N.q <.N.T , p.s.s < [.[.! 1.1.'.0 0 =.R 4 N }.q #.s.=.0 :.}.}.[.0 T [.}.}.N 9.#.h.N R %.h.#.#.:.N.h.|.4 u R r R =.:.h.R ] 7 j A W W =.w w R R R R =.I < 7 7 7 < y W w w w y y y y B 0 < W w W w T w 7 7 w 0 0 W W W u u %.h.h.}.N N N N N q :.'., ~.- - ,.[.:.:.|.|.N h.N r r 4 ) h.T T '.[.",
"0+0+0+0+0+0+0+0+0+0+0+0+0+0+0+0+0+0+0+0+0+0+0+0+0+0+0+0+0+0+0+0+0+0+0+0+0+k+k+k+0+0+0+k+k+k+0+0+k+k+k+o+o+o+o+o+o+k+k+k+k+k+k+k+a+o+y+v+y+k+= f.'+F * . M {..   . )+y+o+u+o+o+r+j+r+r+r+r+r+r+r+y+<+@ ` y+G+k+@ T.y+y+0+r+r+r+j+o+v+v+o+r+r+r+A.d.r+j+a+p+a+j+j+a+a+a+j+j+a+a+a+a+a+a+a+a+a+a+a+a+a+a+j+j+j+j+a+a+o+o+o+j+j+j+a+j+j+j+j+j+j+j+j+j+j+j+j+j+j+j+p+j+x+p+a+&+S.x+p+j+j+j+j+p+p+j+j+p+o+u+<+]+a+<+l.g.w.5 G+t+t+<+r+r+j+G+&+:+x+j+r+v+a+j+v+v+o+v+v+o+o+o+o+o+o+o+o+o+o+o+o+o+o+o+o+o+o+o+o+o+o+o+o+o+o+o+o+o+o+o+o+o+o+o+o+o+o+o+o+p+p+p+p+p+p+p+p+o+o+o+o+o+o+o+o+v+o+o+o+o+o+o+o+o+o+o+o+o+o+v+v+v+v+v+v+o+o+o+o+p+p+p+p+p+p+p+p+p+p+p+p+p+p+p+p+p+p+p+p+p+p+p+p+p+p+p+p+p+p+p+p+p+p+p+p+p+p+p+p+p+p+p+p+p+p+p+p+p+p+p+p+p+p+p+p+j+|+p+p+p+p+p+p+p+p+p+p+p+p+p+p+p+p+p+p+p+p+p+p+p+p+p+p+p+p+p+p+v+p+y+)+~.].].~.w.4.4.~.n ` G+x+x+x+x+x+]+p+x+p+y+v+v+v+v+v+v+y+t+<+G+i.w %.9.:.$+:.O M.M./+M.P.++++P.++++M.M.~+v.e } P Z V Z v @ ; + e !.,.W W I W !.7 A 1.%.9.<.t.,.f.@+G.>.V y i.y ,.0 w 7 w R R 4 u :.#.#.:.0 4 h.h.:.f.N T %.%.%.:.<.9.:.4 1.R ] %.:.h.p.*.:.u h.9.r R R R y 7 < < < I W W w R w w w w R 0 ' < Q I y 7 W 7 0 w R =.=.R W I 0 0 W w w 0 w T w 0 w w w W W ,.h.}.:.N 4 u N #.%.%.p.N.'.4.A 1 & + W [.#.:.:.%.O }.N r =.R r 9.O O *.<.",
"0+0+0+0+0+0+0+0+0+0+0+0+0+0+0+0+0+0+0+0+0+0+0+0+0+0+0+0+0+0+0+0+0+0+0+0+0+0+0+0+k+k+k+k+k+k+k+k+k+k+k+o+o+o+o+o+o+o+o+o+o+o+o+o+r+0+k+y+G+)++ t.O.F ^ . m {..   . )+y+u+v+o+o+r+r+r+j+r+r+r+r+r+y+u+o+  h G+G+<+  r+x+x+(+i+x+i+o+v+k+o+r+a+r+r+d.d.x+x+a+p+j+a+j+j+j+j+j+j+j+a+a+a+a+a+a+a+a+a+a+a+a+j+j+j+j+j+j+o+o+o+j+j+j+a+j+j+j+j+j+j+j+j+j+j+j+j+j+j+j+p+p+p+p+j+p+]+d.j+x+p+p+j+j+j+p+p+j+v+u+v+A.x+o+x.>.i.5 G+t+t+<+r+r+r+r+r+T.x+a+r+o+a+a+o+o+o+o+o+o+o+o+o+o+o+o+o+o+o+o+o+o+o+o+o+o+o+o+o+o+o+o+o+o+o+o+o+o+o+o+o+o+o+o+o+o+o+o+o+p+p+p+p+p+p+p+p+o+o+o+o+o+o+v+v+v+v+o+o+o+v+o+o+o+o+o+o+o+v+v+v+v+v+v+o+o+o+o+o+p+p+p+p+p+p+p+p+p+p+p+p+p+p+p+p+p+p+p+p+p+p+p+p+p+p+p+p+p+p+p+p+p+p+p+p+p+p+p+p+p+p+p+p+p+p+p+p+p+p+p+p+p+p+p+p+a+a+p+p+p+p+p+p+p+p+p+p+p+p+p+p+p+p+p+p+p+p+p+p+p+p+p+p+p+p+p+p+v+x+y+)+~.].].5.w.4.4.~.n ` G+x+p+x+p+x+&+x+x+x+v+v+v+v+v+v+v+y+j+0+y+z w :.#.4 q q O M.M.++M.P.s.++++/+++M.@+~+7.' = +.,.T I f @ ; + e !.,.W W W W Q !.A '.N.#.q N.'.T $+G.N.i.,.i.0 ] w 1.W , u R N %.:.p.N.|.u u %.h.:.}.N 0 :.%.:.s.e.p.#.R 0 R =.N.p.h.e.O t.R h.9.h.=.u y < < d d d I y y 7 W 7 y 7 7 W 7 d d I 7 7 7 y ] w R =.=.R R y 7 w T w W 0 w w W W y W W w y w W }.h.}.#.u u N 4 %.p.}.>.T V ' 1 ' [ W [.u %.#.%.*.:.}.R 1.=.=.R T T T '.",
"0+0+0+0+0+0+0+0+<+<+<+<+0+0+0+0+0+0+0+0+0+0+0+0+0+0+0+0+0+0+0+0+0+0+0+0+0+0+0+0+0+k+k+k+k+k+k+k+0+k+k+k+k+k+k+k+o+k+k+k+k+o+o+o+r+u+u+u+G+0+, f.O.F ^ . m {..   . )+y+u+o+o+k+r+o+o+o+o+o+o+o+y+k+y+y+u+2   u+G+T.  x+r+r+i+r+r+u+k+y+y+k+r+a+r+r+d.T.r+a+j+v+0+j+j+r+r+r+r+j+j+a+a+a+a+a+a+j+j+a+a+j+j+j+j+j+j+o+o+o+o+j+j+j+a+j+j+j+j+a+a+a+j+j+j+j+j+j+j+j+p+p+p+a+p+j+a+j+T.]+a+p+p+p+j+j+p+j+v+k+o+j+&+y+)+>.i./ y+v+t+<+r+r+x+j+x+:+&+r+r+o+0+0+o+o+o+o+o+o+o+o+o+o+o+o+o+o+o+o+o+o+o+o+o+o+o+o+o+o+o+o+o+o+o+o+o+o+o+o+o+o+o+o+o+o+o+o+o+p+p+p+p+p+p+p+p+o+o+o+o+o+v+v+v+o+o+v+o+o+o+v+o+o+o+o+o+v+v+v+v+v+v+v+o+o+o+o+o+p+p+p+p+p+p+p+p+p+p+p+p+p+p+p+p+p+p+p+p+p+p+p+p+p+p+p+p+p+p+p+p+p+p+p+p+p+p+p+p+p+p+p+p+p+p+p+p+p+p+p+p+p+p+p+p+|+j+x+p+p+p+p+p+p+p+p+p+p+p+p+p+p+p+p+p+p+p+p+p+p+p+p+p+p+p+p+p+o+x+y+T.~.].].5.j.4.4.Z v ` y+x+p+x+p+x+&+x+p+x+v+v+v+v+v+y+y+y+&+y+G+b R N N h.r.e.:.$+M.M.M.s.g.++++++++@+@+t.b + = +.W T I z @ ; + e !.,.W W I W !.I W f.:.#.r.%.! [.g.|.t.w.w '.T T T T w T =.R R =.%.N.$+:.R u r h.}.#.w w h.|.O q.<.}.) y N }.}.%.%.}.$+@+A w }.u h.=.y y 7 7 I d B W y 7 y 7 < y 7 ! 7 y W A w W 0 ] 0 T R R R R u 0 7 7 0 T w ,.0 w w w w w W W w w 7 w }.:.%.}.#.N }.%.>.#.#.}.T w I , W W T }.#.}.%.9.:.:.h.R W 7 7 +         ",
"<+<+<+<+<+<+<+0+<+<+<+<+<+<+0+0+0+0+0+0+0+0+0+0+<+0+0+0+0+0+0+0+0+0+0+0+0+0+0+k+0+0+k+k+k+k+k+k+k+k+k+o+o+o+o+o+k+k+k+k+k+o+o+o+r+u+)+b.A.A.- h.O.n * . M {..   . )+y+u+u+o+r+r+u+u+u+u+u+u+u+u+y+u+G+u+G+D * k+G+b.* G+y+0+G+u+y+u+k+u+o+r+r+r+y+y+d.A.v+o+a+v+j+o+o+o+o+o+o+o+j+j+j+j+j+j+j+o+j+j+j+j+r+r+r+r+o+o+v+o+o+o+o+j+j+j+j+j+a+a+j+j+j+j+j+j+j+j+j+p+p+j+j+a+p+p+a+p+&+]+a+j+p+p+p+j+p+o+k+o+G+d.u+f+>.i.= y+y+t+<+r+r+r+r+r+x+T.j+r+o+0+0+j+o+o+o+o+o+o+o+o+o+o+o+o+o+o+o+o+o+o+o+o+o+o+o+o+o+o+o+o+o+o+o+o+o+o+o+o+o+o+o+o+o+o+o+o+p+p+p+p+p+p+p+p+o+o+o+o+v+v+v+v+a+o+v+v+o+o+o+o+o+o+o+v+v+v+v+v+v+o+o+o+o+o+o+o+p+p+p+p+p+p+p+p+p+p+p+p+p+p+p+p+p+p+p+p+p+p+p+p+p+p+p+p+p+p+p+p+p+p+p+p+p+p+p+p+p+p+p+p+p+p+p+p+p+p+p+p+p+p+p+p+]+p+x+p+p+p+p+p+p+p+p+p+p+p+p+p+p+p+p+p+p+p+p+p+p+p+p+p+p+p+p+p+v+y+y+x.3.].].(.j.4.].Z L /.G+x+x+x+x+j+a+x+x+x+v+v+v+v+v+y+v+j+|+y+A+= R N #.9.r.:.q M.~+M.M.g.s.++M.++/+N.t.u = . / +.!.T W P @ ; = e !.W W W ~.W B !.j ] h.h.#.}.T 4.O M.[., w =.w 0 =.[.=.w R h.u u }.}.#.:.4 =.h.#.%.}.=.w h.G.|.G.g.q 0 ,.}.#.q }.N.h.%.R - V [.u N w 7 = 7 < B B y y y 7 y 7 7 y 7 < y y u =.1.t.R w 7 w N R =.=.R w 0 < w W w ,.w w W w w w W W W W w y }.#.#.}.#.u %.N S >.f.t.N.,.< 7 w u %.9.p.h.#.R |.[.,.7 , . . .         ",
"(+(+(+(+(+(+(+(+<+<+<+<+<+<+<+<+0+0+0+<+<+<+0+0+<+0+0+0+0+0+0+0+0+0+0+0+0+k+k+k+k+k+k+o+o+o+o+o+o+o+o+o+o+o+o+o+o+o+o+o+o+o+o+o+r+y+y+u+G+)+! f.'+n . . +.8..   . 0+G+y+y+y+y+y+y+y+y+u+y+y+y+u+y+k+u+G+y+G+A.. )+F+K -.F+E+E+E+y+k+. /.y+r+a+x+0+y+y+A.A.v+v+a+k+k+o+o+o+o+o+o+j+j+j+j+j+o+o+o+j+j+r+r+r+r+r+r+o+u+u+o+o+o+o+k+a+a+j+j+a+a+j+j+j+a+a+j+j+j+j+p+j+j+p+p+a+j+x+j+p+a+&+]+a+p+p+p+p+j+y+v+j+p+<+f+g.w.= y+y+t+<+r+r+x+r+r+r+j+T.x+v+a+a+o+o+v+v+o+o+o+o+o+o+o+o+o+o+o+o+o+o+o+o+o+o+o+o+o+o+o+o+o+o+o+o+o+o+o+o+o+o+o+o+o+o+o+o+o+p+p+p+p+p+p+p+p+o+o+o+o+v+v+v+v+0+o+v+v+o+o+o+o+o+o+o+v+v+v+v+v+o+o+o+o+o+o+o+o+p+p+p+p+p+p+p+p+p+p+p+p+p+p+p+p+p+p+p+p+p+p+p+p+p+p+p+p+p+p+p+p+p+p+p+p+p+p+p+p+p+p+p+p+p+p+p+p+p+p+p+p+p+p+p+p+&+p+x+p+p+p+p+p+p+p+p+p+p+p+p+p+p+p+p+p+p+p+p+p+p+p+p+p+p+p+p+p+y+y+y+x.].>.4.(.j.4.].Z P /.G+x+x+p+x+]+x+x+x+p+v+y+v+v+y+y+o+<+G+y+y+B R N 9.#.O :.|.$+$+s.++s.s./+/+c+++[.T 0 [ = / M !.T A z @ ; = e W W ,.,.W ~.Q I W f.h.N %.}.T '.M.q.$ 7 u #.4 w :.t.:.N =.u 4 }.N N #.O u R p.#.9.h.N R h.G.o g.%+q R y q e.9.h.:.}.0 w d A T '.N 7 b e 7 < W W 7 y ] 4 7 7 y 7 7 y 7 < 9.r.9.1.0 w 0 0 }.}.=.=.R u w w W W 0 w 0 0 T 0 y 0 w w w w 0 w %.#.#.}.#.N }.#.N.s.N.:.N 0 ] W q q :.O e.%.R =.|.'.! + . . . K ].].].V ",
"E+E+A+E+E+E+E+C+E+E+E+E+E+E+E+E+E+C+C+E+E+E+E+E+A+E+E+E+E+E+E+E+E+E+E+E+E+E+E+A+F+A+A+A+A+A+E+A+A+A+C+l+l+A+l+l+l+l+l+A+C+q+b+C+u+q+l+s+C+,+! a.O.G & {.6.l+l+x.a b+b+,+,+'+u.v.k.(.Z (.5.5.(.Z !.Q $.(.Z ).Q '   {.k   U D e w D * { J J &+y+y+r+j+x+r+d.T.r+r+o+o+0+u+o+k+y+k+o+o+o+k+k+o+o+o+o+o+o+o+o+o+y+y+u+u+u+u+o+o+o+k+j+j+j+j+j+j+j+j+o+j+j+j+j+j+o+o+j+j+o+o+o+o+o+o+p+j+p+a+T.&+p+p+o+o+v+o+o+o+<+)+|.j.- o+r+j+y+0+t+t+t+a+v+v+<+j+r+i+` u+y+j+t+t+o+o+o+o+o+o+o+o+o+o+o+o+o+o+o+o+o+o+o+o+o+o+o+o+o+o+o+o+o+o+o+o+o+o+o+o+o+o+o+o+n+p+o+k+k+v+t+p+t+t+p+p+o+G+i+g+0+j+x+x+p+t+v+t+t+t+t+y+t+o+o+y+o+o+o+o+o+o+o+o+o+o+o+o+o+o+o+o+o+o+o+o+o+o+o+o+o+o+o+o+o+o+o+o+o+o+o+o+o+o+o+o+o+o+o+o+o+o+o+o+o+o+o+o+o+o+o+o+o+o+v+o+v+v+o+v+]+j+x+p+p+p+p+p+v+v+v+v+v+v+v+v+o+o+o+o+v+v+v+v+v+v+v+v+v+v+o+j+t+y+G+6.3.>.].2.@+4.~.Q & b.G+x+y+v+y+T.v+v+y+v+y+o+y+y+y+v+j+o+u+)+R.!.W #.p.e.<.<.<.G.M.M.s.s.%+/+b+R.L < B W a & [ Q W R W P @ . & L 1.=.,.(.W W W ,.T '.p.g.t.:.h.:.e.q.4 <.g.t.,.0 N r.R y A W y y =.R 9.e.q :.}.N }.p.%.%.R y 4 r.<.9.r r N.9.R R R R W ,.0 w ,.,.y 7 ! ! b y y y w 0 0 u G e [ ! 7 y =.=.p.4 %.N q N N :.#.9.u %.=.N.1.u 7 7 y 7 R y ,.w W T W ,.,.W w W f.'.T %.}.}.%.}.f.s 0 s s [.~+f.w S N.g.*.<.#.9.t = + + b W ].].4.].2.~.",
"x.x.l.l.l.l.k.8.).$.).).).). . .E 1 1 k k 9 i F 8 c | [ > > - . . & > > . . - + . & . . & . . . . = + + + + + . & . = + . + . . @ & = +   F a /+3.G & 3 ' !.G n # i . + + . . = = . = - + = & = = = = = = [ } = 2 . - 9   _ = , m & . ` ` J b.o+x+x+r+a+r+d.A.x+o+0+y+k+o+y+0+o+o+o+o+o+o+o+o+o+o+o+o+o+o+u+y+y+y+u+u+u+o+o+k+0+j+j+j+j+j+j+o+o+j+j+o+o+o+o+o+o+o+o+o+o+o+o+o+o+r+a+j+r+a+:+:+T.v+o+o+u+y+y+)+T.g.w.& G+j+n+a+)+y+v+o+v+o+v+t+A.x+x+<+0+u+v+a+x+o+o+o+o+o+o+o+o+o+o+o+o+o+o+o+o+o+o+o+o+o+o+o+o+o+o+o+o+o+o+o+o+o+o+o+o+o+o+o+o+p+p+u+A+A+T.j+x+o+v+x+y+A+E+A+G+)+A+G+u+k+y+A+f+t+t+t+t+t+v+v+o+o+o+o+o+o+o+o+o+o+o+o+o+o+o+o+o+o+o+o+o+o+o+o+o+o+o+o+o+o+o+o+o+o+o+o+o+o+o+o+o+o+o+o+o+o+o+o+o+o+o+o+o+o+o+o+o+v+o+v+o+o+v+o+j+a+p+x+p+p+p+p+p+v+v+v+v+v+v+v+v+o+o+v+v+v+v+v+v+v+v+v+v+v+v+v+o+t+y+G+).3.>.4.2.@+4.~.Q & b.G+x+y+v+y+<+y+v+y+v+v+o+y+y+v+y+<+G+l.5 + z y %.%.O q.q.G.$+g.M.++++M.c+t.! + ! W 2.a & > Q ,.,.W v # . & G 1.=.,.(.W W W W T '.p.g.N.h.#.4 e.$+O q.M.w < < %.:.R ] 0 [.=.0 =.9.:.N N :.N %.q h.N N y =.N <.e.G.:.N.h.u 0 R =.y y W d y W y 7 7 b B y y y y y y y w [ ! b y ,.=.R 4 }.h.N.@+p.:.N #.q #.#.}.p.N R u 7 7 7 y R 0 R w w 0 w W W 0 0 0 w R T :.t.N.h.N w N w w #.%.f.[.t.f.N q %.:.N R + + ! b $.W ].].].V A < ",
"& & 8 * { 8 | | F } c 9 | ( | ( 9 9 | 8 c | 3 8 g 3 3 8 9 | m 9 8 8 3 l 8 8 t 5 8 H 8 H H 2 H H 3 l 9 M 9 / H h 5 / a _ # / 5 ^ @ > - / . F a O.^. .& . } P .   %   . + . > . . . . . . . . + . . & . . & . . = . ! + .   %   a + - . * J /.D J d.x+r+r+x+j+d.T.u+y+o+o+y+o+k+u+o+o+o+o+o+o+o+o+o+o+o+o+o+u+y+y+y+u+u+o+o+o+k+0+a+j+j+o+o+o+o+o+j+j+o+o+o+o+j+j+o+o+o+o+o+o+o+o+j+a+o+v+v+o+o+o+&+<+<+u+u+u+k+T.4.2.9 o+x+n+n+d.u+u+v+o+y+y+a+t+T.y+a+k+k+y+o+p+o+o+o+o+o+o+o+o+o+o+o+o+o+o+o+o+o+o+o+o+o+o+o+o+o+o+o+o+o+o+o+o+o+o+o+o+o+o+o+o+p+v+)+)+)+3 T.G+G+r+)+,+O.O.m.c.'+,+R.k.8.l.)+A+v+v+v+o+o+v+y+o+o+o+o+o+o+o+o+o+o+o+o+o+o+o+o+o+o+o+o+o+o+o+o+o+o+o+o+o+o+o+o+o+o+o+o+o+o+o+o+o+o+o+o+o+o+o+o+o+o+o+o+o+o+o+o+o+v+v+o+v+o+v+v+<+p+x+x+p+p+p+p+p+v+v+v+v+v+v+v+v+v+v+v+v+v+v+v+v+v+v+v+v+v+v+v+v+t+v+G+$.3.>.4.2.@+4.~.Q & b.G+x+v+y+j+o+v+y+y+v+y+y+v+v+y+y+<+G+{.. . $.y }.}.e.G.e.e.s.s.s.M.@+@+].= + f !.,.V a & | P !.y b k # ; & G ,.=.,.Z W W W W w '.p.g.h.N %.:.*.$+q.q.O 0 W W :.<.h.] s f.=.R R u R }.%.N N q 4 #.N 4 R u #.<.g.$+:.=.R ] ] W y < 7 I < b y < < 7 I d 7 7 7 y B y 7 < b ! ] 7 =.=.=.R h.p.N %.q 4 #.h.p.p.N 4 h.N f.N y y 7 R y 0 w R T w T w W 0 w 0 w [.N w u N :.N 4 }.f.t.h.R 0 0 N.@+s N N.1.< + , , B !.v.2.V 0 0 T '.].",
". & . . = . . . . +   + -   + & . [ . . [ . . . . + .   , +   , . . . . . = . + & . . . . & & . & . . [ + . } . = ' . + . . G 1 . j + = Y $.a q+k. .  . M ;.. @   1 w.;., O.m.= !.!.' +.+.f 6.L f 6.$.k 5.Q [ ;.;.W O.!.. /.= l.@+i.n .   _ ` /.` /.<+y+y+y+y+b.T.u+u+y+u+0+y+o+o+o+o+o+o+o+o+o+o+o+o+o+o+u+y+y+u+u+u+o+o+o+k+0+j+j+o+o+o+o+o+o+o+o+o+o+o+o+o+j+o+o+o+o+o+o+o+o+j+p+j+a+a+j+j+x+p+p+0+<+&+<+y+0+].k.> v+x+x+x+d.0+k+y+y+j+t+k+y+T.o+<+o+o+o+o+j+o+o+o+o+o+o+o+o+o+o+o+o+o+o+o+o+o+o+o+o+o+o+o+o+o+o+o+o+o+o+o+o+o+o+o+o+o+o+o+o+o+v+)+x.,+& U )+(+l.v.,+C+E+E+C+b+O.5.).U / l x.j+o+y+y+v+o+t+t+o+o+o+o+o+o+o+o+o+o+o+o+o+o+o+o+o+o+o+o+o+o+o+o+o+o+o+o+o+o+o+o+o+o+o+o+o+o+o+o+o+o+o+o+o+o+v+v+o+o+o+o+o+o+o+o+v+v+o+v+o+v+y+T.v+v+v+o+o+v+v+o+v+v+v+v+v+v+v+v+v+v+v+v+v+v+v+v+v+v+v+v+v+y+y+v+t+v+G+).3.>.].,.O.4.,.z & A.G+x+y+y+<+y+v+y+y+v+p+x+x+x+y+&+y+y+. . - z w N :.*.O q O |.t.t.@+~+Z + = !.!.W W V a = | L B 7 b G # ; & k ,.,.,.Z W W W W T [.p.g.9.9.%.N O g.|.E.g.T 7 ,.#.#.:.y O p.%.4 0 1.1.u }.N }.#.N %.h.u R u |.g.<.:.N u 0 7 7 d < ! e e ' f < < 7 I I j 0 7 y y B f ! , 7 7 y =.=.=.r 4 N #.4 :.}.:.}.:.#.|.q %.f.#.'.f.R R R w w 0 R R W w W 0 W 0 W T w [.'.:.#.q :.:.p.1.R R ] 0 u u t.~+:.'.i.b = = + L i.2.V < V 4.].t.t.@+",
"].i.j 2.i.< w.4.d N.Y [.@+Y r.O.0 @+i.d w.4.V i.Z =.i.i r.t.( p.7.Q v.i.W i.y i.w.A w.i.b w.i.d O.i.].O.4.i.v.Q P.@+A O.i.A q+c+! /+N.f.B+4.< m+x.C   . t +.. @ + ].w+@+u w+c+B ++++0 O.u.s ~+s.I w.4.V @+j.A i.k.S c+'+- . } L @+i.G &       { ` J ` A.u+y+y+y+b.T.y+u+0+y+o+k+o+o+o+o+o+o+o+o+o+o+o+o+o+o+u+u+u+u+u+o+o+o+o+o+o+o+o+o+o+o+o+o+o+o+o+o+o+o+o+o+o+o+o+o+o+o+o+o+h+n+n+h+n+n+n+h+p+p+p+x+p+p+o+A.A Z > )+k+J T./.b.y+T.k+u+u+G+s+y+)+u+a+o+u+k+y+o+o+o+o+o+o+o+o+o+o+o+o+o+o+o+o+o+o+o+o+o+o+o+o+o+o+o+o+o+o+o+o+o+o+o+o+o+o+o+o+o+y+)+x.l+).& {.{.).O.l+F+G+F+F+C+'+6.{.b.` J ` h J T.v+v+o+t+t+o+o+o+o+o+o+o+o+o+o+o+o+o+o+o+o+o+o+o+o+o+o+o+o+o+o+o+o+o+o+o+o+o+o+o+o+o+o+o+o+o+o+o+o+o+v+v+v+o+o+o+o+o+o+o+o+v+v+o+v+o+v+y+&+v+v+t+t+t+t+t+t+v+v+v+v+v+v+v+v+v+v+v+v+v+v+v+v+v+v+v+v+y+y+y+v+v+o+y+6.m.>.].2.@+4.,.z = T.G+x+y+y+<+y+v+y+y+y+x+x+y+y+y+0+G+<+. . } B W }.h.<.$+e.s.N.t.t.i.- . k Q !.!.W W 2.f & & 9 f 7 W ).# ; & k ,.,.,.Z W W W W T '.p.g.r.9.9.:.s.M.M.M.#.T y ,.9.%.%.0 |.|.N =.R u u u N u #.=.4 }.h.4 u }.|.G.$+#.4 R y 7 7 7 b e e [ f ! , < 7 A A V T w y 7 < ! ! f R R u =.r #.r %.:.N :.h.h.:.:.q #.}.#.f.t.t.0 0 }.=.}.0 u u R R w 0 T 0 W 0 W w 0 [.T w %.h.@+h.u u 0 u 0 R u u #.h.h.'.y + . . M z < ! T [.t.4.].j.>.s.",
"g.++0 t.$+s q+++A d+^.G.w+&.%+c+4 q+N.j O.|.|.$+].e.O.x $+d+x d+j.S N.f.N N.s t.++s c+@+0 @+f.0 @+|.|.M.>.t.t.0 -+-+s @+y.0 m+-+, m+%+N m+S $ m+x.(   = L !.. @ + j m+$+4 m+++< -+-+0 ++P.0 m+-+w t.|.s @+j.s f.3.S m+y.].).. = I k.M . * _ @   @ ` /.` J <+y+y+o+T.T.k+y+o+k+o+o+o+o+o+o+o+o+o+o+o+o+o+o+o+o+o+u+u+u+o+o+o+o+o+o+o+o+o+o+o+o+o+o+o+o+o+o+o+o+o+o+o+o+o+o+o+o+o+o+o+v+v+v+y+y+v+y+y+y+y+u+y+y+k+4.w.. l+s+f+f+)+T.y+b.T.A+A+s+s+s+)+)+v+a+y+0+y+o+o+o+o+o+o+o+o+o+o+o+o+o+o+o+o+o+o+o+o+o+o+o+o+o+o+o+o+o+o+o+o+o+o+o+o+o+o+o+o+p+v+)+k.l+R.. U 8.x.B+E+G+G+G+G+l+,+k.{././././.` J b.y+y+v+t+t+o+o+o+o+o+o+o+o+o+o+o+o+o+o+o+o+o+o+o+o+o+o+o+o+o+o+o+o+o+o+o+o+o+o+o+o+o+o+o+o+o+o+o+o+v+v+v+v+o+o+o+o+o+o+o+o+o+o+v+v+o+v+v+<+v+t+t+t+t+t+t+t+v+v+v+v+v+v+v+v+v+v+v+v+v+v+v+v+v+v+v+v+y+v+v+v+y+v+y+6.m.>.].2.O.j.,.z - )+G+t+y+o+<+y+v+y+y+y+G+t+y+y+A.T.T.+.. . . b w =.9.q.q.q.|.[.@+2.! d I $.!.W ,.2.2.,.M = . | f y !.5.# ; & k ,.=.,.Z W W W W T '.p.g.9.q <.e.g.g.s.*.N =.,.$ #.*.p.=.O h.h.=.4 r :.%.N N =.9.N 9.p.N 0 R %.N.$+N w 7 y < < B b f f f } ! < y y y A A 0 0 w 7 7 < 7 y u R R }.%.%.N :.:.N p.h.#.q N q %.N.N.N 0 T 0 w f.f.t.w R u =.R w w W w ,.T W w w 0 0 f.t.#.N %.R =.u u t.N.R u :.:.:.0 , - = 8 9 e ! 0 j.t.@+j.].j.s >.",
"M.c+s s.@+0 m+M.j $+..<.d+..B.++) ~+w.j u.>.|.$+^.B.O.i $+$+( G.t.s t.|.>.@+s t.P.0 ++++0 @+f.0 u.>.|.M.O t.t.0 M.M.s @+O.0 -+E.! /+q.r /+V y w+8.. . + !.5.& @ + < ++$+4 -+y., -+++0 O.j.0 c+%+w N.f.s @+j.w i.(.S /+g.].v.).+ . U U * *     * @   { ` b._ /.<+y+o+A.<+y+0+o+y+o+o+o+k+k+o+o+o+o+o+o+o+o+o+o+o+u+u+u+o+o+o+o+o+o+o+o+o+o+o+o+o+o+o+o+o+o+o+o+o+o+o+o+o+o+o+o+o+l+,+R.,+R.x.R.,+R.R.,+R.R.R.R.R.].O.k.,+R.k.v.l+G+l.H 8.$.6.$.).x.f+A.o+a+y+o+o+o+o+o+o+o+o+o+o+o+o+o+o+o+o+o+o+o+o+o+o+o+o+o+o+o+o+o+o+o+o+o+o+o+o+o+o+o+o+o+o+p+v+)+R.l+,+> {.b.x.q+C+G+G+G+F+l+,+x.l.{.H U {./.J /.y+o+y+t+y+v+v+v+v+v+v+v+v+o+o+o+o+o+o+o+o+v+v+v+v+v+v+v+v+o+o+o+o+o+o+o+o+v+v+v+v+v+v+v+v+o+o+o+v+v+v+v+v+v+v+v+v+v+v+v+v+v+o+v+v+o+v+j+a+t+t+t+t+t+t+t+t+v+v+v+v+v+v+v+v+v+v+v+v+v+v+y+y+y+y+y+y+y+y+y+y+y+y+G+).3.>.].,.u.4.~.Q } 0+G+x+y+j+v+y+y+y+y+y+t+y+G+0+. . ' } . . = z W N N q.O o |.f.w + z $.(.V ].1.T T 2.~.B = & 9 t y !.~.# ; & G ,.=.,.(.W W W W T T h.g.e.G.e.O <.q #.}.h.0 W w h.*.}.0 f.N N =.r N r.e.R u =.u =.4 }.R R =.9.h.q $ y y 7 7 7 y ! , ! f ' ! y y y y y 7 0 0 0 R T R N N h.=.N N N q N %.:.%.}.:.#.:.h.p.=.R R 0 w 0 0 y f.f.t.%.%.R R R W W W W ,.W W w R t.f.u ] q %.%.N t.N.:.%.N w :.N }.}.N y Q - . + e w [.M.g.t.].].O.].4.",
"c./+0 s.@+] c+g.E $+..%.$+i B.'+0 N.4.j O.].}.r...9.w.( B.N.( r.j.S u.j.>.@+S t.++0 u.O.w @+i.w j.A 4.N.s t.O.d $+t.7 R.i.0 @+M.} P.g.=.P.A M q+{.^ & + ~.2.. * # A '+N.$ /+u.= ~+N.7 v.5.j ~+N.< v.2.j O.i.I i.;.A ~+|.V v.7.!.& & ^   @   {     {     _ /./.J b.y+y+A.)+y+0+o+o+o+k+k+k+k+o+o+o+o+o+o+o+o+o+o+u+u+u+o+k+k+o+o+o+o+o+o+o+o+o+o+k+k+o+o+o+o+o+o+o+o+o+o+o+o+o+o+b+].s ].].].].].j.].].V 4.t.|.j.].].V 4.j.j.w ~+F+x.= {.k.,+R.R.x.f+y+A.y+v+v+v+v+v+o+o+o+o+o+o+o+o+o+o+o+o+o+o+o+o+o+o+o+o+o+o+v+v+v+v+v+v+v+v+o+o+o+o+o+o+o+o+p+v+)+x.l+x.. 8./.x.B+C+G+G+F+E+C+'+k.).$.{.8.P /.J b.G+o+y+j+t+v+v+v+v+v+v+v+v+o+o+o+o+o+o+o+o+v+v+v+v+v+v+v+v+o+o+o+o+o+o+o+o+v+v+v+v+v+v+v+v+o+o+o+v+v+v+v+v+v+v+v+v+v+v+v+v+v+o+y+o+o+v+<+o+t+t+t+t+t+t+t+t+v+v+v+v+v+v+v+v+v+v+v+v+v+v+y+y+y+y+y+y+y+y+G+G+y+y+G+).3.>.].A 4.4.2.Q 9 k+G+x+G+o+G+G+G+G+G+G+G+G+y+)+9 . !.7.. / m ! 1.u %.q.a.$+N.0 V Q P $.V V T '.[.W W 2.! + & l M y W 2.~ ; & G ,.R W (.W W W W w T h.s.*.e.s.e.#.#.h.}.9.w v.1.N <.p.'.'.N }.=.r #.G.<.R R 4 u u 4 R =.=.p.9.N u w < 7 y y 7 ! , < f , [ B y 7 7 y y y W 0 w R }.}.:.:.R 0 N N h.#.%.#.%.}.%.h.p.p.#.q R =.u 0 y R R 7 %.:.f.}.%.R u R W W w w w w w 0 w '.f.:.N N }.$+@+f.[.4 4 %.'.s =.p.h.R T Q [ + M $.].s.M.|.j.4.].w.j V ",
"e.F.$ p.y.0 -+5.y G.G g.M.1 E.N.( 7.^.4 5.y E S ' ~.;.< 4.].= 6.T 0 1.T T 1.0 1.5.= w.5.k x.).n 7.1 !.k.e !.k.= 6.c., k.w.< -+t.1 N.3.0 @+& =.C+g   & G $.{..   # j /+t.7 P.c., @+F.7 j.j.< -+s.j w.4.j @+4.V j.^.r @+5.=.k.Y h.i.1 . . @ @ . .   . .     * D /./.6 )+y+A.T.G+k+o+0+o+o+o+o+o+k+k+u+u+u+u+u+u+k+o+o+o+o+o+o+k+k+t+j+o+k+u+0+v+o+o+o+o+o+o+o+o+o+o+o+o+o+u+u+o+o+r+r+r+r+x+x+r+r+p+x+y+<+<+u+y+f+}.,.+ )+A+b.T.r+A./.G+)+0+y+v+y+y+v+y+<+  o+y+v+y+o+o+v+o+v+v+o+o+o+o+o+v+v+o+o+v+v+v+v+v+v+v+v+v+v+v+v+v+v+o+o+o+o+o+o+o+o+v+v+o+y+,+,+l+,+. 6.{.6.R.l+F+G+F+F+l+'+k.).{.{.U U {.D /.G+o+y+o+t+v+v+v+v+v+v+v+v+v+v+v+v+v+v+v+v+v+v+v+v+v+v+v+v+v+v+v+v+v+v+v+v+t+t+t+t+t+t+t+t+v+v+v+v+v+v+v+v+t+t+t+t+t+t+t+t+t+t+t+t+t+y+&+v+v+v+v+v+v+v+v+v+v+v+v+v+v+v+v+v+u+y+n+x+n+y+A+,+'+O.,+,+,+R.)+l+,+,+l+$.Z ~.V j 4.w.I ).[ R.l+,+f+x.R.x.)+,+,+l+b+,+,+m + A q+e+= + !.W w '.N q q.$+$+w V A ,.V W W W ,.,.,.,.,.d ' * 3 G V ,.!.' . ; 9 !.'.W $.V W W I ,.T h.<.*.s.s.:.}.:.f.:.h.}.N #.%.}.h.N u }.%.u N u %.u R u 4 R u R R R #.%.=.u 0 7 7 7 7 < ' [ [ ' ! b f B w 4 =.=.R 7 A w T [.}.f.s w 4 %.h.N.:.p.r.r.s.$+p.r.#.0 w w w T '.T T 0 w w #.|.O |.:.#.9.R R =.=.T T N 4 4 q :.0 t.N.N.@+w 4 4 =.4 r r h.s.:.%.%.#.#.=.< < >.g.c.u.j.4.].].4.4.4.A ",
"e.F., p.c.0 %+5.y G.e g.M.' E.t.& W 1 , 8.W ).4.E G ;.B V V I $.z e z 1 ' z + 1 - ! ' < + + = - + ' ' e [ ' ' = 1 1 + V V < -+f.1 p.^.w ~+E }.'+{   & z !.{.. @ # j /+t.7 P.m.! @+F.7 j.j.< -+t.j w.].j O.4.V j. .R @+(.=.k.Y h.w.$.9 * @ @ . . . * * .     * * D b.D /.0+)+A.y+o+o+k+0+0+k+o+o+u+u+k+k+k+k+k+u+u+o+o+o+o+o+o+o+a+j+k+o+y+o+o+o+o+o+o+o+o+o+o+o+o+o+o+o+o+o+o+o+r+r+r+r+r+r+r+r+p+p+v+v+0+0+f+k+'.t.z )+0+<+T.x+A.b.0+<+<+y+v+o+v+o+y+a+A.o+y+o+o+v+y+v+o+v+v+o+o+o+v+v+v+v+v+v+v+v+v+v+v+v+o+o+o+o+v+v+v+v+v+o+o+o+o+o+o+o+v+v+v+k+,+R.l+R.& P 8.x.,+A+F+G+F+F+l+'+k.).U U U U U l /.y+v+v+o+t+v+v+v+v+v+v+v+v+v+v+v+v+v+v+v+v+v+v+v+v+v+v+v+v+v+v+v+v+v+v+v+v+t+t+t+t+t+t+t+t+v+v+v+v+v+v+v+v+t+t+t+t+t+t+t+t+t+t+t+t+t+v+<+v+v+v+v+v+v+v+v+v+v+v+v+v+v+v+v+v+y+j+x+x+p+G+,+$.(.2.2.!.z - P $.).6.6.$.Z ~.V j 2.2.Z $.k 5.x.5.).v t ^ 9 t $.6.(.k.+.. {.l+C+B+{.[ !.W T =.:.<.*.e.[.w ].V W V W ,.,.,.,.,.,.,.I } * 3 G W ,.7.' . ; 9 !.'.W $.V ,.W W w T h.s.:.s.g.:.q q :.f.:.#.q %.%.%.h.h.4 #.#.:.}.u u #.u u N =.N u u N N %.=.R 0 7 7 < 7 < < e e 1 b b + b ,.=.=.0 7 < W w N f.f.#.s t.f.}.#.}.%.:.#.%.O |.h.r.N u R W w 0 0 0 0 ] 0 W h.p.%.q }.p.9.9.*.9.h.].W b B y w T N t.}.4 =.N q #.=.N %.%.:.s.N #.%.N u N w A >.u.c.c.j.4.].].].].].V ",
"r.F., p.c.0 %+5.y G.9 g.s.' E.t.k 1.Z r F+A+F+F+F+A+G+F+E+C+E+A+F+F+E+E+E+E+,+R.~+E+C+C+q+b+E+C+E+E+E+l+).F+E+F+F+u.a 3.].7 F.j.1 N.^.N @+E p.'+@   - Q !.+.. @ # j /+t.7 P.c.! N.F.7 u.j.7 -+j.A w.].A O.].V j.Y R N.(.=.k.Y h.4.5.t   @ @ . . . . * * * .     . 2 ` /.` b.T.T.y+o+y+y+o+u+y+0+u+u+k+k+k+k+k+u+0+k+k+o+o+o+k+0+j+v+0+<+T.0+v+o+o+o+j+j+j+j+o+o+o+o+o+o+o+o+o+o+r+r+r+r+r+r+r+r+x+o+o+y+o+k+0+0+[.i.$.)+A.G+<+)+A.T.k+y+0+o+o+j+o+y+o+j+o+&+o+v+o+v+v+o+v+v+o+o+o+o+o+v+v+v+v+v+v+v+v+v+v+o+o+o+o+o+v+v+v+v+v+v+v+v+o+o+o+v+v+v+y+y+f+,+l+l+> ,+l+A+E+F+F+G+G+F+E+E+E+F+A+f+)+R.{.D A.y+v+t+o+t+v+v+v+v+v+v+v+v+v+v+v+v+v+v+v+v+v+v+v+v+v+v+v+v+v+v+v+v+v+v+v+v+t+t+t+t+t+t+t+t+v+v+v+v+v+v+v+v+t+t+t+t+t+t+t+t+t+t+t+t+t+t+<+v+v+v+v+v+v+v+v+v+v+v+v+v+v+v+v+v+x+x+x+y+y+f+Q j , < + 7 < , ' + - [ - $.Z ~.V V j.2.~.Q 1 Q $.1 ' = > . . . } k I - . {.& > C+C+8.= f < T }.e.e.q.<.#.V ].V W ].W ,.,.,.W W ,.,.W 9 * ^ G W ,.7.' . ; 9 !.'.W $.V ,.W ,.w N }.s.<.G.s.|.%.p.f.s }.h.}.N q :.h.%.4 }.}.#.N %.#.u u u R =.=.R N R N =.=.R y 7 7 7 < < b e e e b B f b W }.}.w y 7.!.< T t.%.f.N.'.N q N p.%.%.%.q %.#.<.9.%.}.R w y 7 7 y y R R R u }.#.#.:.#.4 r.9.%.=.y - + = / 7.,.y w R 4 %.q %.h.%.:.%.:.%.M.N |.9.:.%.N T w c.y.O.4.4.].].V ~.Z V ~.",
"r.F., p.c.w %+^.y G.[ g.s.' G.i.1 1.Z 4 F+G+G+F+F+G+G+G+F+l+E+E+C+C+E+E+E+C+m.3.f.~+~+q+C+P.c.P.b+l+3.& 5.E+F+s+f+m., 4.j.y y.4.1 r.^.#.t.i @+'+@ . n $.7.$.. @ # j ++f.y '+m.7 N.c.7 u.4.7 P.[.A w.].A O.].].j.Y =.N.Z =.k.Y h.].5.m   @ @ . ; . . . * * * * .   . . l /.` ` b.T.y+o+<+o+<+T.o+0+0+k+k+k+k+k+k+o+o+o+o+0+<+)+T.T.&+b.D   b.v+o+j+j+j+j+j+j+o+o+o+o+o+o+o+o+o+o+o+o+o+o+o+o+o+o+v+o+o+k+o+u+u+)+S j.R.f+u+<+y+T.y+<+o+y+y+<+u+y+y+a+y+<+<+o+A.v+v+v+o+o+v+o+j+v+o+o+o+o+o+o+o+o+v+v+v+v+v+o+o+o+o+o+v+v+v+v+v+v+y+u+u+u+u+u+u+u+v+u+x.R.,+5.,+s+,+,+l+l+A+G+F+F+l+'+x.6.{.{.8.8.8.D T.y+y+t+v+t+v+v+v+v+v+v+v+v+v+v+v+v+v+v+v+v+v+v+v+v+v+v+v+v+v+v+v+v+v+v+v+v+t+t+t+t+t+t+t+t+v+v+v+v+v+v+v+v+t+t+t+t+t+t+t+t+t+t+t+t+t+o+a+t+v+v+v+v+v+v+v+v+v+v+v+v+v+v+v+v+p+x+t+G+f+).0 T w [.}.$+:., , e ' [ + (.~.].].].j.i.(.e ' ).).1 [ k t & & } m v e f } { . U 6.+ . . $.I u :.q.%+d+s.>.4.V ~.,.].W W ,.,.W W ,.2.W 9 * & k V ,.7.} . ; 9 !.'.W $.,.W I ,.T T }.<.<.:.%.|.#.#.%.#.}.N q N #.N #.:.%.:.N %.#.%.N N R N N N }.=.=.=.#.R R u 7 7 7 7 < < < < < b B z f b T [.f.,.W !.! I 2.N.f.#.#.s N f.%.:.#.N N #.:.|.9.9.r 4 0 w 7 y 7 y y =.w ] w h.u :.9.N r r.1.< + + + = ' . + ! y 7 R %.9.#.:.|.%.h.%.#.:.$+f.h.%.q q w '.V >.u.@+].].].V Z ~.Z A ~.",
"G.y., N.&.R %+ .B s.- t.t.- G.i.I h.V ) G+G+G+G+y+G+G+G+F+'+C+E+C+C+C+C+B+C+c.P.|.c.~+c+w+B+m+&.O.'+'+b+E+F+F . & ^.+ ].4.y P.2.d r.Y }.N.E ~+x.  . L !.7.$..   # ' g.R , y.c.! N.c.7 u.4.y P.[.V w.].V O.V ].j.Y =.N.A =.5.Y h.].k.9   @ @ . ; * * . . . . . *   * .   * ` b.` h T.y+y+o+y+y+o+u+u+u+u+k+0+)+)+T.T.T.T.<+<+0+k+k+u+y+y+U A.y+<+j+j+j+j+j+o+o+o+o+o+o+o+o+o+o+o+o+o+o+o+o+o+o+o+o+v+y+o+0+y+y+k+c+E++ u+o+<+<+k+<+<+G+j+o+0+o+o+v+v+a+o+o+v+<+&+o+v+o+j+o+o+o+o+o+o+o+v+v+v+v+v+v+v+v+v+v+o+o+o+o+o+u+u+u+u+u+o+y+y+y+y+y+y+u+u+o+G+R.,+l+x.. ).6.k.'+A+F+G+G+F+l+'+v.6.{.{.U U U 6 T.y+y+t+v+t+v+v+v+v+v+v+v+v+v+v+v+v+v+v+v+v+v+v+v+v+v+v+v+v+v+v+v+v+v+v+v+v+t+t+t+t+t+t+t+t+v+v+v+v+v+v+v+v+t+t+t+t+t+t+t+t+t+t+t+t+t+a+o+t+v+v+v+v+v+v+v+v+v+v+v+v+v+v+y+y+p+x+y+A+5.w [.%.w #.o G.G.h.I e G G 1 (.i.].4.].j.j.(.G - ).).$.e $.n & & 9 m M ' } . . * 8 . ).. . v 7 %.e.G.G.%+s.[.j.V ~.W V W ,.,.,.,.,.,.2.W 9 * ^ G V ,.7.} . ; 9 !.'.W $.,.W W W ,.'.p.e.<.e.s.%.#.h.t.%.4 :.h.N 4 N %.%.N N #.}.#.:.#.%.=.=.N N }.R N N R R u 0 7 y 7 7 ! < < < < b B B , B ,.N T T B , + b 7 T %.4 N [.t.}.%.9.4 N 9.q g.h.%.9.%.u w 7 y y 7 y w R u 0 1.N.9.%.N =.=.y _ . . f B W '.w , = , W =.:.<.r.>.#.#.h.%.s :.|.0 u N N #.N [.s S 4.w.].A 2.I ~.Z I j (.",
"N.c., N.&.,.++ .W s.& t.j.> M.i.I h.V ) G+G+G+G+F+G+G+G+F+'+C+C+B+B+B+m+m+B+c.-+y.c.>.c.c+c+B+'+c.'+b+'+E+i     / O.a ].4.y P.7.I r.Y }.f.i N.^.. & $.Z 2.P &   # j M.}.7 '+c.7 N.c.7 u.>.y P.,.V j.V V w.A 4.j.E 9.t.A 1.5.E h.].5.|   { @ . ; * * * * . . . . . . . * .   * /.b.J A.y+y+<+)+)+T.)+)+)+)+0+k+k+y+y+o+o+o+o+o+o+o+<+s+F+F {.y+u+o+o+o+o+o+o+o+o+o+o+o+o+o+o+o+o+o+o+o+o+o+o+o+o+v+o+v+v+o+v+v+j+>.4.).0+y+y+T.y+T.T.a+y+y+G+k+y+v+o+v+o+o+y+v+<+<+o+y+o+o+v+v+o+v+v+v+v+v+v+v+v+v+v+v+v+v+v+v+v+u+u+u+u+o+o+o+o+u+u+u+u+u+u+u+u+y+u+R.R.,+5.G ).k.w.@+A+F+G+F+F+C+'+k.).+.{.{.{.U l T.y+v+t+v+t+v+v+v+v+v+v+v+v+v+v+v+v+v+v+v+v+v+v+v+v+v+v+v+v+v+v+v+v+v+v+v+v+t+t+t+t+t+t+t+t+v+v+v+v+v+v+v+v+t+t+t+t+t+t+t+t+t+t+t+t+t+<+t+t+v+v+v+v+v+v+v+v+v+v+v+v+v+y+y+y+x+y+F+v.$ :.g.*.'.g.*.B.E.s.T e e d d ~.i.].j.4.u.w.~.Q ' G G L d $.[ & & ^ | } f } . D * . . + + f !.0 w *.<.e.q.e.[.4.V ~.,.].,.,.,.,.,.,.,.,.W 9 * ^ G W ,.7.} . ; 9 !.'.W $.,.W ,.W T N p.g.e.O |.:.}.%.:.}.h.%.N N }.}.u u u %.}.#.4 %.:.%.R R =.=.=.N N R =.R u y y y b ! ! < 7 y y 7 b e B B T w T A < + ' + , 0 '.%.f.t.:.#.#.}.h.:.#.%.|.p.9.r.%.u T T y 7 7 =.=.R N :.1.=.h.N 4 R < ,   . M 7.,.'.>.>.7.e + W [.:.<.$+s.%.N =.R 4 #.] 0 0 N q u s t.j.V ].j.].j 2.I Q Z I I Z ",
"r.&., t.x ,.++E W s.& t.f.& M.2.A h.x r F+G+y+F+F+G+G+G+E+P.B+w+B+w+m+m+m+m+|./+b+'+u.>.&.u.C+u.++P./+'+w.| . @ . ^.+ 4.4.y y.!.I 9.Z %.j.Y @+E . / 7.W ~.Q &   # j ++f.W '+c.! t.c.y u.>.W P.R V j.V V w.A 4.j.E 9.t.j 1.5.E 9.].5.|   @   ; ; * * * * * * * *   { *     .     _ /.J h T.r+r+y+u+u+u+k+k+k+k+k+k+k+o+o+o+o+k+0+r+k+s+A+U U u+r+o+o+o+o+o+o+o+o+o+o+o+o+o+o+o+o+o+o+o+o+o+o+o+o+y+k+k+v+v+y+u+k+>.w.L u+r+o+y+T.v+/.2 o+y+u+A.k+o+y+o+v+j+<+G+o+<+0+o+v+o+o+v+o+v+v+v+v+v+v+v+v+o+o+o+v+v+v+v+v+o+o+u+u+u+u+u+y+u+u+u+u+u+u+u+u+v+y+,+R.,+R.. x.w.O.b+C+F+G+G+F+q+'+v.6.8.{.{.{.{.D &+y+v+y+o+t+v+v+v+v+v+v+v+v+v+v+v+v+v+v+v+v+v+v+v+v+v+v+v+v+v+v+v+v+v+v+v+v+t+t+t+t+t+t+t+t+v+v+v+v+v+v+v+v+t+t+t+t+t+t+t+t+t+t+t+t+t+<+v+t+v+v+v+v+v+v+v+v+v+v+v+v+y+y+y+y+G+y+R.w q q.<.9.V g.a.B.B.q.w G d d d ~.i.].j.j.O.w.(.Q k [ v e I !.n } 3 3 & & / . & . . } + y L B W 0 %.9.<.<.G.e.[.].V ~.~.].,.,.,.2.2.2.,.,.W 9 * ^ G W ,.7.} . ; } !.'.W $.,.W ,.W 0 T p.<.<.<.g.N q #.:.t.4 #.}.q q #.#.}.}.N %.N u 4 N }.N N R =.R #.R =.=.R R y y 7 b ! 7 7 7 y y 7 b e f < w '.j.A - + & ' Q t.~+#.] t.f.q }.h.%.%.%.:.:.<.#.9.%.N w 0 < ] w =.:.#.#.<.t.] N r =.W + . < B 2.1.R w A A = < j ].[.%.|.p.t.[.N u u 0 =.u w 0 }.%.%.N f.t.j.V j.Z j !.e z I Q $.d ",
"r.&., t.x 1.%+C W s.. w.4.. M.~.E [.j r F+G+G+F+F+G+G+G+E+P.m+z+q+q+/+c+/+c+c./+b+'+'+4.].Z w.Z s./+++P.'+.   @ .  .a 4.S ;.P.W W r.Y f.b+b+w+Y . m i.~.~.G &   # x ++h.y P.c.y t.c.y O.>.W P.R ].j.V ].w.j 4.j.E 9.t.j 1.5.E 9.].k.9   @   ~ . * * . . . * .   * *   * *     *   @ J ` h A.y+y+u+u+u+u+u+u+k+k+o+o+o+k+k+k+k+o+j+y+s+f+ .8.y+r+o+o+o+o+o+o+o+o+o+o+o+o+o+o+o+o+o+o+o+o+o+o+o+o+u+u+u+v+o+o+y+v+c.3.).0+x+v+u+s+<+<+&+y+y+y+A.b.y+o+o+v+a+v+o+y+v+&+<+v+y+o+o+o+o+o+o+o+v+v+o+o+o+o+o+o+v+v+v+v+o+o+o+u+u+y+y+y+u+u+u+y+y+y+y+y+y+G+x.,+l+x.[ 6.w.@+q+E+F+G+G+F+b+'+R.k.8.{.{.+.U l T.y+o+y+o+t+v+v+v+v+v+v+v+v+v+v+v+v+v+v+v+v+v+v+v+v+v+v+v+v+v+v+v+v+v+v+v+v+t+t+t+t+t+t+t+t+v+v+v+v+v+v+v+v+t+t+t+t+t+t+t+t+t+t+t+t+t+&+y+t+v+v+v+v+v+v+v+v+v+v+v+v+y+y+y+y+G+T.d :.q.q.r.r.4.|.a.*+*+%+V Q 5.(.Z 2.j.4.j.t.u.u.3.I L v 6.$.W 5.9 - & ^ & | / / . . & f !.y < d W w %.:.e.q.G.e.[.].].~.,.].W ,.,.,.,.,.,.,.W 9 . & k V ,.7.} . ; } !.'.W P ,.W W ,.w f.p.<.e.:.O :.}.h.s :.#.N N q %.}.:.h.:.u %.u u #.%.u =.N r =.r #.N N R R y 7 < ! , ! B 7 7 y 7 < < e ! !.i.T T A Q L 5 = $.i.N.f.%.:.}.%.p.}.%.9.#.:.%.#.%.9.N N 0 w w ,.[.T %.%.|.*.f.#.#.r =.+ & { |.|.#.q w I k k V V j ].t.>.#.q 4 %.u y y y 1.1.f.R }.N q q f.N.w.j i.V I !.z z I $.).d ",
"s.{.A t.z 4.M.i =.y.= O.j.$ y.(.x [.1 =.E+F+E+F+G+G+G+F+E+'+m+e+m+m+-+-+-+/+c.~+c+++b+b+'+i.7.Q P.++P.'+'+9 . # . +.1 ].].].j.].T w.A 4.q+C+E+x.# . t Q k.P .   # x ++h.W u.3.7 g.$.T q.;.~.M.P ~.g.M 4.t.m |.i.9 g.t.n 4.6.6 g.].5.> . @ @ . . * * * .   * * *   . * * * . . . *     { l l /.T.y+u+u+u+k+k+k+k+f+y+a+r+0+u+x+h+s+t+a+y+ .^.A+p+k+y+o+o+u+k+u+k+k+u+u+0+y+u+u+u+k+k+k+k+u+u+u+u+k+u+u+u+u+u+u+y+4.4.).)+y+u+y+y+<+<+A.o+u+y+y+k+s+u+k+y+a+o+y+v+u+u+T.k+u+y+y+u+u+y+v+v+v+v+p+p+o+j+v+y+o+u+k+s+u+u+u+u+u+u+u+u+y+u+u+u+u+u+u+u+u+F+x.,+,+x.- {.w.'+A+F+G+G+G+F+E+b+O.k.6.8.{.U ` l &+y+v+v+r+r+v+v+v+v+v+v+v+v+t+t+t+t+t+t+t+t+v+v+v+v+v+v+v+v+v+v+v+v+v+v+v+v+v+v+v+v+v+v+v+v+v+v+v+v+v+v+v+v+v+v+v+v+v+v+v+v+v+v+y+o+a+v+v+v+v+v+v+v+v+v+v+v+r+y+u+y+y+v+x+G+~+! w j.:.#.G.e.*.e.|.A ' 9 = l k I A j.j.4.t.j.O.j.].,.< z 5.Q W I e . - } t 9   . . = y ,.#.#.B b b d ].}.e.e.e.<.:.[.].W V ].,.,.,.2.,.2.2.2.,.f . ; f ,.2.7.9 & ; 9 ~.'.W $.W W W W W 1.t.p.9.%.}.h.:.N N h.q %.#.%.}.=.u p.}.=.0 u u =.u u s :.u :.9.=.9.#.R y y 7 ! < y b 7 y y 7 7 7 < b f ;.R 4 :.:.i.W } ' d ].N M.O *.:.%.}.}.}.%.u =.#.:.%.}.u u R R h.%.N N :.N h.$+h.R W +.+ + ' P Z V j V w 4.t.>.>.g.f.N =.R y 4 w w u N 0 4 }.}.w =.R N u N f.N.O.A ~.Z Z Z Z $.1 Z (.Z ",
"s.U j t.z 4.M.i 1.y.= u.f.$ y.(.Z 1.| r l+,+,+R.'+O.'+'+w.4.u.u.u.y.c.c.c.u.1 Z >.>.4.].4.2.!.= i.w.m.m.w.^. .).l.+.1 4.V ].w.].T i.j j.S y.O.c . . e d $.P ~ @ # x P.h.W u.4.b g.).'.q.+.~.s.F ~.g.t 4.j.9 g.i.9 g.t.9 4.6.6 |.].5.> . @ @ . . * * * * * . . * . * * * . . . * *     . * * 6 b.b.k+G+u+u+u+u+k+k+0+j+x+u+0+0+x+f+j+x+y+C x.y+i+y+o+o+y+o+o+y+y+u+<+u+y+u+0+u+k+u+k+k+k+u+u+u+u+u+u+u+u+u+u+u+y+4.4.6.)+y+y+u+y+y+T.0+T.y+y+u+k+y+k+y+u+v+j+v+v+u+y+u+<+k+u+y+k+o+y+y+y+y+u+u+u+y+y+v+o+v+v+y+y+u+u+u+u+u+u+u+u+u+u+u+u+u+y+y+y+u+A+x.,+,+x.[ {.2.w.b+F+G+G+G+F+E+b+,+k.6.+.U {.` 6 &+y+v+v+v+r+v+v+v+v+v+v+v+v+t+t+t+t+t+t+t+t+v+v+v+v+v+v+v+v+v+v+v+v+v+v+v+v+v+v+v+v+v+v+v+v+v+v+v+v+v+v+v+v+v+v+v+v+v+v+v+v+v+o+y+o+<+v+v+v+v+v+v+v+v+v+v+v+y+y+v+v+y+G+y+o+T 0 ].j.#.%.q.q.a.$+s.4.= [ + f G G I 4.4.].j.4.u.w.2.!.b L ).k B b e n +.m = . . / +.L y ,.R N b B Q d V #.e.G.G.q.}.[.V ,.W ].,.,.,.,.,.,.2.,.W f ; ; f ,.2.7.9 & ; 9 ~.'.W $.,.W B d A '.f.h.p.9.:.#.%.#.u q 4 :.p.=.u u u R R R R u R R R }.#.:.:.:.}.=.=.R 7 7 y y 7 7 7 ! 7 y 7 7 y 7 < < y W w N h.f.'.< 9 . Q j.N.g.*.*.p.:.:.N h.:.N q :.h.N.9.N }.=.u r u u N p.$+p.u #.u y < + f f z ! A 4.t.j.t.g.s s g.N.T 0 0 R y 4 w N :.}.:.%.] T }.N r N u }.N.O.A ~.I Z Z Q Z I (.(.Z ",
"s.U j f.z 4.M.| 1.c.= u.4.$ y.(.I 1.( =.E+F+E+F+E+C+B+C+q+A+F+G+E+E+E+E+E+E+(.).(.].].].~.,.2.y F+F+E+E+E+E+E+C+A+P ' 2.A ].w.V [.w.b O.>.C+,+& f 7.~.V Z P ~   # x P.}.W u.4.y g.$.'.q.+.~.s.G ~.g.t 4.j.9 g.i.} q.t.[ 4.6.8 |.].5.> . @ @ . . *   . { { *   * * * * . . . * * * *         . 6 {.D b.u+u+k+k+u+u+k+x+o+A+F+A+y+G+y+r+y+{.,+y+G+y+u+0+0+G+G+k+y+y+y+y+u+u+u+u+u+u+u+u+u+u+u+u+k+u+u+k+k+u+u+y+y+].4.6.)+y+y+o+o+u+y+b.y+T.G+k+u+o+v+v+k+k+0+y+k+u+G+u+u+T.k+k+y+y+G+y+0+)+s+A+A+y+u+y+y+y+v+G+j+u+u+u+u+u+u+u+y+u+u+u+u+u+u+y+y+y+F+R.,+l+R.[ {.2.w.'+E+G+G+G+F+C+,+k.6.{.{.U ` ` 6 )+y+v+v+y+y+v+v+v+v+v+v+v+v+v+v+v+v+v+v+v+v+v+v+v+v+v+v+v+v+v+v+v+v+v+v+v+v+v+v+v+v+v+v+v+v+v+v+v+v+v+v+v+v+v+v+v+v+v+v+v+v+v+o+y+v+<+v+v+v+v+v+v+v+v+v+v+v+u+v+x+x+t+G+l+).w [.].w 0 }.s.q.<.g.N.4.A b Q L $.$.Z 4.4.V 4.].w.w.2.$.} m m - f f v t m & & = L P $.I W 1.=.u 7 B B d ].:.e.q.G.q.}.'.V ,.,.].,.,.2.2.,.,.2.,.W f ; ; v ,.2.7.[ & . 9 ~.'.W $.,.I W 7.W w }.N.p.#.%.N N ) %.N.9.q #.#.=.N R R u u N u h.=.=.=.#.%.9.%.=.R 0 w y 7 y R y 0 7 0 7 y 7 7 7 7 < < y W =.}.}.:.T w 9 - d 4.>.|.|.*.}.4 %.N p.%.%.O :.#.h.%.:.9.N 4 =.9.h.=.r r N r N R R < ! e [ + V f.@+t.t.j.>.s >.4.t.[.0 0 R 0 #.:.#.%.:.}.}.#.'.h.N r %.u N t.O.A ~.A Z Z $.I Z (.(.Z ",
"s.U A f.e j.M.| 1.c.= u.4.$ y.Z G ;.> 1.E+F+E+E+C+B+B+B+'+C+F+G+F+E+E+C+C+C+Z 5.5.i.2.2.2.2.2.T E+E+E+E+C+C+B+B+F+1 = 2.A ].j.V w O.< t.>.w+5.  W t.].V Z $.^   # x P.}.W u.4.y g.$.'.q.+.2.s.k 2.g.m 4.j.} g.i.} q.t.[ 4.6.3 g.4.5.& . @ @ . . *   . * { * * * * * * . . . * * * * * . .     * 6 /.` ` )+y+y+u+u+y+o+/.n I z f k L t t ;.- . a ' ' ).$.k P ).k.T.y+G+u+u+u+u+u+u+u+u+u+u+u+u+u+u+u+u+u+u+u+y+y+>.].6.T.y+y+o+o+u+y+0+)+u+A.G+u+j+y+o+y+u+s+f+)+T.b.A.b.b.b./.b.b./.{.{.U [ ' 1 9 9 F +.{.b.0+G+y+u+u+u+u+u+u+u+u+u+u+u+u+u+u+u+y+A+R.,+l+R.1 ).w.'+C+E+G+G+G+F+A+,+i.).8.{.U ` ` l )+y+v+v+y+y+y+y+y+y+y+y+y+y+v+v+v+v+v+v+v+v+v+v+v+v+v+v+v+v+v+v+v+v+v+v+v+v+v+v+v+v+v+v+v+v+v+v+v+v+v+v+v+v+v+v+v+v+v+v+v+v+v+o+v+y+<+v+y+v+v+v+v+v+v+v+v+v+u+v+x+x+y+f+k.] '.j.T T u f.g.<.O N f.[.4.W i.I v Q I 4.4.V ].].k.k.Q f + / = > f t t & . . m ;.2.W w 7 T f.,.w y 7 b < ].}.e.<.e.e.:.'.V ,.,.].,.,.,.,.,.,.2.,.W f ; ; f ,.2.7.[ & . 9 ~.'.W $.,.,.W I W '.}.#.:.%.h.N %.N 9.}.h.:.9.N u u R R u =.=.N =.N u =.#.%.:.R R R 0 w y 7 7 y w u u =.y y 7 7 < < < B ! 7 0 %.:.h.=.T / - , ].%.h.G.g.N q h.#.9.N :.%.}.:.p.:.N q :.r.N.R r r R r r r 9.=.=.T W ! ! d t.t.N.|.|.g.j.N.j.4.4.[.=.R R r N :.:.}.f.}.}.%.T =.u r %.#.#.f.O.A ~.I (.Z $.I Z Z I I ",
"g.{.I f.e t.M.> 1.c., u.].] y.Z L W & 1.E+E+E+E+C+C+B+z+F.C+E+E+E+C+C+C+w+C+V w.5.R.i.2.w.@+N.w C+C+C+C+q+C+C+C+E+1 - 2.A 2.4.V '.w.b w.'.O.[ * [.t.T ].Z ).^ @ # x P.}.W u.].y g.P '.q.P 2.g.k 2.g.9 4.j.} g.i.} q.t.' 4.6.3 g.4.5.&   @ @ . . . * * . * * * . * * * * * * * * . * *   * *   . .   ` b.` /.)+y+k+v+o+<+,+N.~+@+@+b+O.'+5.7.= ,+++/+@+g.N.O.4.j.. /.0+G+u+k+u+k+u+u+u+u+u+u+u+u+u+u+u+u+u+u+y+y+4.].k.T.y+y+u+y+u+u+y+0+T.u+T.u+a+o+y+k+T.T.{.8.y+u+u+u+y+G+0+)+y+G+y+)+x.6.6.).v.,+w.2.5.1 . )+y+y+u+u+u+u+u+u+u+u+u+u+u+u+u+u+y+y+x.,+'+O.d k.w.b+C+F+G+G+G+F+E+l+R.k.8.{.{.{.` l )+G+y+y+y+y+y+y+y+y+y+y+y+y+v+v+v+v+v+v+v+v+v+v+v+v+v+v+v+v+v+v+v+v+v+v+v+v+v+v+v+v+v+v+v+v+v+v+v+v+v+v+v+v+v+v+v+v+v+v+v+v+v+o+v+v+<+v+y+v+v+v+v+v+v+y+y+y+u+y+t+G+y+6.! O T '.T T 0 f.g.g.>.'.'.t.T 2.,.< [ 1 d ~.].A ].~.3.(.e } = 5 ^ t t 5 & . & n $.!.V w w T ,.1.R w y y B ! w #.<.e.e.e.}.[.V ,.W ].,.,.,.,.,.,.2.,.W f ; ; f W 2.7.[ & . } ~.'.W !.,.W W !.W w %.h.p.N #.N %.4 N p.p.:.N N R =.u R }.p.}.N N :.#.%.#.%.N R R w 0 0 7 7 y =.=.=.%.9.y 7 7 7 < 7 7 B ! 7 N }.<.h.:.0 5 . b 2.N.:.h.:.u %.p.%.N %.:.#.'.%.:.N #.#.:.#.=.r 4 4 4 r 9.h.}.N N R T , A w.t.t.t.'.f.f.j.@+4.j.].T =.R R }.N N N }.f.}.%.w '.R u r N %.%.s O.A V Z 5.Z ).I I I I I ",
"g.{.I t.1 t.s.> 1.c., u.].7 y.I !.,.& h.E+E+C+C+C+C+C+B+F.B+B+C+C+C+B+C+B+B+0 j.2.O.2.i.w.i.4.0 z+z+B+C+q+q+w+C+E+1 1 7.y 2.4.V 4.4.< t.'.t.[ . t.t.V 3.(.$.& . # V P.}.W u.].y g.P '.q.L 2.g.k 2.g.9 j.j.} q.2.} q.t.- 4.6.^ g.4.5.&   @ @ . . . * *     * { * * * * * * * * .   * * . * * . . . .     D /.b.A.y+y+y+s+b+++c+c+c+-+B+q+(.v.! q+d+/+d+d+M.c+c+++.   ` k+G+y+k+u+u+u+u+u+u+u+u+u+u+u+u+u+u+u+u+y+j.4.x.A.y+u+o+o+u+y+k+)+y+T.u+)+u+)+/.T.f+l.s+F+k+y+u+G+k+G+k+y+T.k+y+y+A+F+A+,+).d i.O.2.Q . 8 y+y+u+u+u+u+u+u+u+u+u+u+u+u+y+y+y+y+R.,+b+'+Z R.O.'+b+E+G+G+G+F+E+b+O.k.6.+.{.{.{.D )+G+y+y+y+y+u+u+u+u+u+u+u+u+v+v+v+v+v+v+v+v+v+v+v+v+v+v+v+v+v+v+v+v+v+v+v+v+v+v+v+v+v+v+v+v+v+v+v+v+v+v+v+v+v+v+v+v+v+v+v+v+v+v+y+o+j+v+v+v+v+v+v+y+y+y+y+y+y+y+G+A+x.A u #.T '.w T ] [.g.|.].'.'.1.w I Q [ 9 k d ~.V A ~.~.(.Z e f } m / m t & . [ G Q I ,.W A W T ,.,.w w 7 y W d V '.g.q.q.q.}.[.V ,.W ].,.,.,.,.,.2.2.,.W f ; ; f W 2.7.9 & . 9 ~.'.,.!.W ,.W I W f.f.N q u }.%.:.#.%.:.h.%.q %.R u 0 p.%.%.q q N h.%.q N =.u u w 0 0 0 u u R =.9.=.=.9.W 7 < 7 y B y 7 L W f.h.:.<.%.u 5 = , ,.}.#.#.N :.#.9.h.'.T 7 ! , 0 T =.#.u #.N N N :.:.}.%.:.#.R N #.:.#.0 ].w.4.j.t.4.4.].V ].V j.4.V T %.u N u N w #.#.u N w T ] 4 r N h.t.[.w.A A ~.(.Z ).Q I Z I I ",
"g.{.Z t.1 N.s.& h.c.! u.].y y.I !.=.. h.C+E+C+C+w+w+w+w+y.w+B+B+C+C+w+B+w+C+x O.j.O.4.O.O.].V A B+B+B+w+w+w+m+B+E+1 d 7.7 7.i.j 4.i.I t.f.O.-   t.].A 5.$.$.& . # V M.}.W u.].y g.P [.g.L 2.g.k i.g.} j.j.- q.i.} G.t.- 4.6.^ g.4.5..   @ @ . ; * * * . . * * * * * . . * * * * . * * . * * . * ; * { *   2 ` /./.(+y+A+q+m+m+c+/+-+z+B+2.v.! c+d+%+M.++/+m+c+g.~ *   /.0+y+u+y+u+u+u+u+u+u+u+u+u+u+u+u+u+u+u+y+j.4.x.A.u+o+o+o+u+f+y+)+u+y+)+)+U T.F+)+)+u+0+k+k+u+y+u+u+0+u+u+j+<+<+o+y+k+k+y+y+f+6.- Q 8.8.y+u+u+u+u+u+u+u+u+u+u+u+u+u+y+y+y+y+G+R.l+b+'+Z O.@+'+q+E+G+G+G+F+w+b+O.w.k.6.{.+.{.H )+G+y+y+y+y+u+u+u+u+u+u+u+u+y+y+y+y+u+u+u+u+v+v+v+v+v+v+v+v+v+v+v+v+v+v+v+v+v+v+v+v+v+v+v+v+v+v+v+v+v+v+v+v+v+v+v+v+v+v+v+v+v+v+y+<+v+v+v+v+v+y+y+y+y+y+y+y+x+y+A+O.w :.p.4 R R w ,.T [.#.O V w '.W B = {.[ m n e (.~.A ~.~.3.~.Q v f M } & / = & G I A w [.!.B I y W ,.R R 7 y B I ].f.g.e.q.e.:.[.V ,.W ].,.,.2.2.,.,.2.,.W f ; ; f W ,.7.9 & ; 9 ~.].,.!.W W !.!.W w w N h.N #.:.9.#.N }.p.9.N 4 u }.=.u %.%.9.h.}.h.h.:.R N R 0 0 0 7 R %.%.u r N R u R W 7 < y y B B b z < T <.e.e.9.N = } + W N h.:.h.r.#.=.f.W , + + I < , < < w N %.:.%.:.:.|.#.:.g.=.}.}.s.|.>.j.4.T 4.].].].~.Z A x 3.].].T %.u 4 4 N %.%.w w %.w f.=.=.N N :.%.'.].A V ~.Z Z ).$.I Z Z d ",
"g.{.Z f.1 N.s.& p.c.f u.].y P.I i.=.= r.C+C+B+B+z+z+w+w+t.w+w+w+w+w+w+q+q+C+d k.4.u.].w.O.w.m.Z w+q+w+q+w+z+z+z+C+> 1 i.7 7.w.< f.i., j.@+~+. 6 @+~.(.5.$.$.> . # V P.}.,.m.].y g.P [.g.L 2.g.1 i.g.} j.j.- G.i.} G.t.- 4.6.^ f.4.5..   @ @ . ; * . . * *   . { * * . . . * * * . * . . * .   * . . * * .   * g /./.` L |.m+m+m+d+m+m+c+R.f 7 q+-+s.++c+c+c+b+4.. { .   6 0+G+u+u+u+u+u+u+u+u+u+u+u+u+u+u+u+u+y+j.].x.A.y+y+o+y+u+u+u+0+k+u+A.A.)+)+8.)+y+y+y+k+u+G+u+y+u+G+0+/.<+y+y+a+&+<+p+x+x+j+k+l.U b.j+x+u+u+u+u+u+u+u+u+u+u+u+u+u+u+u+u+y+y+R.,+b+O.j w.~+C+E+E+F+G+G+F+q+b+b+'+,+x.6.8.{.H )+G+y+y+y+u+u+u+u+u+u+u+u+u+y+y+y+y+u+u+u+u+v+v+v+v+v+v+v+v+v+v+v+v+v+v+v+v+v+v+v+v+v+v+v+v+v+v+v+v+v+v+v+v+v+v+v+v+v+v+v+v+v+v+y+<+y+v+v+v+y+y+y+y+y+y+y+y+x+G+,+s |.N.h.,.R R 0 W ].'.>.M.].].T W y + t & & [ k 5.2.~.2.~.4.4.~.z f {.n . + } n $.A V T }.L z Q I W 1.=.R y y y < A T *.*.e.<.#.'.V ,.W ].,.,.2.2.,.,.,.,.W f ; ~ f W ,.,.9 & ; 9 ~.].,.!.,.W W !.W '.[.}.N %.h.h.%.N %.p.%.4 :.#.u u =.u N.%.%.:.9.:.9.N '.w '.w u R 0 1.h.h.:.N =.=.R R W 7 7 y 7 7 B B B < f.p.q.<.%.#.= = + ,.t.h.#.h.%.#.9.y + + U 8.!.i.v.W < 1.=.'.O %.%.O |.:.:.:.=.#.O <.O |.j.].V j.].~.I ~.5.I Z Z ].].0 u #.#.N %.%.N w :.f.N '.u u r %.:.#.f.A V V 2.A Z ).Q Z (.(.I ",
"|.K =.s.& $+y.+ g.6.S M.Q V %+d G.4.G R.E+E+E+E+E+E+C+E+'+E+E+E+E+E+E+E+E+C+A m.j.j.j.4.4.j.}.%.z+z+z+z+z+m+B+B+C+a b 4.! j.y.f |.i.< g.c+R.. }.O.2.!.!.(.k.&   & =.t.&.=.i. .R g.F f.g.k 2.|.> t.c.< m.m., y.1.= M.w.[ [.7./ g.4.6.* @ . & ; * * * * * * * * * * * * * . . * * * * * * * * * * * * * * * * * *   D /./.5.w+c+c+q+q+w+q+'+= u.w+/+c+c+c+m+/+b+5.* { * { . { )+G+u+k+y+u+k+u+k+u+u+u+u+u+u+u+u+u+4.(.x.l.y+u+u+k+u+f+A+l+l.x.A+y+T.b.)+f+x.l.x.x.7.v.x.x.{.+.5.S w.~.(.(.k.Q > > * 2 )+y+y+y+o+y+u+u+u+u+u+u+u+u+u+u+u+u+u+u+u+u+v+F+x.l+b+O.~.R.P.b+E+F+G+G+F+F+E+E+q+N.7.8.8.).8.H )+G+y+u+u+u+u+u+u+u+u+u+u+u+u+u+u+u+u+u+u+u+u+u+u+u+u+u+u+u+o+y+y+o+v+v+o+y+u+u+u+u+u+u+u+u+u+u+u+u+u+u+u+u+t+t+t+t+t+t+t+t+u+y+y+)+y+u+y+y+t+t+y+y+y+v+G+y+G+l+S *.s.s f.f.%.N [.'.[.f.>.s.z + - = = } = [ } f !.2.j.].4.].N.t.7.[ H H {.f W ,.W 7 W W W ,.y 7 y w T '.#.:.7 B L b I [.g.<.E.g.|.[.].V ~.2.,.,.2.2.,.,.,.2.V f = + n Z 2.1.n & . 9 7.].,.Q W !.;.W 1.}.p.%.p.h.%.#.p.:.#.}.=.N N 4 u u =.=.N :.#.O O }.=.T 1.R ] N u %.p.p.%.:.u [.w '.i.].w w 0 7 y 7 0 V w u =.%.N =.=.R + } + W :.o h.t.a.:.< + + V ].O.v.v.7.d < V >.O %.}.h.p.h.:.:.q R N N %.q t.].j.j ~.~.~.Z ~.~.Z V (.3.V V %.%.N q %.:.q q }.q u T u u r #.%.%.'.d Z (.(.I (.(.Z z ).Q $.",
"g.K =.s.> $+y.+ s.).S M.Q V %+< d+t.1 k Z j d i j Z Y ^.1 k G F  .F C $.$.Z 5.w.5.5.5.5.5.k.2.T ,+R.R.R.R.R.R.,+'++ b u.7 j.c.! g.i.! g.w+)+& }.u.2.!.7.Z )..   & =.t.&.=.i. .R g.F f.q.k i.g.| t.c.< m.m., y.1.= M.w.[ [.7./ g.4.6.. @ . & . * * * * * * * * * * * * * * . . * * * * * * * * * * * * * * * * * & @ @ ` ~.w+/+m+q+B+c+q+b+- ~+m+B+/+c+c+/+/+q+(.* { * * {   6 T.G+y+0+u+y+0+y+k+u+u+u+u+u+u+u+u+u.5.R.{.G+0+u+y+u+G+)+l.8.s+A+A.0+G+)+)+8.| & } f .  .F ^ {.(.j k.k.+ ,+R.x.,+f+T.b.k+y+y+y+o+j+u+u+u+u+u+u+u+u+u+u+u+u+u+u+u+u+v+A+x.l+b+O.(.,+b+C+A+F+G+G+F+F+E+b+O.j.i.l.l.6.8.H f+G+y+y+y+y+u+u+u+u+u+u+u+u+u+u+u+u+u+u+u+u+u+u+u+u+u+u+u+u+o+o+v+v+v+v+v+v+u+u+u+u+u+u+u+u+u+u+u+u+u+u+u+u+t+t+t+t+t+t+t+t+u+y+u+<+y+u+y+y+y+o+G+G+0+)+)+G+A+5.s s.:.0 t.O %.#.[.'.4.4.>.g.Q z $.M 9 m n L t v d i.j.t.j.].t.t.i.v } + L 7.,.W d d ,.B W W W W W 0 T [.#.4 7 B B I W '.<.q.E.q.g.[.].Z V ~.,.,.2.,.,.W ,.,.V f = + n Z 2.1.n & ; 9 ~.T W !.7.!.W W W w f.h.h.}.}.}.%.N }.p.N u N N R N #.#.u N N <.%.N 0 W 0 0 0 4 h.:.:.#.N }.%.[.'.'.w w ] [.1.y 7 W A ! 1.] R 9.N }.1.7 , f + W }.9.h.f.*.R = + Q j.@+V < < j A T '.f.|.p.h.N #.}.%.N q R =.#.#.q t.4.4.I 2.~.~.~.~.Z Z V Z V V w w 4 4 q %.}.:.%.}.4 N T R R =.%.#.%.'.d Z (.Z I (.(.Z G ).Q ).",
"g.K 9.s.> $+y.+ M.$.>.++G ].%+! %+N.A I k.j.m.w.Z V 5.5.G & & . . . . & & & A+E+G+G+F+F+F+F+E+l+G+G+G+G+G+F+F+F+C+a B 4.! w.y.f |.i.< q.q+x.& p.u.~.!.i.Z $..   & =.t.&.9.v. .=.g.F j.q.k i.g.| t.c.! m.m., y.f.= M.w.[ [.7./ g.].).. @ * & . . * * * * * * * * . * * * * * . . * * * * * * * * * * * * * * * * & *   . d q+c+m+w+c+m+q+q+3.q+m+w+c+q+c+d+/+b+Z { . 6 6 { * . 2 A.G+y+k+u+y+)+y+u+u+u+u+u+u+u+u+4.(.x.x.k+u+u+s+k+T.l.A+,+T.l.u+v+k+k+k+y+u+x.u+R.A+F+s+k+u+,+x R.v.s+F+F+T.F+y+G+)+y+y+k+y+y+u+u+u+u+u+u+u+u+u+u+u+u+u+u+u+u+u+v+A+x.,+'+w.Z ,+q+C+F+G+G+G+G+F+E+l+~+@+R.x.l.6.8.l )+G+y+u+u+u+u+u+u+u+u+u+u+u+u+u+u+u+u+u+u+u+u+u+u+u+u+u+u+u+y+o+v+y+v+v+y+o+u+u+u+u+u+u+u+u+u+u+u+u+u+u+u+u+u+u+u+u+u+u+u+u+u+y+k+k+y+u+y+y+y+k+b.* * 3 l 3 i.'.%.=.y 7 p.*.}.:.[.'.j.4.g.|.d e f } } 9 L f 9 f d w.4.t.j.4.M.w.i.G ' ! W 1.W W W d W 7 ,.W B < y W t.[.:.}.] W 7 , w t.e.*.*.a.|.'.V ,.~.,.,.,.,.,.,.W W W V B = + 9 Z 2.1.n & . 9 2.].,.!.T ,.,.,.,.'.t.%.h.h.%.:.h.:.q :.:.}.}.:.%.N %.}.N :.9.p.}.%.0 w R [.R R u #.q :.N.%.N N T T u '.@+f.0 0 y y 0 w R u :.%.#.}.=.w a = . O.N.e.q [.=., . +.!.0 ].j ].V 2.2.1.w N q q N N #.:.#.N h.=.}.%.N s t.j.4.Z (.Z (.~.~.Z Z A V Z V V R #.#.N %.:.#.N %.q :.T R N =.%.#.#.'.Z Z (.Z Z Z (.Z G ).Q $.",
"g.c 9.s.> $+y.+ M.P [.%+Q j.d+< d+~+A I w.u.u.w.w.i.w.k.F .           . .   F+F+G+G+F+F+E+E+E+l+F+F+F+F+F+E+E+E+C+, b 4.7 O.y., g.i.< q.q+l.& p.u.Z Q i.Z Q & @ & =.t.&.}.v.E =.g.F t.s.k i.g.> t.c., w.m.! y.f.- M.w.| '.7./ g.].).  @ * & . . * * * * * * * * * * * * * * * . * * * * * * * . * * * * * * * * & _ _ . Z q+m+m+q+m+m+++q+3.++m+m+q+q+/+d+c+q+5.* * D 6 * 6 2 . . /.G+u+u+u+u+u+u+u+u+u+u+k+u+u+4.4.R.t y+u+k+s+A.T.s+A+{.)+s+u+u+u+u+<+y+u+k+{.T.s+k+y+y+)+x.^.; )+G+u+G+)+<+k+y+k+u+y+k+u+y+v+u+u+u+u+u+u+u+u+u+u+u+u+u+u+u+u+v+F+x.,+'+k.V ,+q+E+F+G+G+G+G+G+E+C+w+b+R.l.{.{.{.l )+y+y+u+u+u+u+u+u+u+u+u+u+u+u+u+u+u+u+u+u+u+u+u+u+u+u+u+u+u+u+y+u+y+u+u+u+u+u+u+u+u+u+u+u+u+u+u+u+u+u+u+u+u+u+u+u+u+u+u+u+u+u+y+<+u+y+u+y+y+`     . . > . 6.q h.}.7 f y h.a.h.:.'.[.t.4.t.g.I z ' ' - ' v 1 9 [ !.w.4.t.j.].P.O.3.d ! ,.=.=.W I ,.d W I ,.W W y ,.y f.[.%.u 7 W W A '.|.e.a.E.q.s.[.].,.,.W ,.,.,.,.,.W W ,.].B = + 9 Z 2.1.n & . 9 2.4.,.$.f.T W !.W ] f.N.N }.#.}.h.:.4 }.h.:.N 4 q N %.}.N h.h.}.4 0 w '.R u =.N #.:.:.N }.N #.u ] f.@+'.[.:.=.R y 0 0 0 ,.h.p.%.#.:.R 0 , } + W #.*.N |.] + = m , w V 4.4.].4.,.1.0 R r q q }.p.p.h.q q :.%.#.%.#.[.4.V Z ~.I ~.~.Z Z Z I Z Z Z V T %.:.:.}.}.N N :.%.h.'.u 4 r #.#.#.'.Z Z (.Z (.Z (.Z G $.G $.",
"g.c 9.g.[ $+y., M.P j.d+Q j.d+< m+~+j d j.u.u.O.t.j.i.k.9 .   @   # @ @ .   G+G+F+F+E+E+C+C+C+b+F+G+G+G+F+F+E+E+'+= Q j.! w.c., s.i., q.C+l.& }.u.A b 7.Z Q &     1.t.&.}.v.E =.g.n t.s.1 i.g.> t.c., w.m.! y.f.' M.m.> '.7./ g.].).  @ * & . . * * * * * * * * * * * * * * * * . . . . * * * . * * * * * * * * . @ @ ; v.w+m+m+q+m+/+c+q+4.w+w+B+c+c+++E.E.q+(.. D 6 * 6 2 { *   * D u+y+u+u+k+u+k+k+k+k+k+u+u+u.A ,+{.G+u+s+T.)+y+0+A.A.k+k+s+k+k+y+0+0+0+u+b.b.T.s+u+u+G+R.[ ` r+y+y+u+u+u+0+)+k+)+y+u+u+u+u+u+u+u+u+u+u+u+u+u+u+u+u+u+u+u+u+y+F+x.l+'+w.~.,+C+E+F+G+G+G+G+G+F+E+q+@+v.l.8.{.{.l f+G+y+y+y+u+u+u+u+u+u+u+u+u+u+u+u+u+u+u+u+u+u+u+u+u+u+u+u+u+k+y+u+k+u+u+u+u+u+u+u+u+u+u+u+u+u+u+u+u+u+u+u+u+u+u+u+u+u+u+u+u+y+y+)+y+y+u+y+y+G+G+)+F+l+E+R.W <.O N W M 7 h.a.g.:.'.4.t.j.t.g.I I e L [ - L Q M ' 7.2.V O.4.V c.u.3.d , 1.1.:.i.7 W < W W I W W 7 y 0 1.[.%.N R y < < T g.e.a.a.a.|.'.T ,.,.,.,.,.,.,.,.,.,.,.].B = + 9 Z 2.1.v & . 9 2.].,.!.T 2.7.f + < N.f.:.%.#.}.%.%.#.:.N :.h.}.N u :.p.}.:.u N R R w R #.u }.%.}.}.=.u R u u t.N :.t.|.q }.h.R 0 =.N.@+T 4 #.N q :.}.w , [ - A #.e.|.|.< f ' ' 0 f.4.i.u.4.4.V W 0 =.r N.}.}.#.q :.:.#.%.%.:.g.:.j.i.< I $.I ).).Q I Q z $.Q A A '.}.:.:.h.h.#.:.:.#.N '.R u r #.#.#.T Z I (.Z (.Z (.Z Q ).G Q ",
"|.( 9.g.1 $+y., M.P t.%+e j.%+- d+N.j I i.4.j.O.w.4.2.k.[ .   @   @     . ; G+F+E+E+C+C+B+B+C+~+G+G+G+G+G+G+G+G+B+a $.4., w.c.! s.i.! M.C+ .. }.u.Z < !.Z Q &     1.t.Y h.v.E =.g.9 t.s.[ i.g.> t.c., w.j.! y.f.' M.m.> '.7./ g.4.).  @ * & . . * * * * * * * * * * * * * * { { * . . . * * * . * * * * * * * * . ;   ; v.C+m+c+c+/+m+w+b+j.w+d+w+q+w+m+-+/+q+(.* 6 { 6 6 * 2 { { * . 2 k+y+u+u+u+u+k+k+k+k+u+u+|.4.R.{.y+f+)+)+y+A.T.y+v+T.<+s+y+<+o+o+0+u+)+u+a+0+s+u+o+u+,+V T.0+y+y+y+0+u+)+f+F+)+s+y+y+u+y+u+u+u+u+u+u+u+u+u+u+u+u+u+u+u+u+y+A+x.l+'+w.V R.'+A+F+G+G+G+G+G+F+E+w+'+k.8.{.+.U 8 )+y+u+u+u+u+u+u+u+u+u+u+u+u+u+u+u+u+u+u+u+u+u+u+y+u+u+u+u+u+u+u+y+u+u+y+k+y+u+u+u+u+u+u+u+u+u+u+u+u+u+u+u+u+u+u+u+u+u+u+u+u+y+u+0+y+y+u+y+y+y+)+)+A+F+l+T f.[.) u ,.B b g.a.g.:.[.j.j.j.f.[.I d e v n ' e e M ' 7.2.! t.4.].y.u.2.d ! 7.}.}.i.W W < d W I W !.y W W '.0 w }.W 7.!.A w f.G.G.G.G.s.[.'.,.,.,.,.,.,.,.,.,.,.,.].B / + 9 Z 2.1.n & ; m 2.].2.i.7.z + . . + t.++h.}.#.%.#.N N #.N.h.N #.%.h.h.h.q :.}.,.0 w w =.%.p.:.:.=.'.0 =.R h.u :.#.|.|.O g.%.N R u u R :.N.f.f.}.%.:.#.T ! + + j.N.$+s.>.=.7 + $.t.S 4.5.].4.2.W ,.T f.:.%.q %.:.#.h.p.#.:.h.%.|.#.f.t.7 Q $.I ).$.Q I I z P Q d A [.h.}.%.}.}.N }.}.#.q w u N R #.N #.'.Z Z (.(.Z Z Z Z Q ).z Q ",
"g.* 9.g.1 $+y., s.G j.M.1 j.%+= %+j.1 Q i.4.2.i.w.5.5.5.[ & . . @ @ . . . = F+F+E+C+C+B+B+B+C+'+F+G+G+G+G+G+G+F+'++ Q 4.! O.c.= |.i.< M.C+c . p.u.2.b !.Z Q &     1.t.x h.v.i 9.g.9 t.s.[ i.g.> t.c., w.j.< y.f.' M.m.> '.7./ g.4.).  @ * & . . * * * * * * * * . * * * . * * { { * . . * * * . * * * * * * * * & 6   . 7.c+m+c+@+c+d+++b+j.>.%+M.++c+c+d+m+b+E 2 . 2 D 2 { 6 * ~ . ~ . ; 0+y+u+u+u+k+k+k+k+u+u+y.4.,+[ T.T.f+s+l.0+y+y+a+<+y+)+0+G+<+k+0+k+k+0+T.y+u+u+y+y+l+].b.y+k+y+F+s+)+s+A+A+s+0+u+u+k+u+u+u+u+u+u+u+u+u+u+u+u+u+u+u+u+u+y+F+x.l+'+w.A R.O.C+F+G+G+G+G+G+F+E+q+'+5.{.H H U 8 )+y+u+u+u+u+u+u+u+u+u+u+y+y+u+u+u+u+u+u+u+u+u+u+y+y+u+u+y+y+y+)+y+y+u+y+u+u+u+u+u+u+u+u+u+u+u+u+u+u+u+u+u+u+u+u+u+u+u+u+u+u+y+u+k+y+u+y+y+y+y+k+)+F+E+[.:.g.< w %.w W W |.g.|.|.t.j.T t.f.f.,.I z z v z e < 9 - 7.w.< ].4.].@+j.~.e e 7.'.'.I i.,.d 7 W W I 7 7 W w T [.[.t.!.7 < I V [.s.q.a.q.g.:.'.,.2.,.,.,.,.,.,.,.,.,.4.L / + [ Z ,.1.[ & ; t i.].,.!.= & .   ^ e f.|.#.:.:.%.:.N #.h.%.%.#.}.:.:.N q :.}.R 7 ! w R =.N %.#.u t.=.w 0 w =.u h.h.|.*.*.:.#.#.R r R =.%.'.}.:.q %.:.u '.= = - O.p.$+G.S q w y i.t.>.4.(.~.2.Z Z V A 4.>.:.N N }.h.p.p.N #.t.4 :.:.[.,.I Q $.z $.$.Q G z L P G d j T %.N :.:.%.N h.}.:.#.0 u N R #.N %.[.Z (.(.(.Z (.Z Z G $.e G ",
"g.* 9.g.1 $+y.! s.G f.G.e t.%+< d+t.' L i.2.i.i.w.5.^.5.1 & . .     * . . . F+F+E+C+B+B+B+C+E+'+B+C+E+E+E+E+C+C+'++ !.j., w.c.! s.i., q.C+c ^ N.u.2.b !.Z E .     1.t.x h.v.i 9.g.9 N.s.[ w.g.> t.c., w.j.< y.f.} M.m.> '.7./ g.4.).  @ * . . * * * * * * * * * . * * * . . * * 2 { * . * * * . * * * * * * * * &   # . v.M./+m+w+c+/+w+~+i.b+d+m+/+q+m+d+m+C+k * { 6 * 6 D * * ~ . ~ 6 . ; )+G+u+u+k+k+k+k+u+u+|.u.R.[ l.k+)+R.f+y+<+o+o+<+u+f+0+0+u+u+k+f+f+f+r+)+s+u+o+y+,+&.l.y+)+F+x.)+F+R.8.b.f+)+u+u+u+u+u+u+u+u+u+u+u+u+y+y+y+u+u+u+u+u+y+F+x.l+b+w.Z ,+q+C+F+G+G+G+G+G+F+l+O.u.k.8.{.U U 8 )+y+u+u+y+u+u+u+u+u+y+y+y+y+y+y+y+y+y+y+u+u+u+u+y+y+y+y+y+y+u+b.k+G+k+y+u+y+u+u+u+u+u+u+u+u+u+u+u+u+u+u+u+u+u+u+u+u+u+u+u+u+y+k+u+u+u+y+y+y+y+f+l+F+A N g.4 9 W }.q '.4.>.>.O |.t.'., j.f.f.A d Q z v ).7.7.m + !.w.].V w.V t.i.7.1 [ !.A w d i.I ,.,.,.W I 7.7 < W 1.[.N %.7 ! 1 b 7 T g.*.*.q.G.}.T ,.,.W ,.,.,.,.,.,.,.,.4.P / + [ Z ,.1.n & . t i.].0 + . * _ h 3 + >.q.p.N %.:.%.%.h.%.p.h.:.:.q %.:.p.p.:.w ,.,.,.w u %.}.%.h.=.w w w w }.N.p.#.*.|.<.s.9.9.=.r u N N N N #.q N t.t.N ! - d C+$+q.s.g.O #.1.t.|.g.].Z Z (.I Z A A c.|.}.}.:.:.%.q :.:.#.N.4 N.~+f.0 W Q $.k G Q $.G G t f e d V '.%.%.#.N q q }.%.N q R u u N %.%.%.'.I Z (.(.I (.(.Z G $.e G ",
"j.~ h.i.j E.8.7 G.( $+%+1 $+F.< -+f., d V ;.M ^.'.,.Z P > . .     . * . & [ C+E+B+B+B+B+B+B+w+c+E+C+C+B+w+w+B+'+y.+ !.4.! j.c., f.!.j M.b+U | M.i.~.I ~.).M     . g.t.I s.i.m |.j.! O.y.! v.c., w.j., w.i.< w.j.$ ++j., (.!.a c.j.$.  @ . . . @ . . . . . . . . * * * * * * * * * 2 { . . * * .   . * * * * * * ;   ^ . @+w+s.N.w+c+/+C+b+u.q+q+m+c+~+c+d+c+w+G 2 2 2 2 2 2 6 6 { * 2 6 * . 2 b.y+y+u+k+k+o+v+v+k.].b+e T.&+<+s+k+u+k+u+u+0+k+k+f+f+k+u+u+k+0+0+u+)+f+k+y+y+,+j.{.A+f+s++.l+E+R.g g )+f+f+s+u+f+k+s+s+l+'+'+'+~+,+x.A+A+s+y+y+r+u+G+x.l+'+m.].b+q+C+E+F+G+G+y+G+E+C+~+O.2.k.U /.{.l <+y+v+y+u+u+s+u+u+u+u+s+l+l+l+l+l+l+A+y+y+x+y+y+u+G+s+{.x.F+b+F ; <+y+A+A+u+y+u+u+u+u+u+u+u+u+u+u+u+u+u+u+u+u+u+u+u+u+u+u+u+y+<+u+y+y+u+G+v+y+f+l+f.O f.d n 1.y W t.'.[.>.s T 2.W + j @+j.j.].V A I Q ;.t + . . 6.4.w.4.4.T m.(.(.d < W i.0 d (.I b b W ,.W 0 d b 0 [.[.< f + . c c [ j h.e.B.G.s.%.4.W W ,.,.,.,.,.,.W W 2.4.I , # f $.4.2.a = = H H = + ! 5 3 3 3 [ ! N.<.f.N }.}.%.N N t.h.q #.:.%.=.@+R w w 0 w %.p.q h.p.%.%.w 0 w y v.:.N.|.|.*.g.|.|.}.}.N }.N.p.h.%.#.q }.:.:.}.[.N ! ' = v.'.#.#.w #.:.4.4.~.Z ~.Q B z e G e W [.:.%.%.:.#.#.N }.%.N q 4 %.q =.A Q Q z G e Q ).Q G k G I ~.W '.w u N =.R u u R R R R R N N u %.#.9.I Z Z ~.Z Z (.Z z z z z ",
"j.& h.7.j E.8.0 G.( $+M.- $+F.7 -+t.! '+b+l+)+'+,+R.R.R.F | m +.U M t t P = ~.j A V x V x s 0 T P.P.P.P.P.P.P.P.y.+ $.].! j.c.= t.!.d s.'+g | M.2.2.Z 2.$.9 . . . g.t.I s.i.m |.j.! O.y.! v.c., w.j., w.i.j w.j.! ++j., (.!.a c.j.$.  @ . . . @ . . . . . . . . * * * * * * * * . * 2 * . . . * . * * * * * * * . @ * . @+w+@+t.E.c+w+w+@+++c+w+/+c+q+c+d+w+w+[ { 2 2 2 2 2 2 2 { * 2 6 6 *   { b.G+k+u+y+a+k+y+(.w.@++ b.r+o+f+k+u+k+k+u+0+0+k+0+k+k+k+u+k+0+)+v+u+T.y+o+y+A+i.U y+y+)+l.l.E+,+F & )+s+)+s+s+s+A+A+A+E+A+l+q+w+l+x.,+l+A+F+F+G+F+F+x.l+'+w.4.@+b+C+E+E+G+G+G+F+E+E+b+O.2.$.{.` U l 0+y+y+y+u+u+s+s+y+y+s+l+,+R.,+R.6.k.,+A+y+y+y+A+y+F+F+l.8.F+b+F ~ <+y+A+A+u+y+y+u+u+u+u+u+u+u+u+u+u+u+u+u+u+u+u+u+u+u+u+u+u+u+0+y+y+y+u+y+y+G+A+2.#.:.f.< e 7 w 1.'.f.f.f.#.[.].j j A 4.4.f.T 0 < 1 9 } = . ~ . ).3.w.4.j.4.k.5.Z e e W ,.R d Z i., I !.I d T W !.W 0 :.y f } = 8 c > ! <.B.q.G.s.#.'.W ~.~.,.,.,.2.2.,.W 2.].Q , # } $.2.2.a + . . ^ 9 M ;.9 / 3 ^ } 7 N.q.f.#.N N :.f.#.N 9.}.:.}.u h.}.N w T N :.}.p.q :.N N h.[.[.'.0 T g.|.*.O :.:.s.:.#.N #.:.q #.:.}.p.:.h.#.%.%.}.#.b } . $.N #.%.T N [.j.].j < I Q B z G G G I '.N %.#.#.:.h.h.p.}.q %.N :.N =.I E e e e e G $.Q Q G G I ~.W '.u N u }.h.=.u u u =.=.u 4 =.%.:.#.9.Z ~.~.~.Z Z (.Z z z z z ",
"j.; h.!.j E.8.w G.( %+-+- d+-+0 -+@+= E+E+F+G+E+E+E+E+E+ .Z I I !.W B W !.b W V P $.k Q I W 0 N.C+C+C+C+C+B+B+C+y.+ $.4.! j.c.= t.7.j M.'+g m M.2.2.~.2.$.9 . * . g.t.I s.i.9 |.j., O.y., v.c., j.j., w.i.j w.4.7 P.j., (.!.a c.j.$.  @ . . . @ . . . . . . . . * * * * * * * * . . * 2 { *   . * * * * * * * * . * * & '+w+q+q+M.|.++C+++M.C+m+/+c+c+s.%+/+w+[ { { 2 6 2 2 2 { { * { { 2 l * .   /.y+u+u+o+y+y+5.i.2.+ A.y+v+s+u+u+k+k+u+k+)+u+o+o+0+0+k+f+f+)+o+G+s+0+o+u+l+].` y+u+y+l )+F+x.P > l+F+F+F+F+F+F+F+F+E+A+A+E+E+F+,+R.R.,+x.R.,+l+l+R.E+'+O.2.,+'+'+q+E+G+G+G+F+C+E+'+b+j.k.{.U {.D <+y+y+G+F+F+F+F+F+F+F+F+E+E+A+E+F+A+f+R.R.,+,+)+f+l+A+8.l.F+b+F ~ <+y+A+A+u+y+y+y+u+u+u+u+u+u+u+u+u+u+u+u+u+u+u+y+u+u+u+u+y+y+0+y+u+y+y+u+G+F+v.w %.O h.'.d W T T [.j.[.N s [.f.f.O.t.f.N.%.W b e 9 & . ^ 8 ^ . $.5.m.4.4.i.(.5.z [ b W W ,.I Z Z v.I W W W w I b A '.@+,.' = ^ ^ & . 0 q.B.a.G.s.:.].,.~.W ,.,.,.2.2.,.,.2.].!.a = } ).i.i./ ; . . ^ 9 m f f } ^ ^ = b 1.h.:.:.#.:.:.#.u }.:.:.N :.%.@+R u w '.T }.%.:.#.h.,.R R 0 4 R u N g.O O N.g.g.|.:.%.#.#.%.4 :.%.p.N.|.}.:.t.h.[.%.! } . $.'.|.}.f.p.t.4.].Z I I b Q z Q k z 7 '.N :.h.h.h.}.N %.:.#.%.4 }.9.=.j Q e G z z z z Q G G G d Z T T w u %.:.u 4 :.f.f.t.h.R 4 u u #.N 9.I ~.(.(.Z Z 5.~.z z Q Q ",
"4.& h.!.A E.).T G.( d+%+d d+-+w e+,+. E+C+F+G+E+F+F+E+E+ .m.].w ! < j d < , ! I - n m > P 7.w @+B+B+q+w+B+w+q+B+y.+ !.4.! w.c., }.!.j M.'+* F M.i.~.I ~.).F     . g.t.j s.2.| |.j., O.y., i.c.! j.4., i.2.j j.4.7 P.4., (.!.a c.j.$.  @ . . . @ . . . . . . . . * * * * * * * * *     * 2 2 * . * * * * * * * * ^ @   . b+q+O.@+w+b+w.q+O.@+c+w+/+q+q+/+d+c+C+k * { 2 2 2 2 { { * * { * * 6 6 6 *   l y+u+o+y+y+k.4.4.' u+r+o+s+u+u+u+k+u+u+)+u+v+o+0+k+u+f+f+l+s+F A+f+^ s+l+c.+.F+A+s+M R.E+R.6.).,+l+,+k.k.6.$.$.).n 9 n F F z $.!.).v.(.k.k.w.'+O.E+'+w.Q v.k.w.b+E+F+G+G+A+b+'+b+'+O.).8.8.{.l )+y+G+A+F+F+A+l+,+R.x.k.5.(.).6.6.).k.k.7.7.k.R.v.R.,+m f+F+b+F ~ <+y+A+s+u+y+y+y+u+u+u+u+u+u+u+u+u+u+y+y+y+u+u+y+y+u+u+y+y+y+f+u+y+y+y+A+F+,+< f.}.q :.f.0 2.].w [.j.t.#.N |.|.>.q+@+[.t.}.y b } &   * 2 6 . & Q 5.3.(.].Z I $.e ! f ;.y R Q Z A O.w.0 y 1.w b $.W N N.2.- . &   . ' T q.B.*.a.<.%.].,.~.,.,.,.,.2.2.,.,.2.j.Q = = U 6.!.f . .   ^ 8 9 } & ! ' } | = b W %.4 }.%.s %.f.f.}.h.}.}.:.%.%.u N %.[.[.N.}.=.N u 7 7 w w R :.#.:.%.q |.|.g.%.h.<.#.}.N #.}.p.%.N.$+|.#.q :.:.#.%., f = $.'.#.q T #.[.].Z I d z Q B z Q k Q I f.}.%.}.%.#.%.#.%.%.9.f.s p.N.h.W E Q ).Q Q z e Q z G G d d w T R u %.f.[.%.:.#.w #.u 0 u u u %.#.%.A Z ~.(.Z Z 5.~.z z Q $.",
"4.& h.!.V E.).R G.( d+-+j d+-+w -+R.+ C+C+E+F+E+E+E+E+E+x m.4.g.E+E+E+E+E+E+E+E+E+E+f+> k (.S /+B+B+m+m+B+B+m+B+y.+ !.4.! j.c.= f.!.d s.@+  F M.i.~.A ~.).U .   . s.t.j s.i.9 |.j., O.c., i.c.! j.4.! i.2.j j.4.7 P.4.! (.!.a c.j.P   @ . . . @ . . . . . . . . * * * * * * * * * . . . * 2 { * * . . . . * * * . @ @ & ,+O.+ = = + G 1 v.l+w+C+c+q+q+w+d+c+b+1 { { 2 2 { { 2 2 * * 6 2 { { * 6 3 ^   { u+y+y+y+w.w.w.' G+r+v+f+u+u+u+k+u+u+)+k+o+o+k+u+k+)+x.R.,+x.k.,+x.k.j.g.+ $.8.l+R.i.q+u.k.5.5.Q $.1 $.).!.z 7.L P M m U e 7.5.$.5.V m.m.5.w.3.'+'+v.f 6.6.,+b+l+F+G+F+F+b+O.'+w.w.x.6.8.8.U k+G+f+U P $.P P Q Q Q G e 1 n n k 1 (.~.4.4.].k.5.5.k.. )+F+b+F ~ <+y+A+s+u+y+y+u+u+u+u+u+u+u+u+u+u+u+y+y+y+u+y+y+y+u+u+y+y+f+s+v+y+u+A+F+f+A w f.N #.|.|.>.4.].4.'.j.f.f.s |.g.S q+t.f.p.p.f = . & ^ * *   . [ Q 3.].].A d I Q Q f , ;.y 0 7.< ].w.].i.y y y Q e , f.N.T z } . . m z N e.G.d+%+s.f.].,.W ,.,.2.2.2.2.,.,.,.4.L / / m n } + * . ; 3 8 | | 9 < [ } 9 = < w N q }.:.h.h.}.#.}.p.h.}.:.#.4 =.=.}.}.N }.}.=.R ] 7 y =.=.=.N N 9.q :.p.q #.:.h.#.q h.:.}.p.h.}.N.p.|.N N s %.N }.! f . f '.N q T N [.].I I 1 e e B z Q k Q j '.N N 9.#.N %.:.}.h.:.t.s #.%.9.W k $.5.$.Q G e Q z G G d < w [.[.N w #.N N :.:.N N u 0 u u N %.#.#.A Z ~.(.(.(.5.Z z Q Q Q ",
"4.= p.W ].E.$.R %+( d+-+1 d+F.V -+v.' C+B+E+E+C+E+E+C+E+x ].s t.q+b+b+'+'+b+b+b+'+l+,+. k Z >./+B+m+m+m+m+m+m+B+y.+ !.4.! j.c., f.7.A s.'+* F M.i.~.W 2.).t .   . s.t.d s.2.| g.j., O.c., i.3.! j.4.< i.2.A j.4.y P.4.f (.!.a c.j.P   @ . . . @ . . . . . . . . * * * * * * * *   * * .   * { 2 * * . . . * * * . _ * . ,+C+b+C+,+k.1 . = + b+q+m+q+c+c+%+%+~+[ 2 2 2 { { { 2 2 6 * 2 2 2 2 * 6 l * 6     0+G+y+w.i.i.[ y+r+o+s+u+u+u+k+u+u+0+0+v+o+k+u+k+)+A.T.R.v.,+,+F+,+u.s.W A+E+A+! N.E+y.' ' k.Q k.).$.).!.$.k.e G ).).{.Q 5.v.i.O.~.k.4.(.w.Z k.,+k.9 l.8.R.4.w.E+F+F+F+b+'+m.w.$.A+l.{.{.F f+F+f+F Q ).).).5.5.k.5.6.).{.{.).$.v.k.5.].].5.5.$.x.. M F+b+F 2 <+y+A+s+u+u+u+u+u+u+u+u+u+u+u+u+u+u+u+u+u+u+y+y+u+u+u+y+y+f+y+u+y+y+F+l+!.! t.R u =.t.g.g.].].j.j.[.[.[.N *.s.S ~+>.t.h.h.f = ^ H 8   . . + v $.].].].Z d Z I $.e - !.,.0 B ~.4.O.].O.7 ,.d ' L d f.g.[.!.G [ } L z w *.G.G.e.<.[.'.W ,.2.,.2.2.,.2.,.,.,.i.!.a ~   . & a 3 ~ / 5 / = = 9 v m 9 & . ! =.N :.N.N.h.:.h.#.N #.:.:.h.#.#.}.N }.:.u N 4 0 R y =.R u u u u N }.9.h.9.9.#.h.%.N %.}.}.p.h.%.h.}.%.#.N N #.h.:.:.! } . f f.g.}.'.}.f.W A I e e e Q Q Q k z j '.#.:.p.h.}.#.N #.%.N }.s #.N =.W E G $.Q G z G Q G G G d < w '.'.u s %.%.#.N #.[.f.h.R u 4 N N N :.A Z ~.5.5.5.5.Z Q Q Q z ",
"|.} s.W ].*+$.'.%+( d+-+' $+F.V -+v.+ B+z+w+w+B+q+C+B+C+&.].j N.E+C+C+B+c+'+'+@+q+C+,+. } I S ++m+m+m+m+m+m+B+B+y.= 7.j.7 w.c.! f.!.A g.b+3 | s.2.~.W 2.).m .   . s.t.d s.2.| g.j., w.c., i.&.! j.4.< i.2.A j.4.y y.4.f (.!.a c.j.P   @ . . . @ . . . . . . . . * * * * * * * * . * * * . . * { { * * . . * * * =     . ,+C+C+C+c+q+C+E+'+O.s c+c+q+w+m+d+d+b+- 6 2 2 { { { { 2 l { { { 2 6 2 D ; l { . 2 @ A.G+O.4.4.[ y+r+a+s+k+u+u+u+k+u+u+)+u+u+k+k+u+u+u+u+s+s+l+s+u+A+l+|.t f+f+l+$.7.b+3.k.).,+6.).z $.).~.7.k.Q ).$.6.P ).$.5.).k.Z i.i.7.R.).5.,+F > {.8.5., ].A+F+A+E+'+O.O.(.k 8.8.8.8.t )+F+s+$.).2.;.).$.$.$.$.P M M M P k 6.).5.5.5.k.5.5.R.> 9 F+b+F 2 <+y+A+s+u+u+u+u+u+u+u+u+u+u+u+u+u+u+u+u+u+u+y+u+u+u+u+y+y+f+G+o+y+G+A+i.! R N.R R w f.|.*.>.4.>.t.[.f.'.f.M.g.s c+].[.t.p.. = m l & . . = , B W ].4.].,.W (.A Z 1 < ,.2.T y I j.O.j.t.W ,.!.f f < t.p.w d Z I e e b '.#.g.q.a.e.f.'.,.,.,.,.2.2.,.2.,.,.,.i.L . . & c 5 # . . / a a f 9 m 9 5 & . + < t.e.p.|.%.|.|.p.%.|.q }.p.N.N u u u h.h.h.}.R ] ] 7 r #.N =.}.}.=.=.N.N %.#.%.#.%.#.%.%.:.h.#.#.#.N |.:.}.q q %.}.N b f . B f.:.%.w 0 [.,.I d 1 G !.Q Q Q G G ,.t.p.h.h.%.}.:.%.#.N #.:.>.@+r.p.W Q e G Q G G Q G Q G G I b w w N 4 #.N #.[.f.t.f.>.R 0 N N :.%.#.%.I ~.(.5.5.(.5.Z Q Q z z ",
"|.} q.W 4.*+$.}.%+( d+-+1 $+F.V -+v.+ B+z+w+C+z+m+B+q+q+&.4.< R.b+'+'+/+/+M.~+$+++@+6.. 5 $.V @+m+/+/+m+/+m+B+B+m.+ 7.j.7 j.c.! f.!.A |.b+g 9 M.2.~.A ~.).t .   . M.t.d s.2.| h.j., w.c., i.&.! j.4.j w.i.V j.4.y y.4.f (.$.a c.j.P   @ . . . @ . . . . . . . . * * * * * * * * {   . * { * .   2 { * * * * * . & @ # . ' A b+C+-+m+m+m+q+w+q+s M.c+q+/+d+c+w+. 6 6 6 2 { { { { { * 2 { { 2 { 6 3 ; 6 2 * @ @ A.,+i.w.[ y+r+j+f+k+u+k+u+0+k+u+)+f+s+k+k+u+u+k+0+a+o+u+)+x+u+s+2.. )+u+G+{.x.A+k.' ' k.k.$.' v.6.v.i.k.,+,+E $.$.$.).v.5.v.!.i.7.!.k.G G k.  & -.U k.A 4.A+F+F+E+b+O.O.).[ } +.{.8.M f+F+s+Q ~.~.;.;.).).).).{.{.{.{.8.$.x.6.k.k.5.k.$.6.k.. $.F+b+F ~ <+y+s+s+u+u+u+u+u+u+u+u+u+u+u+u+u+u+u+u+u+u+u+u+u+u+u+y+y+)+F+y+y+G+R., u 0 =.,.y y [.>.g.|.u.|.s [.'.N N |.>.s b+].'.t.0 & 9 | . . H M = , y W '.j.'.7.7.3.Z (.d I ,.'.'.y d ].j.>.b+, y $.' f I N :.T W ].< < e B 2.N h.a.a.e.f.T ,.~.~.,.2.2.,.2.2.,.2., = + * 3 c ~ # ; 5 a a , f } & . .   . - y d+$+g.<.|.|.N |.O %.h.:.}.}.:.%.u }.h.:.#.N =.R y y 9.r.p.=.u 0 R =.:.q %.h.N p.9.q #.}.}.h.#.:.q }.%.g.~+}.#.u f.}.! } + f R q N R R 1.W I Q G G P B $.Q k 1 A '.#.:.#.#.h.%.N %.}.h.:.s %.#.9.W k e z ).Q G Q z Q G k Z I W w R #.%.%.[.f.#.#.>.#.u u =.u u q #.%.I ~.(.5.(.~.(.Z z z z z ",
"m.) F.V h.m+Z g.e+, z+c+, d+m.R /+[.+ q+c+c+c+d+/+c+/+/+w ,.< @+C+w+q+q+q+c+c+c+@+q+x.. L W < '+d+c+c+m+q+B+q+w+6.+ 5.~.0 w.7.b g.!.L g.b+( M N.k.$.Q 5.$.m   . @ }.v.' f.2.| s.c.! w.c., i.c.f w.4.A w.4.V j.].T N.i.j 5.~.j 2.j.G . @ . . . @ * * * * * * * * * * * * * * * * * * * * * * * * . * 2 { * . . * & .   & l+'+= 5.q+w+/+w+w+~+w+w+j.j l+w+d+c+w++ 2 { 2 6 2 * * 2 ~ ; ~ ~ ~ ^ 2 2 { { { { 2 2 * . j.O.v.. y+u+t+o+u+k+u+u+k+u+u+)+u+k+k+u+k+u+u+0+0+f+A+k+<+u+A+4.d G+s+y+U '+G+R./ . k Z Z $.e {.L ).6.G L P ).$.G 5.k.Q k.$.).5.(.v.).9 l.. * {./.x./ Z &.G+G+C+b+O.5.f } / U {.8.3 o+F+l+~.).).).).).G $.P L P P v L G k.).).!.5.v.).5.R.. F F+b+F ~ <+y+s+s+u+u+u+u+u+u+u+u+u+u+u+u+u+u+u+u+u+y+u+u+y+u+y+y+o+p+x+y+A+,+7 A j z T G.q '.V w [.s.[.7 , Q 2.[.O %+g.< M.t.!.. @ { . . + b !.f / 7 B W j.4.].w.j.(.O.~.b d ,.[.#.B W t./+g.O.+ +.Q b 7 y ,.1.,.< A j A j ~.j.s 4 ! 0 s ].].].2.].[.[.4.i.6.+.3 . M , = ^ 8 l & . 9 m 3 3 2 ; . . . . e W '.O d+%+N :.}.h.:.:.%.%.#.}.t.'.0 u =.R :.=.7 y y y R N N #.u 4 #.N <.*.N.<.<.:.N h.:.N w w 0 ] ].w 0 4.|.g.c+s ! V A ,.b } . f '.f.[.V =.'.2.Z d G Q $.z $.G G k A '.:.:.:.:.g.f.g.:.N #.q s N e.:.T j ' 1 e G z Q $.Q $.$.z e d 2.[.p.=.u }.:.N %.#.#.4 u %.:.f.f.#.N I !.Z k.(.(.5.Z I Z I !.",
"c.) -+V r.m+Z s.e+, e+/+, d+3.R y.j.< l+b+'+O.@+'+'+P.u.- $.! ,+b+'+@+@+@+N.O.P.c+'+5.. f W < '+'+'+'+'+'+b+b+b+6.+ 5.~.0 w.7.7 g.!.z g.w+K m h.$.I I 5.).t       0 y + t.i.& g.c.! w.c., i.c.f j.4.A w.4.V j.].T N.i.A 5.~.j 7.j.G . @ . . . @ * * * * * * * * * * * * * * * * * * * * * * * * . * * { { * .   & * 2 . '+E+b+m., t.w+q+/+c+c+m+~+O.].N.c+w+b+& 2 { 2 6 { * 2 6 ~ ~ ~ ~ ~ ~ ^ 2 2 2 { { 2 2 * . >.4.R.n A+k+u+k+k+0+k+u+k+k+k+<+0+k+k+k+k+u+u+0+0+s+A+k+a+k+A+4.1 G+A+y+U '+G+,+M } k.v.I d ).8.$.P k.P P ).P ).$.k.v.).v.).5.k.(.v.).9 l.. * {./.x.= I x G+G+C+b+O.k.v } / U {.{.{ k+F+,+Z $.).).$.).L ).).+.+.P L $.P v.6.5.k.5.k.$.5.k.. U F+b+F ~ <+y+s+s+u+u+u+u+u+u+u+u+u+u+u+u+u+u+u+u+u+k+y+u+u+u+u+u+k+r+G+F+l+d I I < z [.G.O T ,.w f.g.'.0 d !.i.f.O q.g.s ~+t.W .   @ . ' e B Q , / 7 !.,.j.4.4.O.4.1 v.$.' W ,.w %.7 ,.N.c+s.w.+ M Q B W y T i.,.I V b j W 2.j.%.g.M.s.s.f.[.T ].,.2.i.7.Q - . } U a + . 3 3 ^ . * | m 8 . . . + a P P !.W '.#.G.*.:.h.h.p.}.:.N R h.}.w w 0 w [.=.w 7 ! y y R R N q s N %.}.%.g.G.s.g.s.N 4 }.#.f.h.%.}.u :.h.}.h.*.q ~+N.] , w ,.b ' + L [.#.T V N T 2.Z I G e z z Q G k k I [.h.t.t.t.g.:.N N #.N s >.|.r.h.T A z z Q Q z G Q Q I I G e d T N %.N 4 u :.N #.#.h.f.f.:.#.#.:.w %.$.$.I 5.~.(.k.(.I Q Q 7.",
"y.r -+&.G.z+V G.e+, e+/+! %+3.%.y.m.z F+E+E+E+F+A+E+E+E+P f + ,+E+C+w+w+w+q+q+q+c+q+5.& f B + E+F+F+F+F+F+F+F+F+6.- 5.~.0 w.7.d g.$.$.g.q+c & t.G 1 d ).$.9     @ }.i.' t.i.> g.c.! w.c., i.c.f j.4.A w.4.V j.].T N.2.A 5.~.A 7.j.k . @ . . . @ * * * * * * * * * * * * * * * * * * * * * * * * * . . * { { * . ;     . @+w+q+c+l+A 0 ~+C+w+m+m+/+w+'+s.s /+E+& l 2 6 6 * * 2 { ~ ; ; ; ~ ~ 2 2 2 2 2 { 2 2 { . j.w.v.- A+u+u+k+u+k+u+u+k+k+k+k+)+k+u+k+k+u+k+0+0+s+A+u+o+k+l+4.1 G+A+y+H O.y+x./ 9 6.k.k.I ).8.$.P 6.$.).).$.).Q 5.k.Q k.Q ).5.(.v.).} l.. * {.b.x.= z x G+G+B+b+O.v.P 9 / U {.{.* o+F+,+V $.).Q Q ).L ).).+.P $.P $.P k.).5.5.$.R.).5.R.& m F+b+F ~ <+y+s+s+u+u+u+u+u+u+u+u+u+u+u+u+u+u+u+u+u+u+y+u+u+y+y+u+k+0+k+l.e Q d i.d ! j.$+|.'.i.w f.f.'.].2.2.i.f.N g.g.s ~+t.1.! & . . v !.b b = f W ,.].4.4.j.O.V . F - - z ,.=.N 7 A t.++/+w.< f b d < ] 0 2.,.W Z j < I T [.#.g.G.q.<.9.=.=.1.2.6.v + . } t m } _ . 3 l 8 &   * { ; . . + ' v $.Z W ,.T '.:.p.q h.}.#.:.%.%.N N N }.u =.w w ,.T + + + < 7 R 9.#.f.%.N %.9.#.e.G.g.g.O |.%.#.:.:.N.N h.#.9.e.9.9.<.e.N.:.%.N 0 1.B } = ! T #.[.V =.'.2.Z I z e z e Q G G G A '.:.N N #.%.#.N q q N.:.#.N h.r.].(.Q z G Q z Q $.$.Q I Q e I T N N 4 =.%.p.}.}.%.}.#.:.N u N %.u :.Q I I 5.(.5.w.3.I I Z 7.",
"y.r m+&.$+z+A G.-+! e+++! %+&.%.P.].A E+E+E+E+F+E+E+C+E+P M ! b+~+'+@+@+N.M.P.P.++q+E . M ;.' E+F+F+F+F+F+F+F+F+).- k.~.j w.2.d g.$.!.|.q+c . N.$.I d ).).9 * .   t.O.1 g.2.| s.c.! w.c., i.c.f j.].A w.].].j.].T t.4.V 5.~.A 7.4.k   @ . . . @ * * * * * * * * * * * * * * * * * * * * * * * * * .   . * { 2 2 . *   . @+m+m+m+b+q+q+j < c+q+q+c+c+q+C+c+>.(.. D 2 6 6 { 2 6 * ; ; ; ; ~ ^ 2 6 { 2 2 { 2 6 2 * 3.O.v.' )+A+A+s+u+k+k+u+k+k+u+u+)+k+u+k+u+u+k+k+0+s+s+u+v+u+l+j.[ y+A+y+H '+y+k.{.{.6.Z 5.d $.{.P ).P 6.).G ).).Q 5.v.$.v.$.5.k.(.v.).} l.. * {.8.x.= k x G+G+B+b+O.v.+.9 / U {.{.* o+F+,+Z $.6.).).6.$.6.6.{.;.8.{.6.$.v.6.5.5.k.k.).5.5.. U F+b+F ~ <+y+s+s+u+u+u+u+u+u+u+u+u+u+u+u+u+u+u+u+u+y+u+k+u+y+A+A+f+f+F+$.' ! b ~.< 0 g.s.O w 2.w t.|.[.t.t.4.4.f.s }.f.j @+t.h.,.V = - $.!.< b ! f ,.,.V j.j.4.j.j . | . - 1 2.[.%.b W c+P./+4.+ ! < d 0 t.@+~+2.W A I < d w t.|.e.O O N }.1.7.7.z . & } } 9 9 9 m @ ; l 9 & & . @ @ . & } Q !.!.W ].T ].].'.T [.w }.%.u N u N u R w =.0 N w 1.W , & m P !.W ,.p.9.f.#.N 9.h.9.s.$+q *.|.$+}.4 :.%.$+#.9.#.<.q q :.%.%.p.N }.N.h.=.b } = ! '.f.t.4.=.'.2.Z d e e v e G G G G j '.%.#.%.}.h.p.p.h.}.9.%.[.#.<.:.w Z z e z G z Q $.$.I d Q 1 d w N N }.9.#.}.N q :.}.u :.%.N %.%.u #.I I I k.~.5.w.(.Z A Z (.",
"F.%.z+&.d+z+A %+-+! *+P.< G.^.=.M.S '.E+C+B+E+E+C+C+C+C+1 b < b+C+C+B+w+w+w+q+m+c+E+).| = B !.E+E+E+E+A+E+E+E+E+P + 5.~.0 i.,.d g.Q !.|.q+-.. t.).I d $.$.| * . * f.i.1 s.2.& s.c.7 w.c., i.c.B j.].V j.].].j.].'.t.].V 5.Z I 2.4.k   @ * . ; @ * * * * * * * * * * * * * * * * * * * * * * * * * * . . * * { 2 { @ . + @+w+w+-+m+B+q+w+~+< A l+w+m+~+/+w+q+'+( l 2 2 2 * { 6 2 ; ; ; ; ~ ~ ^ 3 { 2 2 { 2 6 6 { (.v.R.} . T.F+s+u+u+k+k+u+u+k+k+)+k+u+k+u+u+k+k+0+f+s+k+v+u+s+j.1 r+A+y+U b+G+x.& . 6.k.k.d k.{.P ).G 6.).G ).).Q ).k.Q k.Q ).5.(.v.).9 l.. ^ {.{.x.. 9 k G+G+B+'+O.k.L } / U {.{.  o+F+,+Z $.6.$.$.).G $.).+.+.$.L P G k.).5.5.Q v.).5.R.& 9 F+b+F ~ <+y+s+s+u+u+u+u+u+u+u+u+u+u+u+u+u+u+u+u+u+u+u+y+y+f+A+F+)+,+).' z e I ,.].S g.M.|.4.i.0 |.[.'.j.t.'.[.[.s :.t.].b+t.p.t.j.f f !.B , B f f ,.'.].u.j.4.j., 9 8.+.[ e W N f.< j @+P.c+b+< f B W < N.~+N.[.W I I d d w N.<.<.g.|.%.].Z 1 > . 6 8 8 8 m m } + @ * 9 - + .         +.$.,.,.,.,.'.'.[.'.'.W ,.y :.}.}.f.R R R 1.7 R u N w 2.< + & +.6.).j w :.%.N s %.9.#.#.*.<.O O s.|.}.t.%.'.s f.N.>.>.s >.#.#.:.}.N }.%.}.%.b ' . v '.:.T V u T ,.Z I G e e Q Q G k G j [.}.:.}.h.}.:.%.%.%.%.N #.q #.%.T Z z e z Q z G Q Q I d Q 1 d w %.#.=.=.h.}.N %.p.q q %.%.N :.N N %.Q I Z 5.Z 5.k.(.~.A ~.~.",
"-+9.z+&.d+z+A $+-+a %+y.f G.Y =.g.0 T C+B+B+C+C+B+m+z+B+A 7 , b+b+'+++P.P.P.y.y.'+b+(   f B d O.'+q+E+C+C+C+C+E+G + 5.~.j i.,.d g.L !.a.c+l.  t.$.I 1 Q $.& *   ^ M.j.1 s.i.> s.c.7 w.c., i.c.B j.].V j.].].j.].'.t.].].k.Z I 2.4.k   @ * . . @ * * * * * * * * * * * * * * * * * * * * * * * * . * * * * . . * { @   & ~+m+m+m+z+z+B+q+w+E+R.! s C+C+q+c+w+l+. 2 6 2 * . . . 2 ; ; ~ ~ ~ ~ ; ; { 2 2 { { 2 2 { G . & t . . l.F+y+y+u+k+k+k+k+u+<+k+u+k+u+u+u+u+0+f+s+k+v+u+A+w.1 r+A+y+U b+G+x.t m v.k.k.I 6.l.).L $.).$.).G 6.).5.v.).v.$.).k.Z v.).} 8.. * {.{.x.; 9 i G+G+B+b+O.v.P 9 / U {.{.  u+F+,+Z $.6.).).6.P ).).;.;.{.P $.P v.6.k.k.k.k.).5.k.. {.F+b+F ~ <+y+A+s+u+u+u+u+u+u+u+u+u+u+u+u+u+u+u+u+u+u+u+y+A+A+F+F+8.[ v $.[ d 0 j.[.g.s.M.|.].5.w g.f.'.f.f.'.f.f.s |.j.j O.'.:.f.>.b B $.7 , ;.B ! '.[.f.O.u.u.w.< L 6.).f b W T '.7 ].q+q+++c++ P b ,.]./+c+N.'.W $.B b y T h.O *.*.>.S A 1 = 9 c H l 9 9 9 } = +   . f y 7 ! .   * & 6.,.'.T ,.,.'.'.[.'.'.2.,.7 T N 0 w 0 0 0 R 7 7 R =.w I + } F P k 1 A w %.#.q q %.%.N 9.g.g.|.g.|.s [.[.'.t.w s s t.b+b+b+~+) N :.h.h.u N.#.b f + f 0 #.T V R '.2.Z I G e z z G G k Q j [.}.:.:.%.#.N #.N N 9.}.[.|.$+N.i.A z e z Q Q Q Q Q Q I $.z d ,.:.N =.#.h.:.%.:.N.#.4 q u %.:.#.%.%.$.Q Z (.~.k.k.5.5.V 5.~.",
"-+r.z+&.w+z+k ++F.a %+m.a t. .W 5.z y ~+m+m+B+w+m+m+z+B+1 1 b E+E+E+E+E+E+C+C+C+C+E+-.& } 7 < w+P.y.B+C+B+B+B+B+G + 5.~.A i.,.I 4.L !.a.++x.. i.).I d $.).> ^ .   M.j.' g.i.9 s.c.7 w.c.! i.c.B j.].V j.].].j.V [.t.].].k.Z W ,.4.k   @ * . . @ * * * * * * * * * * * * * * * * * * * * * * * * . * * * * .     . l 6 . @+w+/+w+w+c+/+q+/+c+C+~+u.< j q+w+c+b+& 2 l 2 { 2 . . * ; ; ; ~ ~ ~ ; ; { 2 2 * * 2 2 2 . 8 l . . . . ^ )+u+y+u+k+u+u+u+k+0+k+u+k+k+u+u+0+f+s+u+o+u+A+j.1 r+s+u+t b+G+k.. & 6.(.w.Q P 8.).G ).).$.6.e ).Q ).k.Q k.Q ).k.(.v.).= 8.. * {.8.x.@ 3 i G+G+B+b+O.v.L 9 / U {.8.  y+F+,+~.$.).$.).6.G P $.+.;.$.P P G k.).5.5.).v.).5.v.. 9 F+b+F ~ <+y+A+s+u+u+u+u+u+u+u+u+u+u+u+u+u+u+u+u+u+y+y+u+A+A+A+R.F ' n . e $.4.f.g.|.g.s.g.j 5.j |.f.[.f.f.[.f.f.N G.M.j O.[.h.t.|.7 W W ! , !.y ! '.[.f.@+u.u.O.j W W Q e , ,.].T d A ~+c+++~+, P 7 2.t.s.++++[.,.Q < 7 y [.p.<.q.|.|.[.2.B , } / 9 } } } 9 9 - . . = ,.}.=.y ' . ^ + 7.T %.'.2.!.[.[.[.'.'.,.T 0 [.T 0 w w R R w W y 0 4 w I + l k 1 ' A j.T u r :.#.#.r ) :.<.<.M.g.s |.N.'.f.[.T t.j.w < [.N.j.t.~+f.T #.w [.[.< f = , w f.N.i.}.[.2.Z I Q z v z z Q k Q < T #.#.#.N N %.:.%.N #.:.N q #.N 4.Z z 1 e Q Q Q $.$.d d Q e < 2.}.N N $ #.p.p.N N :.N #.N p.:.%.#.#.Z Q I ~.5.w.k.5.5.V 5.(.",
"-+N.z+&.w+z+[ M.c./ s.^./ f.C 7 6 5 = W u.F.c+w+w+B+B+'+& M . 9 > & + , ! [ [ [ d > . & ' 7 < q+q+c.q+B+q+B+B+B+G + 5.V 0 i.W I 4.G !.a.++)+. W $.I 1 G $.. ^     M.j.1 s.2.& s.c.7 w.c.! i.c.B j.].].j.].4.j.V [.t.].3.k.I W ,.4.k   @ * . . @ * * * * * * * * * * * * * * * * * * * * * * * * * * . . . * * * ^   * . O.w+c+b+d+w+w+/+m+m+-+z+w+~+'+< *.c+w++ 6 6 * 6 b.` * * . . ; ~ ^ ^ ~ ~ * { { * * 2 6 6 3 * 6 @ _ * *   8 T.u+y+y+u+k+k+k+0+k+u+k+k+u+u+0+f+s+u+o+u+A+4.1 r+A+y+U q+G+x.8.m v.k.5.$.).8.).P P 6.$.).G $.Q ).k.$.v.$.5.v.(.R.).= 8.. ^ {.{.x.@ * ( G+G+B+b+O.k.v } / U {.8.  y+F+,+~.$.).).5.k.P $.$.+.;.$.P ).P k.6.5.k.5.v.).5.v.& U F+b+F ~ <+y+A+s+u+u+u+u+u+u+u+u+u+u+u+u+u+u+u+u+u+v+y+u+y+s+{.> [ M . m ' < [.g.a.s.M.M.|.+ 5.A s.'.'.f.f.:.[.f.T a.g.j @+[.}.t.4.0 W B ! , ;.b ! [.T >.O.u.3.w.A T i.,.< ! W A V B A c+++++>.+ e 7 i.~+s.++q+[.w z < b y =.}.<.q.q.e.#.u ] ! f a e e f n 9 } = & . f 1.9.#.R f . = + 2.'.:.'.1.!.4.].].[.[.'.T [.N [.[.1.R R 0 0 , y R R T d } 8 A 3.'+q+w+'.u =.%.%.}.N ) 9.s.G.g.>.$+c+t.'.N.[.}.4 u =.] u R =.[.'.@+~+'.f.T T B } + ! '.:.'.0 N T ,.Z Q Q e e Q z G k G < '.%.}.}.}.%.N u u u q :.s q %.N 2.(.z e e Q Q Q Q Q I I Q z < i.t.:.u R :.q N }.:.p.#.#.4 p.q %.N #.I Q I ~.k.w.(.V 5.V 5.(.",
"'+-+C+V z+++( !.$.[ {.P [ P [ [ 3 . . | G ^.u.P.O./+++>.- = + ! . [ [ - [ > 1 9 b [ ' n G j A q+b+P./+c+/+q+w+w+f = 5.I I 2.!.B m.j 2.,.~+'+. h Z j V V 5.> & . . N.3.[ g.7.& g.2.j w.i.< i.~.A j.].].i.W !.i.z '.t.s w.j.Z Q !.5.| @ @ . & . @ . . . . * * * * * * * * * . . . . . * * * * . . * * * * * * * * @   _ . I '.w+b+q+c+c+w+q+q+q+b+/+++d+w+P.x  .* l 2 2 6 l.l.8.& ^ * 6 * * * 3 ^ 2 { * * * * * * { 2 { * { 2 2 * . ; A.)+0+0+0+u+y+)+u+k+u+u+k+u+0+f+s+u+k+s+A+u.j 0+A+x+H l+G+k.; . k.w.7.;.).6.).6.).).$.6.).$.$.6.k.$.k.Q $.6.Z k.).^ U   * 8.l.x.@ ^ ( G+G+B+b+O.v.n m ^ U {.{.  y+G+,+~.Q {.$.P 6.L ).).).$.).).).G k.$.).).!.k.!.!.v.. 3 G+b+L 2 <+y+s+s+u+s+s+s+s+s+s+s+s+s+A+s+s+A+s+s+A+u+y+y+s+A+).0 f.1.7 W + T f.r.$+'.f.[.s.N.>.0 [.|.|.N.~+[.t.'.w |.f.w @+4.j.t.|.w B / + , ,.< ! '.[.'.].4.O.O.m.' + 9 [ [ W T w j ].c+c+/+@++ m $ t.c+>.c+c+1.y d e [ b :.e.q h.p.[.I 1 | 9 f f f 5 6 = f B f / = L :.<.<.[.! . @ = 3.4.[.1.2.4.2.,.,.,.W y 7 y q h.p.h.=.[.w ] R w W R R 1.- x.m+B+B+C+C+y.N r u R }.u q h.:.t.:.$+N.:.T u 0 w f.q N f.f.[.'.w q :.N.'.u #.}.|.w 1 . [ 2.N }.0 N w 2.Z $.G k k v I Z I 9 n ,.p.%.:.%.q N N u 4 r R T f.N.r =.~.$.e z Q Q Q $.G e G z e B ,.}.N N q %.<.$+G.G.q.#.%.N %.u N %.N W W ~.,.O.O.A ].j.].j.V ",
"'+-+E+V m+P.& B m . M 9 & m & & 3 . ; 9 G 5.O.'+b+c+m+P.l+l+A+l+A+l+A+l+,+k G G I z e k I d j ~+q+'+b+b+@+/+c+c+f ' 5.I I 2.W B 3.A ,.1.t.l+. @ I Z 5.k.l+l+T.* . N.3.[ g.7.& g.2.j w.i.< i.~.V j.V ].i.I !.7.z '.t.w w.j.I Q !.5.| @ @ . & . @ . . . . . * * * * * * * * * . . * * * * * * . . * * * * * * * * & . * . q+~+, @+w+w+C+c+c+w+c+c+c+d+d+w+w+b+,+. * { 6 l l.l.T.8.6 .   * D D 8 { { * * * * * * * 6 l l 2 { { 2 { . ~ . )+T.u+k+<+)+)+0+0+<+0+u+k+0+)+s+k+k+s+A+u.x 0+A+x+H l+G+x.@ . w.w.7.;.6.6.$.$.P G P P P G Q 6.6.$.k.).6.v.~.v.6.9 {.  * {.8.k.@ * ( G+G+B+b+O.k.n 9 ^ U {.{.  y+G+,+~.Q 8.).$.6.$.6.).6.).).).).Q R.5.v.v.5.v.7.5.R.& l G+b+L 2 <+y+s+s+u+s+s+s+s+s+s+s+s+s+s+s+s+s+A+s+A+y+y+u+F+)+e V 4.i.A A j ].f.e.$+'.[.[.g.N.[.w [.f.:.t.N.'.f.'.'.>.'.0 N.4.[.f.>.w B , , < 1.< f '.'.T ].V 4.(.V [ - [ = [ !.,.T ! 4.q+c+q+~++ L 0 t.C+m+m+|.N.u < 1 L ! %.*.:.p.:.T d [ 9 m f f f / @ . f W f = = B [.e.e.f.f / @ = 3.4.[.1.2.4.,.,.,.W A w =.h.}.}.%.}.h.'.'.=.R T ,.,.=.f.Z E+z+B+C+C+C+c.q r R N R %.N :.N g.N.N q 4 u N N N.N.}.h.:.N u w 0 N }.t.f.w #.:.}.w [ + f i.t.N.f.p.[.2.Z ).$.G 1 f I Z Q n [ y %.#.:.#.N :.}.}.}.R R T s r.r [.V $.e z Q Q Q Q G G Q Q e B ,.}.N u #.:.}.h.e.e.e.#.}.N N u N #.#.W A ~.].O.@+A ].w.4.w.].",
"'+m+E+A e+y.  , ^ . 8 ^ . 3 & & ; . . ; | k 3.w.'+++/+j.E+F+F+A+E+E+E+E+E+d (.2.i.k.5.5.5.3.V '+'+'+'+'+@+O.@+c+f ' 5.I I 2.W B ^.A ,.'.4.l+9   Q I Z d I F l   . N.3.[ g.7.^ g.2.j w.2.< i.~.V j.V ].2.I !.!.b '.j.w O.j.j Q !.5.| @ @ . & . @     . . . . . . * * * * * * * * * * * * * * . . * * * * * * * * . 3   . '+C+C+m.S ~+w+w+m+c+w+m+m+w+w+d+w+C+b++ 2 * . ; 8.x.l.H A.U l   . . 3 8 D D D D D D D ` 6 2 * * 2 l 6 { ; . 3 G+u+T.)+y+G+0+0+k+k+u+<+0+)+)+f+f+k+s+A+O.x <+A+x+H C+G+R.@ . w.k.!.;.).).6.6.6.$.6.).6.$.).k.k.$.k.Q $.6.~.v.6.9 {.. * 8.8.k.@ * ( G+G+B+b+O.k.n 9 ^ U {.8.  y+G+,+~.$.8.P L 6.G ).$.$.P $.$.$.k k.Q ).).!.k.!.!.v.. 8 G+b+v { <+y+s+s+u+s+s+s+s+s+s+s+s+s+f+A+s+s+A+s+s+F+s+F+s+f B ~.j j.].A V ].[.<.q.] T >.g.N.>.0 [.|.%.t.~+'.f.'.'.M.t.T @+j.'.f.|.w b = f 7 ,.< f f.[.V j.].V (.V 6.6.).[ b 2.T T 2.4.q+c+s.@+= 9 j ~+c+B+m+++g.#.d e [ Q f.G.:.0 w 7 1 } m m a / = .   . f W f = . f =.<.s.=.+ . @ - 5.j.1.1.2.4.,.W I I W T w w %.}.p.}.}.'.=.R u R T R r R 1 E+z+B+C+C+C+c.s =.=.u u %.N #.}.p.@+'.N :.p.N.<.q #.N :.q %.}.p.t.q u =.t.w 0 N :.T ' = f '.f.%.T N w W I $.Q G k v I Z I 9 9 W }.#.}.%.:.}.}.9.#.r =.[.4 :.#.[.].Q e z Q Q Q Q z Q Q G e b ,.}.#.w :.#.:.N :.N #.u h.N 4 u #.u N ,.A ].V O.@+A ].j.4.O.j.",
"O.m+E+Z m+u.  = {   8 { . 3 * { 2 . ; ; & [ Z 2.P.++/+j.F+F+F+E+E+C+C+E+E+j w.O.w.w.m.w.O.O.3.'+w.O.O.O.O.u.O.c+f ' 7.I I 2.B B 3.d 2.'.@+C+x.. ;.G $.Z G . . @ + M.3.1 g.7.^ g.2.j w.2.b i.~.V j.V ~.2.d !.!.e ,.2.j O.i.d Q !.5.| @ @ . & . @         . . . . * * * * * * * * * * * * * * * . * * * * * * * * | ^   . R.~+b+l+,+I v.l+~+~+~+c+~+~+~+@+~+'+R.= * 6 2 ; . 3 U U l.x.T.H . . ; ; { { { * * * * 2 { * .   { D l 2 ~ . T.u+y+u+k+A.)+u+<+y+k+0+y+k+k+f+f+f+k+k+s+w.1 T.s+o+t q+G+R.@ . w.w.7.;.).6.$.$.$.G P G P L z 6.6.$.k.).).v.~.v.).^ U   { 8.l.x.@ * > G+G+B+b+O.k.n 9 ^ U {.{.  y+G+,+Z Q 8.$.P 6.G ).$.$.P P P $.Q R.5.k.k.5.v.7.5.v.. l G+b+v { <+y+s+s+u+s+s+s+s+s+s+s+s+s+s+s+A+s+s+A+s+s+A+f+;.$ 1.V j 4.j.].4.4.|.g.e.[.'.s >.N.j.T f.f.:.f.N.T [.'.[.g.[.0 t.].T [.|.A ! + f 7 ,.! m 4.].T j.V V 4.].Q ).$.+ e 2.'.'.A @+@+< s b+[ f + b+P./+B+-+g.<.! e [ W #.p.f.W d b f 9 3 / + . . . @ . [ W f / . , T e.$+[.- / ; - k.j.1.1.,.].y W W I A w '.[.N.h.#.%.=.0 R 0 u T w R =.h.A E+z+B+B+B+C+y.N R :.=.%.:.#.:.N.p.f.f.s :.:.o <.*.#.:.r.9.N.h.%.4 #.R R 1.y w }.h.T ' = ' T :.#.w N R 2.~.$.G k k P Q Z I [ n ,.p.h.p.#.N N 4 #.u r %.[.#.#.9.'.V Q e z $.Q Q Q z G G z e B ,.}.#.N }.w %.u }.u u u :.N u N %.N N ,.V ].A j.@+].4.j.4.O.w.",
"O.m+E+(.m+m.@ / { * 6 * * 2 * * 2 ; * { ^ 9 $.7.y.P.++4.F+F+F+E+B+B+q+q+b+j w.j.j.m.4.4.O.O.].u.m.w.w.w.w.j.j.@+f ' !.d Z 2.I B 3.< 2.j.E+C+l+l = - $.5.Q > ;   + M.3.k g.7.^ g.2.j i.2.b i.~.V i.V ~.2.d $.$.e W ~.j w.w.< Q $.k.| @ @ . & . @           . . . . . . * * * * * * * * * * * * . * * * * * * * * #   h   f !.v +.H b.; . M L G z $.v t M $. .U   . * { ` l.l.U . 3 8.T.{.& . ^ 3 2 { { * * . * 2 * { 2 { * * 6 l 6 . k+G+k+u+k+y+)+T.)+u+u+u+0+u+o+f+f+s+u+u+A+x.E (+A+u+t B+G+x.6 & k.w.7.;.P ).).6.6.).$.).).6.Q 6.k.6.k.$.$.k.~.v.).& U . * {.8.k.@ * ( G+G+B+b+O.k.n 9 ^ U {.{.  y+G+R.Z Q {.).$.6.P ).).).$.P $.$.G v.$.5.).!.k.!.!.v.. 3 G+b+v { <+y+s+s+u+s+s+s+s+s+s+s+s+s+A+f+A+s+s+F+f+)+s+L , ,.W A x >.j.4.].4.>.g.<.[.[.>.g.@+f.u '.f.:.[.N.s f.'.'.g.f.T @+4.[.t.s.A ! = W w [.< m 4.].V j.V V j.V I 5.).- I 2.T %.V 4.j.0 b+q++ ' d '+m.c+c+>.g.s.I $.7.,.[.:.].' f n 9 / ; . . . .   @ . f W b } ~ , w |.d+t., . @ - 5.4.[.,.W V y W W V V V [.t.N }.4 h.h.R t.0 #.=.T N =.h.j C+z+B+q+B+C+P.q r %.}.:.:.%.%.}.u w [.u #.<.O <.<.}.:.9.u h.}.R R =.,.,.y 7 y t.1.w [ = = 4.f.@+t.h.[.2.Z ).Q k 1 L Q Z Q n n W }.%.:.q q q 4 u 4 h.}.j.t.N.N.[.V Q e G $.Q Q Q G Q G z z B ,.=.N #.}.u }.N f.N N u u N #.N :.#.N ].V ].V j.@+j.O.j.4.O.w.",
"u.m+C+(.m+3.@ / ^ { 3 * * ^ * * *     * & [ Q ~.u.P.N.i.F+F+E+C+m+m+/+c+'+S @+w.i.j.4.4.u.O.V m.m.w.m.w.w.m.u.@+f [ !.d Z 2.I W 3.< ,.t.E+C+l+K . = {.6.[ . . ; + s.3.k g.7.^ g.~.j i.2.j i.V Z i.A ~.!.1 Q L [ Q $.< i.w.< Q $.k.|   @ . & . @         . . . . . . . . . . * * * * * * * * * * * * * * * * * * # # # # ;.+.{.` ` h b./.6 6 8 U U D ` ` U @.D @ { * * l l.T.l.H U m t & 9 t m & 6 2 2 { * * { 6 * { 2 { * * { 6 ; . )+y+u+y+y+u+u+k+A.<+u+k+u+k+a+f+f+s+u+y+F+k.G (+E+y+U C+G+x.h & k.O.7.;.v $.G $.P $.k L G P e ).6.).6.).).v.~.v.).| {.. * 8.8.k.@ * ( G+G+B+b+O.k.n 9 ^ U {.{.  y+G+,+Z z {.$.P 6.P ).$.).$.L P $.Q R.5.k.k.5.v.7.5.v.. 8 G+b+v { <+y+s+s+u+s+s+s+s+s+s+s+s+s+A+f+A+A+s+A+f+l+6.' ! < W 4.A |.t.j.4.j.'.p.p.f.f.>.>.g.>.u t.:.:.[.@+'.j.'.w |.j.T ~+4.4.j.g.d [ , !.0 [.< 9 ].].].w.4.4.j.V + d z + d 2.'.:.T ].@+V '+k.+ e 1 I m.'+@+b+t.N.W B B 0 [.N.i.[ & = = .   .   . & @   . f !.b = . f 1.|.g.0 + 2 @ - 5.4.'.,.T V W W W V ].4.[.[.}.p.h.%.] '.'.w u N T u :.h.].E+z+B+B+C+C+P.4 r :.#.N #.:.#.=.4 N f.t.%.N %.h.d+N T [.'.i.,.w y W I Q B B < W W T e = + ].}.t.'.N R ,.Z $.G k k P Q Z Q n n y #.N :.:.h.p.}.=.N 9.w [.|.p.9.'.A Q e G $.Q G Q G Q G z z B W N 4 %.}.%.}.:.h.%.:.u 4 u N u %.%.%.4.].].4.w.u.j.'+j.4.w.4.",
"m.m+C+E -+&.@ = ; ^ 3 & & ^ ; & ^ & * ^ | 9 $.5.O.O.N.2.F+E+C+B+m+c+/+c+@+x O.m.i.j.4.4.t.O.V k.3.m.m.u.u.u.O.'+f [ !.d Z 2.I W 3.< 2.4.w+B+l+K . . M 6.n . . ; = s.3.k g.7.3 g.~.j i.~.j 2.V ~.i.A Z $.' P v ' z $.! 5.w.b Q $.k.|   @ . & . @ . . . . . . . . . . . . . . . . . . . * * * * * * * * * * * * * + @ @   M {.{./.{.{.` ` D l ` 6 U ` /.` U U H ; * * * 6 l.x.x.U t {.l.U | & | | 2 { { { { * * 2 { * * { { { { * ^ . k+y+y+u+y+k+0+y+u+A.T.k+u+u+v+f+l+s+k+t+A+C + Q.A+u+F C+G+x.~ . k.O.i.6.).6.).6.6.6.).).).).Q 6.6.).6.$.Q 6.Z k.).9 {.* ^ 8.l.x.@ * > G+G+B+b+O.k.9 9 & U {.{.  y+G+,+Z Q {.).$.6.P ).).).$.).$.).G v.$.5.5.!.k.!.!.k.. ^ G+b+v 2 <+y+s+s+u+s+s+s+s+s+s+s+s+s+s+s+s+A+A+f+)+l+d 5.z + R.t.:.#.[.].V A T }.h.f.f.>.g.@+t.N '.f.|.[.$+N f.[.'.>.j.w ~+].j.t.s.< [ ! !.4 f.d | A V ].j.j.j.4.V Z ).!.! B 2.T %.T 4.4.m.C+,++ z e [ R.Z ,+,+I , ! f B ,.%.t.d . & . .         . * @     f ~.b = @ } w %.}.,.' @ @ - 3.4.'.,.W V T ].].].].].f.t.%.) :.=.=.t.R R %.u '.u N N j q+z+B+C+C+C+++q =.:.%.#.#.}.=.}.9.%.u =.}.}.R R ~+W W ~.W Q Q z !.Q z P +.+.' + z ,.e = + T }.%.0 N R 2.~.$.k k k P Z I I n n W %.#.#.#.:.}.#.u u %.N >.>.<.<.[.].G e G $.G G Q G Q G e e b w N u <.<.<.<.}.:.%.%.u u u u u =.N %.j.4.].j.u.4.m.O.4.4.w.].",
"3.m+w+1 F.x * ; . & & & & ^ & & > . & ( | n ).w.'+@+~+j.E+E+C+B+m+/+c+m+~+A O.O.i.i.4.f.N.O.~.v.m.u.m.u.u.c.P.++f 1 !.d Z ~.B W 3., i.w c+C+l+-.. . +.8.- . . @ = s.3.k g.7.3 |.~.j i.~.j 2.V ~.k.j ~.$.' P v ' e $.' (.w.d I $.k.|   @ . & . @ . . . . . . . . . . . .         . . . . * * * * * * * * * * * * + . @   P ).U /.+.+.+.U {.{.H U F 3 H H {.$.L = 2 * { ; 8.l.l.U 8.l.x.U M {.{.> { * * 2 { * * { { 2 6 6 { * * { ~ . )+)+T.T.)+u+y+u+u+u+u+T.)+u+v+f+f+s+k+v+G+c . Q.E+y+F C+G+x.@ & w.O.!.;.v G ).).).P $.L P G Q 6.).).6.6.).v.Z k.).& U . * 8.8.8.  * ( G+G+B+'+O.k.[ } ; U {.{.  y+G+,+Z Q 8.P G ).G $.P $.L L P P G v.).k.k.5.v.7.5.v.. 8 G+b+v 2 <+y+s+s+u+s+s+s+s+s+s+s+s+s+s+A+s+A+A+T.A.W W ).Q Z b+}.r.%.N.2.V < 2.}.}.[.t.t.s.s.S 0 f.|.:.>.~+'.[.'.'.g.N.w @+T j.j.g.< e e ,.4 f.d | V V 4.w.j.j.4.4.~.!.$.- d 2.'.:.w 4.j 1 + k.1 Q e z [ + = = B f y B 7.w :.f.z ^ * .       @         @   f W b ' @ f ,.}.%.W = @ @ = 3.].'.,.W V ].].].4.4.4.R ] N :.}.h.}.N 1.0 %.4 T u %.N j q+z+B+C+C+C+++q =.q %.}.#.%.u u =.N %.h.h.w ] 7 y Z Z Q G G $.P P Q ).P | > n + z 2.1 = + ].~+N.N.h.'.2.Z $.Q G G L I I Q F L W #.#.N %.:.}.%.u u 9.f.>.|.*.p.f.V G e G $.G z Q G Q G z z b y =.9.e.<.<.*.e.%.#.q u %.#.u #.h.N %.4.w.].4.u.j.O.O.j.j.O.V ",
"< O.,+k x.c * * . * { ^ ^ * *   ; . . * ~ 9 +.k.O.O.O.3.b+q+b+'+@+~+@+~+O.V ].2.~.2.~.~.2.~.2.,+P.P.P.P.P./+/+/+E k (.j Z 5.d ~.6., Z j '+O.k.(.  . [ ).g     / ! O.i.j i.i.! i.Z j w.Z A m.j (.t.< V W < Q f ' b W = !.i.b I Z x.[ . . . @ . * . . . . . . . . . . . . . . .       . . . . . . . . . . . . . . *   * . H {.{.` ` ` ` ` ` ` ` ` ` H H 6 l H l 2 6 * * l U {.U 8.8.x.R.{.- M +.' 2 2 l { * { { 6 * { .   2 2 * { . . 0+G+A+s+f+R.A.l.T.A.s+A+)+A.f+f+f+s+s+A+A+U @ A.F+f+G A+E+x.  . w.w.!.P 6.v.w.w.w.R.,+v.).).,+R.7.v.v.R.7.i.Q k.{.^ /.  { b.b.8.. . ; G+E+q+'+v.6.} / ; U U 8.  y+G+R.Z Q {.B $.).P {.{.+.;.-.U U +.8.6.6.5.$.i.~.$.x.. e E+f+F & f+G+u+y+y+y+y+A+s+A+y+v+y+u+y+s+s+)+9 . [ ].V 5.d i.A j.t.>.j.0 j.N.[.S >.%.|.g.|.N.[.s ].[.[.[.@+T f.'.[.:.t.0 N.@+t.N.}.< b V ].R R < n Q Q 2.O.t.j.4.4.Y 1.,.( C t.N V T 4.W , u.w.+ ;.;.f = . f f f b , [ 1 ].N '.$.1 k k k 9 } & . . @   & + ' $.t - ; } ,.N %.y & * * - '.'.].2.4.[.[.4.V ].4.'.'.=.'.N q g.g.t.[.u '.=.R 4 u 1.V l+B+C+C+C+B+%+q R #.#.=.=.1.w V V Z d d z z e k P } } } } } } } } .       . P Z V R ! = - 2.N.[.T #.u 2.W e z $.I I I Q z B W w R :.%.#.:.h.N q }.%.f.>.s #.#.w V G e G Q Q G e z e G z e b W }.h.h.:.:.O g.h.N ) q }.:.#.q #.#.N ].4.4.4.j.u.u.O.w.j.O.V ",
"- Z G . P |   * . . .     . * ^ ; . . * . . - e Z I I ! < < + j < j d I I 1 I Q Q Q G G Q 1 - k j j j j j A A A k k Q e z !.b $.6.! 2.4.O.O.5.,+@ . k F ^ @   ; < i.7.d i.7.b 7.~.d i.Z I i.I ~.k.d $.P } t ^ . } M = +.6.e k $.6.> . . . @ . * * * * * * * . . . . . . . . . .       . . . . . * * * * * * * * .   *   H {.` ` {.` ` H H H H H ` ` H H H H l 2 l * . l l.x.U & {.x.,+8.& + } + * * 6 2 6 l 2 2 * { * * 6 6 { * .   )+u+s+A+s+A+s+s+A+)+A.T.T.)+T.A.)+s+s+A+F+U   A.F+s+$.A+E+x._ - i.w.!.$.$.).I Z ).I k 6.k.L e 5.!.!.k.!.e k.!.v.8.& /.  { b.b.8.& ; ; G+E+q+'+R.k.9 5 = U {.{.  y+G+R.I Q {.W P $.$.$.L v L G k G P 7.6.5.k.6.v.~.).l.& $.b+,+).[ A+F+F+F+s+F+A+F+A+A+A+u+G+F+A+A+F+F+x.v.- V ~.w.I ~.0 '.'.>.f.0 '.t.[.f.@+s.s.g.|.N.'.s t.[.T f.t.N t.T T N.'.t.b+4.S f.}.7 Q ~.].R =.b [ e I ~.j.f.4.4.4.3.1.,.& i =.%.].4.4.4.4.C+m.+ . ' = 9 9 t } = = + L I j N [.$.1 [ k k n n n 9 9 * . v z B $.f } . ' 1.}.h.W & . * ' [.'.].2.4.[.j.].4.4.].T 0 R [.>.f.g.s.#.>.u w N R 4 0 ,.V C+w+w+C+C+B+/+q R N }.p.f.,.< I Z G G G L n } } t ^ & & & & . . . .       . P Z V R ! = + W [.T T %.N 2.W e e Q I Z Q $.Q B y w =.%.}.h.:.}.N #.h.#.}.>.s %.#.T A Q z Q Q Q G e e z G z e b W =.9.h.g.g.%.g.h.=.4 4 :.:.}.#.N N u 4.4.4.j.w.u.u.O.w.w.O.].",
"9 n > & | & . .   * ^ ^ * * * * . . . . & - 1 d e z ' I I b < < ' 1 ' ' [ 1 k k 1 ' - [ 1 [ - [ f } } f f f f f [ 1 e 1 b b b b $.- V j O.O.5.x.@ & Q 1 | * @ . b !.Q b $.Q b $.B < $.B b $.b B G [ n 9 ^ 3 2 ; | m & 9 P [ [ P P & . . @ @ . * * * * * * * * * . . . . . . . .         . . . . * * * * * * * * .   * . H {.{.` ` ` ` ` ` ` H H H ` ` ` ` ` H ^ 6 D D H {.8.{.8 U x.x.8.m m {.} l 6 D 6 6 6 *   . * * * 6 6 { * * l y+T.s+s+s+s+s+f+s+f+f+s+f+f+)+A.U 8.)+s+s+{.@ A.F+s+Q A+F+R.  & i.O.5.8.).6.G $.).Q 1 v P n e ).).P ).P P k.!.k.{.& /.  2 b.b.8.& ; ; G+E+q+,+R.k.9 5 / U {.{.  G+G+R.Z Q {.$.z $.$.$.A (.Z V V V V ~.I I Q P !.Z 5.l.& z V ].+ V ].Z d ' e 1 - d < d [ $.l.5.5.5.5.~.i.2.2.~.~.i.Z Z ,.[.'.[.j.j.t.~+'.>.j.g.g.>.N t.f.s T f.'.T f.'.'.[.'.q N.N.s T j.f.h.y ~.].V N =.b & ' I ~.j.f.j.4.4.^.f.W   C ] #.4.S 0 O.u.C+u.+ / ' } = = = ; . ; f !.1 < f.f.Q k [ k k n n F t 9 & & ).2.W B f } 2 = W N %.y & { * ' 4.[.4.2.4.[.t.T 4.].V T R N.t.t.N g.s.O f.4 T N r 4 u [.V b+w+w+C+C+B+%+q w #.#.w 7 B P ).P 9 9 m 9 & .   .         . . . . .       . P Z V ,., . . Z f.[.j.N.[.2.d z Q $.d I d G Q B W R }.:.:.}.:.%.) 4 :.q %.|.%.$+N.j.A Q z Q $.Q Q e z G G z e B W =.%.N :.|.O %.:.N 4 N h.}.N ) #.}.:.4.4.4.j.w.w.u.O.O.u.w.4.",
"l 3 & ^ . & 9 m 3 3 ^ ; . ; ^ 3 / 3 ^ & } P 2.i.w.k.5.(.(.(.].V ].].V A A I I 1 d 1 d d 1 1 d d b < < b b b b b ! < d d < < d b ' 1 ! V b+Z . 9   . ~.' >     . 1 d 1 - 1 1 ' 1 < ! < < ! b < < ' 1 [ - & & & . . & & + 1 < ! A c . . ;   @ ; * * * * * * * * * * * . . . . . .               . . . . . . . . . *   * . l ` {.{.` ` ` ` ` ` ` H H ` ` ` ` ` l ~ * 2 2 2 {.{.8.& U {.F {.U m U } l 2 6 { { 2 * { * * * * 2 6 2 { 3 . k+y+T.A+s+s+s+s+s+s+)+s+A+f+A+f+s+f+A.l.)+U   ` f+,+G A+F+k.@ } i.@+$.$.n z Q $.G n F & . U $.).$.L P $.P ).I 6.+.& /.  { b.b.8.& ; ; G+E+C+,+R.k.9 5 / U {.{.  G+G+R.I Q {.7.$.$.G Z m.q+q+c+c+c+@+@+2.!.6.$.7.W ).8.. e 0 |.g.#.t.S T ].V 4.T [.T '.w ,.i.= ! , ! j.V 4.0 2.Z i.Q I 4.'.>.[.j.N.f.@+S S f.w+N.>.|.@+[.0 f.'.f.'.@+f.'.f.T h.t.T ].j.[.[.h.7 W V V R 1.f & + Q 2.t.f.u.4.].x t.y   ,+y r ].|.0 ].c.B+q++ M . - . & & .   @ , P j < [.w d k k G G 9 9 n m } & - ~.4.0 j ! , ~ = W }.h.y . * * ' 4.[.4.2.4.[.[.T ].].V T N h.:.:.<.e.s.h.}.N s #.=.R u T V b+B+C+C+C+w+%+q R #.}.,.B v t F & . .                     @ @ @ @ .       . L V A R , = [ 2.[.s w s w 2.B Q z Q I (.I z Q Q W w R }.#.q %.}.h.p.$+$+N.g.0 #.%.'.A G G $.$.$.Q z G e G Q z B W R %.q #.|.O :.%.%.=.N h.h.%.u %.%.q 4.4.4.j.w.u.u.u.@+O.j.j.",
"/.` /.{.H m t 9 U U {.8.8.8.{.U U U U M {.R.b+w+C+q+C+q+w+C+q+w+w+w+w+w+w+w+w+w+q+q+w+w+q+q+w+q+c+c+c+c+c+c+/+/+q+w+w+C+w+q+w+w+C+C+q+C+' 1 m . . [ O.V Q   @ @ C+C+C+C+C+C+C+C+w+q+q+q+q+q+w+q+~+b+@+O.w.i.k.6.w.'+b+b+w+w+c+w+8   * @   @ * * * * * * * * * * * * * * * . . . . . . . .       . . . . . . . . *   * . 2 l H ` ` ` ` ` H H H H H H H H ` ` l ~ 6 2 { 6 {.l.l.H & U F 9 | 9 +.^ l 2 6 * * { { 6 { * * * * 2 6 2 3 * {.y+s+T.f+A+s+s+s+s+)+f+s+s+f+s+f+f+A+s+)+H @ b.F+f+k ,+l+G   = 2.O.$.8.P ).).k.6.$.).P t {.v R.6.).6.6.L k.$.k.{.& /.  * /.b.{.& ; ; G+E+q+'+R.k.9 5 / U {.{.. G+G+R.I z {.f n ).$.(.u.q+/+%+/+d+%+~+4.!.6.).v.~.5.l.. e A M.s.|.s.>.N.|.|.t.}.p.:.|.[.t.N.A 4.4.N.T w '.0 I d i.!.Z ].f.t.'.f.@+S N.S >.[.:.|.S s [.[.s 4.[.[.t.@+>.j.[.S }.t.f.f.T j.f.#.7 A V ].=.1.f & + !.,.w.4.O.].].Y f.<   E+i.%.].g.f.T u.C+b+= f [ P [ + . .   @ f !.Z j [.f.!.> 1 k k 9 9 F m } + ' 2.4.< I f , ~ ' W :.}.7 . { * ' j.f.4.2.4.'.T T V V V T R =.p.p.|.O s.#.p.N s N =.R R T V b+B+w+C+C+B+d+N =.e.t.,.e . . ^ . .         @ @ @ @ @ @ @         .   @   . P V A =., / - W T s T q 0 2.I Q z $.I (.I z $.Q ,.w =.:.h.}.p.p.N.:.q o :.|.O %.9.[.V G G $.$.$.Q z G e G Q Q B y R %.=.:.}.|.g.:.:.}.N u u %.q N %.%.j.j.j.j.w.u.j.u.O.u.4.j.",
"U U 8.8.8.8.l.{.8.{.U U U {.{.8.{.{.{.+.).v.@+~+q+C+c+C+w+q+q+B+m+m+w+w+w+w+w+C+w+c+c+m+c+w+w+w+m+m+m+m+m+m+m+m+q+B+B+B+B+B+B+B+C+C+C+E+1 k . _ . 1 @+].Q .     B+B+B+B+B+B+C+B+C+B+B+B+w+B+C+B+w+w+c+~+N.w.w.j.M./+w+w+B+B+w+w+g   @ @   @ ; ; * * * * * * * * * * * * * * * * . . . . . . . .                 .   * . ; ; . ; H ` ` {.` ` H H H H H H ` ` l ~ 2 { 2 ~ & l {.U & {.{.^ . 8 U ^ 6 2 l 2 * { * 6 2 * * * . { 6 { 6 { k+8.s+A+T.f+f+s+f+s+f+s+A+f+F+s+f+s+f+f+A+{.  ` s+f+$.A+F+k.@ } 2.w.1 L n Q 1 [ Q $.G $.6.n G k.).6.).6.L ).!.v.{.. /.  { b.b.{.& ; ; G+E+b+'+v.6.} 5 / U {.{.  y+G+R.I z {.v L $.e d O.c+/+%+/+/+++~+4.$.l.$.v.2.5.x.. ' V f.N.[.f.[.%.[.s f.%.|.*.g.t.@+@+A V N.4.4.w T ] !.Q 7.I I ].4.s.>.f.@+'.~+'.>.S g.g.|.t.@+j.0 4.j.>.>.@+[.f.[.[.%.f.[.'.].t.N N.w w V ].[.1.} & ' 7.W t.].u.V ].^.1.7 ( E+1.9.].|.'.'.O.w+O.+ a G k.i.w.i.5.P   , $.(.V N T !.k 1 k k [ 9 F m } + 1 i.u.0 W t / . } ,.p.p.y = * * ' j.f.4.2.].'.'.'.w A V T [.=.N q e.*.G.N.|.q '.#.#.R =.'.].'+B+w+C+C+B+c+q R #.#.j k n F | . . & ;           @ @             . . @   . $.Z V 1.! & . W f.f.N.f.'.W , $.$.$.d I I G ).B ,.,.f.:.}.N #.N :.N q #.%.%.O %.9.:.A z G $.$.Q Q e e 1 G Q Q B w N %.=.%.%.|.s.#.N #.:.#.N }.#.N N 4 4.4.4.j.w.j.j.u.j.u.4.u.",
"8.{.+.t M M {.{.{.{.{.{.8.{.{.U M +.+.+.6.O.b+w+q+c+< |.c+w+C+c+w+q+C+C+w+w+w+C+C+w+q+q+q+q+w+w+q+w+w+m+c+m+w+w+q+w+C+w+C+C+w+C+C+B+C+b+- P ;   ; e @+>.Z &   @ B+C+C+C+C+C+C+B+w+w+w+w+w+w+w+w+w+c+/+~+N.O.O.O.$+c+w+w+w+w+B+C+D   @ @   @ ; & * * * * * * * * * * * * * * * * * * . . . . . . . . . . . . . . *   * . ~ ; . . ; 3 l ` ` ` ` ` H H H H H ` l ; 2 { 6 6 3 U U 8 +.M t H 3 .   ^ * * 6 6 2 2 2 D 2 * * * . * 2 * *   G+)+8.F+A+R.s+A+A+s+f+)+f+)+)+f+)+)+)+f+s+l._ l )+R.$.E+F+).@ 9 w.O.$.8.6.v.R.5.k.5.G $.6.k k.7.!.5.$.5.5.!.!.k.{.. /.  2 b.b.{.. ; ; G+E+b+'+v.6.} 5 = U U {.  u+y+v.d z $.G G {.$.!.q+q+m+~+c+/+/+c+2.W l.6.i.2.).l.. e 4.4.4.].t.'.@+'.j.N.f.t.M.t.t.w.i.j w.A A A , !.v.< b ! , d 4.t.++'.4.N.>.~+'.4.4.|.s.>.N f.j.s ].|.>.|.~+N.|.g.>.p.f.'.'.].j.[.N.R T V ].=.,.' * e 7.~.j.4.u.].].Y 1.y ( E+=.9.4.f.w '.4.'+m.= a d V V >.g.O.w.. M $.j V '.[.!.k k k 1 9 n n 9 } + [ w.O.A Q a # . = 7 #.:.< . * * ' j.[.4.,.].'.T T V ].].T N N :.N.<.q.e.:.#.4 >.%.9.9.=.w V '+B+q+C+C+B+c+q R :.'.j G k k L Q 9 9 9 | & . . . . . .     . . . . . @   . $.~.V ,.! = } 2.t.'.T q w 2.d !.z Q I Z $.$.).B ,.w =.:.}.%.#.}.}.:.}.r.r.g.|.r.r.t.].z G $.Q Q Q e z e k G z B w R %.=.R N :.g.O %.%.}.:.q q 4 }.p.}.4.4.4.j.j.j.j.u.y.O.u.O.",
"L $.;.{.{.M m {.{.{.{.8.8.8.8.8.{.{.+.+.Q ~.j.N.@+@+N.T t.@+N.~+@+'+q+w+C+C+w+C+q+q+w+w+w+q+q+w+q+w+q+b+b+b+q+w+w+C+C+q+C+C+q+C+C+C+B+C+' n ;   . < N.s j &     q+E+C+C+C+C+C+q+q+q+w+C+w+w+w+w+w+/+@+@+w.w.w.w.N.~+b+w+w+q+C+C+D   @ @   @ . ^ * * * * * * * * * * * * * * * * * * * * . . . . . . . . . . . . {   . . 2 2 ~ ~ . . . ; 2 H ` ` H H H H H H 6 ; 2 * 2 ; . 8.8.{.= U {.l * * & 8 2 { 6 2 { * . { { * * * . * {   * * u+u+b.l.f+)+T.)+)+)+f+)+)+)+)+f+)+)+f+s+A+8.  ` A+f+k ,+A+6.* } i.O.!.8.P Q j I Z d d ).).1 ~.~.Z Z ~.~.~.~.!.k.{.& /.. { /.b.{.. . ; G+E+b+'+v.6.} 5 / U U {.  y+y+v.Z $.8. .k L f b ~+s.g.u.u.g.g.u.V f ;.$.!.2.5.8.. [ V 7.W W W < W < W 4.0 s s s ].i.O.O.V < I 7.Q W P B i.Q Q < ].>.|.4.f.t.'.~+S >.'.g.M.|.>.[.[.0 f.j.j.~+g.S j.j.>.}.f.s T 4.[.f.}.w w A V R W =   z 7.2.j.t.u.].].Y 1.<   F+1.N ].h.h.1.j.V < f , (.m.s.g.s.M.@++ f 7.I j T f.!.k k k 1 9 n n 9 } + ' k.O.j z / # ; f ,.p.N.W } . * [ j.[.4.,.].T '.w ].V ].[.'.N.p.h.q *.G.e.h.:.|.N N =.}.T &.'+B+q+C+C+C+w+%.1.:.T d Q G k d I P v n v M m } } . . . . . . . . . . @   . P Z A =.! = . W '.s w q w 2.d !.Q Q I I Q Q ).B ,.0 u N h.h.N p.p.h.:.O N |.O %.o %.A z G $.Q Q Q G G e k z z B W R :.=.N 4 q |.*.|.h.N.h.#.%.4 N %.q 4.4.4.j.w.u.u.@+y.O.u.j.",
". & ^ l U {.{.{.U U U U {.8.{.{.;.{.;.7.i.w.@+~+'+u.@+O.s ].b+q+@+@+~+++/+/+m+w+w+w+m+w+w+m+c+m+w+q+q+q+c+c+w+w+w+w+w+w+w+w+C+C+w+C+C+C+- P .     1 O.A 9 @   . d+w+w+c+q+w+w+d+c+c+w+w+w+w+w+w+m+c+~+O.t.w.O.O.~+c+w+w+w+w+w+w+{ *   . . . . ; ; ; ; ; ; ; ; ; * * * * * * * * * * * * * . . . .     . .   . * . .   . { { * * { { { * .   2 l ` D l 6 D D 6 * { 6 * 6 * b.` /.; ` {.; . ~ . ~ { 2 6 2 { 2 2 * { * * . * 2 *   { . s+f+f+-.T.f+)+l.f+f+f+)+A+s+s+s+f+f+s+A+A+l.  H s+l+z ,+l+Q ; 9 k.O.j.2.z P L P L e P e R.e ' v.).).k.5.5.k.).).).. U > > k.l./.*   | F+F+l+~+R.6.9 5 ^ U 8.{.. A+F+l.{.).).).).{.{.{.{.$.k.C+b+b+'+l+6.^ h 3 9 | 6 h 6 + 0 I 2.W ,.V ].V j.j.O a.%+d+d+f.i.$.e - Z 2.4.'.T ].w.Z I Q !.Q W |.g.M.|.++|.*.s.>.M.|.>.t.f.s [.f.f.s [.[.t.'.%.V T }.%.9.}.f.j.'.T 0 T W f .   I w.4.j.4.w.].~.Z [.A * F+g.*.;.q 1.;.} . G ' , W < i.c.s.$+~++ d z Q ].|.|.].F F 9 9 9 [ 9 9 [ * . j.t.W v m - = ' w :.f.d = @ @ [ 5.].=.=.R V V V ].4.].V T f.N.N.N.:.#.%.}.%.:.:.:.%.#.N ].'+B+q+w+C+B+c+q R %.=.7 G n 9 G Q G k G G G F F k i i & & . . . . . & | k d A A V =., ^ . 0 %.*.j.N.}.4.A 2.Z d B $.Z Z 5.(.,.T [.#.%.:.N #.#.q 9.%.N %.o :.}.N N $.I Z I Z Z A (.e G G L B w w #.:.:.h.%.N.|.g.O }.q h.:.%.#.#.#.].4.O.O.w.4.].].A 1 ' 1 ",
"& & . . . . . & ^ l U U U H H U U {.8.6.v.O.'+b+@+@+O.b+b+V j @+w.O.~+q+C+w+~+++M.@+~+q+w+q+c+q+w+q+q+q+c+c+w+C+w+w+w+w+w+q+q+w+w+w+C+b+1 t ;     $.~+u.{.@     d+C+w+q+w+w+c+c+m+m+w+w+q+q+w+w+m+c+c+@+t.w.w.w.@+~+q+w+w+w+w+w+{ *   . . . . ; ; ; ; ; ; ; ; ; * * * * * * * * * * * * * * . . .     . . . . * * *   * 2 2 * * . . { 2 * * * . . 2 D D D D 6 { 2 l { 2 . /.` /.^ {.{.2 . . . 6 { 2 6 6 { 2 2 * * * * . * 6 2 { *   F+F+A+A+U f+A+s+A.s+F+)+A+s+s+s+s+f+s+A+A+l.  8 )+k.z A+E+!.. [ !.O.t.i.!.P !.v e L e ' $.e Q ).l+).d Z 5.k.).R.).& U M A+).b.b.  . & F+E+l+'+O.6.9 5 ^ U k.l.| A+G+x.8.k.x.x.k.l.l.l.l.6.R.b+'+b+b+l+x.3 6 D t m D J D 9 ].2.W 2.2.].O.4.j.j.g.%+%+d+g.'.d e + b ,.2.4.T [.4.w.I I !.$.! I |.g.~+s ++>.s.M.s N.|.s f.f.s [.#.f.'.f.[.[.'.f.].T h.:.h.}.f.g.w '.4.2.W ' ;   A i.4.j.].j.].~.(.>.W * f+>.g.1.|.,.b + G ,++ , 7 W w.S |.%+N.! 7 i.Q w g.M.V 9 F n n n 9 9 9 [ . & j.t.j f } ' . [ ,.f.f.7 + ~ @ [ 3.].=.=.R ].].].].V ].].'.f.h.:.N 4 :.p.p.#.#.u N #.N 4 A '+B+q+w+w+B+m+q r #.=.d Q F n G k F k G G G F G [ G k [ 9 = 9 t F G $.6.k.k.~.A j 9.! 3 | i.$+g.|.) w [.A Z Z I Q 7.).Z 5.(.,.w w N %.:.%.%.q #.9.h.9.9.9.r.N.:.u 1 Q ).Z Z Z A (.e ).Q Q B , t.f.%.#.%.q h.O :.O q q p.#.q N #.N j.].].A j A ].j.5.5.~.~.",
"^ U {.{.U l ^ ^ . . & . . & 8 U H H +.{.6.v.R.R.R.,+R.v.,+R.~.i.w.O.O.O.N.@+N.@+@+@+O.O.@+O.O.O.~+~+b+b+@+@+~+~+d+c+~+@+@+~+c+w+q+b+b+w.e 9 .   . (.~+'+6.;     w+C+w+q+w+w+c+c+w+m+w+w+q+q+w+w+m+c+c+@+j.j.j.j.s.++c+q+w+w+w+w+{ .   . . . . ; ; ; ; ; ; ; ; ; * * * * * * * * * * * * * * * * .     . . . . * * *   * l 6 { * 2 * * { * * * .   . * { 6 l 6 { { 6 6 *   D l D 3 ` ` 6 ~ . ; 2 { 2 6 6 2 2 2 * * * * . * l 6 2 * * s+s+A+s+F+D f+s+s+l.A+T.c F+f+s+s+f+f+s+A+T.. 3 R.R.Q ,+,+7.9 v !.i.2.I !.).).L L $.P e $.P $.R.6.k.$.E+E+E+E+F+l+. ,+F+l.$.H b.. * | F+E+l+'+R.6.m 5 | +.R.F+x.U / 8.R.x.6.R.R.x.x.8.8.$.k.C+b+b+b+C+x.H ` ` U U ` ` /.L j.w.i.i.].].j.].t.|.M.c+d+M.T i.e e = I W 2.i.T '.4.w.< < !.B , ,.p.t.~+S ~+S |.h.>.g.>.|.[.'.s [.[.t.[.[.f.[.'.[.'.w t.}.p.h.f.g.y W W I e = ; . I ].4.w.].4.V ~.(.j.< . > >.<.7 |.f.! f 5.,+e , W !.'+4.|.$+t.+ 7 7.!.].s |.4.n n n F F 9 9 9 [   - j.@+j L } ' + ' w %.'.! + ; @ } 3.].R =.=.].].4.4.V ].].T N q 4 #.p.p.q N N N N :.h.9.N V '+B+B+C+B+B+B+%.r u R < k [ 9 G G P G k G G F G [ k [ [ t - L ).(.k.5.(.(.~.V A V =., & . W N.g.|.N N '.].~.~.d $.I ).(.5.Z V w w q #.:.}.h.N 9.#.|.|.N q N :.#.N G $.$.Z Z Z d (.d 1 z Q W w [.:.}.%.%.N g.O :.O :.%.N.h.p.N.~+~+j.].j.j.j.j.4.4.3.m.].Z ",
". l {.{.U H H H U U H l ^ & . . . . . & 9 U ).).!.P $.).6.v.k.L B i.v.,+R.R.v.v.5.5.5.k.R.R.v.v.v.i.i.7.~.2.i.v.N.N.t.t.w.w.w.O.O.O.'+2.G m .   . Z P.y.$.*   . q+w+w+w+B+q+c+q+w+m+w+w+q+w+w+w+m+c+q+@+j.j.j.m.s.++c+q+q+w+w+w+* .   . . . . ; ; ; ; ; ; ; ; ; * * * * * * * * * * * * * * * * *     . * . * * * .   { D l 2 { l { * { * * * * { . . . * 2 { * { 2 l * . { * * ~ l ~ 6 H 2 2 ; { 2 6 6 2 2 2 * { * * . * 6 2 { ; . )+s+s+A+s+k+m A+F+s+)+s+s+s+s+s+A+f+f+s+s+T.  . R.R.z I I Q P Q ~.O.w.d I 1 z v $.e $.z 6.v G ' e 5.d (.(.v.v.R.F & 8.F+l.- H b.. 2 U F+E+l+'+v.+.9 5 = P ,+A+,+l . {.x.).).$.$.+.{.{.8.6.R.q+b+q+q+C+x.9 D l F t H J D [ V 4.4.].N.4.V ~+V P.|.S j.A + ).).Q d W I 2.t.].T ].4.b d !.j 0 j.}.%.[.].~+'.%.p.|.N.S |.@+t.] [.f.f.%.#.f.'.#.N [.0 t.f.h.h.g.|.W B ! = - = ^ . 2.].].j.].4.].Z (.f.W   F+>.*.1.:.R 1.v.5.b+- f 0 d i.V s g.j.< < 7.< w >.|.A n n n F F 9 9 9 9 . - j.N.A P f ' . ' W f.t.I + @ @ } 3.].=.=.,.4.'.].4.V ].'.N N p.h.q N %.:.h.#.q N N 4 4 q ].'+B+w+w+w+B+B+#.r :.[.I G [ n P G F G G G G F F k n ' [ v - I ^.].3.3.3.w.w.2.W w 9.f ^ . ,.$+N.@+p.%.'.2.2.2.d Q d $.5.k.~.W T [.t.:.%.q N 4 9.#.O |.#.#.%.:.N N G k 1 Z Z Z Z 5.V Z I ~.j 0 w f.%.#.%.%.p.|.s.s.N.:.h.}.}.N #.:.V V 4.j.j.j.].].].j.].A ",
"& l U U H U U {.U H H U U {.U H H l ^ . . . . . = } m +.{.{.{.l.L ;.+.;.;.l.;.;.6.).).).).).P P P P $.).).$.$.P P $.;.8.8.8.8.8.5.k.k.$.L H   @ . j P.S k *   . w+C+w+w+C+w+c+w+w+w+w+w+w+w+w+w+m+c+c+@+j.w.w.w.N.~+c+q+q+w+w+w+* .   . . . . ~ ; ; ; ; ; ; ; ; * * * * * * * * * * * * * * * * * .   . * * * * * .   { D D 2 { 2 * 2 6 { . . . * * { * * * * * 2 2 l * * { * . ~ 3 . 2 H l l ~ 2 6 6 6 { 2 2 * * * { * * 6 { * ; ~ 8.A+A+f+s+y+s+F )+A+f+T.T.s+s+f+f+)+f+s+)+{.. 3 R.v.z Q ).5.7.Z W O.@+I Q e e $.$.e P e v.e z 6.).v.k.5.(.v.).v.6.M & A+,+v | {.. . ~ l.l+'+R.5.[ = / & k R.F+{.. . +.8.k.6.R.x.l.l.8.8.6.R.q+b+q+q+C+x.t ` ` U +.` ` ` f '.j.V V V j.t.4.A s O.b+5.+ + k.k W W y W ].4.].].4.4.Z ~.~.W ].[.:.w ] T @+[.:.@+s N.@+@+>.'.T t.[.f.'.#.f.'.[.[.t.0 f.[.[.[.|.|.y B ! v = } } 9 O.].].j.4.4.].Z 5.>.<   F+>.O ;.:.w W v.3.b++ f ].W d 0 s.M.[.+ I i.z 4.s.g.V F n n F F 9 9 n F * + 4.[.0 v M ! = ' w #.T , + 6 @ } 3.].=.=.,.4.[.].].V ].'.:.h.h.h.}.$+N.#.%.N q %.:.%.:.9.4.O.B+B+C+C+B+B+%.=.N =.B Q n F P k G G F F k G G k v 9 f L ' A ].V c.&.V V ].V W W =.- & . ,.h.*.S u N '.2.~.i.$.!.Q $.(.k.5.W w w }.s }.#.#.N :.N *.g.*.<.r.N.f.'.I I Z k.Z (.k.w.O.4.w.w.i.j., t.h.h.}.%.g.%.|.|.}.q }.h.h.4 q %.].V ].4.4.4.].4.].j.].A ",
". l U U U U H l U U U H H H U U H H H H H H l 8 . & . . . . & ^ m M t t H +.U {.{.{.U U {.{.+.{.8.+.M M M +.{.{.{.+.U M H l H H +.{.).v m H . @ . d ~+S k .     q+C+w+w+C+w+q+w+w+w+w+w+w+w+w+w+m+c+c+O.j.w.w.O.@+~+c+q+q+w+w+w+*     . .   . ~ ~ ; ; ; ; ; ; ; * * * * * * * * * * * * * * * * * .   . * * * * * . . { D l 2 2 2 { 6 D 2 * * * * * * * * * * { 6 2 6 * * 2 { { ~ ~ . ~ 2 2 6 6 l l l 6 { 2 2 * * * { * * 6 2 { . ` f+l.A+A+s+f+f+A+{.f+F+s+)+)+f+s+A+s+s+s+f+b.  ^ R.k.z I $.7.2.~.W R.w.d !.!.!.6.z L e e v.z z z e ).$.I l+d I 6.P . F A+x.v m {.; @ ; > l+l+R.6.} / 5 } k ,+F+U & & {.8.x.k.k.6.8.8.{.8.6.R.C+b+b+b+l+k.9 D H M t H ` ` f '.S f.[.N.w 0 ~+j.4.V 5.+ . + k.b W W W 2.V w V j.j.].~.Z W 4.t.#.f.[.'.V N.T '.t.>.@+|.|.[.f.0 [.[.[.[.%.f.[.f.f.t.4 [.[.'.}.h.|.y W , M - v k Q R.V ].4.4.j.4.~.Z t.W   F+g.q y |.f.0 4.u.'+' f w 2.i.j.s.M.j., I !.Q 4.O >.4.9 F 9 n F n n F P * + 4.f.y P M ! = [ W [.f.7 + @ @ } 3.].'.1.1.4.'.'.].].].'.%.p.p.p.#.N N }.p.#.:.%.%.#.%.%.].O.B+w+q+B+B+m+q R u R < G 9 n P G G G F G k k k [ n 9 n v ' I V A >.V A V V W V W 9.! & . W :.O >.N w '.i.~.2.$.i.Q $.(.k.~.A 0 w }.N h.%.#.:.h.r.M.~+s.O O #.4 s j ~.2.w.4.O.O.j.@+w.j.O.q+4.T s %.%.N q %.O :.:.}.%.}.}.h.N N N A j ].4.4.].V A V 3.].A ",
"^ H U U U U H H l H {.{.U H l l H H M U U M H 8 {.l H U H 3 & . . & & . . ; l ` M U {.8.8.8.{.{.{.+.{.{.{.{.{.{.} m M U {.{.{.{.+.+.{.m m l .     z O.V 9     . $+c+q+q+w+w+w+w+w+w+w+w+w+w+w+w+m+c+c+O.j.j.w.w.N.@+c+c+m+w+w+w+.     . .   . ~ ~ ; ; ; ; ; ; ; * * * * * * * * * * * * * * * * * .   . * * * * * .   { D 6 2 6 l 2 2 6 { * { 6 6 * . . * { { * 2 2 2 * . 2 { { 3 ; ~ ; . ; ~ 6 6 6 l 6 { 2 2 * * * * * * 6 2 2 / ~ f+x.8.R.)+k+F+A+A+8.T.F+s+s+)+f+s+f+f+f+f+l.. 3 )+R.$.I I !.T ].4.,+v.~.!.Z !.L e z ' 1 k.1 1 ' e R.).5.Z 5.5.).F & R.F+x.[ i {.; @ . . l+C+,+v.9 5 t } G ,+F+8.8 . 8.l.x.x.k.6.8.l.8.l.k.,+C+B+C+C+E+R.F H H +.M U ` ` v [.N.~+t.@+t.4.].< A 1 v . 9 [ i.0 R ,.,.i.V 4.].j.4.].~.I j 4.@+:.f.t.t.>.@+S [.f.g.g.S j.>.'.s [.[.%.%.'.[.[.f.'.p.] '.4.'.[.N.e.W y + [ ' Q $.~.w.V 4.].4.4.].~.k.'.0 2 F+>.<.i.g.t.[.'.c.b++ f A j $.T q s.N.< W i.b w |.s.i.F F 9 n F F n F P   ' t.N.W $.M ! / ' w #.'.< + @ @ } 3.].[.1.1.4.'.'.4.4.].T N h.N q q :.}.p.9.N #.:.f.}.9.%.V m.B+B+w+C+B+B+N =.}.1.I Q 9 [ G G G G F G k k k [ i 9 [ 9 - e I j A A A A V ~.Z A 9.! & . W p.s.N.h.u '.i.2.~.I 7.Q ).5.5.~.W T '.}.}.p.h.:.%.9.%.*.s.s.O O #.N j.j.O.j.@+~+b+~+~+P.4.~+j.w.w s [.:.%.#.#.|.O %.%.}.:.:.N }.#.%.N V A ].4.].].V V ~.5.Z Z ",
"& U {.U U U H H H H H H H H H H M M M H H M M H 3 l D D H U U U U m | . ^       . & & & 9 M U {.8.{.{.{.U U {.8.7.7.).$.L L P P {.+.8.t U l .     z 4.V }   @   G.~+~+/+c+c+c+d+w+w+w+w+w+w+w+w+m+c+~+t.4.j.m.m.s.++~+c+c+q+q+q+.     . .   . ~ ~ ~ ; ; ; ; ; ; * * * * * * * * * * * * * * * * * .   . * * * * * .   { l 6 2 6 6 { { 6 { * { 2 { { { 2 { * * { { 2 6 2 * 2 * { 6 ; 6 ; . 2 ; ~ 2 6 l 6 2 6 6 { * * *   * 6 2 6 ; ; & | . & . 8 b.8.A.A+)+T.F+s+A+s+f+f+s+A+A+l.  ; )+v.Q I $.Q '.].V w.v.v.i.I L - L [ 1 e v.[ ' ).6.5.5.(.5.Z k.,+).9 ,+A+l.[ F {.. # @ . l+C+R.x.9 5 5 } 1 R.F+m 8 . {.8.x.6.6.6.{.8.{.{.).x.b+'+'+'+b+5.| H 5 M M U J H f [.|.>.[.t.'.t.].A ~.[ . ^ M ! i.N ,.,.,.i.4.~+4.4.V 2.i.W A '.N.|.g.t.|.>.O.>.>.g.S s.|.g.>.'.s N.[.'.[.f.[.[.t.[.N.4 '.f.4.>.N.<.y y , ' f !.2.].i.A 4.].4.4.V Z (.[.7 . F+>.o 1.>.t.[.j.>.'+Z + j.2.7.w #.$+f.d < e < V S >.w.[ F 9 n P F F F F . [ f.t.< B f f . ' ,.[.[.< + _ @ } 3.4.[.1.1.4.'.'.[.].'.T %.p.h.h.}.:.N }.%.#.%.h.t.:.N N ].m.B+B+q+B+B+B+#.R N R 7 Q n 9 G G F k G G G F F k i F 9 } ' v z I I Z Z Z (.5.(.Z 9.! & . 2.$+g.>.#.4 '.2.~.~.I Q !.).Z (.Z ,.T T }.}.%.%.N N :.#.O g.G.O <.h.f.~+@+~+f.N.N.t.g.@+s.>.b+j.V w s >.}.}.}.p.$+s.s.s.|.h.h.:.}.N %.%.].A ].].].].V A Z Z Z Q ",
"& l U H H l l l H H U H H U U H U U U U H H H H l H H H U l 8 U M ;.M 9 +.t U m H 3 & & . . . . & ^ 8 H H H U U U 8.).Q $.).{.8.{.U {.n {.9 . . . I s.w }   . + k.v.v.O.N.N.$+/+d+m+m+w+w+w+w+w+c+m+c+O.j.2.7.i.j.t.++/+/+q+c+'+.   .   . *   { ; ~ ~ ; ; ; ; ~ * * * * * * * * ; ; ; ; ; ; ; ; *     * * * * * * .   6 6 l 2 6 2 6 6 6 2 { 2 2 2 * * 2 6 2 { 2 2 2 2 { { { * * 2 { * { { * { 6 6 6 2 6 * 6 2 2 * * * * * { 2 2 * E C+B+O.).H       . U )+v.P k.,+,+,+R.k.x.v.$   & !.W !.n $.Q S ].].w.k.Z Z V +.f f L - ' ,+= ! = D {.(.].O.7.(.k.M . ,+F+b.~ 5 {.& * ; . l+q+x.).1 9 6 3 k @+F+c 8 . 8.x.x.k.k.k.R.R.R.R.x.,+q+b+b+q+C+R.m H U M D ` U n j j.t.>.4.V ].V 2.< 9 + 1 Q d 0 t.0 2.4.0 g.g.q+>.].I !.$.Q ! 4.t.>.|.g.j.].N.t.|.g.|.g.>.N.N }.:.g.|.f.[.[.'.N N.g.G.0 !.7.[.<.e.|.N y . . L 2.V 3.v.Z ].j.4.4.4.V &.1.b ( E+j.N V |.'.w 0 4.b+e , 4.].W ,.].@+i.! < !.d I R 1.W 1 t 9 n F F C C  .= + 4.O.T W B [ , | ' R r . * = * ' [.[.4.2.].'.'.[.4.].].T %.h.q N q :.:.N.N.N N q %.N o %.].3.C+w+m+m+B+B+S r %.f.A G n m m t n F F G G G k 1 n 9 G ' I I A A Z (.(.Z (.Z A I }.< = . 7.'.u }.4 4 '.4.].~.Z ~.V V ~.Z $.2.A w }.h.:.#.}.}.h.N.%+M.N.f.*.q.<.h.4.b+A w.O.].4.m.(.].b+2.V A s <.|.<.*.<.<.*.e.a.:.*.$+|.}.:.#.#.'.A ^.(.~.W y z Q $.Q G ",
"& l H H l l l l l H H H H H H H U U H H H H H H H H U U U {.U U M M = } +.+.U H H H H H l 8 8 ^ . . . . & ^ l U 8.8.x.k.$.).8.{.8.8.8.n {.|   . . W s.T }     . 8.8.8.6.7.i.w.N.M.++~+c+c+c+w+w+q+q+~+w.j.i.~.!.j.t.@+/+c+w+q+~+    *   . .   { ~ ~ ; ; ; ; ; ; * * * * * * * * ; ; ; ; ; ; ; ; *     * * * * * * .   6 6 l 2 6 2 2 6 6 2 2 2 6 2 { { 6 6 2 { 2 2 2 2 { * * * { 2 * * { { * * 2 6 2 { 6 * 2 2 { * * * * * { { { ~ G C+q+u.P H @ . { . . . +.{.v < !.v.5.' E 6.L   & ~.W !.L $.~.@+t.i.,+~.~.2.V f f - G $.Q v.- ! 5 6 l.Z ].i.!.Z v ;.= x.F+U . l U . * @ . A+B+x.).e m 6 ^ k @+F+8 3 . 8.k.x.k.6.6.6.6.).5.$.x.b+'+~+b+l+x.9 H t m ` 6 l ).d ].|.t.j.j.4.w.~.Z - e Q Q I , 4.].i.t.'.j.g.q+4.].7 I B d < 4.t.>.O @+b+t.4.S N N.>.s.>.t.N :.s s.|.f.f.[.[.>.N.g.|.< !.,.}.<.s.g.N y = . P 2.].5.k.Z ].4.4.4.4.].&.1.! * E+j.#.].>.'.1.V ].'+Q , A ! 7 2.< S '.] 7 Q I 0 u y W G t 9 9 F n C C C + ' 4.j.0 y W ' + > I r.r.1 * + . [ j.[.4.2.].'.[.[.].].].T :.h.9.r.N.%.%.s }.s 9.:.}.N r #.].3.C+B+m+z+B+C+>.=.9.f.j k [ > | 9 n F F G G G k 1 9 [ k [ I I I A Z (.(.(.5.~.A I [.< & . !.[.f.N.p.~+t.V V 5.(.i.A V ~.5.7.~.A w }.p.p.N.@+N.}.}.*.%.w #.*.e.<.N V O.j j.w.].V j A W v.W ~.A >.<.:.:.<.s.e.*.e.e.O q |.#.}.%.#.%.'.A Y (.W W y e G Q G G ",
"^ H U H H l l H H H U H H H H H H H H H H H l l H l U H H U 8 & +.} + } M U m U H U {.{.U H H l U H l 3 & . . . . . } U m t {.{.8.8.l.n +.|     . W s.T }     + {.{.U U U {.8.8.i.w.O.O.@+@+~+~+@+~+O.i.2.k.k.w.t.@+~+c+c+B+w+~+.   . .   .   2 ~ ; ; ; ; ~ ; ; * * * * * * * * ; ; ; ; ; ; ; ; *     * * * * * .   . 6 6 l 2 6 2 2 6 6 2 2 6 6 6 2 2 6 6 2 { { 2 2 { * . . * * 2 { * { { * * 2 6 6 2 2 . 2 { { * * * * * { { * # $.E+C+b++.H *   . * & ^ & M R.N.=.4 =.T (. .&   & i.j.i.7.~.4.f.[.0 w.< !.~.I f +.$.G [ e v.= v 5   {.k.j.O.k.5.$.M . x.F+| / H U & * @ . E+B+8.).G m 6 ^ k @+F+F 8 . 8.6.k.(.6.6.6.x.).k.).R.q+b+b+b+l+k.9 H m H ` 6 H n I V ++g.t.].4.~.I ' ' 1 !.i.i.W N.T ].4.j.|.>.c+>.].I I I d j 4.N.g.g.~+N.[.'.'.>.M.S M.>.f.%.[.s M.g.|.[.'.[.[.t.g.:.< 2.,.:.a.e.|.%.y = . z ].V k.k.Z V 4.4.4.4.].&.1.,   E+t.%.].S u ,.V V '+Q + j v.!.V >.@+t.R + Q j ,.=.N.!.k t 9 9 F n i C C + - m.O.T y B ' , > I 9.r.> * /   f j.[.].,.].[.[.[.].].].T #.}.#.N h.q %.:.N.f.:.:.}.u :.#.V ^.B+w+w+w+B+w+S r %.}.0 k 9 | c t n F F G v G k k 9 9 G 1 I Z A A Z 3.(.3.5.(.A I :.! = . I '.%.}.) 4 T ].5.k.5.w.].A Z ).!.~.,.4.}.#.N #.#.N q q q h.w %.<.a.e.#.I 2.j ~.W Z W < E !.y 7 I 1 V #.%.%.:.9.<.:.e.q.s.s.s.|.h.N N %.:.A Y Z W W B e z Q z G ",
"3 H U H H H H U H U U H H H H H H H H H H H H H U H U H U U & & {./ 5 = m H 8 U H H U U l l H H 8 l H H H H H H H 5 . . . . . 5 m F U n {.|     . W s.T }     = {.{.{.U U U ` ` M +.;.7.i.w.@+@+v.R.v.7.2.5.k.k.O.~+c+c+m+w+w+++*     . . . . 2 ~ ; ; ; ; ; ; ; * * * * * * * * ; ; ; ; ; ; ; ; *     * * * * * * .   6 6 l 2 l 2 6 6 6 2 2 6 6 6 2 2 6 6 2 { { * { { *   .   * { * * { { * { 2 l l 2 2 . 2 { * * * * * { 2 2 * # v l+C+l+;.l   * * . ; 3 . . = !.t.N.r.r '.5.Y   + t.j.j.2.].[.|.t.T R.$.7.B I f +.L [ = + R.' !.H . . 5.].O.$.Z 6.M + R.E+. ; H U & 2 @ . E+q+U ).G m 6 3 k ~+F+8 3 . 8.6.k.5.6.).6.6.).k.).R.b+'+b+b+l+k.9 H m U l U t ).Z i.$+++t.j.w.R.k Q i.7.i.W < + i.w V 4.N.>.|.~+>.].~.~.~.I V ].@+t.g.M.>.T '.f.>.M.g.M.|.[.[.f.s t.g.:.[.'.'.f.|.|.|.< ,.4.s.G.$+t.#.W = . Q ].A k.).Z V j.4.j.4.V &.1.!   E+t.#.].N.[.T 0 A '+!., I Q 7 T >.++@+=.b 5.d w N p.!.k t 9 n F F C C C . + m.@+,.y f ' , > Z 9.r.- * + . f j.[.].2.4.[.'.'.].].].T N %.N 9.~+N.N :.%.) 9.}.f.N 9.%.V Y B+w+B+B+B+B+#.#.<.h.T Q F | | | n F F G L G k k k k G d I Z A A (.3.3.3.5.~.A I }.! / . d '.#.N 4 u [.].].k.k.i.i.Z v.R.R.i.A w }.N q #.#.N N #.<.h.w }.G.%+%+O B B B $.< B !.B [ !.7 b Q E i.N.p.p.p.p.r.9.9.%.*.<.:.%.}.q N :.}.V Z Z W !.B k z Q z Q ",
"3 H U U U U H U U U U H H H H H H H H H H H H U H U U H {.l . H {.= 5 . 5 H H U U H H l 8 l H l H H l l l l l H H H 5 H U 5 . + . & - } {.| .   . 2.s.T }     = ).6.6.{.{.+.U H ` U t M v L !.!.!.7.7.6.k.v.5.$.w.~+~+c+c+w+w+++D     .   . * { ; ~ ~ ; ; ; ; ~ * * * * * * * * ; ; ; ; ; ; ; ; *     * * * * * * .   6 6 l 2 l 6 6 6 6 2 2 2 6 2 2 2 6 6 2 2 2 * { 2 *   . .   * * * * * * { 2 l l 2 2 . 2 { * * * . . * 2 2 { a = 5.5.R.{.H   * . * 2 ; 8 l .   k ,.9.r =.=.7 @ . ].T w V w :.|.f.T i.z L e b } v f k.A+).R.+ e U . . 6.].b+k.w.v.v.).O.E+U ` l H   { @ . A+b+U $.k 9 6 8 k @+F+F H & 8.k.k.k.v.6.k.k.5.k.5.R.b+b+b+b+l+k.9 H H H l U } l+I i.++|.t.N.4.,+5.' < W W A 2.0 2.V ].].@+|.g.~+>.4.~.V ~.A ~.].N.|.|.s.#.[.[.g.O s.a.g.*.f.[.t.'.t.s.|.[.T '.f.:.|.p.0 2.f.e.a.e.}.w W [ = ,.].A k.).~.V j.4.j.4.V &.1.b . E+t.r V M.f.1.V ].'+z , 1 b < T q q #.r - Z 3.t.$+=.Q | m 9 n F F C C i . - 3.4.A B M - , > d R =.. * + * f j.'.].2.4.'.T '.].].].'.#.}.}.h.:.q 4 N.p.h.9.}.:.u 9.%.].Y B+B+w+B+B+w+>.*.<.h.T $.F ( > | n F F F L G G k k G G d I (.A A (.3.5.5.5.Z j I f.< & . b 4.t.f.p.N.t.4.k.5.Z w.~+~.i.).!.2.A 2.h.:.}.p.p.h.}.}.r.=.0 %.<.%+d+*.b b $.7.b z !.Q k $.f f k E A '.N =.u 4 q #.:.#.<.e.*.:.p.%.%.#.:.V Z A I W z k z G z Q ",
"^ H U H H H H H U U U H H H H H H H H l H H H U 8 U l l U & . U +.. = . / U U U U H H H l H H l l l 8 8 8 l H H U H +.H & = l 5 9 | - [ 8.^     . 2.g.w }   . } 7.6.6.6.6.{.{.8.H H 5 m m M ;.$.+.{.{.L P P v 1 6.v.O.@+~+c+q+@+` .   *   . . * ; ~ ~ ~ ; ; ; ~ * * * * * * * * ; ; ; ; ; ; ; ; *     * * * * * * . . 6 6 l 2 6 6 6 6 6 2 2 2 2 2 2 2 6 6 6 2 2 { 2 6 2 * . .   .     . . * { 2 6 6 2 2 . 2 { * * * . . * 2 2 2 _ 3 $.G +.` `   .   { 6 * . ; ~ c   & !.,.R R =.@ . V T w V w %.s.[.V i.' [ $.P f f = L R.1 R.' 1 {.. . ).,.O.j (.Z v.(.'+E+& . H U   * @ . l+b+U ).k } l 3 1 @+A+| 8 . 8.x.R.x.v.6.k.6.5.k.5.R.b+'+'+'+b+6.| H D 3 H F $.R.e !.~+S w 0 4.i.~.< 2.W A A w.A 2.W V T t.>.g.~+>.4.].V I j i.j.N.>.g.s.O |.j.g.*.q.%+M.s.t.#.'.w '.s.f.[.T '.f.|.g.f.0 1.N.G.q.G.@+s W z < w '.~.v.).(.V 4.].j.4.].&.,.f . E+t.r V >.'.1.].4.'+1 + I i.1.t.M.M.f.7 + $.V t.N.}.!.F 9 9 n F n C C i @ + (.].I f f ' = | Q 9.9.' * + * [ [.'.4.2.4.'.'.'.].].].T %.}.] N.N.h.p.h.q %.9.}.%.u 9.%.].^.B+B+w+w+B+B+O #.*.9.w Q F ( c c n F F F L G G k k G E d A (.V V (.3.5.5.5.Z A Z f.7 & . < [.[.}.#.w '.w.w.(.V i.w.A Z d I 2.0 4.h.:.:.:.:.%.%.:.e.#.R %.O G.%+|.z e Q !.z Q $.z k z b e G Z A N N }.N 4 q #.9.9.O :.O |.p.}.}.:.#.w Z A I W z k e G z Q ",
"^ H H l H H H H U U U H H H H H H H H H H H H H H U H U l . 8 U U = . ; . ` H D H H H U H H H l l H H H H H l l 5 5 U m & } +.H U U m n {.& .   . 2.|.w }   . } U +.+.+.{.{.8.8.{.{.U U U M +.t M {.{.+.{.8.l.R.M 6.i.w.O.@+b+O.`     *     * * ~ ~ ; ; ; ; ; ; * * * * * * * * ; ; ; ; ; ; ; ; *     * * * * * * .   6 6 l 2 6 2 2 2 2 2 2 2 2 { 2 2 2 2 2 2 2 2 6 6 2 *     . . .     . * { 2 2 6 2 2 . 2 { * * * * * * { 2 { @ 8 {.{.` ` ` . . 6 * . l D * * @ . & . > ' ;.;.@ & W 4.].,.T :.@+j.].v.- . F U v L P e [ + R.1 1 U . . k.i.b+Z 2.!.5.j '+C+> + H {.. * @ . l+q+U ).k 9 l ^ 1 '+F+F 8 . {.6.5.Z 6.$.$.$.$.).E k.O.O.O.'+b+6.9 H D l F M 6.' e z w.4.j.q+w+w+w.w V V 4.V 2., i.,.V V t.>.g.~+4.j.V V V A j.w.N.>.g.M.|.g.g.|.|.$+E.s.g.|.%.f.T t.|.|.>.'.[.t.|.|.}.0 t.G.E.a.q.t.N A i.7.0 T 7.{.Q ~.V 4.].j.].V &.,.f   E+t.N V |.'.1.w A '+$., ~.V '.$+%+/+b+y - k.j g.O }.d > m 9 n n n C C i @ . (.4.W ! f } , > 1 R r .   + * [ 4.[.4.2.].'.[.[.].].].T #.}.N f.N q h.h.<.r.r.p.}.:.9.%.].Y B+m+w+B+C+C+|.e.9.r.T Q i > ( c n F F F P Q G k k G I j A 3.V V (.3.3.5.5.~.A Z }.< = & < T w u u 4 [.4.A ~.5.j 2.2.~.I !.~.7 w %.:.%.%.:.%.#.%.*.#.u :.q.%+G.:.z z Q z e Q $.z G z 7 < d j A 4 4 %.%.}.h.g.h.g.e.s.g.g.:.#.#.#.%.T (.Z I B G k e z e Q ",
"3 H H l l H H H U U U H H H U U U U U U U H H H H U H U & . U H {.H ; l . H 8 D H l H U H H U H 8 l l l H H H H t {.M & & 9 t M t U t 9 {.^ *   . i.g.T }     +     . * 6 H U U $.$.+.{.{.{.8.U {.{.U t M t a / H 8.6.i.w.w.@+w.`     *     * 2 ~ ; ; ; ; ~ ; ; * * * * * * * * ; ; ; ; ; ; ; ; *     * * * * * * .   6 6 6 { 2 2 2 2 2 2 6 6 2 { 2 6 2 2 2 2 2 6 6 6 { *     .   .     . * 2 6 2 6 2 6 * 6 2 * * * * * * { { { _ . ( {././.U * . . * 6 { * { _ # @ { * (   m m @ . d ].,.,.].[.|.u.].v.9 . . F v L v ' e G k.k d M @ . l.V q+(.i.i.v.3.O.b+6.a l {.  * @ . l+q+U ).k 9 l ^ 1 b+F+| 3 & x.R.,+R.R.R.x.,+x.R.5.x.b+b+b+b+C+x.9 H ` ` F F $.z 1 z A i.w.A 4.].].0 < 4.j.w t.A 2.W V 4.N.>.g.~+4.4.V ].Z j ].4.s.>.g.M.|.|.t.g.g.G.-+M.|.%.'.[.0 4.O :.%.[.t.N.:.*.[.0 f.s.q.a.e.:.s j b+l+T T i.- d Z V j.4.w.].A &.,.b   E+N.N ].|.[.t.].j '+!.+ j T u q 4 s 2.! + k.V M.*.%.d C m 9 n n n C C C   - 3.].I f t } , | d r.9.- * / * f j.[.4.,.].[.'.'.].].].T #.%.N N q p.h.%.N q N #.N :.9.:.4.E B+B+w+B+C+C+>.*.<.h.w Q i ( ( c n F F F P Q G k k G E j j 3.V V (.(.(.5.k.5.I Z }.b & . < '.}.t.}.%.'.].V Z V V ].i.Z I !.W A w #.:.:.:.h.h.:.}.g.M.'.#.*.a.<.}.e $.$.e e z $.z E I y b I Z w.p.f.f.#.#.|.:.|.s.<.:.%.#.N %.%.%.:.'.5.Z d I e k e G z Q ",
"8 l H H H H H H U H H H H H H U U U H H U U H H H l H 6 . l {.l ].7.& H   { l m l H H l H H l H H H H H H l l H H M M +.& U H M U t U 9 8.&     . i.|.'.m @   | 3 l 8 & . . . . / / l U F M M t 8.U ).).6.6.U M P +.P {.8.l.l.l.6 . . . . . ; ~ ; ; ; ~ ~ ~ ; . ; ; ; ; ; ; ; ; ; ; ; ; ; ; ; ; *     * * * * * .   . l 6 2 2 2 6 6 2 2 2 2 2 { 2 { 2 6 2 2 2 { 6 ; ; ~ . . . . . . . . . ; 6 6 2 6 { 2 * 6 * * *   * . * 2 * * { * * * { D D * @ . . { 3 { ^ ^ * * * ^ *     .   . l.0 |.g.g.%.|.t.Q ,+{ . | [ f f +.} n [ x.9 [ H   . 5.4.b+~.(.$.7.!.'+E+Q 5 9 {.. . @ ; l+B+H {.f 9 6 8 1 '+E+F / . 8.5.k.$.6.).{.{.{.6.$.R.b+b+b+'+b+5.9 6 t 8 l H 9 L $.~.O g.'.V 2.2.7.< t.4.t.T 4.0 ].4.4.].@+s g.~+V 4.W W 7.I W [.f.|.s.M.s.s.G.%.|.s.a.M.M.g.O f.w [.g.s.S f.N.t.%.g.$+0 4.f.G.a.g.f.,.w w+c+g.#.I i Z Z ].4.].2.d d ].!.+ > E+O.T =.T ].4.].j v.l.+ 1 ].|.|.*.>.].j . f.) 1.7 *.s c m 9 n F n i i i . . ).k.A A $.e , | k =.R . * # * n 4.'.].2.[.:.[.'.'.'.'.T '.[.p.%.9.h.#.q #.#.r.}.|.h.#.9.,.Z w+w+c+b+'+y.>.*.}.h.7 y M & ( ( i F F G G G G 1 1 1 G e 1 5.(.].5.5.3.k.5.V Z V :.< / . f [.:.%.%.:.=.'.A d $.G I = (.(.Z 2.< 2.1.R =.=.=.R R 0 N %.:.#.%.g.g.:.z z !.$.e z z z I I G G z W w '.<.<.O <.<.*.<.s.<.|.N S T u %.N %.#.'.~.I $.e v d I G G ",
"8 8 l H H U H H U H H H U H U U U U H U U U U H l H l ; ; H ` l ].7.- l { . l 9 H U H l H l l H l l l l l l l l l t M +.& F H +.U t M [ 8.&     . O.g.'.9 @   & l H H l l 8 3 3 . . . & & } m t m } F ).6.8.H 5 +.+.+.{.{.{.8.8.2 . . . . . ; ~ ; ; ~ ~ ; ; ; ; ; ; ; ; ; ; ; ; ; ; ; ; ; ; ; ; *     * * * * * * .   D 6 6 6 6 { { 2 2 2 2 2 2 { { 2 6 2 2 6 2 6 ~ ~ ~ ; . . . . . . . . ~ 6 l l l { { . 2 { { * . * . * 2 * * { * * * * 2 {   @ . . { 3 { ^ ^ 8 3 ^ ^ ^ *   . & . ;.7.S g.s.h.*.t.< & * . & F M M f m } n 6.[ L U . . 5.].b+Z Y ).v.Q w.b+G +.t {.&   @ . l+q+H {.f 9 6 8 1 '+E+m / . l.x.R.l.R.v.l.l.l.k.5.,+b+b+b+b+b+k.m H U U U 8 . + e Z <.$+b+4.V ,.,.< N.].4.w j.w ].].j.f.N.>.f.j.A i.,.W 7.d W '.t.g.s.M.s.g.g.%.|.++E.G.g.|.s f.w t.s.N.].f.t.[.O g.%.0 t.t.G.a.q.[.=.w q+/+|.s ~.x.I ~.].].V i.I I 4.$.= & E+'+T =.t.T T A < v.7.+ G b t.$+d+/+>.].. [.%.v.7 4 s K 9 9 n F n C C i = & $.5.j j Q [ + & G h.9.> * # . 9 4.'.].2.[.:.[.'.'.'.'.T '.[.N 4 N h.h.h.h.}.#.q N :.%.h.2.E z B , = = m y =.}.}.y y M & ( c i F F G G G G 1 1 [ e 1 ' (.(.].5.5.3.5.w.5.V V :.b / . f T N 4 N u N '.W Z ).G ~.I (.(.Z ~.d W R 4 u 0 N u N N N N #.%.|.N.G.s.z z !.Q z z z z I I Q G z I w '.e.<.O :.*.<.:.s.g.p.:.>.'.%.}.r %.:.T ~.I Q L L G G d d ",
"3 8 l H H U U H U H H H U H U U H H H H U U H H l H ~ . H ` l H ].!.- 8 D   H t H H H H H H H U H H H H H l l l 8 a +.+.& F H +.M m M [ 8.&     . R.g.T = @ @ . l H l H U H l H +.t l | & . + + = . = 9 m H 5 / M t +.{.{.{.8.+.~ . . . . . ; ~ ; ~ ~ ~ ; ; ; ~ ; ; ; ; ; ; ; ; ; ; ; ; ; ; ; ; *     * * * * * * .   D 6 6 6 2 2 2 2 6 2 2 { { { { 6 6 { { 6 6 6 2 6 6 ; . ; . . . . . . ~ 6 l 6 l 2 {   { { { * . * . * 6 * * 2 { { { * * *   ; . . { 3 { ^ ^ 3 * * ^ 3 ^ *     . , 7 j.|.g.h.M.t.e & 2 ^ . } } 9 = m [ n ).- v H * . k.].q+~.5.).7.z '+C+Q t {.,+A.{ @ . A+c+H {.f 9 6 8 1 b+E+m / . 8.5.k.{.6.).+.+.+.).Q x.b+'+'+'+b+5.| 6 8 l l 3 . e d ,.e.G.$+S V ].2.y t.V ].w j.0 ].].|.g.s.>.j.j.I !.2.W 7.< ].T t.s.E.M.g.|.s.s.|.s.E.M.q.s.:.f.0 f.s.t.4.j.j.'.:.s.[.0 t.f.q.a.q.[.R w ~+/+s.N ~.k.I Z 4.V ].i.I Z 4.Q } > E+'+0 u f.#.t.4.j 2.!.' P !.V :.g.G.s.O   @+p.1.7.g.>.( m 9 n F F C C C . . Q 5.A I !.b , & ' =.r . . ,   [ 4.'.].2.1.:.'.'.'.'.'.T '.[.N.h.}.:.q q #.:.%.%.|.:.N N ,.E . - = f M 8.;.R N R R B L & & ( i F n k G G G 1 1 1 k 1 1 5.3.3.(.m.w.m.m.3.j (.:.B . . ! w f.f.p.=.N '.W I $.Q Z Z I (.I I W y N N %.u :.%.q q }.}.:.}.#.g.s.g.z z $.Q z Q z z I Q $.G z W W [.g.g.s.N.N.$+g.s.%.|.q >.[.N %.N #.:.T V d e G f k G Q 2.",
"3 l H H H H H H U H H H H H H U H H H H H H l 8 H l . ; ` ` 6 H ].7.> 8 `   8 t l H H H H H l H l l l l l l l l 8 a M M & F H M t m M [ 8.&     . O.|.w = @ @ . 8 H l l H l l H 5 5 l F m t +.M / . . & & / + + {.m H {.{.8.8.U ; . . . . . ; ; ; ~ ~ ; ; ; ; ~ ; ; ; ; ; ; ; ; ; ; ; ; ; ; ; ; *     * * * * * . .   D 6 2 { * { 2 6 6 6 2 { { 2 { 6 2 * * 2 6 6 2 l l ; . ; ; . . . . . ; 6 6 2 l 6 6 * 2 { { * . * . * 6 { { 6 { 2 6 { * * * _ . . { ^ { ^ ^ { * * 3 6 3 . . ^ ; + ! N.>.O #.g.j.' &     . M t t t t v ' ).[ ' ^   . k.V w+~.Y ).i.z O.b+. . + 8.{.    . E+B+H {.f 9 6 8 1 b+E+m / . 8.k.x.8.k.k.l.8.8.v.k.,+C+b+b+q+C+k.t H l H l 9 9 $.j A $+G.|.S [.4.2.7 N.T ].T 4.0 4.4.|.|.N.'.4.i.' Q 2.W i.j 2.T s.s.a.M.M.g.g.G.|.q.q.E.q.M.g.t.0 f.|.j.4.[.4.'.|.g.[.] j.t.E.a.g.[.0 T q+/+g.0 i.k.I I ].].j.2.A Z 4.!.[ & E+'+s u p.%.[.].V w.i.+ v !.T f.G.$+$+q.  t.*.7 y |.V D t m n F n C  .C ^ } 6.k.A A W , , & k h.9.& * # . 9 4.[.4.2.1.}.[.'.'.'.'.T T T }.N q :.h.h.h.h.r.%.:.|.9.%.2.Z -+B+B+B+B+B+++*.r u ,.B P 9 ( ( i F n k G G G k k k G e 1 5.3.3.m.m.m.m.w.m.Z (.%.7 = . ! w :.}.}.#.N 1.W d I Q ~.Z d (.Z Z ,.W h.h.}.q }.h.#.|.R N N }.q <.e.<.z z Q z z Q z z I Q $.G z W ,.[.|.|.%.N q :.O #.N :.4 [.t.N #.N %.[.].~.Z e G f k k ).w.",
"3 l U U H H H H H H l H H H H H U U H H H l l l H ; . 6 ` H l H i.7.> l D   ; 9 l H H l H l 8 l 8 8 3 3 8 8 l l 8 a M M > F l t t 9 M [ {.&     & O.|.T } @ @ . ^ H U H H H H U M t l m 9 m M M ~ . ^ 8 3 ^ .   U ; 3 3 3 H H 8 ; . . . . . ; ~ ~ ; ; ; ; ; ; ; ; ; ; ; ; ; ; ; ; ; ; ; ; ; ; ; *     * * * * * . .   D 6 { *   . * { 6 6 2 2 2 2 2 6 { . * 2 6 2 2 l l ; . ; ; . . . . . ; 6 6 { l 6 l { 6 2 2 * . * . * 6 { { 2 * { 6 2 * { 2 _ ; . * ^ { ^ ^ l 6 l l 6 ~ . . . @ . !.j.g.g.:.|.N.= . 2 * . 9 } } } - 9 [ k.L [ 3 { . k.V w+2.(.k.v.Q O.l+. +.+.{.| * _ . l+q+l {.f } 2 3 1 '+E+9 / . 8.k.x.8.).).8.{.+.).$.x.b+'+'+'+b+).| 6 l H H 9 v !.0 V e.e.O O O [.2.0 N.T T w i.w i.].g.j.N.].Z e + L ~.I i.j j.T M.q.a.M.s.f.f.t.|.g.g.E.q.g.%.f.0 [.|.f.[.'.'.'.h.|.#.0 t.t.a.a.q.f.N 0 b+@+>.] i.x.Z A ].].j.i.I Z 4.i.- . E+b+4.#.r.}.'.2.5.v.v.= f b , , $ *.O O   T g.t.,.$+t.* m 9 9 n n C  .C . . ).2.A W 7.y , & 1 9.=..   # * n j.[.4.2.1.}.[.'.'.'.'.T T T p.p.p.}.#.q N #.<.q N :.9.N ,.1 z+z+m+z+z+z+F.o r u W d e [ c c i F n G G G G k k k G 1 1 5.3.3.3.m.m.O.m.3.3.j }.< 5 . ! w #.:.9.#.u 1.,.Z $.).~.Z I (.Z Z I W N %.%.%.h.p.#.:.w 0 4 :.O s.q.a.e z Q z z $.z Q I Q $.G z W w T N :.q N q #.#.#.4 :.q S [.#.%.r %.:.j.~.I G e f Q G I ~.",
"8 H U U H l H H H l l l l l l H H H H l l l l l H . ; H H l H H i.!.> H D 6 . 9 H H l l H U U U U H H l l l l l l a M M | m H m m 9 M [ {.&     . w.|.T } @   & . l U H H H H H m 5 l F m m M M @ . 3 l l 3 .   ; . ; ; . ~ ; ; ; . . . . . ; ~ ~ ; ; ; ~ ~ ; ; ; ; ; ; ; ; ; ; ; ; ; ; ; ; ; ; *     * * * * * * . . D 6 { * .     * 2 6 { * * 2 { 2 { . . 2 6 2 2 l l ; . ; ; . . . . . ; 2 2 { 6 2 2 * 2 2 6 * . * . * 6 2 2 6 { 2 6 2 { 2 2 6 ; . * ^ { ^ ^ l l l 6 3 ~ ~ ~   @ + W @+P.M.|.s t.k * @     & | | } } ' v v.! ' ^   . ).A b+~.(.).!.e O.C+> {.t m . * @ . l+q+8 +.[ } ~ ^ [ '+E+9 = . {.).6.P 6.).8.8.{.6.$.x.b+'+O.'+'+).| l 3 8 8 9 ).v.w >.$+G.G.G.|.N.T w i.T T w i.w i.2.4.w.~.k [ . + v ~.A 2.j j.S ++s.s.s.j.t.2.T >.g.E.%+M.g.O f.] '.[.[.[.'.'.'.h.h.[.] 4.f.a.a.q.f.%.0 b+b+j.0 2.w.I I ].].].i.~.Z V 7.- . E+b+4.u #.}.i.i.Q - G ' z !.W t.N.d+$+s.@ ].g.2.w $+t.* m 9 n n n C  . .^ } ).2.0 w ,.7 + & G r.9.> * # * n j.[.4.,.[.:.'.'.'.'.'.'.T T %.:.%.N %.N.$+p.:.}.|.|.#.N 2.d q+w+d+w+w+C+$+*.r u T W k [ c ^ i F n G G G G k k k k [ 1 5.3.3.m.m.m.w.m.w.q+b+[.< / . , T :.f.N.}.u 1.W ~.).).~.I Z Z I Z B W '.'.T %.:.}.}.}.1.1.}.p.g.$+%+q.e z Q z Q $.z Q I Q Q G z W w T :.}.q #.#.%.h.N.$+~+t.t.t.:.:.%.#.%.4.A d G e f Q G d I ",
"8 H U H H H H H H l l l l l l l l H H l l l l l ~ ; 6 ` ` H ` ` i.I } H D D . | H H l l U U H H U H H H H H l l l a ;.M | c H t m 9 M [ {.& .   . w.|.T & @ @ ^ . 8 H U H H H H H t U U F m m f . . ^ c c 3 . . { . 2 2 l D { 6 ; . . . . . ; ~ ; ; ; ~ ~ ; ; ; ; ; ; ; ; ; ; ; ; ; ; ; ; ; ; ; *     * * * * * * .   D 6 2 2 2 * . * 2 6 { .   * * { { * * 2 2 2 2 6 6 ; . ; ; . . . ; . ; 2 2 { 2 * *   { { 2 * . * . * 6 2 2 6 2 6 6 { 2 6 6 6 ; . * { { ^ ^ 3 3 ^ ~ ~ ^ 3 3 . . a Q C+B+B+w+w+~+[ . @ *   3 | | F } + f R.! P H { 3 k.].w+~.5.).v.e '+b+. {.9 {.c *   . l+q+8 +.f } 2 3 [ '+E+| = . 8.5.k.8.).$.+.{.{.).Z x.b+'+'+'+'+5.9 H D l 8 9 k.R.w %.$+e.E.%+G.$+'.w T T W w i.0 i.,.Q 6.} . . & } L ].V 2.A j.>./+M.g.s.w.i.b + f.M.E.M.s.s.|.t.w [.[.'.4.f.'.w h.p.[.! ].N.G.E.|.s N T C+'+t.w 4.'+Z Z 2.j.V i.~.Z V (.[ > E+b+S 4 9.h.W = . . 9 + ~.2.b O.O.j.t.|.  V s.i.4.*.0 H 9 9 n F F C C C . & Q ~.0 ,.i.y , & [ =.r . * , * n j.[.4.,.[.:.'.'.'.'.'.'.'.'.}.p.$+N.h.h.}.4 #.:.s #.o #.2.1 q+w+w+w+w+C+N.4 r R W R.5.n ( g i F n G G G G k k k k ' ' k.m.3.m.m.w.O.O.O.w.x N < 5 . ! w N w %.N 4 [.W 2.).Q ~.Z Z (.Z 2.,.y ,.,.].N.[.=.h.:.] w =.%.O <.a.a.e z $.z Q Q z Q I I Q G Q W T '.}.f.:.f.}.:.#.:.#.O N S s u u %.%.:.j.V Z Q P f z G I Q ",
"l H H H H H H l H l 8 l l l l l H H H H H H l l . ~ H H ` ` ` ` w.I n H D ` . & U U H H U l & . & & & 3 l l l 8 l a ;.M 9 c H t m 9 M [ {.& .   . ,+s.T & @ @ | ^ 8 H U U H H U M t H F 9 m t t . . 8 F F | . . ` * *   6 D { 6 ; . . . . . ; ~ ; ; ~ ~ ; ; ; ; ~ ; ; ; ; ; ; ~ ; ; ; ; ; ; ; ; *     * * * * * * . . l 6 6 6 l .   * 2 l 2 * .     * { * { 2 2 6 ~ 6 6 ; ; ; ; . . . ; . ; 6 2 { 6 { { . 2 { { * . *   * 6 2 2 2 2 6 2 * { 6 6 6 ~ . * { { ^ ^ ; ~ ^ ^ ^ ^ ~ ; * . = d y.y.y.>.>.t.- * @ @   F+F+A+F+l.v ' ,+! L l * 3 5.V b+A 5.Q v.- b+'+& l.{.8.F 2 @ . l+c+l {.f 9 6 8 1 '+E+9 / . 8.5.k.8.x.6.8.l.l.x.5.,+b+b+b+b+b+k.m l 6 l 8 } ).w.s s.G.G.%+E.E.$+t.! T T T w t.T 2.w n | & * * . . 6.4.].i.V w.|./+s.M.g.b + + , @+M.E.G.g.g.:.t.w f.f.'.j.N.[.$ %.p.#.0 j.f.a.E.G.'.%.s u., V '.j.O.Z I i.O.].4.Z (.].Z [ . E+b+S %.h.N.7.. m 8.8.> A V < j , A 0 0   0 s.].4.<.T ~ [ | n F F C i | . & Q ~.0 ,.1.] , | k 9.=.& * # * n j.f.4.2.[.}.[.[.'.'.'.'.'.'.}.N q q ) N h.}.:.h.|.p.#.N ,.E z+z+z+z+z+B+++O r u w ~+5.| & g i F n G G k G k k k e = ' k.m.m.m.u.O.u.u.u.].V #.B / . , 0 :.N N #.u '.0 ~.5.).I ~.Z Z I 2.,.! ! ! < 2.0 ] }.N ] w R N *.e.a.a.1 z $.z Q Q z Q I I Q G z I w '.f.#.N #.N #.q }.#.%.f.S 0 N N N #.[.4.V Z z $.[ d I Q Q ",
"6 H H H l 6 l l l 8 8 l l l H H H H H l H l U & . H H U U t U M w.n D ` U t l   U U H H H D .       . 6 l l l l D 9 !.e ^ 6 l m l 8 t 9 {.. .   . v.4.V + @ . 9 t . +.+.M 5 {.m t t H H t L Q Q * . H U 9 H .   /.* * . D ` * 8 . . . . ; . ; ~ ~ ~ ~ ; ; ; ; ~ ; ; ; ; ; ; ~ ~ ; ; ; ; ; ; ; ; *   . * * * * * @   * l l 2 3 8 @ . ~ 6 8 / / / .   * 2 2 2 6 2 2 6 6 2 ~ ; ; ; . . ; . . ~ 2 6 2 2 6 2 . 2 * 6 * . . * * 2 6 2 ~ ~ ~ 2 ~ ~ 2 6 6 { * * ~ ~ ~ ~ ~ ~ ~ ~ ~ ~ ~ ~ @   ; b h.<.g.>.a.t.' @ @ @ & F+F+E+F+U l H ,+- / m } [ !.Q ,+W !.Z 2.< b+E++ P ,.I > {   . A+B+8 {.n 9 6 8 ' @+E+n * . 8.k.v.k.R.6.6.6.6.k.$.R.b+'+'+'+'+).9 l h } Z @+c+++~+N.t.G.%+B.*+$+t.< T 0 w w t.Q +.. = & & & @ # . ).2.W i.w N.h.$+G.a.g.O.(.Z ! E.*+++q.a.*.T i.V g.A + ! N.f.s.>.[.].< #.g.g.G.G.|.T ! } = 7.].j.O.d ~.4.w.4.4.Z I V !.' j C+q+s h.|.|.j.4.O.i.k.= W 7.1 n n F $.G . $.t.%+d+] d 9 m | m m 9 m 9 9 = + M !.7 W f.w & + ! 7.W + . . . v f.[.[.2.4.:.].].].].T =.=.=.u h.N.h.N.g.|.:.%.N #.%.N 0 W d m+B+q+B+B+B+c+%.4 u T A I G & 3 i F F F F F F n k k [ = = $.O.m.O.u.u.O.'+u.A ].%.B / . , w :.N.t.@+p.'.A 5.7.W (.(.~.Z I !.i.+ > . = ).z ' 9 = , B y R 9.$+%+B.z z Q e I I Z I I (.I z I W w T p.#.p.%.#.#.#.9.O <.:.:.q #.%.%.#.}.,.W z G Z d Q Q Q $.",
"l H H l l l l l l l l l l l l H H H H H H U l . 6 H l H U H U M v.n 2 D U M l   l U H H H D . . .   . l H H H H l 9 !.v l D D 9 H 8 t 9 {.. .   . i.].A = @ . [ H . t +.M 5 +.m t H H H t v z I . . H U 9 H .   /.* ^ * D D { 8 . . . . ; . ; ~ ~ ~ ~ ; ; ; ; ; ; ; ; ; ; ; ; ; ; ; ; ; ; ; ; ; *   . * * * * * @   * 6 6 3 3 8 @ . ~ 6 8 / / / .   * 2 2 2 6 2 2 6 6 2 ~ ; ; ; . . ; . . ~ ~ 6 2 6 6 2 * 2 * 2 { * . * * { 2 { ~ 2 2 ~ ~ ~ 2 6 6 { * * ~ ~ ~ ~ ~ ~ ~ ~ ~ ~ ~ ~ * @ ; 7 h.<.g.>.a.j.= @ #   . A+F+A+E+8.. . ,+' = m } L !.Z l+V ~.,+O.w.b+v.1 v.2.i.6.l @ . E+q+8 {.9 } 6 8 1 ~+E+n * . {.5.5.).6.Q ).).).6.Q R.b+b+b+b+l+5.| 6 6 t k.w+B+c+c+g.G.%+G.*+E.G.[.w ,.I T w !.' } = = & > & @ # . 5.2.V i.w t.}.s.g.G.M.~+O.i.< g.q.M.|.a.*.'.i.s g.j.2.,.@+>.s.|.[.].w t.*.*.g.G.|.f.b = + ~.].4.k.I I j 4.V i.~.Z V !.- (.C+q+s h.T '.4.].i.5.6.+ I I [ n - [ G G . P f.G.q.f.!.& 9 | m m 9 m 9 | . . t P < W 1.w & + ! !.B + = * . v f.[.[.2.4.:.].].].].T T R R p.:.#.#.N ) q g.#.#.:.9.}.'.2.I m+B+q+B+m+m+++4 R u T V d > | 8 i F F i F F F n 1 k n = + e '+m.u.u.O.O.O.O.'+C+%.B = . ! T N #.].q r f.V Z ~.,.A Z (.Z I I 7.= [ P - !.z - [ = + B W R }.G.q.a.z z Q e Z Z (.Z Z (.Q Q Q W w T $+h.p.h.9.9.9.h.s.G.s.|.}.:.}.#.#.}.2.!.Q G I d e z Q $.",
"l l l l l l l 6 H l l H H l H H H l H H H {.& . H ` l H U H U M w.9 l D U +.H @ & U H H H 6   . . . . l H H H H D m !.e 3 D D t H l M m {.. .   . i.V A = @ . [ M = 5 +.M m M t H H H H t t L z . . H U m H .   /.* l 8 D D 3 8 . . . . ; . ; ~ ; ; ~ ~ ~ ~ ~ ; ; ; ; ; ; ; ; ; ; ; ; ; ; ; ; ; *   . * * * * * @   * 6 6 2 8 l @ . ~ l 8 / 5 5 .   * 2 2 2 6 2 2 6 6 2 ~ ; ; ; . . ; . . ~ ~ 6 { 2 2 2 . { . * *   . * * 2 2 { ~ 2 2 ~ ; ~ 2 ~ 6 { * * ~ ~ ~ ; ~ ~ ~ ~ ~ ~ ~ ~ .   ; b s.q.q.|.a.t.-   # @ . R.E+E+C+P = = R.1 = 9 [ G $.d E+j ~.O.4.V j.i.! k.7.i.6.    . E+q+3 {.n } 2 3 1 ~+E+9 * * 8.v.R.x.k.).6.6.).6.Q v.'+'+O.O.'+).| l ^ [ 3.c+/+/+/+|.a.a.a.G.f.t.i.i.R.v.v.L f } = . = & > & @ # . 5.3.].w.w t.|.s.g.f.t.@+$+@+0 V 2.4.S g.<.[.t.s q.u.t.T j.S M.|.:.4.$ f.|.q.g.|.O :.< [ + 0 0 ].w.Z I A j.].O.i.Z V 7.+ k.q+B+0 h.w T ].A 5.5.{.. w.Z e L [ F Q G . P T *.q f.I = | > n n 9 n [ | = & M P < ,.f.w & = ! ;.y + ; * . v f.[.4.2.4.:.].].].].'.T '.'.%.q N p.N.N.s.|.N #.:.:.:.T ,.' m+B+q+B+B+B+/+4 r R w b+Z P | 3 i F F i F F F F k k n } + ' '+m.m.u.'+O.'+u.u.'+#.B / . , T N N 4.q q [.V Z ~.y 5.5.k.Z I d 7.< + 6.! W y , f f + f 7 ] %.e.e.a.z z Q e Z Z (.Z Z (.$.$.Q W w T h.9.%.%.N #.#.N *.:.%.N :.%.}.#.q }.2.!.$.G I d 1 e z Q ",
"6 l l l l H l l H l l H H H H H H H H H H H . ^ H H H H U H t M W . 6 D m 9 l _ . U H U ` 2 . . . .   H H H l l D t !.' ^ l D t l l t m {.& .   + i.V A = @ . [ +.5 = +.M t H M U l l l l M P z . . U U m l . . /.. D D D D 8 8 . . . . ; . ; ~ ; ; ~ ~ ~ ~ ; ; ~ ~ ; ; ; ; ; ; ; ; ; ; ; ; ; ; *   . * * * * * @   * 6 6 2 8 l @ . ~ l 8 5 5 t . . * 6 2 2 6 2 2 6 6 2 ~ ; ; ; . . ; . . ~ 2 6 * { 2 2 * 2 . { *   . * * { 2 * ; 2 2 ; ; 2 2 ; 2 * * * ; ~ ; ; ~ ~ ~ ~ ~ ~ ~ ~ &   & d s.a.g.>.g.N.[     @ . x.3.C+E+k . . R.1 9 F n G Z j E+j W w.4.].t.O.d R.y !.).. ; . E+q+3 {.n 9 2 3 ' ~+E+9 . . {.5.5.$.).$.6.6.$.6.$.R.b+~+'+'+'+).| 6 8 k m.q+m+/+c+g.%+G.N.i.!.} - + ; . . . . / ; 3 = & | & @ # & k.(.].w.s N.j.N.j.2.f.p.N.N.] ! 5 + , g.g.s.N.q G.y.++'.t.>.++|.R ].< f.g.g.<.O g.}.0 z I V #.[.w.I I V j.V w.i.Z V !.+ w.q+B+0 9.y W W A $.6.{.. i.~.1 k n F Q k . !.j.|.O '.d } | > n n n n [ > . . 9 f , W 1.0 ^ } f ;.y + / * . f f.[.[.2.4.:.].].].'.'.T '.[.p.h.g.:.:.|.:.q 4 q #.#.%.T ,.d z+B+w+B+z+B+/+4 r u w @+(.[ | 8 i F F i F F F F k k n n + = k.w.O.O.O.u.'+O.>.u.w B / . ! '.[.f.j.N.p.f.V Z Z ,.w.5.5.Z I d 7.b + !.! y W ] W y f ! ! ! h.$+d+%+z z Q z Q Z (.Z Z (.Q $.Z W w '.9.h.%.9.%.%.%.N *.:.*.#.:.%.:.N q }.2.!.$.G I I e e z G ",
"6 l H l l l H H H l l H H H H H H U H H U . & H l H H H U H t +.W . D ` H t U ` . H H U ` { . . . .   H H H l l 6 t !.e l D l m l H t m +.& .   + v.].j . @ . > {.t & M M M t M H ; . ; & m P e . . U H m 8 . . b.  D D D D 8 3 . . . . ; . ; ~ ~ ~ ~ ; ; ; ; ~ ~ ~ ; ; ; ; ; ; ; ; ; ; ; ; ; ; *   . * * * * * @   * 6 6 3 3 3 @ . ~ l 8 5 m t . . { 6 2 2 2 2 2 6 6 2 ~ ; ; ; . . . . . ~ 6 l { 2 6 l 2 l 2 6 { * * * * * *   . ~ ~ ; ~ 2 ~ ; 2 * * * ; ; ; ; ~ ~ ~ ~ ~ ~ ~ ~ &   & I M.E.G.|.a.f.+ ; @   | E+q+q+'+G = + R.z } t F 1 $.Z C+Z 2.i.j j.w.V + v.W v.5.- / . E+B+3 {.n } 2 ^ ' ~+E+n { { l.R.R.k.R.v.R.v.).6.$.R.b+~+~+'+b+5.m H l k m.q+m+/+c+g.G.f.7.m ; . ; = ; . . . ; ~ . 2 / ^ | ^ @ # = k.V ].u.0 t.j.i.Z f W =.}.f.! = ; & < ++M.$+M.q G.S s.#.t.S s.>.=.w ] N.s.q.G.s.$+|.N w.O.j.|.[.v.Z Z ].].V 4.i.Z V !.+ k.q+B+s :.7 W W I $.k.+.. j 2.1 G G k Q E . $.N.f.#.w !.} 9 [ F F n F [ | & & m f ! !.i.w . = ! ;.7 + .   . f f.[.[.2.].:.[.'.'.'.T T T ].e.g.s.e.N.e.<.g.[.}.h.9.:.T W I z+B+q+B+B+m+c+N r u 0 w.k.& | D i F F F F F F F k k k k + d j O.O.O.O.O.'+'+x '+u B / . ! T N N s %.N '.V Z ~.7.5.~.5.Z $.I 7.e = f b 7 ,.y 1.y ;.f 7 7 :.e.q.a.e z $.z $.(.(.Z Z (.Z Q I W w [.%.h.#.9.:.:.9.:.e.s.g.h.}.}.:.%.:.t.2.!.$.z d I e z Q Q ",
"6 l H H l l H H H H H H H l l H H U H H H . 8 U H H H H H t t {.,.. l D m t H ` & 8 H U ` * . . . .   H H H H H l M !.[ l D D t H U t 9 M & .   + R.4.j . @ . | {.+.& t M H t M H . .   . t +.e . . U t m 8 . * b.  D D D D 3 3 . . . . ; . ; ~ ~ ~ ~ ; ; ; ; ~ ; ; ; ; ; ; ; ; ; ; ; ; ; ; ; ; *   . * * * * * @   * 6 6 ; ; ; @ . ~ l 8 5 5 5 . . { 6 2 2 2 2 2 6 6 2 ~ ; ; ; . . . . . ~ 2 l * * 2 6 2 l 2 l 2 * . * * * { * . ; ; ; ; ~ ~ ; 2 * * * ; ; ; ; ; ; ; ; ; ; ; ; .   & B N.G.G.g.G.N.- ~ #   . R.'+C+b+1 . # R.1 & 9 M - $.$.b+A R.i.V 2.O.i.+ ).!.R.5.1 M + l+'+3 {.[ / ~ 3 1 b+E+9 . . {.5.5.$.$.Q ).).G ).Q R.'+O.O.O.'+$.| 6 8 [ 3.c+c+/+c+s.N.j.0 ! + } ; . . } m ; ; 6 ~ ^ = ^ | ^ @ # . 5.(.].w.] t.,.Q - . = ! 7 B = / ; ; 1 M.E.++g.4 g.*.M.#.N.|.++j.f.'.< t.g.q.|.O O *.#.b+q+M.|.h.N.(.Z 4.].4.2.i.Z A Q + k.q+B+s }.] y y W ~.v.P = A O.d G Q 1 $.Z & [ 2.N.s w 7.f k 1 G G G G k [ . . } [ , W 2.w & ' f 7.W = / { . f f.[.[.2.].:.[.'.'.'.'.T V ]./+$+s.*.s.*.%.<.u q :.%.%.w A Z m+m+q+B+B+B+q+}.4 R 0 @+R.G > 8 i F F F F F F F n v k G ' Z ' O.y.P.'+'+'+'+s y.u B 5 . + w u #.S 4 r f.].Z ~.W (.5.k.~.I Z !.Q - - !.W W ] 1.7 f - B ,.[.e.q.q.' e Q z Q Z (.Z Z (.Z Q I W T [.h.p.h.p.p.p.N.N.<.e.|.g.%.:.%.#.:.f.,.W Q G d I e z Q G ",
"6 l l l l H H l H H H H H l l l H H H l ^ & l H H l H l l t t {.i.+ D D H +.H ` 8 & H U H * .   . . . H H H H H D M $.+ ^ D D H H U 9 = 9 .     . v.4.A . @ . [ +.{.& 5 M t M M ` .   . ; H {.f . . U m 9 3 . * b.. D D D l ^ 3 . . . . ; . ; ~ ~ ~ ~ ; ; ; ; ; ; ; ; ; ; ; ; ; ; ; ; ; ; ; ; ; *   . * * * * * @   * 6 6 ; . . @ . ~ l 8 / / /   . { 6 2 { 2 2 2 6 6 2 ~ ; ; ; . . ; . . ~ ~ ~ * * { 6 { 6 * 6 { .   . * 2 l 6 ~ ; ; . ; ; ~ ~ { * * * ; ; ; ; ; ; ; ; ; ; ; ; { @ ; 7 h.a.<.s *.j.+   # _ & 6.V '+'+9 =   8 . ^ 5 t } L Q ,+1 ).$.i.2.v.v.. M W 2.5.$.v.+.O.c.^ +.[ / 2 3 ' ~+E+n 2 * 8.k.v.x.k.6.v.k.).6.).R.b+b+q+q+l+k.m l 2 m k.q+q+c+c+g.@+N.g.s.N.N.$.. , !.+.. . 2 8 . = & > & @ # . ).).~.j.0 t.I 9 . & / / / 5 . 8 & @ [ s.E.d+M.#.N.|.N.N N.>.M.|.N ].< |.M.g.|.s.$+e.O ~+q+++G.p.N.Z I ].].].].~.I j $.+ w.q+C+s h.y R y ,.2.R.Q e ].w.1 k G 1 E E & - 2.N.'.].Q f G k G G G G k k & & 9 n e W 2.T & + ! ;.y + .   . v f.[.[.2.4.:.[.'.'.'.].].V V O g.G.<.<.<.r.r.}.}.p.9.h.'.W $.z+m+q+w+B+m+/+u r 0 T i.R.> m 3 i F F i n F n F n v k E 1 5.1 k.@+y.P.P.@+@+u.c.4 b 5 . , T f.N.j.t.$+~+].A ~.W 5.k.w.~.d Q !.$.& - Q W ,., 2.w } + b 2.#.*.e.a.+ e Q e I Z (.Z Z (.Z Q I I w [.#.%.#.#.%.N #.:.<.e.:.:.#.N N q N }.T B Q G I $.[ e Q G ",
"l l l l l H l 6 H l l H H l l H l l U 8 . l l l H 6 H 8 l m 9 {.2.. D D m t 8 J H . H U H *   . . * . H H H l l 6 M !.- 8 D l t H U } . = . .   . i.].A . @ . [ +.{.& = M 5 M t H     * . l +.f . . U m 9 ^ . * /.* D D D 6 * 8 . . . . ; . ; ~ ; ; ~ ~ ~ ~ ~ ; ; ; ; ; ; ; ~ ~ ; ; ; ; ; ; ; ; *   . * * * * * @   * l 6 ~ & & ; . ~ 6 3 = = ;     { 6 2 { 2 2 2 6 6 2 ~ ; ; ; . . ; ; . ; ; ; 2 2 2 l 2 l { l 2 * . . * 2 D l 6 ; . . . ; ; ~ { * * * ; ; ; ; ; ; ; ; ; ; ; ; * @ ; b h.e.g.>.a.t.+ @ @   . x.v.,+R.9 @ ; 8.C . . . = } f ,+' n e + = Q n = t B < j e 8.L k.O.& U [ } 6 3 + O.l+> { . +.Z I k 1 [ G G [ k ' ).m.3.c.c.m.d . ; ; } I 4.|.|.g.s :.*.*.a.a.a.[.I T W e / 8 . 3 = / ^ | ^ ~ ~ . 5.!.W 2.w t.b = ; & ; * _ {   m } @ [ g.E.d+g.0 }.*.N.R N.O M.|.T ].w %.M.*.G.s.|.q.O @+/+a.a.h.@+Z ~.].].V V Z (.< !.= O.q+C+0 p.R =.w V ,.w.I G < V 1 $.G [ E Z . f 2.< T 2.e v G k G G G G G k & & 9 n 1 W 2.T l } f 7.;.= = * . v f.[.[.2.4.}.}.[.'.'.].].A j q.G.$+$+s.e.<.q N #.}.N %.'.W Z m+B+w+w+B+B+c+u R 0 T w.(.k F 3 i F F i n n n n 9 v k d 1 (.I Z ~+y.@+@+@+O.c+>.u b / . , w u #.'.N 4 '.].Z I ,.A (.5.~.I !.$.Q & > + Z 2.0 i.w +.+ ! ,.s |.G.E.' z !.z I Z (.Z Z (.Z Q I A 0 '.h.h.h.9.p.%.%.9.%.:.:.%.:.#.:.#.q :.T I $.G I $.1 z Q Q ",
"l l l l l l l l l l l l H H H H H H H . ; H 6 l l H l l H 8 9 8.^.> m H h H 8 t H . ~ ` H . . . . . ; l H l l l m M {.= t 8 H 8 l l } m 9 .   . . M + 9     . } U U l . l H 3 H H . . . 8 5 t f . . H l l . . 2 b.^ H ` l l ^ ^           . * * ; ; ~ ~ ~ ~ ; ; ; ; ; ; ; ; ~ ~ * * * * * * * * *   . * * * * *   . * D 6 2   { * * { 6 6 { * *   * { 2 2 2 2 2 ~ 2 6 2 ; ; ; .   . * . * * * * . * { 2 2 2 2 6 2 *     * 2 6 l 3 8 * * @ @ @ @ { * . * * { * * 3 ^ & ^ ^ & ; ; * * . d ++E.E.>.a.N.+ * @     l.l.l.{.& & | l.H {     . & + ,+I z ;.f b @+j.+ m $.' Q W R.2.q+q+& +.a = _ = < c+A+& 2 . k.w.w.v.'+O.O.w.w.O.O.'+l+b+l+l+A+x.-.x.).' 3.q+c+/+/+s.G.E.*+E.*+/+g.s ,.! ^ . & - ^ @ / = 3 ^ . & & 6.).d 2.7 R.b + / ; 2 ~ ^ ; . ~ ~ . m e+%+$+G.z M.S t.'.t.'.@+'.T N.] g.G.q.E.q.|.E.q < A T [.t.!.V V ].4.V I I I ).$.+ R.b+w+O r.%.T w W Q v.I ~.b e G G G k Q Q & Q 2.N.q.e.1.f k k F F G P G k ; & Q Z j 2.7.y ^ & ! W 7 + . *   L f.:.}.'.[.|.4.'.4.].T '.N h.e.q.e.e.O q 9.N %.#.j.h.=.}.].Y B+w+B+B+B+w+c+q r R 0 4.j k i c 5 t m M F 9 G G E E E G - 5.v.+ '+O.++P.++'+C+3.s I ^ . , T u u #.s N T 2.W Z ~.I Z ~.i.I ~.Z Z b < d [ (.1 W w 1.] < y d V s.*.7 I Z d Z Z (.Z I $.G $.z I T t.N :.9.#.%.:.N.N.g.g.g.}.%.:.9.R <.9.'.Z I Q Z Z e z $.Q ",
"6 l l l l l l l l l l l l l l H H H ~ . ^ l H l 8 H l l H 8 t l.^.| m H h H l t H ^ . ` H . . . . . ; l H l l l m M +.& m 8 H 8 l l 9 m 9 .   . . {.' } .   . 3 U U H . 8 H 8 H H . . . 3 m v f . . H l l . . 3 {.^ H ` D l 3 ^ . . . . . * * { ~ ~ ~ ; ; ; ; ; ; ; ; ; ; ; ~ ~ * * * * * * * * *   . * * * * * . . * D 2 { * 2 * * { 6 2 { * *   * { 2 2 2 2 2 ~ 2 6 2 ; ; ; .   . * . * { { { .   . { 2 2 2 2 2 *   . * * 2 l 3 l { * _ @ @ @ { * . * . { * * ; ; ; ; & & ; ;   { & I N.q.s.|.a.t.+ . @ @ * l.l.l.{.| & & U 5 6   . * & - v.d < +.t Q @+t.1 U ).).Q I w.4.m.O.( {.' / ; | = /+E+} . . x.5.~.v.G+G+G+G+G+G+G+G+F+F+F+F+F+A+F+F+E+Z ].q+q+/+c+g.q.G.E.%+E.%+s.4 ,.- ~ * ^ & ^ @ / = ^ ^ . & = 6.~.A i.j v.z + / . ~ ; ~ ; . ~ ; . | *+*+$+E.e g.T N.f.t.'.N.'.T f.0 g.G.%+q.E.g.q.N I W w '.,.! V V ].].V I I B I L , R.q+w+*.r.}.[.T I e v.d Z B !.Q Q G 1 G G . L I p.e.e.2.m k k F F F P F k & . Q ~.A ,.7.;.3 = f ;.B = ; *   L [.:.}.[.[.|.4.].4.].].'.N f.e.q.q.s.g.%.p.N.}.:.[.%.r N V E B+q+m+B+B+w+c+q ) R 0 W j k | ( | F n i i i  .i E E i G ' k.O., O.O.++P./+b+w.A s d ^ . , T R R :.t.@+j.V I Z Z I Z Z 7.I ~.Z Z < y !.+ z b ,.7 ,., y b < w |.<.I I Z I Z I Z Z Z Q G Q z I T j.:.%.N %.:.#.N N O :.h.:.:.q r u q #.'.~.$.$.Z I e Q Q z ",
"6 6 6 l l l l l l l l l l l l H H 6 . ~ 6 6 ` l 8 H l l H l M l.).| m H l H l m H H . H H 2 3 2 ~ ~ 2 l H l l H 9 M M & 9 3 l 8 l l 9 m m .     . l.e } .     8 H U H ^ & H l H H . . . ^ 9 L e . . H 6 l . . ^ {.; l H D D 3 ^ . . .   . * * { ~ ~ ~ ; ; ; ; ; ~ ~ ~ ; ; ; ; ; * * * * * * * * *   . * * * * * .   { ` 2 * * { . * 2 6 2 { * * . * { 2 2 2 2 2 2 2 6 6 ; ; ; .   . * * * { 2 2 * .   . { 2 2 6 { * . * * . { D 8 l { { { @ @   * * * *   * * * ; ; ; ; ; ; ; ; .   . B $+G.M.4.s.t.+ . @ @ . 8.x.l.{.9 & . / m l   . * ^ 9 ).1 B L } z O.t.I +.Q G Q i.w.w.w.'+( C 1 . D & j /+A+' . . 6.Y 3.O.G+G+G+G+G+G+G+G+G+G+G+G+G+G+G+G+v.1 V c+c+/+/+>.N.g.g.g.q.G.N.R ,.+ ; { ^ = ^ @ = = ^ ^ & - - k.i.W i.B !.f = / ; 2 ~ 6 2 ; ^ ; . 9 *+%+$+G.e g.T @+'.'.T N.[.'.'.] |.g.d+a.q.g.g.T Q Q A T W + ].].].].V W W I (.!.- ,+b+w+O |.N [.2.!.e k.I ).! 7.k G G 1 Q Q   m = f.a.g.].n k k F G G P F G ^ . Q (.A W 7.!.& & f ;.B + .     G [.:.[.2.[.[.f.].4.W W T N }.q.<.<.<.p.|.9.:.q #.'.}.=.N V E B+w+m+B+B+w+c+4 u R w W I k 8 c i C C C E i C C k P k k - w.O.S A O.O.y.P.~+4.m.S d ^ . + w N R N s N '.V ~.~.Z Z Z Z 2.d Z Z Z 7 y W , ;.b ;.7 i.< !.b 7 t.$+d+,.I Z Z (.I Z ~.Z d G $.z I w T }.:.#.9.9.}.4 q :.:.%.q h.N q N N N T I Q $.Z I Q !.$.z ",
"6 6 6 6 l l l l l H H l l l H H H ~ . l l l H l l H l l H H +.8.C [ l H l H m m l H . 6 ` l H H l l l H H l l l 9 +.M & m 3 l l 8 l 9 t m .     . v.z - .     8 H U H 8 . l H H l . . . & 9 $.1 . . l 6 6 . . ~ ` ; l H l D 3 ^           . * * ~ ; ; ; ; ; ~ ~ ~ ; ; ; ; ; ; ; * * * * * * * * *   . * * * * * . . 6 /.6 * * *   * 2 6 2 * * * . * { 2 2 2 2 2 2 2 6 6 ; ; ; ; . . * * * * { 2 2 * .   . * 2 6 2 .   * *   * D 6 l { { {   . . * * { {   * * . ; ; ; ; ; ; ; ; . . ~ L [.#.'.,.f.i..   @ @ ^ x.l.l.{.9 & & ; ` l     * ^ t n e W f = n i.i.$.8.).k.I Z i.j.A '+& U - / { . . '+l++ + ; P 3.b+O.      . & > > > | & . 8 . . + = + Z 4.P.++++M.g.O.4.0 M.$+C+h.R 7.+ ; ~ = = 9 * & ~ / / } [ ' v.w.2.w.b [ - = / ; ~ ; ~ ; . ; . . | *+E.$+E.1 g.0 N.T j.f.~+[.T 4.] :.|.$+g.s.|.g.T z L I W W [ ].].].].~.~.~.W Z Z + l+b+B+S }.u '.i.!.z 6.Q k.< v.G G G 1 $.G * 9 + g.E.a.].[ k 1 G G k F G G ^ . Q (.A I 7.;.3 } v 7.W ' & *   Q 4.[.[.2.2.[.4.].2.,.,.].'.t.s.e.N.p.N.p.N.p.}.f.'.:.#.u V Y B+w+B+B+B+w+c+4 R T T Z $.n c F i i i F F i C  .[ P v k - w.O.c.+ '+'+P.P.b+O.'+>.d ^ . + w R R #.4 w '.A A Z Z Z Z Z ~.d ~.Z Z W b < ! M + , + I + !., ! :.e.a.,.I Z Z Z I Z ~.Z d G $.z I T T s :.%.%.%.h.q N :.}.}.%.:.N :.N.G.p.1.~.Q Q Z I !.5.!.z ",
"6 6 6 6 l l l l l H H l l H H H l . 2 H H H l H H H l l H H M P | | t H l l 5 l l H . . ` 6 H l H l l l l l 6 l } +.m = t 3 8 8 8 8 } m m .   . . v.I '       l H U H l . 8 H H H ; . . & 9 ).1 . ; H 6 6 . . ^ ` . l H 6 l 3 { . . . . . * * * ; ; ; ~ ~ ~ ~ ~ ; ; ; ; ; ; ; ; * * * * * * * * *   . * * * * *   . 6 /.6 * * {   * 2 6 2 { * * . * { 2 2 2 2 2 2 ~ 6 6 ; ; ; ; . . * * * * * { { 2 { *     * 2 6 *   * * . * D 6 l ; ; ; . ; ~ { * 6 6 { { 2   . . * * * * * * / . . m i.f.i.7.t.v.= @ @   . 8.8.8.{.^ ^ 6 ; ` l   . * 3 H } v B } . m !.I d {.n 6.Z ].O.~+3.'+~ M , 5 @ _ = b+l++ @ . P w.E+~+k.x.x.k.). .5.k.5.k.x.).6.+ d b+1 ~.4.++/+/+M.s.I j t.g.@+@+}.1.7.+ ; ~ = - 9 * * ^ / 5 f f 1 w.t.2.v.[ . = = / ~ 2 ; ~ ~ ; ~ ; + 9 e+%+$+G.z s.S @+0 [.S @+[.[.4.] |.|.g.g.g.|.f.W v L I T ,.Q ].V V ].~.~.~.I (.I + b+'+q+S f.'.T W Q e 6.Q 5.! v.1 k G 1 Q G . 3 + M.E.q.V & k [ k k k G k k ; . Q (.V I 7.7 . & f ;.y + .   . Q 4.f.4.7.,.[.4.4.i.2.,.,.T [.p.}.h.9.#.N #.q q N 0 N N u ].^.B+q+m+B+B+B+q+q u w w W Q k | i m F U t t M F m f v v k [ w.y.P.+ j.'+P.P.++m.3.S d & ; + ,.=.}.t.t.N.t.].W ~.Z Z Z Z ~.d ~.Z Z n - + } = . & . ! , 7.B 7 u e.e.W I Z I Z Z Z Z Z d k Q z I ,.j.[.N.N.h.r.$+p.t.h.h.h.p.#.N :.N.#.%.T Z Q ).~.Z Q !.!.Q ",
"6 6 6 l l l l l l H H l l H H H ~ . l H H H l ` H l l l H H m n . / t H l 5 5 m l H 2 . H 6 l l l l l l l l l l } {.9 / t 3 3 8 8 8 } m m .   * + R.W ' .     l H U H H & & H H M 8 3 8 | } ).' . ; H 2 2 . . 2 ` . 6 H 8 l 3 * * * * * * * * { ; ~ ~ ~ ~ ~ ; ; ; ; ; ; ; ; ; ; * * * * * * * * *   . * * * * * . . { ` 2 * { D . * 2 6 2 2 { * . * { 2 2 2 2 2 2 ~ 6 6 ; . ; ; . . * * * . * { * { 2 { *   . * 2 .   * * . { l 2 6 ; ; & . 8 U l * l D l 6 6 .   * { * . * * . . @ { 3 1 , ' 9 b m . @ @ . * l.{.8.{.^ 3 3 * D l . * * 2 H | M v.+.; H 6.Z z $.t !.Z 4.j.~+2.I = + = = . ~ . ,+l+'     {.m.C+w+f+A+G+G+G+G+G+G+C+E+C+E+E+' q+q+1 d ].c+c+c+++g.B < t.0 >.t.'.,.!.+ ; { = ' 9 ^ * ~ = a M z 1 O.j.4.v.[ . = ^ ^ 2 2 ; ~ 2 ~ 6 ~ . | *+E.$+B.e g.s @+S t.S t.'.'.].< j.g.*.g.:.:.}.w e P W '.4.7.].V ].].~.~.Z d 3.$.+ C+'+C+S [.'.w W z [ $.e Q + k.+ [ 1 1 Q G . m d /+E.G.V = 1 > k G k k k k & . $.(.V W i.< & = v !.B = & * ; Q ].4.~.!.!.,.].].W I I 0 w '.%.4 q }.9.:.:.#.9.[.[.}.9.R V Y B+q+m+m+B+w+q+q N u W W d d k i k 1 k 9 n L m 9 v f P k 1 w.y.P.Z j b+c+c+c+y.u.>.I & . + T N R #.4 w T 4.W ~.I Z Z Z 2.I ~.Z Z > . - !.z - G 5.7 ! B B W 0 G.%+W d Z d Z Z Z Z I d G Q Q B W '.N #.#.#.:.:.N #.N u q :.q }.g.p.<.9.'.~.$.$.Z Z z Q $.Q ",
"6 l l l l l l l l H H l H H H 6 . ~ 6 l l H l H l 8 6 l l H m [ . 5 H m m 5 l l l H l . ^ H l H l l l l l l H H 9 {.9 / t 3 3 8 8 l } m m .   . = v.V 1 .   @ l H H H l 3 & l H M l l H 9 [ ).' . ; H 6 2 . . 6 ` ; l l 8 l 3 * * { { { { * * * ~ ~ ~ ; ; ; ; . ; ; ; ; ; ; ; ; * * * * * * * * *   . * * * * * .   * D 2 * * ` . * 2 6 6 6 2 * . * { 2 2 2 2 2 ~ ~ 2 6 ; . ; ; . . * * * . * * * * { { * * .   * . . * * . { l / 6 ; ; ; & m {.` * l ` ` l D * { 6 l 2 { { { * .   @ * > 1 - . ' / . @ @   . 8.{.{.{.^ 3 * 2 H l   *   { l 3 9 i.M . ; P d 1 [ +.R.Z ].j.@+2.7.6.2.].,+).,++ ~+b+& @ @ {.4.d+d+i.!., , < y ,.R O [.4.k.'+3.C+w+e Z 4.c+++/+++s.y ] q+>.|.>.4.].B . _ { } - [ ^ * ^ = a +.B 1 O.f.4.v.- ; ~ ~ ~ ; ; . ; ; . ; . . 9 e+%+$+G.e g.'.@+S f.T t.j.f.].w f.N.M.s.:.:.:.T z Q '.}.[.,.].].].].~.~.~.d ~.Q + l+'+C+V ,.w 0 !.Q [ P 1 k b v.1 k 1 1 G k & m i.d+a.e.W / [ > k F k k k G & . $.(.V I i.< . & f W 7 + .   . ' < 0 ! 1 , ] j j < < d I '.[.R [.:.N.p.9.<.s.%.%.T N N u A 3.B+q+m+m+w+w+c+q #.%.[.T ! 3.m.c.Y Y x ' x k.5.A e k k.d 1 m.O.y.7.+ O.c+/+c+y.O.S Q & . + T u u #.0 T T 2.A ~.i.Z ~.~.i.Z ~.~.Z n ' W i.1.] '.j.R 7 B B !.0 g.a.W d Z d Z Z Z Z I d G Q !.d 0 T #.%.N 9.<.:.N %.%.}.%.#.q #.#.%.#.#.T I Q $.~.~.Q Q Q Q ",
"l l l l l l l l l H H l H H l 2 . l 6 6 l 6 H l 8 8 6 6 6 H t n   5 H 5 m m H l l H l . . H ^ l 6 l 6 6 6 l l l m 8.9 } t 3 8 l l l 9 m 9 .   . - w.V 1 .   @ 6 H H H l 8 . l H m m H H 9 [ 6.1 . ~ H 6 ^ . . 6 ` ; l l 3 l 3 * * { 2 2 { * * * ~ ; ; ; . . ; ; ; ; ~ ~ ~ ~ ~ ~ * * * * * * * * *   . * * * * * . * * D 6 * * D . * 2 6 6 6 2 * . * { 2 2 2 2 2 ~ ~ 2 6 ; . ; ;   . * * * . * { { * * * { 2 *       * * . . { 6 5 l ~ & & . m {./.* 6 ` ` D D * * 6 J h 6 h h h . @ { g > [ | _ 5 5 . @ @     8.{.{.U * { . l {.l . *   * 2 ^ & < t ~ l P d e G f !.I '+4.O.i.7.3.c.P.C+C+E+x /+C+. @ @ {.j.d+B.S g.s.++M.s.-+++N.h.,.Z ! m.C+m+[ ~.4.c+/+/+M.M.,.0 b+@+>.>.4.]., . _ { } ' - ^ * { = a +.B < O.j.4.v.& ; ; ~ ~ 2 6 ; ~ ^ ; ; . . ^ *+%+$+E.' *.s f.0 '.[.t.j.'.V 0 >.N.d+N.%.#.|.'.$.W T |.}.T ].].].].~.~.Z d 2.b , + = ! A 1.T w W e - $.k [ b k.' k [ k G G & [ O.M.a.O R # [ > G F G G k F ^ . Q 5.V j i.7 & = f W 7 + . . +.!.V V I $.B y V ].W !.7.,.'.T R t.4 #.9.9.#.e.%.%.[.%.#.u j ^.B+q+m+m+w+B+q+q N =.}.w , '+q+m+/+B+q+x &.B+'+1 1 I R.I - 3.O.O.R.< 4./+c+c+y.&.s I & . ! f.=.}.N.N.@+T 2.W i.7.~.~.2.v.~.7.~.Z = , ,.R %.o e.O R y ;.! d 0 g.|.W d Z I Z (.I Z Z d k e $.d w '.:.h.:.$+<.9.:.[.=.h.%.N h.p.|.O N #.'.~.).).2.~.!.Q z z ",
"6 6 6 l l 6 6 6 l l 6 H l H H . 6 l l l l l l l l 6 l l l H H 6 . l H l l l H l l 6 H 2 . l l l l l l l 6 6 6 6 f 8.} 8 l l l m 8 H } m 9 . .   < 7.t & .   . l U U H l l . 8 H H 8 H l 3 H U & . 6 D 6 * . * 6 ` 6 6 2 6 D 2 { ; ~ ~ ~ ; ; ; ; ; ; ; ; ; ; ; ; ~ ~ ; ; ; ; ~ ~ * * * * * * * * .   . * * * * * .   * l 6 * { D   { { 6 { 2 D * . ; ~ 2 2 2 2 2 { * { 2 * * * *     * . * 2 { { 2 2 { { 6 2 { 2 {     * .   l 6 2 2 * { { * 6 6 6 6 6 ` b.* . { { l D l l l D D     2 3 & ^ & ^ m / . * * . . b.8.-.l.8./.` * ` .   *   * * 2 * f ;.! B 7.B t f !.v.].@+S O.w.,.u.'+q+E+C+C+++/+~+P D l V s.w+b+@+@+~+N.~+~+@+N.$+b+,+,+Q i.C+m+* 9 w./+/+c+~+u.a.E.d+m+S >.3.1 = ; / = / ; 5 = ~ = = a M Q < w.j.3.v.& . ~ / & ~ ^ ~ 2 ; . ; . . ~ %+g.p.G.' #.w [.u %.>.N.t.g.B b V N.@+|.s.<.s.].Z !.w p.|.N V ].j.].3.2.j j V +.. O./+,.W 4.N u ,.B [ {.L v , v.[ [ k 1 k k + = j g.q.9.,.> | i  .C  . . .C |   ).&.;.I 4.! & = ' L ! + . * m.u.g.g.g.'.'.1.].j.4.].t.4.t.].:.9.:.9.p.p.#.g.*.}.[.#.%.%.V 3.B+q+d+B+m+w+c+O [.%.%.w v.O.F.-+j B+B+x F.z+z+F.m+z+-+x = 3.O.++-+V M b+m+m+y.R.V b , + + d w =.u u u N f.,.2.w.5.5.5.Z I i.~.,.0 0 %.r %.%.%.:.<.#.#.w ! q <.*.,.< !.G $.).e $.Q e d I Z I 0 ,.#.p.<.#.#.:.:.:.<.G.q w w f.N #.#.:.'.Z ).5.Z ,.$.P Q z ",
"l 6 6 l l 6 6 l l l l 6 H H ~ . l l l l l l l l l 6 l l l l l ; . l H l l 6 l l l l H 6 . 6 l l l l l l l l l l f ;.= 3 l l l m l H 9 t 9 . .   < !.m & .     H U U H l l & ^ H H 8 l 8 ^ 8 l & . 6 l 6 *   { l ` 6 6 6 l D 2 * ; ; ~ ~ ; ; ; ; ; ; ; ; ; ; ; ; ~ ; ; ; ; ; ; ~ * * * * * * * * .   . * * * * * . . * l 6 * { D . * * 2 * { l * . ; ~ 2 2 6 2 2 { * { 2 * * * *     * . . { * * * { * * { { * { {   . * *   l 6 { { * { { . { { 6 2 6 ` b.2 * { { l D l D D D D .   { ^ ; ^ ^ 8 U m * * *     8.l.{.b.{.U D * D *   * . { * 2 * } ;.' b 7.v f f f !.V ~+V w.~.$.~+C+C+k.m.C+++P.~+t g ^ ~.N.].w.R., ! 0 < , 0 < 4 T z v . k.q+>.  & k.~+/+/+++t.M.s.s.M.>.q+l+' = . / = = ; 5 = ^ = = , M B < w.j.3.k.& . ; = ^ ~ ~ ; 3 ; . ; . . ~ %+s.p.G.' #.w t.[.N.[.~+|.|.P , W V t.M.s.$+g.T I I T t.p.%.A j.j.V ].~.A j &.;.. '+m+'.7 V #.u ,.$.v 6.$.P b v.[ k G k k Q = f 4.M.q.%.W [ k k G G G Q G G |   ).c.;.7 4., . = f ;.f + . * O.u.g.g.t.[.T T V ].w V V w V 0 #.h.%.4 %.}.N #.N #.'.#.#.#.V ^.B+q+m+B+w+w+q+O '.q q =.! E /+z+/+S (.&.&.m+F.F.F.-+/+c.Z ^.'+P.-+4., l+m+m+>.i.w.$.+ . - ~.T R #.N N R f.2.~.w.(.Z Z Z A 2.~.W f.[.}.9.h.h.h.t.G.p.h.[.N f.$+G.W A !.1 v ).e Z z z Q I Z I 0 w #.h.#.#.:.g.|.%.O g.q u 0 }.q q #.:.].I $.).Z W L z z z ",
"l 6 6 6 6 6 6 l 6 l l ^ H l . 6 6 6 l l l l l l l l H H l H l ; . H H l l 6 l 6 l l H 6 ~ . l H l l l l l l l l f L & 3 l l l m l H 9 M 9 .     < !.9 & .     H U U H l l ^ . H H 3 8 8 & ^ ^ . . 6 2 { *   2 l ` 6 l D D D 2 * ; ; ; ; ; ; ; ; ; ; ; ; ; ; ; ; ; ; ; ; ; ; ; ; * * * * * * * * .   . * * * * * . . * l l * * 6   * { 2 { { 6 * . . ~ 2 2 6 6 6 { * { 2 * * * *     * . . { . .   * * * * { * * 2   . * * . D 6 { 2 * { * . * * 6 2 D /./.6 6 * { l D l D D D D     6 D l 8 ^ 3 H 5 . * .     8.8.U U l ^ * * 6 2   . . { * 2 * f 8., B v.+.t t = f I b+A i.b L w.b+l+I k.E+'+'+6.m g 3 Q j.j v.)+n 6.R.i.Z z e I Q & . . x.l+V   . 5.@+M.M.M.|.W V ].j.].C+A+. = . / = / ; / = ^ = = / f b b w.u.3.k.& . ; ; ^ ~ ~ ; ~ ; . ~ . . 8 E.G.N.E.P g.'.N.[.[.S @+:.f.B ! 2.S N.~+g.s.g.T $.Z '.t.N.}.V w.j.V ].~.V A >.;.. q+B+f.0 >.u 0 2.7.6.k.6.).b k.' k k 1 k G = ' ].s.q.e.W > k k G k k G k k |   ).&.;.< u., . = t 6.f + .   A A s s S T T T T w 0 w 0 0 ].T :.h.:.%.p.p.h.p.%.%.[.:.%.%.].3.B+q+c+w+m+q+q+O T :.:.f.e > '+z+c+'+2.k.1 /+++s z+F.-+++^.(.b+++m+~++ O.m+m+S N.V B a + . I '.h.w h.N.=.'.2.2.w.Z I Z Z I 2.~.W w w u %.N q N :.O q %.'.N %.|.*.V A $.1 G $.z $.z e Q I Z A w T N }.:.:.:.}.:.}.<.s.#.#.0 %.N #.#.%.4.A ).$.~.,.e e z z ",
"6 6 6 6 6 6 6 l 6 l l 2 l ^ . H 6 6 6 6 l l l l l l H H l H l ; ; H l l l 6 l 6 6 l l l 6 . l H l l l l l l l l L v & 8 H l 8 t l H } M | .     d 7.m & .     H U U H l l l . l H 8 8 8 ^ ^ & .   2 { * . . * 6 ` 2 6 6 6 l { * ; ; ; ; ; ; ; ; ~ ~ ; ; ; ; ; ; ; ; ; ; ; ; ; ; * * * * * * * * .   . * * * * * *   * l l * * { . { 2 2 { 2 2 * . ; ~ 2 2 2 2 2 * * * { * * * *     * . . *       * { * * { { { 2 . . * * * D 2 6 6 * * * . 2 2 2 2 D /.` l D * { l D D D D D D     6 ` H 8 & & } ; .       * l.{.{.U 8 * * { 6 6     . 2 * 2 { } 8.- e 7.v 9 9 & } $.l+A 5.' ;.j 2.R.d v.A+d (.t 3 . m L 6.= ' k [ v.w.4.i.5.k.v } .     H {.+   . 5.@+M.M.s.|.= + ! b + 6.v.= / . / = / ; / = = = = / 9 e j w.u.(.5.& ; ; ; ^ ^ ~ ; ~ ; . ^ ; & 3 E.G.N.E.!.G.].j.[.S >.N.>.#.B < V >.@+$+$+<.g.T Q Q T f.f.'.V O.4.V ].~.Z A >.;.. q+B+N.u |.=.0 y ! ' 1 Q ).< k.e k 1 G Q G = f O.%+E.e.T [ k 1 k G G G k k > # 5.&.W < '+7 & = f ;.f + .   A j.t.[.'.f.f.1.4.T ].].].w 4.T h.p.:.}.p.:.|.t.<.%.N w #.#.A 3.B+w+m+w+B+w+w+O T N #.1.,+. &.B+&.x k.,++ c+b+, P.-+++j + 5.u.++/+q+V ].q+m+c.~+A B , + . I w R #.u #.N 1.2.Z w.(.A ~.~.V 2.i.W w R 4 9.N q N f.e.:.%.#.w #.:.*.].j I z $.z d Z $.1 d d Z b 0 ,.h.N.N.N.p.p.p.N.G.N.h.}.w %.:.%.N #.2.j 5.$.~.,.e z z Q ",
"6 6 6 l l 6 6 l 6 l 6 l ~ . 6 H 6 6 6 6 l l l l l l l l l H l . ; l l l l 6 l 6 6 l l l l . 6 l l l l l l l l l L f & l H H 8 t l H } U | .     B 7.m & . . . H U U H H l H . 8 l 8 8 8 3 ^ & & . { * * . . * 2 D * * { { 2 * * ; ; ; ; ; ; ~ ~ ~ ~ ; ; ; ; ; ; ; ; ; ; ; ; ; ; * * * * * * * * .   . * * * * * *   * l l * . *   * 2 { { { * * . ; ~ 2 2 2 ~ ~ * * * { * * * *     * . * { .     { { * * 2 2 2 2 .   . * * l { 6 6 { * * * 6 6 { 2 ` ` D 6 ` * * l D l D D D D *   2 D l 3 & ^ } =   . . . . 8.{.8.{.l ; ; ~ l 6     . { * 2 { = {.' e 7.f } } . 9 ).l+j k.1 8.W R.b+I k.F+. &   8 } 8.8.8.+ $.~.].O.N.N.c+~+~+U * @ { @ . = . @ = v.,+@+~+@+j.5 / + = . } t . / . / = / ; / = = = ^ ^ 9 [ A w.u.].5.& ; ~ ; ^ ^ ~ ; ; . . 2 ; . ^ E.G.s.a.e :.V 4.'.T [.@+g.>.B < V t.~+M.$+O e.'.I $.w t.g.'.V j.].V 3.~.V A S ;.. q+B+N.R >.f.T y - + ' (.5.= 7.G G k G Q $.= e ~+d+E.q.V > k 1 G G Q $.G k > # 5.&.W < b+;.9 = } ;.! + ;   d i.t.4.N '.T w '.w T 2.2.'.2.].}.t.}.}.t.f.N.$+h.}.0 ] 9.}.A ^.B+B+m+w+B+w+w+O [.}.%.N ,+1 1 /+F.&.3.O.x F.m+x y.s P.j.' (.u.++/+q+j., b+q+>.>.V B , . = Z w 4 #.4 N u [.2.Z w.3.V ].4.].4.i.V f.[.u r.9.9.h.N.<.:.:.%.}.N.d+$+4.V Z z Q e I Z Q 1 d d Z j 7 T %.#.q N s N q #.<.|.:.%.w N #.q #.%.i.j 5.$.~.,.z Z $.(.",
"6 6 l H l 6 6 l l l 6 l . . ` H l l l l l l l H l l H l l H l . ~ l 6 l l 6 l 6 6 l l l l . ; 6 l l l l l l l l L [ & l l H 8 t l H = U | .     d 7.9 & . . . H U U H l l H ^ & 8 l 8 8 3 ^ & & . { { * * . 2 6 D * * { * { * * ~ ; ; ; ; ; ; ; ; ; ; ; ; ; ; ; ; ; ; ; ; ; ; ; * * * * * * * * .   . * * * * * .   * 6 l { * * . * 2 { 2 2 . * . ; ~ 2 2 ~ ~ ~ { * * { * . * *     * . * { *   * { * . * { 2 2 2 . . . * . l { { 2 { { * * 2 2 { 2 D D l 2 D * * 6 l l l D D ` .   2 D l 8 ^ 3 } /   * . . . 8.U {.U ^ ; ; . 6 2       { * 2 * } {.[ L 6.f m 9 = m 6.b+A k.e ;.2.,+l+d 5.F+. & @ & ' e 8.b.. l+O.O.q+q+s.g.s.@+D . @   @ ; / ' . + +.).Q !.Q < ~ 6 / m 5 t l   / . / = / ; / = = ^ 3 ^ 8 - I w.u.].).. ; ~ ; & ^ ~ ; ; . . 2 ~ & ^ E.G.g.a.1 *.O.@+].].s t.|.>.B , 4.@+/+%+q.o q.'.W !.w t.|.'.V 4.].].3.~.V A S M . q+B+N.R S '.T ,.!.$.(.w.w.+ !.e G k k k ).. - P.*+*+G.].& k k G G G $.G G i   5.c.7., P.;.M - ' +., = ~   z !.,.].T ].W ,.i.,.w ,.0 w 0 w %.}.#.}.%.s q %.%.:.s 4 %.%.j ^.B+q+m+m+B+q+w+q '.}.:.w Z 1 = P.z+P.1 Z '+/+m+1 y.! g.V I k.O.++/+q+O.+ k.'+4.O.A b , + + I T 9.N.~+~+h.[.,.Z 5.3.V ].].4.2.w.].u N 4 9.%.%.N %.#.q N }.|.%.O *.j.].Z I z Q i.Z z G Q Q (.~.w 0 %.N u N u N u %.O O N N N N :.%.#.%.i.j 5.$.~.,.I Q (.(.",
"6 6 l l l 6 6 l l 6 l 2 . ^ H 6 l l 6 6 6 l l l l H H l l H l . 2 H 6 l l 6 l 6 6 6 6 6 6 ^ . 2 l l l l l l l l L [ = l 6 H 8 t l H & U | &     B 7.9 & .     H U U H l l H H . 8 l l 3 3 3 & .   2 { { * . 2 l D { 2 6 2 2 * * ~ ; ; ; ; ; ; ; ; ; ; ; ; ; ; ; ; ; ; ; ; ; ; ; * * * * * * * * .   . * * * * * .   * 6 l { * * . * 6 { 6 6 . * . ; ~ 2 2 ~ ~ ~ { * * { * . * *     * . * { *   * { * * { { { 2 { . * . * . l { * 2 { { * * 2 { 2 2 l 6 6 2 D * { 6 l 6 l l D `     6 D l 8 ^ & = =   .   . . 8.{.{.U & 8 l . ` {   *   * * 2 * } U = e $.[ m } = n 5.b+V 2.e L i.@+l+j k.F+  * _ +.2.d +.l . l+~+O.4.t.t.t.t.t.^ . { ; 5 a f ! a a 5 } ^ } = = ^ / / - & 3 D { / . = = / . / = / ^ ^ & | & Z t.u.(.5.. . ~ ; ^ ^ ~ ; ; . . 2 ~ > ^ *+G.g.E.G g.O.O.V 4.S t.t.|.I , '.s.s./+G.q.G.:.I I 0 |.>.w V ].j.j.3.~.V A V a . C+B+t.R V '.W W !.$.5.k.3.! 6.G G G G k 6.= k ++e+*+B.].| k G Q G G $.G k i . 5.y.7.! c.;.F = } ;., + ~ . B B 7 w 0 w 0 W ,.T 0 T < w w 2.4 w w [.N N ] >.<.}.f.:.%.%.V 3.C+B+w+w+B+B+w+O [.N :.N.v.G j q+/+j f f j y.B+B+C+0 S A 1 $.'+c+b+C+b+(.+ ' j q+4.B = . + I w R u 0 4 u [.V Z k.3.4.].].4.j.t.].] 0 N 9.%.%.q q :.q 4 %.%.q q :.j.V V I d $.O.V z $.Q $.Z i.W w %.N %.:.u #.N }.e.g.}.:.[.:.t.p.#.%.2.j 5.).~.,.I I Z (.",
"6 6 6 6 6 2 6 l l 6 H . . H l 2 6 6 6 6 6 6 6 6 2 6 l l l H l . 6 H 6 l l 6 6 6 6 6 6 6 6 6 . ^ l l l l 6 6 6 6 P f } H 6 H 8 m l l . U | &     I 7.m & ; .   H U U H 8 l l U . 3 H l ^ 3 8 & . . 6 2 { *   2 l l * 2 6 6 2 * . ~ ; ; . ; ; ; ; ; ; ; ; ; ; ; ; ; ; ; ; ; ; ; ; * * * * * * * * .   . * * * * * * . { l 6 * . *   * 6 { 6 6 . * . . ~ ~ 2 2 2 2 { * { { * . * * .   *   * { .   { { * * 2 { * { { * * . * . l { { 6 { * * * 2 { 6 2 6 2 6 6 D * { 6 l 6 6 l D ` .   { * . ^ & & } /   .   . * b.{.U H . H ` . {.* . * . * * 2 * m U + e P 9 M } = f 5.'+].2.Q $.~.O.q+j k.F+    @ M '.w 8.J & b 1 R.~.].t.w.i.R.3 . ^ . 5 t f +., = / 3 6 2 @ _ m } m M | 8 D   / . ; ; / . = ; / ^ ^ & ( & Z t.u.3.k.& . ~ = ^ ^ ~ ; ; ; . 2 ~ & & *+%+s.E.G g.C+b+j.f.4.j.N.S 7 0 '.s.s.%+q.e.%+:.W I T g.g.].V V w.j.].~.V A ].a . C+B+1.W V w w W i.k.w.w.3., k.G [ [ k [ Q + + g.e+*+G.j.i k Q ).Q G $.G 1 i . 5.y.7.b &.y m = f ;., . ; . f !.W 2.T ,.I W w T ,.,.,.w w ,.}.t.f.f.N N.f.N.h.:.'.%.N %.].E B+q+m+m+B+B+w+q 0 %.|.'.v.Q 1 3.A b a a [ x &.&.3.c.>.j + I 4.|.j.].x I . . ' O.4.B + + + I w R u u u R f.V ~.k.4.4.4.].j.j.t.].'.R %.:.9.p.%.#.}.h.9.#.%.g.s.f.j.w A Z b d i.j z Q d Z I 2.W 1.[.%.:.[.:.f.:.}.e.g.h.}.[.N :.%.:.}.i.A 5.).~.W d I Z (.",
"6 6 6 6 6 ^ 6 l 6 H 6 . 6 H H 6 6 6 6 6 6 6 l l 6 l H l l H l . 2 l 6 l l 2 l 6 5 5 5 5 5 5 = . H 6 6 l 6 2 6 6 ,.n * 6 9 } l 6 D & . F 9 &     y 7.= & ^   . H H H l 8 l H l ^ ^ 8 5 = 5 m .   . 2 ~ ;     2 6 6 2 { 2 * .   . ~ ; . *   ^ * 3 & & ^ ; ; ~ ~ ; { { * * * * * * * * * * * * * *   . * * * * * *     * l l * . *   { { { 2 2 * . . ; ~ ~ ~ 2 2 ~ ; . ; ~ * * * *   . * . * 2 *   ~ ; ; ; ~ ~ ~ ; * . . * . * 2 { { 2 { 2 * 2 * * 2 6 2 { 6 6 2 { { 2 6 D D l D D     * * { 2 { 2 2 .   *   . { ` ` /.D   ` D   ` * * . . * * * * 3 {.+ v !.' v - { n ].~+Z k.k !.0 ,+l+' i.b++ l.* & '+4.$.m . {.E b+/+q+P.O.P./+* . * ; = / = / 6 ; ; 6 6 2 3 ^ 9 9 t H 3 3 8 * ` . ; ; ~ ; ~ ~ ~ = = & {   $.t.j.4.k.+ . ; & ^ ^ ^ & ^ & & 3 3 2 , $+%+q.s.#.t.].~+V j ].j.t.%.R i '.G.u.s.%+|.G.S ~.A ].>.'.].Z ~.i.].V ].Z I T 8   E+b+  . R W y 0 2.O.v.7.B + 8.[ [ } [ ' v a - O.%+E.$+4.[ [ 1 G G G L k 1 [ . 5.5.(.< ~.d !.' 1 !.e = & . b w O %.w W I 0 0 0 0 T T w 0 ] :.p.g.*.q e.a.G.:.:.:.:.:.'.V j B+m+m+w+B+m+w+q w }.<.s R.).> G t 9 9 - [ ' Q z x S b+I + + ! j 1 ' A I Z Z A '+T j + = . $.[.N.:.#.w u 4.].].i.i.~.i.].t.t.j.].'.t.N.}.:.}.9.:.g.g.|.|.:.g.t.}.].V d z e $.z b e $.G 1 k Q b 7 #.%.%.s %.}.#.#.}.:.%.#.u T =.w *.q [.A 5.5.Z ~.A V ~.~.",
"6 6 6 l 6 6 6 l l 6 ; ; 6 H l 6 l l l 6 6 l l l 2 6 H l l H 6 . 2 6 6 l l 6 l 6 5 5 5 5 5 5 / . l l l l 6 6 6 6 2.9 * 6 9 9 l 6 8 3 9 {.> .   * y 7.} & ^   . l H H l 8 l l l 3 & 3 5 / 5 m . . . 6 ~ ;     2 2 6 2 2 6 2 * * * ; ; ; * . * . 3 m m m 3 ; ; ; ; * * * * * * * * * * * * * * * *   . * * * * * * * . * 6 6 { * * . { { { 2 2 * * . ; ~ ~ ~ ~ ~ ~ ; . ; ~ * * * *   . * . * 2 *   ~ ; ; ; ~ ~ ~ ~ *     .   * { * * 2 * { * { * * 2 2 2 { 6 6 2 { 2 2 6 l l 6 D D .   * * { 2 * { D { * . . . 2 ` D ` D * ` ` * ` * * . * { { { * 6 {.. v $.' m & . n 2.~+Z R.6.7.4.v.x.- 5.E++ {.  F C+j.Q U . ,+R.j.++c+m.O.@+s.* . * ; ; = + / 6 ; ; 6 6 6 6 6 | | 9 8 ^ 3 8 * ` . ; ; ~ ; ~ ~ ~ / } & * . ).t.c.4.5.+ ; ; & & ^ 3 & ^ & & 3 3 . = $+E.e.%.0 T @+@+V < V f.t.s.T | w r.m.f.$+s.a.s ~.I V s '.,.Z ~.i.j.j.i.Z d '.3 . V < . = =.W y < V ~.W !.;.+ 8.[ [ } [ } v a 1 O.E.a.q.T - k k G k k G 1 1 } . ).(.(.b i.!.P ' z 7.f = & . B '.g.h.w B W w W ,.w w w T '.T }.t.N.G.g.G.G.%+:.|.e.e.h.[.V d B+w+c+m+B+B+C+] 1.%.<.#.A [ [ 1 9 9 n k G $.k.5.~+3.].- } 6.v.u.O.O.'+O.O.O.3.'+4.I - ; . B w *.:.#.u w 4.].4.w.2.2.i.].t.j.t.4.0 T '.:.#.#.#.N |.g.|.|.:.#.#.q ].V I Q $.).I < !.$.G Q Q Q b y u #.%.#.:.}.#.N h.:.#.N w u R R O #.'.j Z 5.~.~.~.~.i.2.",
"6 6 6 6 6 6 6 6 H ; . l l H 6 l l l l 6 6 l l l 6 l H H l H l . 2 6 6 l l 6 l 6 5 5 l 5 5 5 / . ^ H H 6 l l 2 6 2.[ * 6 9 9 l 2 3 ^ & F = .     7 !.- * *   . m H l 8 8 l l 8 8   & 5 / 5 5 & . . 2 ~ ;     { { 2 { 2 6 6 { * * ; ; ; * . * . 3 m t m ^ . . @ @ * * * * * * * * * * . . * * * *   . * * * * * * . . * * { { * * * * { 2 6 { * * ; ; ; ~ ~ ~ ~ ~ ; . ; ~ * * * *   . * . * 2 *   ~ ~ ; ; ~ ~ ~ ~ * .   .   * * * * { * * . { * * { 2 { { 6 6 2 { 2 2 2 6 2 2 6 D .   * * * { * { { * * * .   * { * { *   { D   6 * * . * { 2 { * l {.& L ).[ t } l 9 i.b+d ).1 5.].l+[ k ,+E+. R.* F ].V 5.U + l+1.=.d+|.t.E+q+w+* . * ; . ; . / l ~ ~ 6 6 2 6 6 | ^ 9 3 & 3 3   ` . ; ; ~ ; ~ ~ ; / } ; * . ).t.c.4.5.+ ; ; ^ ^ 3 3 & ^ & & ^ ^ ; - N.q.|.N w '.~+O.4.A ].t.|.|.,.> T N.3.[.r.g.G.'.I Q j.4.4.W Z Z V ].j.2.Z d [.= H T 0 a a :.W 7 0 ~.2.~.!.B + 6.[ f [ f [ f t + 4.g.a.q.].k k k G k k G 1 1 9 . ).(.~., 2.y P [ $.v.v = & . < '.h.}.w B I w d ,.W 0 0 w '.N |.p.s.G.*.|.<.*.:.:.*.O #.'.A 1 q+w+w+w+B+w+E+s T :.*.}.w.6.9 G 1 k > - 1 I d 1 < ' j I + L 5.y.m.m.u.u.u.'+4.m.j.I - = . $.=.%.%.%.N w 4.].].4.4.i.4.4.j.j.t.f.w N }.f.}.9.<.:.*.e.*.*.:.N N N ].A I z Q $.Q b Z Q d I I d < W f.t.t.f.p.N.p.p.p.h.h.t.N.t.f.f.*.h.'.V (.5.~.i.~.~.2.~.",
"6 6 6 6 6 6 6 6 l . . H l l l l l l l 6 6 l l l 6 l H H l H 6 . 2 6 6 l l 6 l 6 5 5 l 5 5 5 / . . H H 6 l l 2 l i.' { 6 9 9 l _ . 8 t {.& . .   b ;.= * .   . t H l 8 8 l 8 8 l   & 5 / 5 5 & . . ~ ~ ; .   2 { * * { 6 2 * . . ; ; ; * . { * 3 9 m 9 & . . @ @                 * * . . * * * .   . * * * * * *   * .   . * { * * * * 2 6 { . * ; . ; ~ ~ ; ; ~ ; . ; ~ * * * *   . * . * 2 *   ~ ~ ; ; ~ ~ 2 2 { . . * . * { * * { . * * 2 * * * 2 { { 6 6 { * { { { 2 2 2 6 l .   * * * { * *     . * * .   .   * * *   l   * * * . * 2 2 { * * l . m +.} m & * - i.@+1 8.v !.5.F+  i x.E+>     [ ! + v.x.[ $.f ~+@+$ W $.7.[.* . { ; . . . ~ l ^ ~ 6 6 3 3 ~ 9 | | 3 & 3 3 . ` . ; ; ~ ; ~ ~ ; / } . * * ).j.u.j.5.. . ; ^ 3 3 3 & ^ & & ^ ^ _ - t.g.[.w '.t.t.w.].< V @+t.g.,.( ,.N.^.].e.>.<.[.I Q A 0 w y Z ~.j A 4.].Z d [.. / N :.+ f #.W 7 7 A A d < + + 6.[ e e e e e a 1 w.s.*.<.T k 1 k G G G L 1 [ = . ).5.2.< i.W n + z 6.- . ;   B [.p.}.W W W w d ,.W w w '.[.'.g.N.s.s.|.g.G.G.|.|.e.e.h.f.].j c+B+m+w+B+q+C+S f.p.G.t.~.n [ 1 E E k E 5.R.k.5.6.Q 1 1 + z 3.c.4.j.P.P./+b+u.4.j.A - = . !.f.e.f.N.@+f.t.].4.i.].j.].4.j.4.t.j.w N [.f.}.p.G.<.*.s.g.|.p.h.N.N.V A Z I $.Q ~.I Z ).I Q $.Q I W N N #.N #.:.%.%.}.:.N N #.N w R #.:.w A (.V ].j.i.].4.].",
"6 6 6 6 2 2 6 l ~ . 2 l l 6 H l l l l 6 6 6 6 6 2 6 l l 6 l 2 . 2 6 6 l H l l 6 5 5 l 5 5 5 / ; . l H 6 H l 6 H i.- 2 2 9 9 l { . 5 M {.} & .   !.8.9 * .   . H H l 8 l l 8 8 l & & 5 / / / & . . ~ ; ; .   { { * * { 6 6 * * * ; ; ; *   3 * 3 m m m 8 6 6 6 6 l l l l 6 6 6 6 { * * * * * * *   . * * * * * * . { { .   * { * * * * 2 6 { . * ; . . ~ ~ ~ ~ 2 ; . ; ~ * * * *   . * . * 2 *   ~ ~ ~ ~ ~ 2 2 2 * . . * * { 2 { { { * * * 2 * * * { { { 6 6 { * { { 2 6 2 2 6 l .   * * * { * { * .     . * * . * { * {   l * . * . . * 2 6 2 * . ^ . t +.} m & h - 2.@+e {.9 z 5.,+  > k.A+F   . +.l+~.v 9 + R.= B ~+= & & + < * * { * . .   { 6 ~ ~ 6 6 3 ~ ; m | | 3 & 3 3 . ` . ; ; ~ ; ~ ~ ~ / = . * ^ ).j.u.j.5.. . ; ^ 3 ^ 3 & ^ & & ^ ^ * + t.M.f.V V t.N.b+4.< T t.|.|.=.( T r.Z 4.r.].<.t.Q 7.j 0 T ,.I i.].].j.4.Z d [.} } }.9.! W *.W y ,.2.V B b b - k.1 e e 1 e e = ' 4.|.<.G.4.- 1 1 G G G P k 1 = . ).5.2.0 t.R 9 . f ).+ . .   b '.|.#.w b 7 < ! B < ] w T '.[.g.$+s.|.O *.:.%.#.*.%.:.:.T A 1 -+B+m+z+B+B+B+S w %.*.N I [ [ G E E 1 1 k $.[ [ , ' k 1 - e u.F.j.y.++/+/+c+y.c.j.j - ; . L '.*.#.%.T 0 4.V ].4.4.j.].j.u.j.O.j.] ] w N N :.e.O *.s.h.#.:.#.%.N V A Z I $.$.Z j Z ~.d (.5.~.I 7 u w %.%.%.:.#.N %.:.#.u N N N R :.%.V A 5.].j.O.w.4.4.].",
"l l l 6 6 6 6 6 . ; l 6 H 6 H 6 l l 6 6 2 6 6 6 2 6 l l 6 6 2 . 6 6 2 l H l l 6 5 l l l l l 5 / . 6 l l H l l H w.+ 2 2 9 9 8 @ = / 9 +.m 5 2 . ).{.^ * . . . H H H H l l 8 l l 3 & / / / / & . . ~ ~ ; .   { * * * * 2 2 { * * ; ; . *   6 ^ 3 m m m l H H J h 6 6 6 6 6 6 2 2 { { * * * * * *   . * * * * * * . 2 2 * . * * * * { { { 2 { * * ; ; ; ; ~ ~ ~ 2 ; . ; ~ * * * *   . * . * 2 *   ~ ~ ~ ~ ~ ~ 2 2 *     . . * 2 * { 2 * { * 2 { * * 2 { { 6 6 { { { 2 2 6 6 6 6 l .   * * * { * { * . . . * * .   . *   {   6 * . .   . * 2 6 2 { * 2 & +.+.9 t 3 { . ~.b+$.t } ).5.{.l )+,+R.l.b.l + 7.z +.t ).w+= Q b+(.> ^ 9 [ ; . { * * * * { ~ ; ~ 6 6 2 ^ ; | & | ^ & 3 3   ` . ; ; ~ ; ~ ~ ; & . . * * $.f.u.4.!.. ; ; & ^ ^ ^ & ^ ^ & ^ ^ ; + t.M.f.].w f.j.~+V V [.N.g.q.u 1 '.N.m.N.r.>.G.N.0 W T |.%.w I 2.2.4.j.2.~.d V & } $+<.!.7 O y ] W 2.,.W b ! e R.e e 1 1 z e ! 1 k.N.e.9.w d k 1 k k k G k k / . P !.~.! h.N } + [ +.} & * @ b [.h.%.W B I w b B d W 1.'.'.f.<.$+s.<.g.g.|.|.g.|.e.e.|.'.].5.F.B+B+B+B+B+C+>.T p.<.#.w.).[ k Z I I d 1 k > k t n G & = e u.F.u.P./+m+m+c+P.j.4.j ' ; . b N O %.N w ] j.4.2.2.4.j.4.j.O.u.O.j.w ] u %.:.%.<.<.<.p.h.q N u N u j.V j d Q (.~.A W Z 1 Z ~.A I 1.:.N %.%.%.%.#.N N :.:.#.#.'.R N #.%.].j (.3.u.u.j.].].V ",
"l l 6 6 6 l 6 ~ . 2 l 6 H H l 6 l l l 6 6 6 l 6 6 6 l l 6 6 6 . 6 6 2 l H l l 2 5 l l 5 5 l 5 5 . ^ l l l 6 6 l v.+ 2 2 9 } 8 @ / t +.{.9 / l l v m . * @ @ . l l H H l 8 l l l 8 & / 5 / / &   . ~ ~ ; .   { { * * * 2 2 * * * @ ; ; *   8 ^ 3 9 9 9 8 6 l h 6 l l l l l 6 6 2 * * * * * * * .   . * * * * * * . { 2 { * { * * * 2 { { 2 2 * { ~ ~ ; ; ~ ~ ~ ~ ; . ; ~ * * * *   . * . * 2 *   ~ ~ ~ ~ ~ ~ ~ 2 *     . . * { * * 2 * { * 2 * { * 2 2 { 2 2 { { { { 2 2 2 2 6 D *   * * * { * * .   . * * . .   * { * 2 * 6 { * . . . * * { * * @ * . H M & 8 & _ t i.b+).m } e $.l.. & f + & { 5 M b Q {.M 5.V f W b+I . H . f ; . * * * * * { ; . ; 6 6 6 2 ; | & | 3 & 3 3 . ` . ; ; ~ ; ~ ~ . . . . *   $.j.u.4.!.. ; ; & ^ & ^ & ^ ^ & ^ ^ | , t.s.>.j.S s.@+~+S 4.T t.g.q.r d :.$+O.~+e.>.G.N.T V >.g.|.#.I Z 4.4.4.2.Z d 4.> 9 p.O !.W *.i.7 V ,.A I b ! < v.b e e b z e f + Z t.N.h.T Z G k k 1 k G k k = . L !.2.0 N.}.= + - n = .     ! T :.N W b B w 1 B 7 W j.T s :.a.e.e.<.|.|.q q N O <.q.|.N A Z ^.'+~+@+O.'+O.W 0 :.e.[.! - F k ).d G k [ [ & 9 = > Q [ = e O.P.O.'+/+m+/+c+u.4.4.j ' ; = b N *.f.f.t.'.t.].2.w.j.j.u.u.@+O.O.u.,.R R }.h.|.g.q.g.r.p.}.h.}.N.N.j.].A I I 5.5.3.W ~.A (.~.I ,.i.t.}.}.f.}.h.g.g.N.p.p.}.%.T =.=.:.%.j.V 3.O.@+N.j.4.4.4.",
"l 6 2 2 l l 2 . . l 6 l H ` 6 l l l l 6 6 l l l 6 6 l l 6 6 2 . 6 6 2 l H l l 3 5 5 l 5 5 l 5 5 ; ; 6 l 6 2 2 2 v.. 6 2 9 } 8   t m } M + . . . n | . * @ @ . / 3 l l 8 8 8 l 8 l . / 5 / 5 &   . ~ ; ; . . 2 { { * * 2 2 * * * @ ; ; * . 3 * 3 9 9 m 8 6 6 6 6 6 6 6 6 6 6 2 2 { * * * * * * *   . * * * * * * . { 2 6 6 6 2 * * 6 2 { 2 2 { { ~ ~ ~ ; ; 2 ~ ; ; . ; ~ * * * *   . * . * 2 *   2 ~ ~ ; ; ~ ~ 6 * . . . . * { * * { * { . { * { { 2 2 { 2 2 { { { { { { { { 6 D .   * . . * . * { . . . .   * { . *   2 * { * . * . . .         @ . . t m & 8 3 { . < ,+k.F - k i.+.b.R.v.v.v.b.b.R.v.R.R.8.7.].v.1.}.,.v +.;.+.; . * * * { * { ~ ; ~ 2 2 2 3 ; | ^ 9 3 & 3 3 . H . . ; ~ ; ~ ~ ; = = & {   ).t.u.4.!.. ; ; & ^ & ^ & ^ ^ & 3 3 - < M.g.s t.S g.@+N.S t.s N.s.<.r 1 #.$+'+~+e.c.B.e.T 0 |.q.s.%.Z Z 2.j.j.i.I 1 ].c } q 4 d 2.O y ! W 2.W W B B + i.< z z e Q e , e 5.4.|.}.T 1 G k k k k L k 1 / . L !.].$ p.N } - = 9 = ;   @ b T :.N ,.B I w f z < W [.T #.g.G.a.q.s.G.N.h.}.%.%.e.q.g.N V 5.> [ , , = ' , , 0 p.s.f., [ n G k.' e [ n 9 } | } >  .9 = f m.P.'+'+/+c+/+c+O.(.t.W ' . & < w :.}.w 0 $ t.j.w.i.m.j.O.O.~+@+@+y.7 0 u #.:.:.*.*.<.%.:.N N ) u u s A A Z I 5.5.5.W i.Z 5.i.2.W 0 %.4 N %.%.:.%.#.%.N %.:.u 0 0 0 N 0 4.(.].O.@+~+j.4.w.w.",
"6 l l l D l {   8 8 6 l l l 8 8 8 8 3 8 8 6 6 6 3 3 l 8 8 D * ^ 2 6 6 6 l l 6 2 l l 8 8 8 3 3 l l . 6 6 2 l } n v.. 3 ; 2 l . & } m L 8.+.M U l P v = . * . . 6 8 8 8 8 8 8 l H M 9 & & 3 ^ . . . { * * .   2 2 { * 2 2 { { * { @ . * *   3 ; / m m m 3 ~ ~ _ _ { { { { { { * * * * * * * * * *   . * * * * * * . & & } 5 3 6 ; ~ 2 2 ~ ~ 2 2 ~ { { * * * { { { * * * { * * * .   . *   . 2 *   _ _ _ _ _ ; _ _ { .   . . * { * * { { { { { { { ; _ _ _ 6 6 _ ; 2 2 * . * 2 6 D *   * * * * * * * . * * . * . { * * * * { 2 { * . . * * .           * * * * . .   . 3 H U U D H l l l 6 6 6 2 2 6 2 2 2 6 l l 6 l l l 8 8 8 3 3 * * * * { * { 6 6   * 6 2 2 6 * { * 2 6 { 6 l . U . = / & | @ % & 8 = 2   & !.t.u.4.5.. * * ; & / ^ ; ^ * ; 8 / / , M.G.|.N.:.q.N.N.M.s.s.s.s.g.r 1 N $+~+M.B.|.E.g.'.T |.G.s.%.I W i.i.i.~.z ' 7., w j.[.T '.T !.7 w 1.'.2.7.I + 7.z < z z < e [ Q T h.g.[.V j G G - k L P 1 k / . P Z ].< t.T } ' ! L f & & . s f.}.h.R R W !.L [ b d w 0 '.[.N.O g.|.q :.|.|.g.O e.q.e.%.4.j.< z B b W B y 7.T s.G.t.< - > ).$.n 9 n [ [ 9 9 } 9 C F & [ k.P.'+b+++/+/+q+O.b+f.y ! / . f w %.V 0 ] w N.t.@+O.O.O.~+~+b+~+~+~+0 w 4 u %.#.q q :.:.:.N q ] w T ].].V V 4.w.w.w.4.@+j.u.@+@+@+s T s 0 #.#.#.:.#.N %.N %.#.N 4 0 0 S j.4.j.O.O.b+j.u.@+O.",
"6 6 l l l 6 * . 6 6 6 l l l 6 3 6 8 8 8 8 6 8 8 3 3 6 8 8 D * { 2 6 6 6 6 l 6 2 l l 8 l l 8 3 l l . ~ 6 6 l } n v.& H 6 6 6 . 3 m t m +.} & ;   e [ & . *   * l l l l l l l l H M 9 & & 3 ^ . . * 2 { * . . 2 6 { * 2 2 { { * { @ . * *   3 ; / 9 9 9 3 2 2 _ _ 2 2 2 2 { * * * * * * * * * * *   . * * * * * * . ^ | 9 5 ^ 2 ; ~ 2 ~ ~ ~ ~ 2 ~ { { * * * { { 2 * * { { * * * .   . *   * 2 *   _ _ _ _ _ ~ _ _ { .   . . * { * * { { * * { { * ; _ _ _ 6 6 _ ; { 2 * * { 2 2 6 * . * * * * * . *   * * . * . { . * * * * { *   * * * * .         . * * * * * * *   . { ^ * * ^ * * * * * * * * * * * * * { { { ; . . . . . . ; * * * * * * * 2 6 . * 6 * * * . { * 2 2 * 2 6 . F . / ~ & & 6 # ~ # # #   & (.N.u.4.5.. * * ; & / ^ ; ^ * ; 8 / ; < N.s.:.N.O a.|.|.g.g.|.g.s.s.}.1 N G.c+++<.S E.|.T 0 *.q.g.N I ~.i.].V d e e 7.! ].N.[.T N w !.7 w [.T T W I ' 7.Q e z z z z - < T }.|.[.V I L k k k P G k k a . L 2.2.< i.T f = , $.v . . . M.M.g.N.:.N w T z b d d 2.0 '.j.p.N h.h.q #.}.}.:.O <.e.s.g.t.j.m.w.w.w.w.w.t.4.T :.*.:.!.{.F I v [ [ n [ 9 n 9 } 9 C F & [ k.y.u.'+/+c+c+q+u.j.f.y ' = . f T :.O.t.t.N f.t.t.j.N.t.N.N.@+N.N.N.t.:.N :.h.}.:.:.|.|.h.:.:.%.f.f.4.O.O.4.@+b+b+~+~+q+~+~+q+q+~+>.[.N.t.t.t.h.}.}.:.#.N :.#.N [.~+>.s j.O.u.O.@+b+w.w.O.O.",
"l 6 6 l 6 { * * l 6 8 6 l l 6 3 8 8 8 8 8 8 8 3 3 3 6 8 8 D . * 2 6 6 6 6 l 6 6 l 8 8 l l 8 3 8 8 ^ . { H l } n +.. 8 6 2 ; ; 3 3 9 } M = & 2 { e [ & . *   . 6 l l l l l 8 l H t 9 & & ^ ^ . . * 2 * * . . 2 6 { * 2 2 { { * { @ ; * *   3 ; / | 9 9 8 6 6 6 _ 6 2 2 2 { * * * * * * * * * * *   . * * * * * *   3 9 m 5 ; ~ @ ~ ~ ~ ~ ~ ~ ~ ~ { { * * * { { 2 * * { { * * * .   . * . * 2 * . _ _ _ _ _ ; _ _ * . . . . * { * * { { * * { { * ; _ _ _ 6 6 _ _ 2 2 * * { 6 2 6 *   . * . . *   *   * . . * . { * * * * * { * . * * * * .         . * * * * * * * . . * * . * { . * * * * * * * * * * * * * * * * * * . * * * { * { * * { * * 2 {   * 6 { * { * 2 * { 2 * 2 2 . H . ; ~ & ; & . / . # % * & Z g.u.4.).. * * ; & = ^ ; ^ * ; 8 / { [ j.g.O ~+s.%+|.>.g.g.|.|.q.g.}.- |.G.q+w+B./+E.*.T s |.G.M.'.j 2.i.V V A I z ).= 2.N.[.'.'.[.!.W W 2.'.,.W !.+ Q e e < z Q z L d 4.}.:.'.V d k [ k k G 1 G k a + L 7.,.7 f.1.t ' ! !.L & & * %+q.*.G.<.:.<.q 7 ,.0 < ,.0 ,.,.t.}.}.:.}.}.:.h.f.|.*.<.e.|.N.O.y.c.P.P.y.P.P.>.j.g.g.}.!.+.n ' v n v v F F P n } 9 C n & } k.P.u.'+/+c+/+q+O.4.1.B , = + f w %.0 t.N.h.p.%.f.S %.#.#.s #.s N s f.N u :.}.}.:.<.<.%.:.%.N.@+t.N V 4.4.w 4.].4.j.T 4.].].j.t.t.T s N 0 s %.%.:.:.}.#.f.f.[.T [.b+].].~+~+N.@+~+~+@+t.t.N.",
"6 2 2 6 2 * * 2 l 8 3 8 l l 8 3 3 3 3 8 8 8 3 3 3 3 8 8 3 D   * 2 6 6 2 6 6 6 6 l 8 8 l l 3 3 8 ^ 8 . * H 8 9 +.L . 3 l 2 . 3 l l m m +.} & ~ * L 9 = ; * . . ~ 8 8 8 8 8 8 8 l m 9 & & ^ & . . * { * .     2 2 { * 6 2 2 { * * @ ; * *   3 ; / 9 9 m 8 6 6 6 6 6 6 2 2 { * * * * * * * * * * *   . * * * * * *   3 9 m 5 ; ~ @ ~ ~ ~ ~ ~ ~ ~ ~ { { { * * * { { * * { { * * * .     * . * 2 * . ~ ~ ~ ~ ~ ~ ~ 2 * . * * . * { * { { { { { { { * ; 2 2 ~ 6 6 ~ ~ 2 2 *   * 6 6 6 .     * * * * * *   * . * { * * * * * * * { * * * * * * * . . . * * * * * * * * { * { 2 2 2 2 2 { { { { { { { { { { { { { { { 2 ^ ^ ^ * * { ^ ^ { 2 { { { { * 2 { * { 6 2 2 6 6 6 { { { { 2 2 . H . & ^ ~ ~ . E P.A + @   & 5.N.u.4.$.. * * & ^ = ^ ; ^ * ; 3 / 6 - ].:.s ~+M.d+j.|.g.s.|.|.q.g.}.1 g.G.c+/+B.c+%+|.[.#.g.q.$+'.j 4.j.].j.~.Q z !.< W j.N w [.2.Q W W ].T ,.I Q ! !.z z z Q $.Q G + ,.'.T ,.I 1 k [ k G k [ k k ! = z !.A 0 i.1.} ' , f [ . & . E.d+a.*.B.a.*.a.w '.0 ! w W W I N ] N [.'.T 0 ] s q O e.s.#.t.O.y.c.y.P.g.P.++|.0 :.e.%.! + [ k 9 n n 9 9 F n 9 & > i n = [ w.P.'+O.++c+/+q+'+4.2.W } = = f w :.s M.N.s.s.O g.%.:.:.:.#.%.#.%.N }.N %.}.}.%.:.<.<.|.h.#.%.}.}.:.'.T '.w T w w T T '.'.w w '.'.T N.s 0 '.N N :.N :.N [.w N T '.@+'.'.t.j.T '.'.T '.w 0 T ",
"2 * { 2 { * * 2 8 3 3 3 8 8 3 3 3 3 3 3 3 3 3 3 3 ^ 3 3 3 D   * 3 2 2 3 2 6 6 6 8 3 8 H 8 3 8 3 ^ 8 . * l ^ } {.+.- 8 l 2 . 8 8 l l m +.= .     P 9 = ; * . . ~ 8 8 3 3 3 3 8 l 9 } = & ^ & . . . * . .     2 2 { * 6 2 2 { * * @ ; * *   3 ; / 9 m 9 3 ^ ~ _ _ 2 2 2 { { * * * * * * * * * * *   . * * * * * * . 3 | 9 5 ~ ~ ; ~ ~ ~ ~ ~ ~ ~ ~ { { { { * * * { * * * { * * * .     * . * 2 * * 2 ~ ; ~ ~ ~ ~ 2 * . * * . * { * { { { * * { { * ; ~ ~ ~ 6 6 ~ ; 2 2 *   { 6 6 6 *   * { { 2 6 2 { . . . { 6 { * * * * * * * * * { { { { { { { { { { { { 2 { { { 2 { { 2 { * * * { { { * * * * * * { { { { * { 2 { { { { { { { * { 2 { { 2 { * 2 6 2 2 2 { { 2 2 2 { * * { 2 { * h . & ^ @ . . B+D+-++ &     i.t.u.4.G . * * & ^ = ~ ; ^ * . 3 = _ = 4.[.0 '.q g.].T [.f.*.*.q.q.}.- s e.m+++a.s.%+g.f.O a.a.M.[.Z 4.4.].j.~.Z e ).! b 4.w 0 4.W d W W V w ,.d d ! 7.z z z e b e G - ,.,.W W z 1 G k k P [ [ 1 k } = e !.< < i.,.t ! ! v f & ^ . E.d+G.a.a.a.%+G.[.0 w w ,.T W W t.N.t.[.f.[.'.N.t.h.<.e.e.s j.w.O.w.w.t.t.t.t.j.0 :.e.}.! } } 1 [ 9 [ - [ n 9 [ & > i 9 = [ w.P.'+'+/+c+/+q+'+V ,.Q - & . f W f.|.|.s.q q :.q O %.%.:.#.:.#.#.q :.#.:.h.g.g.g.e.<.e.p.%.q q #.}.:.[.t.t.:.t.f.N t.t.t.%.u #.N N f.0 0 [.#.q %.q #.N }.4 w w 0 T t.%.N N N N u #.R R R R ",
"* * * { * . * 2 ^ { { { ^ ^ 3 3 ^ ^ { { ^ ^ ^ ^ { * ^ ^ ^ D   * ~ 3 3 ~ ~ ^ 2 3 8 ^ l H 3 ^ 8 8 ^ 8 ; * 3 & - 8.P & ^ ^ * . 8 8 ^ 3 } H & . . @ !.n / ~ . . * ~ 3 ^ ^ ^ ^ ^ 3 8 } } / & & & . . . * . . . . 2 2 { * 6 2 2 2 * * @ ; * *   3 ; / 9 9 9 ^ ; ~ _ _ { { { { * * * * * * * * * * * *   . * * * * * * * 3 | 9 5 ^ 6 _ ~ ~ ~ ~ ~ ~ ~ ~ { { 2 { * * * { * * * * * * * * .   *   * { * * { * * * * * * * * . * * * * { * * * * * * * * * . { { { 2 2 * * * { * * 2 6 2 2 *   * { { 2 6 6 2 . . . 2 D 2 { * * * * * { { { * * { { { { { { { { * { { { { { _ _ ; ; @ @ @ ; * * * * * * * * * * * * * * * * * { { { { { { { * { * * { * * { { { * * * * * * * * . * * * * * h . * * @ . . B+D+e++ | @   7.}.O.4.k . * * & ^ = ~ ; ^ * . 3 = * ' t.t.0 < ! f.j < V 4.S O g.s.}.- s q.q+/+B.|.q.|.s.g.a.q.G.'.V 4.4.4.j.].Z d G - < 4.T 0 W w d I ~.V ].2.Z I b i.$.$.!.Q e Q ).d !.!.B b e [ k k k P k k k G 9 + e !.d , ;.W t + + f [ . . * %+d+a.*.B.B.d+%+4.< '.0 '.T w 0 N #.:.}.%.N u 4 q #.#.*.e.#.T < 7 0 A y W w 0 0 [.p.p.h.! 9 } 1 9 n n 9 F F n n } | C [ = ' w.P.'+'+/+/+P.q+b+j A B = & . [ V '.S 4.$+:.%.r.%.%.%.%.:.%.:.%.#.r #.q N %.|.e.e.<.<.O %.N :.:.N N #.N %.h.N }.}.q %.#.#.u u N u u [.'.N '.t.p.p.h.h.h.N.p.h.%.u =.:.N u u #.#.N %.R R =.R ",
". * * * * . * * * * * * * * { ^ 3 ^ * * * * * * * * * * * D   * ; ~ ~ ; ; ; ; ; ^ & 8 H & & 8 8 & & ^ . ; & & {.L . ^ ~ * ~ l l 6 8 8 U & .     !.n } ^ . . * ; ^ & & & & & ^ 8 } 9 } & & ; . . * { * * . . 2 2 { * 6 6 2 2 * { @ ; * *   3 ; / m m 9 3 ~ ~ _ ; { { { * * * * * * * * * * * * *   . * * * * * * . 3 9 9 / ; 2 _ ~ ~ ~ ~ ~ ~ ~ ~ * { { { * * * { * * * * * * * * *   *   . { * * { * . . * . * * * . * * * { { . * * * * * * * * * ^ { * 3 3 { { * * * * 2 2 * * *   . * * { 2 2 { . * . { D 2 { 2 2 2 2 { { { { * * * * * * * { { * * * * * * * ; ; ; ; ; _ _ _ * * * * * * * * * * * * * * * * . . . * * * . . * * * * * * . * . * . . * * * * . * . . * * . * # & > * %   x z+D+e+! . @ . w.s.@+j.k . . * ; & = ~ ; ^ * . 3 = ; [ N.N.V < B N.e ! j 4.4.>.>.g.p.x >.G.c+s.<.s a.q.M.G.E.E.|.w V ].j.4.j.j.(.d ).1 Z i.4.w ! 7 1 < ~.A ].2.Z I = Q z Q z z z z d d B B ! [ [ n G k 1 G L G k G 9 . 1 ).z + ;.y ;.! ! P v = 3 8 w+G.O *.q.e.$+*.7.2.i.T [.f.[.#.}.p.}.:.h.h.}.}.}.}.:.O <.#.w < d I W W W W W W w #.%.=.+ = m L 9 n [ 9 F n [ 9 } | C | = ' w.++'+'+/+P.P.q+b+A A z = 3 . [ V T A j.f.9.%.:.9.%.=.=.=.R =.=.=.u }.:.%.:.<.<.*.<.e.#.<.q q #.N :.%.r q %.q N r N N N u N R R N u f.f.N s %.#.N N <.:.%.:.#.N N }.=.}.}.=.N N #.u u u u u ",
". * * * . . . .   . * . . . * ^ 3 ^ * * * * * * *   . . * l   * . ; ; ; . . . . & . 3 l & . 3 3 & . 3 . . & & {.v . ^ . . ; ^ ^ * ; ^ U & . @   $.[ / 3 .   * ~ 3 ^ ^ ^ ^ ^ 3 8 } m } & & ; . . * { * * . . { { { * 6 6 2 2 * { @ ; * *   3 ; / m m m 8 2 2 _ ~ { { * * * * * * * * * * * * * *   . * * * * * *   3 9 9 = . ; ; ~ ~ ~ ~ ~ ~ ~ ~ * { { { * * { 2 * * * { * * { * * . *   . { * * 8 ^ * * { * * { *   * * { { { . * * * * * * * * { 3 { * ^ 3 ^ 3 * { * . * * * * *   * * * { 2 { * . * * { 6 2 { 2 { { { { * * * * * * * * * { { { { * * { { { { @ ; ~ ~ _ _ ; @ * * * * * * * * * * * * * * * . * * @ @ @ @ @ @ * * * * * * . * * * * * * * . * . * * * * * . * # & ( * %   P.D+e+m+y @ %   3.s.@+j.k & . . ; & = ~ ; ^ * . 3 = ^ ! N.t.W ' b i.L ' ' ~.t.j.>.#.9.+ #.e.b+M.e.>.a.q.s.G.E.E.g.'.(.4.j.].j.j.5.1 $.+ ~.i.].w , W I < 2.V 4.V I I - e e Q b b z e I I b B ' = - n P G k 1 $.k k k 9 . k Q G ! 7.b f = + f ' . &   c+$+O O $+e.G.O ! !.< T 0 }.q :.%.g.|.:.:.|.g.|.h.h.e.<.r.}.'.2.A A V A j ,.2.,.[.}.r.1.b = 9 [ n n 9 n F n > [ } > C > = ' O.'+'+'+/+/+/+b+b+V 2.Q = & . f i.4.].A w u #.9.N %.R R R u R R =.u :.|.|.s.G.e.e.G.r.r.$+<.#.N q #.N 9.%.q #.:.#.#.N R N #.N r N r f.[.'.[.N 4 %.}.<.<.#.9.:.%.r N h.N =.9.r r =.N #.N u N ",
". * * . * * * * & ^ . & ^ & 8 & 6 ^ ; . . . ; ; . ~ ~ ; . l . . & > > & & . * { = + } } & . = ; * * & 3 . . . 8.6 * . * . . * { & . l {.;     . !.1 } 3 . . . & ^ ^ 8 & 3 & ^ l ' [ m 9 ; . * { { * * * * . . .   * * { { * * . { * * . . ; ^ 3 m t 9 ^ 2 ~ _ _ 2 2 2 { { * * * * * * * * * * *   . * * * * * * . ^ l 8 3 { { { { { { { { * * * * * { * * { { { * * * * * * * 2 *     * * . . * [ & & 3 ^ ; ; ; * * * * { { { * * * * * . . . .   * * .   * * * * ; ; = = ; * * 7 =   { ; @ ; { { { * * * * * * * * * * * * * * * * * * { { { * * * * * * * * * * * { * * * * * * * * * * * * * @ ; @ @ * * * * = = = = = = = = * *   . * { 2 2 { { 2 2 2 { { 2 2 2 2 2 2 2 { { ~ ^ | 3 6 = $ r 9.! ; @ @ + i.P.w.w.[ & ^ ^ . | & & & & & & & ^ # < E.a.V [ 0 q.b [ [ V >.|.c.x ].0 R 1.c+/+>.R q.G.a.*.:.[.2.A (.4.4.4.].W e e ).+ V t.|.w Z Q B B ;.B B b I d b b z z e 1 1 1 z G 1 1 [ + - n k 1 [ n v m 9 } [ & 9 !.f = a / 5 = / t } f {.. ~+N.*.O G.q.s.G.t.[.>.}.h.$+p.9.<.<.<.p.h.t.T [.:.#.*.%.9.R =.y B b b < y !.y W R h.e.f.I {.9 ' k G G 9 M F t 9 f [ G & / / 6.O.'+O.'+,+w.b+b+1 w.z + / . f T N A A W I d b b b d ! d Z < d I < 0 T f.|.*.<.%.N 9.p.9.%.u w T R R R w ,.1.,.=.,.,.,.,.1.R R u u t.%.%.g.q O 9.R :.|.e.:.:.#.'.W f.N }.r N r R r N N N N ",
"* { * * * * * * ; ^ . ; ; . ~ ; . . . . . ; . . . . . . ; 6 . ; & | & .   * * * = = 5 5 ; . ~ ~ * ; & 8 & . = x.{ . * * * * { * & & 8 U . .   . !.[ - & . . . & ^ & ^ & & ^ 3 & ' 9 t t 3 .     . .     . . . * * * { { { { { * * * * . . ; ^ 3 m m 9 ^ 2 2 _ 6 2 { { { * * * * * * * * * * * *   . * * * * * * . ^ 8 8 ^ * * { { { { { { { { { { { { { { { { { * * * * . . * { * .   * * . * * 9 > & 3 ; . @ @ * * * * * { { * * * * * * * * * . * * * . * * * * ; = = = ; * * 7 +   * ; @ ; { { { * * * * * * * * * * * * * * * * * * * * * * * * * * * * * * { { { { { { { * { * * { { { * * ; @ @ @ * * * { * * { { { * * . * * * * * * * . { { { 2 6 2 2 6 { { { { { { { { 2 ^ & . { / 7 9.r ] . * @ + 3.P.t.i.' . . *   & * * * * * * * ^ _ ! E.E.].+ ] $+b + - 2.s.g.|.V M.w R N.c+++g.#.e.G.a.G.|.N V ,.3.4.j.4.V A e 1 ).+ 4.t.:.w j [ f ! B B B ! I 7.!.B < < e G z k + [ e e ' ' - - - [ [ 9 [ } } m 9 & [ L f + / = = + + f = = m . f.h.O O G.e.*.O S #.#.:.N h.:.:.d+G.*.O N }.:.}.:.|.:.<.:.=.R y B b B y I W y W w %.*.[.< 9 } L k k k [ F n m } f - G } a + - + + + + + = + + I i.Q } & . B ,.#.].V A 0 < d d ! j < < j < I A ! 0 N }.|.<.<.:.%.%.9.#.u 4 ] w T T 7 ] ] 7 , 0 < j j 0 w 0 0 0 w w N M.d+g.q h.h.:.|.e.<.g.%.'.1.'.w =.u =.=.=.=.#.#.#.#.",
"  .     * * . *   . . * . . * { ; . . ; ; ~ ; ; ; . . ; ~ 3 . ~ ; 8 ^   { 6 { * / / m l ~ ; ~ ~ ~ ~ ^ 8 3 = & {.2 * { 6 2 2 2 { ^ ^ l U . . . . !.' = & . . ; 8 8 . . 8 ^ & & 8 9 m 9 ^ .       . .     . * * * * { { { * { { { @ * * . . ; ^ 3 m t 9 & ~ ; ; ~ { { { * * * * * * * * * * * * *   . * * * * * * . ^ 8 8 ^ * * { * * { { { { { { * { { * * * * * * * * * * * * { * .   . * . . * 9 & & ^ ; . @ @ * * . . * { { * * * * * * * * * . * { * * * * * * ; = / / = ; * y = & { _ ; ~ { * * * * * * * * * * * * * * * * * { * * * * * * * * * * * * * * * * * * * * * . * * * * * { * * @ @ @ * * * * * * *       . { 2 { { { * * * * { .   . * * * * * { { { { { { { { ~ ^ | * _ 5 7 9.o ) . * { + m.y.j.i.[ & * { * ^ . * * .           + $+++i.' < N.!.' ' 2.s.|.:.T s.4 =.N.$+++s.}.|.s.g.g.|.'.,.d 3.j.j.4.V I z e $.+ [.}.#.R y b f + ! b z b I Q $.Q e < ' ' e G e [ L L n t 9 } G k k n n 9 } } [ > 9 f L + = # / / = f f = 5 . N.$+O *.e.<.<.<.[.[.N }.:.N.%.#.G.e.<.*.O %.:.%.s :.%.g.}.}.R 7 B < b 7 7 W ,.2.1.p.e.t.d + . [ 1 k k [ n [ } } f - k & / a v.'+'+,+,+R.= + = !.i.z + / . f T :.@+t.t.j.4.w.O.2.i.i.2.].2.i.w.i.T '.f.g.<.<.:.:.:.:.#.4 u 0 T W A , A j I < ,.< A V A A 0 T T T u #.s.d+%+q #.u %.|.:.<.p.N ] y 0 0 0 ] w R y y T T T T ",
"{ { * * 2 * * 2 @ @ { { { _ 6 h 6 2 ~ ; ; ~ ~ ~ 2 ~ ; ~ 2 ~ . ; * l 6 * 2 6 * * / 5 8 6 6 l h 6 3 8 8 / 8 9 & m * * * { * * * . . . & H . . . * ).} = ^ * . ; 8 l . ^ {.8 & 8 {.m } & . . . . * * * . . . * * * . * * * * * * * @ * . . . ; ^ 3 m m 9 & ; ; @ @ * * * * * * * * * * * * * * * *   . * * * * * * & ^ 8 8 { * * * * * * { { { { { * * * * * * * . * * * * . * * * * .     . . . * ^ & ; ; * . @ @ * * . . * { * * * * * * * * { { . * { * * * * * * * = / / = ; ~ y , & { ; @ ; * * * * * * * * * * * * * * * * { * * * * * * * * * * * * * * * * 2 2 2 { { { { { * * * * * * * * ; ; * . . . . . . * { ^ ^ * .   * { { { { 2 2 2 2 { * { 2 { { 2 { { { { { { { { ; & | 3 2 = ! %.9.4 . @ { . O.y.f.2.' . * { . . * * * * * * * . ~ ' N.|.Z ' < t.1 - 9 i.N.G.p.=.s.] #.h.++d+g.:.f.O %.|.j.4.A Z 3.4.j.j.].W z L 5.= i.}.=.,.7 < ! B !.z e e Q I Q !.!.Q 1 ' z ).7.' [ f ' } + = 1 [ ' [ 9 n 9 9 } [ n f ;.= = ; ~ 5 = f f . . . t.$+O *.*.<.<.*.q %.N #.N }.:.}.G.q.q.s.<.|.p.}.h.p.}.|.}.:.T 0 B < B W I W W 7 w :.<.}.7 } 9 v k k P [ n [ } } + - P m / = k.O.'+O.l+,++ v.v.$.i.e . / & ! w }.f.'.'.T 0 w V ! w V ].T V w T ].'.T :.|.<.e.}.}.#.|.h.h.t.[.,.w 2.W 2.i.w.~.i.Z V ~.W A j ,.W A S |.s.d+G.4 O #.|.|.*.<.p.%.] ] V V j B I W < 7 < 7 7 < ",
"2 2 { { { * . * @ @ @ @ @ _ { _ ^ 3 ^ ; . . ; ; ~ 3 ; ; 2 ; . . ; ~ ; . ; . . . . . . . . . . . . . ; . . . & F * . * *   * { * 8.{.H H . . .   ).[ } 2 .   . ; . . ; 3 . ; 2 ^ & ; ; . . * . . * . .       . . . * * * * * * * @ * . . . ; ^ 3 9 m 9 ^ 2 2 _ _ { { * * * * * * * * * * * * * *   . * * * . . * . ^ 8 3 * * * * * * * * * * * * * * * * * * * . . . . .   . . * * .   . . * * * ; . . * * * * * * * * * * * * . * * * * * * * * . * * * * * * * & * = 5 / + + / y ' & * @ @ . . * * * * * * * * * * * * * * * * * * * * * * * * * * * * * * * * * * * * * * * * . * * * * * * * { 2 6 l l 3 = & = + . . . + / / * * { 2 6 2 * . *   .         . * * * * * * * * ; . & * { . ! h.r.) = @ * . b+/+t.j.1 & * * * & . . . . . . . . . + j.].Z 1 ! ,.+ + - W }.s.p.'.g.#.%.p.++M.|.<.4.s s f.T t.< 2.3.].4.j.4.W e L 6.+ 7.1.1.,.< ! v e e ' z !.).1 b b e e e e e G v.e f f [ 9 = } ).5.6.$.e ' [ f [ n v f +.& ; ; ; 5 = m m . . . }.$+<.q.e.e.<.*.#.h.h.:.#.N #.:.e.*.*.<.*.N #.4 :.#.%.|.p.[.[.T !.Q I I 7 W 2.,.,.}.<.h.y = & > k G $.9 n [ } } / - k | = ' O.'+/+'+'+V j '+O.A 2.Q - & . B T %.f.T '.'.0 0 V w 0 T '.T '.< < w '.w #.%.*.%.N N *.|.#.#.N T T T A j d W ~.j A W 2.i.2.2.,.i.i.i.s.M.s.d+G.|.g.g.$+N.s.g.g.:.T w ~.~.A W I I < b d B B d ",
". * .   .   . .           . * * . . ; ; ; . . . . ; . . ~ . ; . . . . & & = } 9 } t t 5 / = ; ; 5 = / / H | | {.* . * * . { 6 6 ^ & & ^ . .   * P } 3 2         * . . * . * { . . . . * * .             . . * * * * { { * { * * @ * . . . . ^ 3 9 m 9 3 6 6 _ _ { { { * * * * * * * * * * * * .     . * . . . * & 3 8 8 { * * * * * * * * * * * * * * . . * * . . . . . . . * * * * * * * * * * ; . . ; . * * * * * * * * * *   * * * * * * * . . * * * * * * * & & & 5 / + + / 7 = . * @ @ ; * * * * * * * * * * * * * * * * * * * * * * * * * * * * * * * * * { { { { 2 2 2 6 ` /./././././././.` D H {.A.f+A+R.R.R.R.R.l.8.;.l 2 * * * * . . .   . . .   . *     . . . . * * ~ . & ^ { * 7 p.r.$ } { . + q+m+t.4.' | | | 9 G $.$.$.).).6.6.6.i.2.k.3.A + = Q f = = Q >.*.>.A >.f.R N./+g.s.N.].A V ].A O.d (.3.].].j.4.W e e 6.+ z W W W b z f 1 e [ e e $.Q B b b e z G G G z ' e e [ n n n d I Q z e 1 f L n v n ' v . * * ~ 3 & m t . . . N h.O <.O *.*.O q #.q q :.}.[.N <.e.e.p.}.:.:.u '.#.%.}.t.'.T w b d I I 7 j ,.V ~.:.<.$+i.f 9 n k k P > [ [ & } a - k [ = + w.y./+c+b+' m.'+b+x ,.Q - & . f w %.j.'.4.4.V W i.i.i.i.2.2.i.].].i.2.'.}.|.<.<.#.N O |.%.}.:.[.T w A W j W W d < W T T w w 7 0 j W >.>.O e.*.*.O O %.|.<.e.|.h.t.v.t.t.2.i.2.7.2.7.i.i.i.i.",
". * { * { 2 * * . ~ . ~ ~ ; 6 2 . . ; ~ ^ ^ ~ ; . ; . ; 2 . 3 2 / = } 9 } L !.P L ;.M m t m = = / + = . l ^ . & . .     . . { * . & & 3 . . .   n = 3 { @ @ * . * . .   * . .   . .   . .   . . . * * * * * * * * * * * * * * * @ * .   . . & ^ m m 9 ^ ~ ~ ; _ { { { * * * * * * * * * . .         . . . . . * . ^ 8 3 * * * * * * * * * * * * . * * . . * * . * * * * * * * * * * * * * * * * ; @ @ @ . * * * . * * * * * * * * * * * * * * * * * * * * . . * .   & / , + + / 7 ' & * @ @ ; * * * * * * * * * * * * * * * * * * * * * * * * * * * * * { { { { * * * * * * * { . * * * * * * { * * * ; ; & + + = = = / 5 m t M D 6 *   .   * * . . * * *     . * * * * * * . . ; ; | ^ g 2 b }.9.] | { ^ B ~+/+t.2.I ).6.6.5.i.Z Z Z Z ~.~.~.~.[.2.(.w.j.4.2.i.f = 9 k.t.|.].j g.[.0 [.M.++@+}.~.! ].].4.V d ).(.].4.4.4.~.e [ 6.- e e e 1 e G !.e e e Q Q $.Q b b e e e e e k d I Z $.$.).).).Z $.Q G z G L z n v [ - } . * * * ; . 9 9 . . . :.p.e.q.e.q.e.<.#.:.%.#.#.>.[.S q |.#.%.] 0 T w '.=.N #.:.'.4.j.7.2.W W V A ].].~.%.<.$+t.' | | [ [ F > } [ = 9 / } G n & = '+/+'+'+b++ m.'+q+j V z - = & ! 0 :.].V A j < < d d w w < < 7 w W ,.].'.f.p.s.N.p.p.s.s.g.t.t.f.4.j.,.,.,.,.W 7 A 0 R =.R w < < < A S N }.9.N N %.g.#.|.<.<.#.%.T ,.u u 0 T w 7 0 0 A V V A ",
"* l l 2 6 l 2 * ^ l & 8 ^ . 8 ^ ~ ; . ; 6 l 6 2 6 2 ~ 2 l . 6 H m 9 M +.v !.7.B e e [ [ +.+.f + + 5 H . . & & & . . * . . . . . . & & ^ .   . * 9 = 3 *   @ *   . . * . * . . . @ . . . . . . ; * * * * * * * * . . .       . . @ * .   . . ; ^ 9 m | ; ; ~ _ 6 { { * * * * . . . . . . .           . . . . . * . & ^ & .   . * . . . . . . * * . * * * * * * * * * * * * * * * * * * * * * * * ; @ @ @ . * { * . * * * . * * * * * * * * * * * * * * * .     .     & / , + + / y , & * @ @ ; . * * * * * * * * * * * * * { * * * * * * * * * * { { { { { { { { 2 { { * * * * * * * { { { { { { { { ^ ^ & = = = & & & & ^ ^ ^ ^ * * * * * * * * 6 l D D D 6 2 6 2 2 2 { { * * . . . &   @ { < %.%.0 & { 5 7.N.q.].A 1 6.k.5.4.4.j.j.j.j.j.j.w.w.t.O.Z 5.j.N.O.k.$.9 } $.4.|.m.(.f.[.i.T s M.g.R - A j.j.V < j ).V ].4.4.].~.z ' G . [ n v f L Q P k L k G k Q Z Q Q Q !.!.$.$.$.(.(.Z (.(.Z Q $.Z Z $.z z z L P [ n [ [ - & * * * . . 9 9 & & . s :.O *.*.*.*.*.%.}.:.:.q #.[.>.#.N.:.%.0 T W 7 0 R u %.N s w A I d < ,.i.V V V ~.[.<.r.,.+ | i 1 [ P [ n F } t a } G 9 & + O.P.b+'+i., ,+q+q+j 0 $.m & . f T %.,.W I d d I e < , 7 7 7 < W y 7 w w %.#.O :.:.:.|.O O %.[.0 0 w w w 2.W W W t.,.h.@+@+t.,.i.i.2.~+[.h.:.%.%.:.|.:.g.O O :.:.w ,.#.#.N :.R 0 T w 0 A A 0 ",
"} = = 9 m } } 9 f $.).L f f f [ 6.6.+.t t m t t 6.6.L L 1 + e e z $.P 9 - ^ 2 l 8 & . & 8 8 ; . . . . . . . . . . . . .         @ . n n .   @ = P - | 3 * *     . . . . . . . . . . . * * * * . * * * * * * * *             . * ; . . . .   ^ ^ 9 | ^ ~ ; @ @ @ . .                       . . . . * * * * . .   . . .       . . @ @ @ @ @ @ @ @ . ; ; . . . . ; ; . . ; ~ ; ; ; ~ ; ; ; ; ; . . . . . . . . . . . . * * . . . . . . ; ; ; . . . @ @ @ @ @ @ @ @ = + / 5 / + + , a , , = = ^ ~ { * { { { { { { * * * * * * * * * { { { { { { { { * * { { * * * { * * { * * * * * { { { { { { { { _ { { _ _ { { _ ^ ~ ; ; ; ; ~ ^ & ; .   * 6 h 2 2 2 ^ 6 l t H t ^ 3 l l . . ^ 3 | & | | m | 9 | n L L v L {.8.{.[ L [ ).(.5.(.3.4.4.4.V 4.4.2.].3.3.3.3.4.].V A A 2.2.2.i.2.].4.W W ~.I ' 1 k - - U {.v P [ e Q ].V 4.4.].V b z | & G Z ~.Z Z Q ~.7.Z Z Z I Z ~.~.~.Z ~.~.Z Z ~.Q Q $.Q Q Q Q Q I 5.5.I ' 1 e e k k n [ | | ^ * & & & 5 m & . & w t.N %.:.e.<.q.s.N.|.|.O O s.<.N |.q.<.] T '.#.7 y ].].].[.w w ] s -+m+S + !.R.y f.<.|.].[ > 1 } [ 9 9 9 9 9 n } [ k 9 = + '+'+c.u.E E '+w+q+! 1 e B = . G Z R 4.].4.2.i.,.,.,.].i.j.j.].T '.'.%.|.|.O *.<.<.<.9.:.#.:.}.#.s [.N 0 [.! 7 < W b < ,.T ].T w w '.f.[.f.t.f.[.t.N.s.s.s.s.h.N.f.f.}.}.}.}.'.0 '.T d d < j ",
"9 m } 9 U H } m 9 m 9 = } M +.M t M f 9 m 9 m 9 v +.v L 9 + 9 9 e v n & . .   * & ; . ; ^ ^ . . . . . . . . . .       . . . . . @ . n n .   @ = $.[ 9 3 * * . * . . . . . . . . . . . . . * * * * * * * * * * * . . . . . . * * @ . . . . . ^ ^ 9 | & . . @ @ @       . . . . . . * * * * * * * * * * * * * * * * * * . . * * * . . * * . . * * * * * * * * * * * * * { * * * * . * * { 2 { * * * * * { { { { * * * * * * { * * . . ; ; ; ; ; ; * * * * * * { 2 ^ ; ; = = = / a a , = = = ~ * * { { { * * * * * ^ { { * * * * * * * * * * * { { ^ ~ ; . . . . . . . . . * * * * . . . . . . . . 2 { { 2 2 { { 2 ^ ^ ^ ^ ^ ^ ^ & 3 8 8 3 ~ 2 6 6 D l H U {.{.{.{.8.{.{.{.t t M t | t m > > 9 | | ' [ n n n [ - + = [ + d d j A ].4.j j V j.].].].1 3.m.V ].4.].2.2.2.~.~.2.~.~.i.Z Q !.$.' ' v 9 F [ [ [ e ' ' $.].].w.].].V d 1 m - P Z Z Z Z $.Z ~.I ~.7.2.~.Z ~.~.Z Z Z ~.~.Z !.$.Q Q Q !.!.!.(.(.Z $.).).z ' 1 e n m m l 3 & & . . / 5 & . & ].T w :.q O <.*.! < '.[.|.|.G.e.f.q.%+e.4 1.}.<.! w T '.< '.R 1.S c+c.x V - - d I f.g.g.2.' - 9 [ 9 9 9 9 [ [ [ } n k 9 / . O.'+c+O.> k.b+q+~+A Z $.B + . 1 W =.V w V A A < < < 0 0 < 0 w T [.j.g.N.s.s.s.g.G.N.p.p.p.p.p.f.[.f.'.T t.T W < B b 0 T T 2.'.T w 0 %.%.s s %.'.#.%.|.|.O N N :.[.'.}.=.#.f.f.t.t.t.w.w.2.2.",
"= t = & U t . = & & & . ^ H U l H H = . . . . . & 9 9 m } . } 9 } m } . . .   @ . . . . . . . . . . . . . . . .       . . . . . @ . n n .   @ + ).9 9 3 * * . * . . . . . . . . * * . . . * * * * * * * * * * * * * * * * * * * @ . ; * .   ^ ^ 9 3 & .     @ @ . . . . * * * * * * * * * * * * * * * * * * * * * * * * * * * * * * * *         @ @ @ @ @ { * @ @ @ @ * * @ { _ { { { { { { * * @ @ @ @ @ @ @ @ @ @ @ @ @ * @ @ * * * * * * * * * * * * * . . * * . . . . . . . / = . . ; * * * * * * * * * * * . . . . . . . . ^ ^ ^ 3 3 3 3 8 H H U {.8.l.l.l.l.l.8.{.{.U U M U {.{.{.{.{.U U l l l H H H H H t M M +.M M t t M +.+.H l 8 8 8 l 3 | 9 m 9 f f 9 } t +.M +.+.t 9 v [ L $.{.L {.).).$.$.).Q Q ).).6.!.7.5.Z V ].].4.w.j.j.4.].].V '+w.j A Z Z k.k.$.z Q e ' 1 z z e k v 9 n F m + P n e [ e 5.5.4.4.O.].t.i.$.[ | = $.!.~.Z Z Q ~.~.Z ~.Z Z ~.~.I Z ~.~.2.7.2.Z Q z e z e Q z z Z I I Q $.Q Q Q e v v t m 5 / . & . . / 5 ^ . & T T '.f.N *.G.q.Z < 0 w s }.*.4 :.<.%+*.] 1.=.<.T T '.N.>.[.N :.M.++s + f / + - j N *.|.,.+ } t [ 9 9 9 [ [ [ [ } [ > | 5 + w.P.c+'+. w.b+w+b+A Z !.b = . > W N W V W V V 7 < ! 0 w 0 w w w '.f.s.N.*.:.g.*.O O N N :.}.}.[.f.f.f.[.t.2.2.7.i.v.t.t.2.i.'.T T w %.f.#.N [.f.#.%.O g.O %.:.%.'.w N =.u }.N '.w 0 2.2.T w ",
"3 l 3 ^ H l & & .   * * * { * . 2 2 . . .   . . . ; ; ~ . . ~ 6 . & . .   @ @ @ . . . . . . . . . . . . . . . .     . . . . . . @ & v n . @ @ + ).[ | ^ . .   . . . . . . . . . * * * . . * * * * * * * * * * * * * * * * . . * @ . ; *     * * 3 ^ ; .     @ @ * * * * * . . . * * * * * * * * * * . . . . . . . . . . . . * *     . . . * * * @ @ @   @ @ @ @ @ @ @ @ @ @ @ @       @ @ @ @ @ @ @ @ @     @ @ @ @ @ @ @ @ @ @ * * * * * * * * * * * * * . . . * * * ^ ^ ; ; . . . . . * * & * ; ; & & ^ ^ ^ ^ 3 3 8 l H H U U +.+.+.{.{.{.+.+.+.+.+.+.+.+.t m } 9 9 m t M U +.+.+.{.{.{.+.+.M M M M +.+.+.+.+.P +.{.{.{.{.{.+.f f [ } } } = & | m U 8.l.l.i.7.+.v v f f +.8.;.P v v ).P v v $.$.).$.$.6.6.6.k.$.!.7.2.2.2.w.w.w.2.].4.2.].].2.].w.3.I $.e = v [ . + k k k G P L 9 9 n 9 9 9 } n [ e 1 6.A+,+7.].].u.4.t.i.I ' & . P !.Z Z ~.Q I I I Z I Z i.7.2.~.Z I Z ~.Z I e z e !.Q !.e e Z Z Z $.Q z $.6.P L v f 9 / ; . & & & 5 t 3 & & V 4.'.N O *.g.O ' + ~.A '.#.h.:.}.e.d+e.u 1.0 q 0 T [.#.q }.h.:.c+S j f #   . i V >.*.|.w + } } } [ [ [ [ [ [ [ } } [ 9 = . O.P.O.3.& ^.P.w+w+< I $.! f . [ ~.4 j I 2.i.N.N.@+N.N.i.'.j.N.N.t.[.|.t.s %.p.|.q :.N N #.N u N '.N [.N w 0 w A I 7 0 w ,.i.'.[.[.[.f.N.N.f.f.f.[.[.|.N.%.#.%.s T w ] %.N :.T '.0 0 ,.,.T T ",
"; ; ; . . ; . .   @ @           . . . . { * *     .   .   . * * . . .   . @   @ . . . .       . . . . . . . . . . . . . . . . . @ & v n . @ @ . ).[ | ^ . .   . . . . . . . . . . * * * * * . . * * * * * * * . . . * * * .   . @ . ; * . . . . ; . . .     . . * * * * * * * * * * * * * . . . * * * * * * * * * * * * * . . . * * * * * * * * @ @ @ @ @ @ @ @ @ @ @ @ @ @ @ @ @ @ @ @ @ @         @ * @ @ @   . . . .   . * * * * * * { { { 2 ~ ~ ; ; ~ 2 6 l * ^ { { 3 6 l l l l l l l D D D t t t m m m m m } } m t M U U U P P +.+.+.P L v n v L L L v v n n F F n - > - [ n n v v v v n n v v L P P P L P L P $.$.).).$.$.P L f n m m m m ^ 9 } } v ;.!.L L f v v L 6.v.7.v v ;.v = ' P v ).6.$.e G k 1 1 v.v.R.i.7.Z I + ~.~.W ~.~.2.2.i.w.5.(.).).P 9 t L 9 n P v n n [ 9 9 t F n 9 L +.k ).G $.e d I < ].j.O.4.].,.< 1 & . L Q I Z ~.!.2.~.~.~.Z Z Z < d I ~.~.I d d I 1 z z 5.$.!.z z I I I Q G z e e L v f } / = = ; & & & 5 5 ^ & & @+c+c+s.g.*.s.|.1 I j A 0 s N q [.) *.*.w W R d+f.[.[.f.s 4 %.s.S ! < = @ # }  .].g.g.G.T ! f = } } [ [ [ [ 9 9 f [ k m . . l+'+~+j (.O./+w+C+j (.$.! t . k w.u d b j 7 V T w 0 0 w w '.'.T :.[.@+~+N.N.N.p.%.N.h.}.}.:.N '.'.T #.%.u w w ,.A < 0 0 T '.0 N u u #.#.[.N s 0 %.'.|.N.N.t.t.f.'.'.%.}.:.#.[.[.T w 1.1.R 0 ",
"3 & 8 8 . & 8 . @ @     @ @ @   . ;   * { .     .     . .   .   . * .   * * . * * . .   . . .   . . . . . . . . * . . . . .     @ & v n   @ @ . 6.9 | ^ * * . . . . . . . . . . . . * * * * . . * * * . .       . . . * *     .   . . *     * . . . . . * * * * * * * * * * * * * * * * * * * * { { { { { { { { { { { { * * * * * * * * .       . . * * * * * . * * * * * * * * * * .   . . * 2 2 2 { * * * * * & & & & & & 3 8 & ^ ^ 3 8 8 8 3 3 2 6 l l l 6 6 3 8 l 8 8 l l l | | | | | | | | } } } } } } } } M U U +.{.{.+.+.{.+.+.P P P P P +.+.+.t m 9 9 9 t M U t 9 } m M +.+.+.+.+.+.+.{.P P P +.+.+.+.+.{.{.{.{.{.{.{.{.).).+.t } = = } 8 8 | & m l.v.l.P L P ;.;.6.+.+ } + m 9 } 9 +.} - v n [ P ).v n . . G 1 z $.$.! e 7.k.7.!.k.7.Q ).Q k 1 - } 9 9 P v v n n v v n 9 n v L L L $.6.P k Q Q I I d 2.j.O.O.].V 2.I e & . $.!.Z Z ~.I I I Z ~.~.~.~.Z ~.d , I 7.2.d + e z e !.z Q e z I I Z Q Q Q z e f 9 } } / ; ; ; & & & = / & . & c+c+c+@+g.|.@+M.'+b+b+u.j.S >.N w O g.O T W 0 u 0 '.T t.=.f.f.M.7 V < [ + . P j 4.s.E.G.'.[ v f [ [ [ [ [ [ [ [ f - k m . + '+P.@++ w.'+c+c+C+< Z z , M . k i.4 < < d 7 V ].'.w w w T [.[.#.N q 0 0 s N #.h.N p.p.h.f.f.f.t.t.t.p.$+t.f.4.2.2.W ,.T w w w '.T N #.s f.%.'.4 '.%.s #.[.s N '.'.f.:.:.[.#.f.t.N.N.f.1.1.f.",
"; . ; ; . . ; . .     * * * .   . ; . * * . * 3 *   . . . .     . .   . . . . . * . . . . * .   . . . . . . . . . . . . . . . . @ & v n     @ . 6.n | { . . . * . . . . . . . . . . . . . . . . . . . . .       * * * * * . * * @ . . * * * ^ * ; ; ~ ~ { ^ ^ { * * * { { { { 2 2 2 2 2 2 2 2 2 2 2 2 2 2 2 2 2 2 2 2 2 2 2 2 { . . ; ; & 3 8 l H U U U U {.{.U H U H 8 ^ & & & & . . . & 3 H {.{.U H 8 3 3 8 l 9 9 9 m t M +.+.m m m t t t m 9 8 8 l H H H l 8 U /./.` H H l 5 m m m t t m m m m m m t M M U +.+.$.$.$.P P P P M M t t t t t t t m m 9 } 9 9 m t M U t 9 9 m M m m t t M M M M +.+.+.+.+.+.+.{.{.{.{.{.{.{.{.{.8.{.{.+.m } & ^ 3 8 l H M +.M f M t M M +.l.8.m 5 = & / 5 5 = . . 9 9 9 {.F . . n & } + . f M f {.L [ L L v - - > | n n n t M m n v n 9 n v v v {.$.v G Q Q I d Q $.z z !.Z ~.2.j.w.u.w ].i.I e & . $.!.Z Z ~.d I ~.~.~.Z I Z Z 7.2.~.I d < I Z Q z z Q z z e z d d I I e e e e 9 } } ^ ^ * * * & & & & / & & & c+/+s.s.M.s.++s.++q+c+w+w+C+P.g.@+|.*.t.O.d 0 '.].]., R T '.s |., b + Q f + 7.I t.p.G.q.t.d Q d [ [ [ [ [ [ [ [ f - > 9 5 + O.P.v.< O.b+c+m+C+j d e , M . [ ~.u z Q ~.W i.t.t.[.'.1.t.N.f.#.%.:.T s s #.s f.#.N =.N u w N u T [.q :.#.u T T W W t.i.i.t.t.@+f.f.[.[.f.[.f.s N s q s [.u u u w [.%.N }.u 0 0 T [.w 0 0 T ",
". . . . . . . . . . . .   .   * . ; ; ^ 3 . * & ; . . . . . . ; . . . . ; & . & @ @ @ @ @ @ @ @ . . . . . ; ; . . . . . . . * * @ & v n     @ . 6.n | *       * . . . . . . . . * . . .   . . . * * * * * * * * * * * * * * * { _ ; ~ { { ^ 3 * / / ~ ~ 2 3 3 ^ 2 2 2 2 2 2 2 2 2 2 2 2 2 2 6 6 2 2 2 6 6 2 2 2 6 6 6 6 6 6 6 2 H H l 8 8 8 H H H t 9 } } t t m } t U t 9 9 t U {.{.8.8.{.U U H U H H t t m 9 } f f f f v L P $.m m t M +.M M t H H 8 8 l U {.{././.` 6 ^ 5 5 5 9 9 m m m m m m F F F F P U U +.$.P L L v v L L m t t M M M t t 9 9 9 9 t H H H U U U t 9 | 9 m t t t H H H H H t m m t t t t M m t t M M M M M t 9 9 9 l 8 & . * . . ; ; & + / } m M m 9 M M = 5 b.H ; ; 5 / H F m . . 9 9 ^ m t > M U 9 a a = } 9 } m } m } 9 m m 9 m t n f v k G G P ).$.P ).v P G z I I I W G Q !.Z 2.Z I ~.j.j.u.T j.~.d e 9 . P Q d I ~.I I ~.I Z ~.Z I I I Z Z I I Z Z I z e 1 e z z z z Z Z Z $.$.z e e 9 > & & * * * { ^ ^ & / 5 ^ & & g.c+P.g.~+M.M.~+F.m+B+m+q+w+c.y.m.g.s S i.5.O.t.].O.,.7 W 1.j.[., ! + Z Z + < ] W 4 *.*.@+Z 5.d [ [ [ [ [ [ [ 9 } n [ 9 5 . w.q+1.e k.C+m+m+w+W I z , M & > W }.Q Q I ! 0 0 s 0 T w 0 R }.:.h.h.t.t.f.t.'.t.f.#.=.N 4 0 u w T t.#.:.#.T [.w 0 ! 0 0 0 0 w [.T '.f.t.f.'.t.f.f.N.N.t.N.[.T w T '.%.u %.4 0 0 T T W w < w ",
". . . . . . . . . * .   . * * . * * ^ ^ * * * * * * * .     . * . . * * . . * *   * .   * * * * * * . . . * * * * * * . . . . . . . v m     . + i.e = { @ @ . .         . . . . . . * * * * * * * * * * * * * 2 * * { { { { { 2 _ _ h _ _ 6 _ 6 8 8 8 8 3 3 8 8 6 6 2 2 2 2 2 6 6 6 2 2 2 6 6 6 8 8 8 8 8 l l H H H U {.{.{.U H H 8 3 ^ & & & 8 3 3 3 3 3 8 8 8 } } 9 9 } } 9 9 8 l l 8 l l 8 3 m m m t H H H H H H H H l l 8 8 2 6 6 l 6 6 6 6 6 2 6 D ` ` l { ; ~ 2 6 l l l l 9 9 m m t t F F n v P $.$.$.$.$.+.M M t t t t M M +.+.+.M m 9 9 t M +.+.M M +.{.M M M l ^ & 3 l t t t M M M M M F F F P P F F F +.+.+.+.+.+.+.+.U U U U t 9 } = & & & ; ; ; 2 H {.H l 8.8 ^ D l / a h ; / . + R.6.f f !.!.I j W P k.n P v t {.f E k m m m 9 [ i e e k e $.k G P ).$.).$.P +.f t 1 z Q z z e !.Q Z Z Z Z ~.V V 3.f.s.M.>.g.4.d 1 9 . 1 $.Z ~.~.W z $.$.z z Q Q z z e e e z Q Q Q $.Q I Q $.$.Q Q L L v z z e e 1 * * * * . * * * k .   * _   ^ = Z V 4.'+O.++|.|.++++/+q+q+@+|.j.N.'.t.0 A j.4.V Z v.G 1 k.w.4.j.- z [ m l ; z ] < 0 0 g.M.].! a & } } 9 n 9 n 9 e [ } 9 & 1 w.B+[ k.'+B+c+q+C+A Z ).+ } m + 5.A w w 0 0 ] w ! < 0 T w '.N 0 w N w u u =.}.#.N }.h.p.p.h.t.t.f.~+p.=.t.'.j.V j x 0 w T 0 T %.q #.>.A ! d Z A w s O >.>.'.%.p.e.q.N.:.g.f.|.f.f.f.[.#.s N ",
". . . . . . . . . * .   . * * .   . * * * * ^ ^ . . . .   . * * .       . * . .   * .     .   . * * . . . * * * . . . . * * * * . & v m     . + 7.e & * @ @ * . * * * * * * * * * * * * { { { { { { { 2 2 { { 2 2 2 2 2 6 6 6 6 2 2 6 2 2 6 2 2 2 2 6 6 6 6 2 2 6 6 6 6 6 2 2 2 2 2 2 2 2 2 2 2 8 l l l H H H H U H l 8 l H H H l H U l U U U & & & & & & ^ ^ ^ } 9 9 9 9 } } 9 ^ 3 3 ^ & ^ 3 3 3 3 8 8 8 8 3 3 2 2 2 2 2 2 2 6 2 6 6 6 2 2 6 D D /.b./.D 2 2 l 2 2 6 6 6 2 2 2 9 9 9 9 9 m m m M M +.+.M M M M H H H H U U U U U U t 9 } 9 m t 9 m m m 9 9 m m +.+.M l 3 ^ 8 D {.{.{.{.{.{.{.+.{.{.{.{.{.{.{.{.+.+.+.+.+.M M M M M M M t 9 } } ^ & & & . . . . . = . & . . . | / . . & & . + 1 = 5 M t +.x.x.$.G P L n t M ' t k 1 n t m m n G ).L P P L ).P G ).Q Q e e v f L Q z z Q !.Q !.Q !.7.i.O.w.k.(.(.N.@+/+>.s.@+~.1 9 . k Q I Z Z W z Q Q !.$.Q z z ).$.Q $.$.Q I I Q I I I Q Q Q Q Q Q Q P L n [ - { ^ { * * * * * . & & * { . . } Z j 4.w.u.y.M.s.P./+|.P.~+~+q+s '.4.j.j.].4.< V Z i.).1 k.i.2.j.= e ' 9 ; . !.t.R.@+/+++++0 ! a & = } } 9 n n 9 ' n } } } 1 w.b++ '+b+m+B+q+C+2.w.5.. } L - (.V ,.2.,.T w i.t.N.t.t.'.[.[.'.T u w w u N #.q 4 N q N N u N N 0 u h.N 4 '.N.N.f.g.f.f.'.j.f.f.T s N N 0 0 w 0 4 N |.N '.N q p.G.a.g.q O O N :.|.|.N.f.[.f.",
". . . . . . . . . . .   . * * . * { { * * * * * * * . .     . * * *   . * * .   * * *   . * . * * . . . . . * * . . . * * * * * . & v 9     . + i.L = * @   * . * * * * { { { 2 { { 2 2 2 2 2 2 2 { { { 2 { { { { * * { 2 2 2 { 6 2 6 2 2 l 2 2 _ _ 6 6 h 6 _ _ ^ ^ 3 8 8 8 8 8 l l l l H H H H H H U H U U U H 8 8 8 l H H U H H l.)+U 8 . 8 ^ 8 8 8 l l l l l m m m m m 9 9 } l H H l 8 8 l H 2 6 6 6 2 2 2 2 { { { { * * { 2 6 6 D l l l D ` D ` ` ` l 6 l D 3 ^ ~ ~ ; ; ; ; & & ^ | | 9 m m M M M M t t t M } } 9 9 9 9 9 9 = / } } } 9 t H t M +.+.+.{.{.{.M M m 3 ^ 3 8 l } } } } } } } } > > > > > | | | 9 n n n F F U U +.+.+.+.+.M t m & & & & ; . ; ~ . / +.M . . = } c c &   [ ,+E+'+h {   * ^ . . | P - = 9 t t +.9 k.P [ } m F G [ G [ L 6.G ).P ).I d I I Q Q Q $.7.!.!.6.!.$.$.Q I $.Z ~.~.(.V 3.@+@+c+>.g.@+~.' m + G ).Z Z ~.!.!.Q Q $.$.z z Q Z Z Z Z Z Z Z Z Q Q Q Q Q Q Q $.I Q Q P t 9 & . 3 3 ^ * * { ^ {   8 *   . & - z A j j.j.S g.@+++M.S ] S S |.@+g.t.j.].w.].].].O.Z $.$.- $.~.,.V / f = } ~ & k.N.j.N.c+m+c+S < = > & } = [ P n 9 = n } } 9 - O.O., b+b+c+m+q+w+V j Q + [ [ ' A ].w 2.2.,.w w w T T '.T [.[.f.f.t.t.N.t.f.f.}.:.:.N N N N #.'.u w '.[.T >.%.s :.N.0 T T N.[.'.2.t.N.p.1.=.h.1.#.%.f.T w ] q :.e.q.<.O O O *.<.<.*.h.|.%.#.",
". . . . . . . . * . .   . * * . * * * * * * * * ; ; ; . . . . . .       . * . .         . .     . . . . . . * * * * * * . . . . . & n }     . + i.L = *     * . * * * * * { { { { { { { { { { { 2 { { { 2 2 2 { 8 3 3 3 8 3 3 3 3 ^ 8 ^ ^ 8 3 8 l l l l H H H l U U U M M M M M U U U {.{.8.8.8.8.{.{.U H l 3 ^ 3 8 l U U U U H l & & . l H H 8 8 8 8 8 8 8 8 8 l 8 8 8 8 8 3 ^ 3 8 l 8 8 3 3 3 h h h h h h 6 6 _ _ _ _ _ _ 2 h 6 D D D D l l D D l 3 3 3 3 ^ { ^ ^ ^ ^ ~ ~ ^ ^ & & & ^ 3 8 8 l 9 } } } } } } } H H H l l l 8 8 l H H H l 8 ^ & } } } } } } / = 8 3 ^ & ^ 3 8 8 t H H H H H U U {.{.{.{.{.{.{.{.).).$.P P P F F +.P L v v n [ - 3 ^ ^ ^ 2 6 l H U l.s+f+;.v z $.8 * ^ H t 6.v.j *   3 U | & 8.)+$.8.L + + . m {.F n 9 n n P 6.5.v.).e P $.$.k - I I Z (.).).Q $.z !.!.5.Q $.$.z Q !.Z ~.Z Z V 5.~+@+c+>.>.w.j 1 } . G ).(.Z ~.W !.$.Q Q Q z z Q (.Z Z Z Z Z Z Z Q Q Q G G G G G W Q Q v 9 ^ * * * * .   . * *     *   . & G Z ~.V V 4.w.].u.@+b+s.|./+|.|.w+@+S A ].j V j.4.j W j Z Q L $.!.v.i./ t = = 3 F k.s.w.P./+m+/+S d v | & 9 & [ $.9 [ - n } f n = R.3.].q+'+B+q+w+C+w d $.- - [ Q j j ].4.'.].w , w 2.w w T T T 0 0 w 0 T N T [.f.t.t.N.h.h.}.'.[.'.T t.f.>.s g.O O e.[.N 0 [.0 0 0 y u R R R R R R h.1.1.1.f.@+e.<.B.r.<.O q O <.<.*.*.O O q ",
". . . . . . . . * . . . . . . . * * * * * .     . . . . . . . .             . *   .   * 2 {     . . . . . . . * * * * * * . . . . & n }     . = i.e & * @ @ * ; . . . ; ; ; ; ; * * * * * * * * . . . . * * * * ^ ^ 3 3 ^ & ^ ^ 9 9 t 9 } m m U P L v v L P P $.{.{.{.{.{.8.8.8.{.{.{.+.U M t m 8 ^ ^ 8 8 3 8 H 3 3 ^ ^ & & & & 3 ^ & l ^ ^ ^ l 8 8 8 l l l l 8 3 3 3 3 3 3 3 ^ 6 6 6 l l l 6 6 2 6 6 6 6 2 _ _ _ _ 6 h h h h J l 6 6 2 2 { * * ^ ^ ^ ^ * * ^ 3 ; ; ; ~ ; ; ; ; m t t t t t m m H t t m 5 5 5 5 & & & ; & & ^ ^ ^ ^ & & ^ 3 8 l m m t t H H t t 3 ^ & 3 l H H H t t t t t H H H t t M M U U M M F F P P $.{.{.{.{.+.+.+.{.{.+.+.l 8 8 3 ^ ~ 2 6 l 5 M ;.R.R.,.W 6 . @ ~ . + + , - & 9 9 G ,+l+(.U {.,+8.} 9 5 = m > & G ).5.k.z k ).e ' G e ).6.).$.).).Z (.Z Z ).5.$.5.).k.k.5.7.7.!.!.Z Z Z 5.~+~+q+|.>.O.A I m + G $.(.Z ~.W Q Q Q Q Q Q Q z Z Z I I Z Z Z Z $.$.Q Q Q Q Q Q I e 1 = . .       . * * * * * . * . ^ U k Q Z j j A j A V V V w.@+@+N.>.].t.t.[.].].V j j 2.~.W b Z G 6.k e k.7.+ f , = . 9 w.@+@+P.++c+M.0 1 G | & 9 & 9 $.9 ' [ - } M f + v.1 u.q+c+q+w+q+C+].e $.' ' - $.j A T '.'.4.].w 4.t.t.'.w T ].w 0 w 0 0 0 0 s [.f.|.R u u w w '.[.'.].4.N.f.@+e.q.d+j.0 4 #.N u 0 0 N T T w 0 0 j ].y $ 0 0 N *.q.*.<.e.G.$+d+d+$+q.G.G.s.e.",
". . . . . . . . * .   . . . . . . ; ; ; . . . . ; ; ; _ _ 6 6 6 2 2 2 { * . * * 2 2 { 2 D 6 * * . . . . . . . . * * * * * * * * . & n = @ @ . = v.P } * @ @ * . ; ; ; ; ; ; ; ; * * * * * * * * { 2 2 2 2 6 6 2 H U U {.{.{.{.8.{.{.8.{.{.8.8.l.R.v.v.k.k.k.k.v.8.8.{.U t m m m } } 9 t U {.{.{.8.{.{.{.+.t H +.H H l 8 3 3 3 3 8 H 8 H ^ l 8 H & ^ ^ ^ 3 3 3 3 3 3 3 3 3 8 8 3 { * * * { 2 2 2 6 6 6 6 6 _ _ _ 6 6 6 6 6 6 6 2 6 { * * * { { { & & 3 3 3 3 8 l l l l l l 6 2 2 = = / / / = = ; / / / / / / = = 3 3 ^ ^ 3 3 8 8 8 3 & ; . ; & ^ ^ ^ 3 3 8 8 8 8 3 3 8 l U +.+.M H l l l l l l l t t H U U U H H F t t m m m 9 9 9 } } 9 m t t m ^ ^ ^ & ; ; ; ; . . = f 7.2.].].5 . ; @ @ # + +.n P G Q v.,+k.j 8.l.8.9 = / = . . & 1 $.I 1 I < $.6.e G k.G P 6.).).).).).5.Z (.(.Z I (.I I (.(.Q Q z e I I Z (.++c+~+s T ~+~.I M = G Z Z I ~.W Q Q z z Q !.!.!.Q Q $.$.$.!.Q Q L L L L L $.$.L $.P m } ; * * {   * * * * * * * * . t 6.d j Z j ~.@+@+j A A A V ].w.j.V V ].].A 1 m.].A j 2.I W Z Z ' ).= . e - / ! , } . . (.~+~+@+c+/+w+V I 1 | & } - n P 9 - 9 & f P f + $.+ '+q+/+y.C+~+q+4.! B e e ' d < ,.].V w 0 < < T V 2.w 7 w ,.,.,.t.t.1.'.'.T '.:.#.=.u w 0 0 w 0 0 < ! w w :.h.#.r.2.T t.$+G.e.|.f.[.'.>.s 0 s ! A =.0 ] s >.|.<.*.#.%.*.<.e.e.a.*.e.e.e.e.",
". . . . . . . . * .   . . . . . . . ; ~ 6 l H H ` ` J ` ` ` ` ` l l 6 2 * * * * * * . * { *   . . . . . . . . . . . * * * * * * . ^ n & @ @ . = R.!.9 { @ @ * . ; ; ; ; ; ; ; ; * * * * * * * *   * * * * * * * . . & & & ^ 3 8 3 ^ 8 ^ ^ 8 3 8 m 9 9 | | ^ ^ ^ & & & & 3 8 H H +.+.+.+.+.+.+.+.+.+.M M t m m 5 & ^ ^ 3 3 ^ ^ ^ 8 H 8 8 & 3 3 8 l l H H H H H l 6 6 6 6 6 6 l l l 6 6 6 l 6 l D 6 6 6 6 6 6 6 6 l 6 2 3 ^ ~ ; ; { * * * { 2 6 6 l l 8 8 l 8 3 ^ ; ; ; ; ; . . . / / 5 5 5 5 5 5 ~ ~ ~ ~ 2 6 6 2 6 6 6 6 2 2 2 2 ~ ~ ~ 2 6 l l l H H l 8 3 ^ ^ & ^ 3 8 l l m m 5 l l l l l l l l 9 9 m m m m m m 3 3 3 8 8 8 8 8 2 ~ ; ; ; . . . & & & ; ; ; ; ; ~ . / P v.~+w+b+6.9 . ^ 6 . 5 l.M t = 8.l+R.$.R.8.l.{.l.5 . M / t 9 L k.5.(.v.i.' 1 k $.).e + G v f L P ).).$.).(.(.(.5.(.d Z Z B z $.Q 7.!.~.~.P.c+N.s T @+V j 5 . P Q (.I ~.W !.Q Q $.!.$.Q Q !.!.!.!.!.$.P L e v v e e e e [ 9 } & . . .       * * .     . . . . n Q j j 5.k.2.~+b+A I Z Z I A V V b Z i.I , A 3.Z 2.A ,.7.W 2.d 1 ).n n k [ M 1 ' 9 ~ . z t.@+N.M.|.~+V I + > & & - n v n ' 9 = v v f , ' n q+q+/+y.w+c+b+].B z e Q d I 7 y w V 4.].j.4.V 0 T w T 7 0 , < T W 0 0 T w R '.=.=.w R T T '.T w w 0 0 w R :.u u ! ! %.%+%+E.e.<.9.r.$+G.q.s.t.b+r.h.q O >.q q #.4 q q *.e.a.a.*.*.a.a.<.",
". . . . . . . . * .   . . . . * 6 h h J J J ` ` J J h 6 6 _ _ ; * * . . . * * * * .           * * * * . . . . . * * * * * * * * . | 9 & @ @ . / v.P = *     * & ; ; ~ ~ ~ ~ ~ ~ { { { * * * * * * 2 6 2 2 2 2 { 8 8 8 3 ^ & & & . . . . . ; . .   @ @ { { { _ _ 8 8 8 8 l l H H 5 5 t t t t t t 5 t m / / 5 / . ^ ^ 3 3 3 8 8 l ^ 3 8 l H H H U H H H H H l l 8 2 6 6 2 2 2 6 l 2 2 6 l 6 2 2 2 2 2 6 6 6 6 6 6 8 ^ & & & ^ ^ & * * { { * * * * 3 3 8 8 8 8 3 3 ~ ~ ~ ~ ~ 2 6 6 / / / / = = = ; 5 / / / / 5 5 / ~ ~ ^ 2 2 ^ ~ ~ 2 ~ ; . . . . . . . . ; ; ; ^ 3 & & & & & = . + . . . . . ; ; ; = = = = = = = / 3 3 3 ^ ; ; . . * * * { 6 l D D l l 3 ^ ; ; ; ; h ` m v ,+b+q+~+O.k.E [ 8 8 H 3 . ; ~ . . . - } & . . {.H / 5 H M U ).w.(.< W I ' 1 L e P R.$.1 , + + = [ z G Q d I (.5.k.k.k.I 7.!.!.b $.I !.~.++q+N.N [.w.j j 9 = 6.k.k.~.7.!.!.$.!.v.k.Q 1 ' + + ' ! f P ;.;.!.!.!.$.v f f [ ; ; ; ; ~ ; ; . 3 8 6 3 * * ^ 3 5 m Q I A d $.).A j j A Z Z I ~.I I Z Z $.$.z e m.3.j Z i.A 7.7 ~.= Q ).[ - = G P e ' = . . P t.j.t.f.%.t.,.$.v & & . - n n n [ 9 } v ! b ! + 8.c+c+/+/+/+c+c+>.< L z I - b W ,.].V t.N.~+~+t.t.2.i.N.2.,.0 ! 0 7 ! 7 y 0 0 w R [.w w T '.T w w W ,.1.1.t.'.'.0 < w q %+*+E.*.4 o *.B.a.a.*.4 #.r.r.G./+M.M.N.h.f.f.:.|.g.a.*.O O *.a.*.",
". . . . .       @   @ @   @   @     @ @ { { { { * *   .   . * * * * * * * { { { { * @ @ @ @ @     @ @ @ @ @ @ @ . ; . * . * . . @ 8 [ .     . f w.I + @ @ . & 1 & & & & & & ^ ^ ; ~ ~ ; ; ~ ~ . ~ ; ; ~ 3 2 ~ ; { * * * * * * * [ [ 9 9 9 | | 9 l 3 { * * * * . * * * * ^ ^ ^ ^ * ^ 3 ^ { { ^ { ; ~ ~ ; . . . . 8 8 8 8 H U U H U H l 3 ^ ^ 3 8 l 8 3 ^ 3 3 ^ * ~ ~ ~ ^ 2 2 6 6 6 6 2 2 2 2 2 6 l 2 { 2 2 { * * * * * * * * * * ; & ^ 3 8 8 8 8 8 8 8 8 3 ^ ^ & ^ 3 3 ^ ^ ^ ^ & ; ; ; ; = ; ; . * 2 6 2 { 2 { . * * * * * * * { .   * 2     { *   _ * ~ 6 ; ^ . @ @ @ ; { 3 3 3 2 ; . . ; ~ ~ ; ; ~ ~ ~ ~ ; ~ ~ * * * * * * * * ^ & & & & & & & ~ . . ; ~ ; ; ^ { 6 9 ).l+C+b+@+O.O.2.[ . & { * ^ & ^ } t {.l.l.R.8.{.} = l ^ 8 9 R.+.8.m M - 9 L f - I Z I $.B e z [ [ 1 1 d d j j (.Z k.k.(.5.m.w.5.i.5.5.Z 1 4.@+j.0 4.w.W I t } / a , = ! < ~.!.7.L m . *   . & . ^ .   .   . . ; . ; . . . @     * . . } {.z Q Q I A ].].4.4.].4.4.4.].V 4.3.x ].].V 2.,.V A I W Z !.b Q z < d b A i.A ].V !.e e Q L - [ [ Q e 9 - > . G R.c.O.V V 5.i.i.+ H 5 / } + . +.} = Q 1 Z A A , O.u.O.P./+/+@+c+4.1 Q = e e !.e 5.].w j.].@+t.@+w.u.u.~+~+~+c+g.~+N.[.%., 0 0 V T '.w 0 T V V ].j S S 0 T T T [.j.t.S g.%+%+++s.0 4 O O e.<.*.#.:.}.O q e.<.e.<.<.E.%+E.G.%+d+w+%+G.q.G.G.",
"      . . .     *   . . * 2 * * * * * * * * * .   . * { { { { * * * * * { { { { 2 2 2 2 2 2 2 2 2 2 2 ~ ~ ; ; ; ~ ~ .   . * . .   t z [ & . . } w.Q = . @ . m 6.T.l.U 3 & & & ^ ^ 2 3 ~ ^ 2 ^ ; l l 6 2 3 ~ ; . * .   .   . * * F F n m 9 9 9 9 ` D l 8 3 3 ^ {       . * * * * 3 8 3 * .       . ; ; . . ; ~ ~ ^ 3 ^ & ^ 3 3 ^ ^ ^ ^ ^ * * * * ^ * * * { ^ ^ ^ ^ ^ ^ ^ ~ ~ ~ ^ * { { { { 2 2 2 2 { { { { * * * * * * ^ ^ 3 3 3 8 8 8 8 8 3 3 3 8 8 3 ^ ^ & & & 3 3 3 ^ ; . ; ^ ; ; ~ ~ ~ 2 6 l h h 6 { { _ 6 _ * * * * * . . . l * { 6 6 2 *   @ @   { 6 . . ; @ @ @ ; * * * & ; ; ~ ~ ; ; ; ; ; ; ~ ; ; . . ; ; ; ; ; ; ; ; ; & & & & & & & & . ; ; ~ 6 6 6 2 ~ 8 } + Q ~.2.w.i.7.).$.U m 3 ^ & & 3 m t +.8.8.m {.l.m . 8 . . + l.M ,+{.v.t 9 H } n [ G 6.[ v G G G Q $.L P $.(.(.5.I (.5.(.(.k.v.k.;.f e k I ].w.4.A i.w.W d m . + + / f L $.P L m & & . .   . & & & . & . 3 & . & . & . = = 9 U {.8.6.k.i.~.k.7.7.7.i.2.2.t.w.].].2.w.w.2.i.3.3.w.5.V ~.~.~.~.~.Z I z e z e e $.Z d ~.].].V 7.z !.e n . = m b [ [ - [ . 1 Z x u.3.1 + < $.B +.} 9 } } + {.f L G 1 i.A V < O.@+~+y.c./+O.@+].e !.1 ' + e [ !.j.].t.j.j.w j.~+w.@+@+@+O.t.s.@+$+~+~+N.t.].w 0 w w 0 w ].V V V S V 0 w w 0 T |.R u O O q g.@+@+@+p.$+$+e.e.4 #.h.q ) O O *.<.e.a.a.q.a.*.*.*.*.<.*.<.<.",
". . . * * * * * * * * . . * . * * * * * * * * * * * * * * * { { { { { { { * * * * * * * { { { 2 6 2 2 2 2 2 2 2 @ _ 2 _ ; @ @ @ + 7.2.).> . . = i.!.= . @ . } ).{.U 3 & ^ 8 l l 6 6 6 6 6 6 6 2 ^ ~ ~ ; ; . . .     . . * { 6 D ).P F m 9 9 3 3 * .     . . .   * * * * { 3 3 {   * * * * ^ 8 l ; ; ; . . ; ; ; & & & & & & & & * { { ^ ^ ^ ^ ^ { { * * * * * * * * * * * * * * * { { 2 2 2 2 { { { { { { * * * * * * ^ 3 3 3 3 6 6 6 6 2 ^ ~ ~ ^ { * * * * { { 2 { { { 2 6 D ` ` ` /./.` ` /.b.b.b.b.b.b.b.b./.b.` 6 2 2 6 D /.D D D ` D 6 l ` D D 6 ` b.` 8 . 6 ~ ~ { { * * ^ . . ; ; ; . . . . . ; ; ; ; ~ ~ ; ; ~ ^ 3 3 8 8 8 8 l l 8 8 3 3 2 6 2 ~ ^ 6 6 ~ = 5 5 = } = - ' [ = = [ } } 9 m 8 3 l t t M +.+.M +.{.& . & . ; = . . & } - 8.t * 3 & | i l.,+U > G F F t M {.M Q ).k.).k.v.6.).9 } = . . + } n ].].A + d !.z e - = +.H H m l m ^ ; ; . ; ~ 2 ~ {   & . . t n P {.+.+.L +.+.{.8.!.i.~.2.].4.j.4.Q 7.i.i.2.~.4.i.W 2.i.2.2.2.W 2.4.A V 2.Z 1 1 I (.I 1 I k = [ L ' 7.7.- < i.2.A !.v k.f +.9 = } f f = - F G 5.(.A V 3.k.5.I I 7.} . } v +.f $.' Q - - R.Z ].A w.4.w.>.u.~+@+j.A d ).Q I d I d Z i.2.2.i.2.].V A ].j.O.O.~+~+@+N.c+q+q+c+c+~+~+~+t.N.j.j.j.].V ].4.j.V 0 w 0 s >.1.R 0 4 ) u w ] [.4 |.s.g.~+:.f.~+N.h.|.<.o O <.a.a.q.q.a.<.*.O O O *.<.",
"* * * * * * * * * * * . . * * * * * * * * * * * { { * * * * * { { { { { { * * * { { { { { { { { * * . * * * * * _ { _ @ @ @ _ _ , v.t.w.n . . = 2.$.= . @   . m 8 3 ^ 3 8 3 & & ; ; ; ; ; ~ ~ ; 6 6 6 6 6 l H H H H ` H l 6 6 6 9 | | | 3 8 8 8 * * * ^ 3 3 3 3 l H H 6 6 6 2 ; ~ 2 2 ~ ; ; ~ ~ 2 2 ~ ; ; ; ; ; ; & ^ ^ ^ ^ ^ ^ ^ ^ * * * * { { * * * * * * { 2 * * { { { { { 2 2 2 2 2 2 2 2 { 2 2 6 6 2 { { 2 ^ ^ ^ ^ ^ ^ ^ ^ ; ; ; ; ; ; ; ; * * * * * * .   @ @ @ @ _ J ` ` /././././././.b././.` ` ` ` ` ` D D ` b.b.` D D 6 6 2 D D 6 * * * D D l H U U H 2 ; ; ^ 2 ~ ^ ^ 2 ~ ; ; ^ 2 ^ ; 2 3 ^ ~ ~ ; ; ; = = = = / / 5 5 5 5 5 / / / / / 2 2 ~ . ; ^ 6 2 / = / = 5 5 5 = 9 m t m m 9 } } H 3 3 9 } } } } 9 - } } 9 l ^ 3 9 & = } = . t & . . R.,+E+E+F+R.| i & & . . ; . {.+.L n n 9 ' - | = 9 = } & v $.Z I d 1 k $.n } n } / 5 l ~ 2 * * * * * ; ; ; . * . & > n $.Q $.$.z e e z e z z d I I ~.4.A V A 7.Z d A ~.2.~.~.Z I I Z Z j < Z w < j d I d k 1 1 E 1 1 & k k [ } f ;.).!.!.~.d f P ;.= 9 } } = , f = } L d 3.V j j d A Z I e ! v ' - G P Q !.Q ).d d R.~.i.].4.j.].].c.~+u.@+].b Z I I !.!.d , V 2.,.W 2.O.w.2.].V j.].4.j.j.N.c+q+c+c+c+q+q+c+N.@+@+@+u.4.4.j.>.O.N.t.@+t.[.j.,.R R R R ] ] w 0 0 s s.O |.S T [.s q }.$+<.e.e.q.a.q.e.|.s.|.q q q O <.",
"* * * * * * * * ~ . ; ; 6 H 2 . ; ; ; ; ; ; ; ; * * { { { { { { { { { { { { { { 2 3 ^ ~ ~ ~ ~ ~ 3 3 ^ ^ 3 3 ^ ^ { . . = / 6 6 { ! 2.V ~.[ . M 6.Q L = . * . . m 8 8 l H H U U U 6 6 l l l l l H 6 6 6 6 6 l l H 8 l H H H H H ` U U l 8 3 ; . . . . . * * * * * ; ; ~ ; ; ^ ^ ; 8 8 l l l H H H H H H H H H H l 8 8 6 8 3 ^ ^ 3 2 2 { * * * * * { { { { * { { { { { 2 2 2 2 2 2 2 2 { { { { { { 6 6 l l 6 6 6 6 2 2 2 2 { { * * { * * * { { * * * * . . . . .   h ` /.` ` /.b././././././.` ` ` ` /././././.` J D l 6 l 6 * * { 2 *     * * * 2 * { * . . 8 3 & & . ; ^ 3 3 3 3 2 ~ ~ ~ 3 2 2 ^ ^ ^ ~ ^ 3 2 2 6 5 / / = = = = = & & & & & = / / . . ; ; . . . . / = / + . . 6 ^ . ; 3 3 } 9 m t H 8 3 9 9 } } } = } M t m l 3 ^ } 9 & U = } & } A+A+w.E+E+E+A+E+F & . & & . 2 6 . = = = + = 9 m  .i i i ).).(.E Q d G L v t 9 = t m . 9 . . * . * _ { ; . / } m 8 U {.6.6.$.~.~.!.Q I I I I d b G k ' + I I 5.Z A j j I Z I d Z d v.v.I d 7.v.7.i.i.7.I Q G ).).x.5.).6.P k & n } ' n + + e v.d + P L ' - 9 M t f M m M P I w.m.5.k.I Z $.z Q ' G ' ' 1 $.d Z I d 1 < Z Z ~.V V w.j.V 4.].j.w.2.I I d d ~.~.I < d d I W 7.i.v.v.i.V 4.V 4.j.j.O./+c+c+c+c+/+/+/+@+@+~+b+j.4.j.j.].~+~+~+w+~+t.N.~+@+~+N.@+4.t.@+t.4.] |.s >.'.0 T s s f.~+N q O q 4 O O #.f.f.t.s.s.M.$+",
"* * * * * * * * ~ ~ 6 6 l H ~ . . . ; ; ; ; ~ ~ 2 { * * * { { { * * { { { { 2 2 ~ ~ ~ ~ ~ ~ ^ ^ ^ ^ ^ ^ 3 3 3 ^ g 8 5 M / 5 8 g f b < < > . M ;., [ | * .   . 5 3 8 8 3 ^ & & ^ ^ ~ ^ 2 2 ^ 2 6 l l 6 6 6 6 l l 5 5 / / = ; . .   . .   * * . . * * { ^ ^ 3 3 3 5 5 l l H H H U H H H H H H H l 6 6 6 2 3 3 ~ ; 6 6 6 6 2 { { 2 ~ ~ ~ ~ ~ ~ ~ ~ h h 6 6 6 6 6 _ h h 6 2 _ _ _ _ 2 { * * * { { 2 6 6 6 6 6 6 2 2 2 { { * * * * * { { * * * * .   * * * * 2 l D ` h /.A.b.b.b./.` b././.b.b.b.b.b.b.b.b.b.b.b.b./.` ` ` ` D 2 *   * * { *   { D /.b.D ^ * l U t U 9 9 & . . ; / 5 ; ^ 6 6 ^ ~ ~ ^ ; ; ; ~ 2 6 6 l 8 8 3 ^ ~ ~ ^ ^ ^ ^ 3 8 l H H l ` ` b.l.b.{.H H H H U l 8 ^ 6 ^ ` H l 5 5 = / m H 8 l t t t m 9 +.t m m } & & l l l 8 & l ^ H 8.R.,+A O.b+O.l+~+^ . . . . . ^ . . U {.U & & 9 =   > i i E E Z Y $.d Q P 9 } + . + = . n | . & . . ^ 9 m 9 P $.).P P G Q $.d W I I d d I I I I I G Q k.x.,+k.).k 1 w.b+k.d = 1 I e Q $.).e - G 5.7.i.v.v.v.1 ' ' = 1 k [ > F 9 > & . . [ ' + (.1 z ).' - . - n } - - - & - 1 i.j.$.5.z ).5.e $.z d d $.I i.Z ~.V j Z j d Z Z ~.~.,.].].A 4.A ].A W W j j W ~.~.W W d B B !.W I < Z W V 2.i.].t.t.y.c+~+~+/+++m+w+c+~+c+w+j.].j.4.4.~+@+@+c+N.j.t.g.|.>.S @+O.t.g.O.O.@+q+N.N.4.].4.4.4.t.b+N #.|.|.q q 4 4 s w f.f.|.>.*.",
"* * * * * * { { ; 3 H 8 ; & . ; . . ; & & & ^ ^ 6 { * . . * * * * * * * * * { { ^ ^ 3 3 8 8 l l t H M M M M M M F U +.6.f +.+.{.H v ~.Z F . = + f f | *     . . ^ 8 l H l l 8 8 2 ^ 3 2 ^ ~ ~ 6 ~ ; ; ; ; ; ; . ; . . ; / 5 / = 6 3 ^ { ~ _ 6 6 3 3 3 8 6 l l D H l 5 5 5 = / 5 / = ; ; / l H l l l l 6 2 2 2 ^ 2 { { { { { { 6 ; ; ; ~ ~ ~ ~ ~ _ _ _ 6 h J J J J J h h h h h 6 { { { * { { { 2 2 2 2 { { { { * * * * * * * * { { * * * { { { * D l l D D ` ` /.h ` /.b.A.b.b./.H l H {.b.b.l.A.l.l.{.U U U 8.l.b.b.b.b./.` D l { 2 D D D ` D   ^ . .   . & F x.{.8.{.m & . ; . l l l l 6 6 2 ^ 6 2 ~ ; ; ; ; ; ~ ; . . . . ; ; ^ ^ ^ 8 H H H l . . ~ l H l 6 ~ ~ ; * . . & | & = = / H ` H l 6 3 3 8 9 } 9 m 9 M } = m t & ; 8 & 3 8 8 8 & . & + = $.!.7.i.7.! . . . ; | {.8.F | U t 9 . & | . | i i E E Y A j I d ).).P 9 + . . . > & Q Q ).f L P z Q z Q Q $.v.!.Z Z 7.Z ~.~.(.(.(.5.5.k.k.k.w.(.(.Z I $.Z 5.O.q+b+5.d I Q G $.G e Q k 1 G 1 e z e + e - f ' e ' e 1 n n - & 9 n G 1 1 1 (.Z E+R.d 1 1 1 G k > [ F } - e W < + z ' + ' e $.e (.2.5.~.w.i.w.O.2.2.j b A ! < I W W V ].V ].~.W I A j A I W I W Q Q Q < < b B B Z 2.7.w.W A i.N.].@+~+@+@+M.c+/+++++++q+j.4.j.j.V @+@+/+c+@+t.N.P.P.4.].w.O.t.t.O.j.4.t.t.~+w.w.w.w.V 4.b+j.f.g.[.N 4 4 N w ] T >.>.>.|.",
"      . * * * * & ^ ^ . . ; ^ 3 ; & ^ ^ & ; ; ; * . . * { 2 * . . . . . * * * * ; & ^ ^ 3 8 8 l 5 m m 5 5 / / 5 > [ L ,+R.,+6.F ` t !.e m 8 8.7.6.+.|     * ; . . & & ^ ^ & & & 2 ^ ~ ^ ~ ; ; ~ l 6 2 ^ 2 3 ~ ; / = / l U {.U l D 6 { . . @ ; _ { { * * * * * * = . . / 5 / 5 U {.U l / / / = . ; ; ; ; . ; ~ ^ 6 { { { { { 2 6 h 6 6 6 6 h J J J h 6 _ _ _ _ ; _ { @ @ { _ _ _ { { { { * * * * { { * * * * * . @ @ @ @ @ ~ _ _ ` J ` ` /.b.b.b.b.b././.` J _ @ 2 . * D b.b./.` {.H H H U H H H U {.{.{.U U U {././.` l l ` /./.6 D /.` 6 D ` l * ^ l H 8.b.U F R.l+s+)+8.M / . H 6 . . ^ 2 ; . . . . ; ~ 3 2 2 3 ^ * * * * * * ^ & & & ^ 3 3 ^ l 6 3 ; ~ 6 ^ . 6 l D 3 l | | > = / = = l {./.J l H H m / 9 t t +.+.t 9 = & ; . 8 . ; . . . 3 8 a 5 5 t t f M a 6   . l 9 > i | & & & F m M m . . 8 9 k 1 Z z B A 1 d z e f n M 5 U l+).5.(.i.v.w.i.W W I 2.2.7.w.,.2.2.v.!.Z !.Q Q d Q d Q I $.V ].4.].V O.3.].V V A A Z Q Q $.$.P k e - G k.$.1 [ 1 L k.f v +.z Q 6.$.6.v.8.t F G G Q Z 1 1 k.'+A 1 I (.I k k k k $.[ [ $.!.< + ' [ [ 1 [ [ e ' Z j ].A 4.A j.i.~.! A I < d 5.I < 4.4.V V i.d ~.V j V A A j j < b b B B B b b d < I ~.W 2.V A 4.@+~+N.@+M.c+++P.++P.c+u.j.j.w.].@+~+/+/+s.j.N.s.u.4.w.i.v.2.f.m.w.j.@+@+O.4.V ].O.].4.N.>.f.t.t.N.f.[.t.[.0 0 S >.g.s.",
"b.` l 6 ~ . . ; = & . } } } & = 3 ^ ^ ^ 8 l l 3 ^ & & & & & & & ~ . . ~ ~ ; ; ~ 3 ^ 3 8 8 l H l & ^ & 8 8 ^ l 3 2 8 } !.@+t.c+C+f+{.U l & H U H U l ^ & ^ 3 ^ & ~ ; ; ; ; ~ ~ ~ . ; ~ ; ; ~ 2 2 ^ 3 8 8 3 * * * ~ ; 6 ` ` 6 ; 6 { 2 { * * * * * * 2 { * { { * 2 2 { * * * * * . * * * * * .     * * * * * * * * ; ; ; ; ; ; ; ; ; ~ 2 6 6 ~ ~ ; 2 2 2 2 6 6 l l J h _ _ _ _ ; @ @ @ @ @ @ @ @ @ * * * * * * * * @ @ @ @ @ @ @   @ _ J ` ` ` ` ` ` ` /.b./.D 2 2 .               @   ' i.[.|.S V !.' . @ @   . & & . & . . 3 . & ; . . & . > [ + . . | E  .& { h 7.!.b v.R.l+b+x ^ . ; . ~ ^ . & 3 . = _ # = 5 l 6 b.` /.` U H l U 3 H ` D D D D M t {.;.P , b !.t.f.[.,.W L m 9 v = f = / . / . c 8 3 l / 9 $.$.!.z !.z +.&   6 * * .     .   . @ = i.[.2.!.e $.W M . 9 1 f . @ & . } L L G G Q & . G k.G [ Q Q  .k ).B I Z k.w.3.w.w.V ~.2.2.2.!.7.O.5.5.b+q+x f +.$.$.Q ~.A i.S j.q+V I $.P f I ~.~.v.2.~.I Z E Z E E > k 1 k [ G [ k G L L k f k (.Y Y ^.^.G x C+E+O.d $.;.f e e k.v.+ k.z e V A ].j Z Y E > 1 G E i E E O.j > n [ 1 $.Z Z j V V (.3.m.j.V ].v.~.~.2.~.Z Z d j A Z Z I I w.b Z I d 1 e e e e 1 z z 1 e 1 1 z I 1 d d d d d Z Z ~.Z 7.~.~.i.7.~.O.@+b+@+~+j.O.w.@+@+c+~+$+t.t.u.O.4.j.O.@+t.t.2.t.j.u.b+O.j.].i.w.2.i.V ].].V s.O.O.4.'+P.P.y.s.P.++/+",
"; ; ~ 8 H l 8 8 f+)+{.{.. } . = l 8 & . & 8 H H 8 H U {.{.U 3 & ~ ; ; 2 6 2 2 6 3 3 8 8 8 8 8 ^ & 8 3 H H 8 8 ^ 3 . . B R.~+w+C+)+8.l.l.U & . . & & & . . & 3 l . . . . ; ; ; ; ; ^ 2 ~ ; ~ ^ ^ * * ^ ^ * * * * ; ; ~ 6 6 ; . ; . * * * { { * * * 2 { * 2 2 2 2 { 2 2 2 2 2 2 2 6 6 2 6 6 2 2 2 * * * * * * * * ~ ~ ~ ~ ~ ~ 2 2 6 6 6 6 2 ~ ; ; * * * * * * { { { * * * * * * * { { 2 { { { { 2 * * * * * * * * 6 h 6 { * _ 6 h J ` ` J J J J ` D /.b.b.` 2                       ; } v.j.t.j.2.i.v .   @   & 9 ^ 3 ^ & ^ l.H ^ 5 ~ . +.U R.k.$.{.8.5. .E+x.D ; M +.. = . k.l+x.U 8.l . ; ; H m | l = 5 . = 3 . ; ~ 3 3 U ^ l m & . 8 8 b.H b.D H t +.+.{.$.7.i.N.t.i.7.!.$.M M +.M t } M / = = . . . ~ . . L !.!.I W d $.f . . * * * * * * *     = t.f.i.7.< I < !.n ).A 5.&   & . 8.L $.6.R.G k P ).k 1 ).[ L C G G !.W ~.(.(.V ].2.~.~.~.!.!.i.I ~.(.A 1 Z A $.;.$.Q $.2.~.i.@+w.E+i.- ' v 8.5.).I Q I Q I $.P L 1 k $.[ [ k G k k ).- + k ' 6.k Q Z E [ 1 k (.1 (.I G P + f + Q z R.G e k.).,.W ~.Z k.Z E E 5.5.).E E - 5.A k $.G G I ).5.5.(.d j (.w.b+O.j.I d d I I I Q I d 2.Z Z Z ~.I ! ' d $.$.e 1 e L 1 z z e 1 z z 1 d d Z ).$.$.d d d d d I d d d d < A i.].j.q+u.O.u.@+++++++~+@+@+c.u.O.4.4.O.t.t.i.4.].].O.O.4.i.2.O.w.4.O.w.'+b+@+O.u.].O.@+c+c+P.++/+/+",
"5 / / / 5 / / = / } } t 9 m m U 5 5 t M +.M t 5 H H H H l l l H 6 2 ~ 3 ~ . . . . & & & & & & & & 3 & & ^ ^ 3 ^ ^ & = } ;.6.k.6.{.U H U 8 & 3 ^ . . & & & . & & H l 6 2 2 2 ~ ; ~ 2 2 ~ ; ~ ~ ~ * { ^ ^ { * { ^ . ~ ~ ; ; ; ~ ; { 2 { * { { * * { 6 2 * 2 6 2 { * { 2 2 2 2 2 6 2 { * * * * * * * * * * * * * * ; ; ; ; ; ; ~ ~ ~ ~ ~ ~ ; ; ; ; * * * * * * * * * { { { * * { 2 2 2 6 6 2 2 2 6 6 6 6 6 6 6 6 6 h h J h h h h 6 6 h J J J J ` ` l D D 2 * 2 D ` /./././././.` ` J D m 6.$.!.!.P P 9 .   @   & > ^ 8 & & & l.l . ~ ~ . +.m R.8.L M ).).x.E+6.m & ` D       8.l+x.{.U 5 ; H / . . . t 8 l . . U +.. 5 = . = & l.U - +.} = 8 & 8 ^ * ^ 3 & - - [ ' - < z $.;.;.+.M } M t t {.t = 5 9 3 ^ 2 . . L !.Q z W I 2.i.Q 1 * * * ^ ^ ^ *   . ' N.s.t.,., 0 0 V 1 V S u.d . . m = ' f + L k & 9 9 [ [ ;.' ;.F Q z 7.7.7.Z Z ~.Z ~.!.z e b b d d I d I (.w.5.7.!.Q B I 2.~.4.V V 4.Z $.!.$.P G G e e e e [ ' M +.f } M +.t t k G ).).G G G 6.f f ).k k k 9 > v e L [ ' + e ' P L - - L v n n W 7.7.I 5.).E E k k E k Z j (.~.I (.I d + 1 k 1 G [ ' ' e v.i.d 1 e e e e e e G d $.Q I d d + 1 (.I d I z Q z ' z Q z 1 z z 1 ' e e ' 1 [ $.z z d < d d d I I I A < ~.j ! V S >.c.P.++M.M.@+w.@+'+O.@+].].@+O.j.w.w.4.4.@+O.].V A O.w.V O.j.j.u.@+@+~+O.b+~+c+/+/+/+/+++",
"+.M m } } 9 5 m l l H l l 3 8 l 5 5 5 5 5 5 5 / ^ ^ ^ ; ; ; ^ 3 ; . . ; ; . . . ^ 3 ^ . . ; . . . & . . . ; & ^ & & 8 ^ & & ; . ; 8 & ^ ^ ; ^ . U U U {.{.U H l ; . . . ; ^ ^ ~ ~ ^ 3 ~ ~ ~ ~ ~ 3 3 3 3 ^ ^ ^ 3 ; ^ 2 ~ ; ^ ~ ; . { * * ^ 3 8 l * 2 {   . * * * * * * * * * * * * * * * * . . . * * * * * * * * ; . . . . . ; ; . . . . . . ; ; * * { { { * * * * * * * * * * * * * * * * * * * * * * * . . . .   . * * { { * * * { 2 { { { * *   * 2 l D D l 6 6 6 D ` /././././.b.U {.t t a 5 } / 3 6 D ` U U l l 3 l 3 {.3 ^ ; ^ 3 / . 9 m [ $.6.I E 1 1 v + -.g   3 & k.'+w.8.= / . = 5 U F+l.m . & U 9 8.8.= t & {.8.= x.8.+.l.9 & . . . &   * * & . . & & = = = = = = + + } M } = 9 } 5 8.t l & ~ & = n f 3 m v Q $.!.z 1 l l l l H 8 3 ^ . < N.s.f.'.] R 4 g.N./+%+M.].$.F [ +.v.L ' - - t m } M f f f } P $.$.!.k.).).Z I z z z b z $.$.Q Q I I $.(.(.I < b $.7.Z ~.W V i.~.w.k.R.,+f ' [ [ v = + . } n L . - . . ,+n 9 k ).G k k G k k f f P P P n 9 9 t + M f f L k e F . } F - - F . , < b + e e 1 1 1 k d [ E I A A j ~.Z ).' G n [ } P {.v + ' z z 1 G e [ e e e G Q + + 1 G 1 ' z ~.d < < d !.7.Q !.1 z !.z e z + e 1 - 1 ' $.z z k.< d d I ' < ~.$.b ~.2.< j @+@+y.y.++s.>.>.j Z w.@+w.w.4.O.O.j.V i.].4.O.j.O.j j O.w.V 4.V S m.N.u.O.w.'+~+c+c+++++++++",
"} 9 9 } } 9 9 } ^ 3 . 8 . 3 ; 8 5 5 / ; . = / / ; ~ ^ ~ ; ; ; ; ; ; ; ; ~ ~ ~ ~ ~ 2 ; . ^ ^ ; ; . . ; ; 2 2 ; ~ 9 & & * . ; @ @ . ; . ; ~ . H {.{.` ` ` ` ` ` ` H l 2 ^ ^ 2 ^ ~ 3 ^ ^ ^ ~ ~ ~ ~ { { { * * * { ^ ~ ~ 3 3 ~ ; ; . . & ^ . . . . ;   { { . . * . . 2 * * * * * * . * . * * { { { { { { { { * * { { ~ ~ ~ ~ ; ; ; ; ; ; ; ; ; . . ; * * * * * * * * * * . * * * * * ; ; ; ; . . . . ; ; . . ; ; ; ; .     * { 2 l D D D D D l D D l ` D 6 6 6 6 6 D D D D D l 6 { * 2 ` U {.U H l 6 / / ~ ~ { 3 8 8 8 ^ 3 8 8 8 3 l l U {.t t m {.{.[ ).6.).R.5.,+l+l+k.x.).l+O.E+O.{.& / 5 . 5 m F+,+m . & l.8.8.l.{.l.{.{.{.U l.F n v 9 } 8.H & &       * * & & & . . . . . = = = & & & & & & = 9 = 5 ; . ^ } n '   @ ~ m 9 9 } - & & & ^ ^ & . . . < t.g.g.[.'.N.G.$+$+d+m+d+<.] n v f $.7.f R.U } f f f 9 } t 9 f P $.G ).Q Q Q Q !.!.L f L ;.f Q Q Q ).).G z $.P b B Q z !.5.R.5.5.5.R.$.= ' } & } +.9 9 } m M I I Z A+l+A+R.' L P + G e P v.[ ).P L = - & & = + = f +.v $.$.k . [ F [ - F n n !., < B z 1 e z e e d ' Z 5.2.w.2.i.5.k.Q $.v - +.n - [ P z e z z !.Q z !.!.!.5.Z $.).v.v.).$.$.~.A I I I !.7.$.z z z Q !.Q 1 e e e ' z [ z ' 1 ~.~.2.= ' Z ~.d z b I Z A V b+@+q+~+++>.>.m.V Z ! ].V 4.< A V j.5.w.w.j.j.V O.A A w.'+m.].V 3.u.t.f.j.j.O.~+c+++@+O.O.O.",
"= = = = . . . . . ; & 8 8 l 3 3 . ; ~ ~ ~ ~ ~ ; { * * . . * * 2 2 3 ^ ^ ^ ~ ~ ; 2 { . * 6 { . { 2 . . * * * * * 3 ^   * . @ @ @ . . . . ; . . . . ; ~ ; . . ; 2 ; ; . . ; 2 6 6 3 ~ ~ ~ ; ; . ; * * * * * * { ^ ~ ; ; ~ ~ ; ~ 2 U {.{.U l ^ & & { D ` ` ` D l D 2 { * * * { * * * * * * { * * * { { { { * * * { ; ; ~ ~ ; ; ; ; . ; ; ; ; ; ; ; * * * * * * * * ^ { * * * { * * ~ ~ ~ ; ; ; ; ; . . . . ; ; ~ ~ D l l D D ` ` ` 6 D D D D ` D D 6 6 D ` D 2 6 D D ` ` D D D D D l /.` ` ` H H J 2 2 ~ * * * * . & & & . ^ & 3 ^ . . & & / 9 m m [ $.x.k.,+).6.R.E+E+l+l+,+q+q+O.R.R.{.8.+.{.8.l.+.t l l H H m {.b.= t / {.8.l.R.,+l.+.t U U ^ U ` 6 ^ D D D 3 3 6 6 l H H 5 / . {.^ ^ | | m +.t = t 5 3 8 9 F v _ @ ; m +.t H 8 & & | 9 9 & & &   ' t.g.h.1.1.@+*.q.<.B.B.%+9.,.e e B f 6.;.} . f + [ + {.U & } < f f k 1 G 1 G 1 G ).e e v $.f $.5.).$.e v v v f ' ' f [ 9 - n k 1 G ' + - ' {.L 9 P [ n v P 8.'+' Z O.l+A+w.' L z e e + [ e e (.).P . . & & . . +.. - v x.,+k ).[ [ n n P - ).v.L $.!.P L $.P 5.).$.$.(.Z ~.O.I I d $.z ).$.Q k ).).Q $.I !.7.~.i.~.Z ~.2.~.2.I w.A Z I 2.~.w.O.i.2.~.2.2.!.< $.e z z 1 z !.z z e [ e - e ' e I d I Z ~.~.~.~.L e e < A < < A , ].@+j.j.4.x j A A A V , V < A 1 j w.4.4.A (.I Z Z O.].].V 3.V @+N.t.4.].u.c+c+@+@+u.u.",
"3 ; ; ; ; ; ; 3 6 ~ 6 . 6 . 2 ; . .       * * . . .   * * * .   . . ; ; ~ 3 2 ^ /.` 2 * 2 . . 2 ` . * { .   * 2 . 3   . . . @ # ; ; . . . H ` 6 . ; ~ ~ . . ; ~ 2 ^ ~ ; ; ; ; ; ^ ; ; ~ ; ; . ; * * * * * { ^ ^ ~ ; ~ ^ 2 3 6 l 3 l 8 3 3 ^ & & . . * * { * . { 2 { * * { { * * 2 { { { { * * * * * * * * * * * . . . . . . . . . . ; ; ; ; ~ ~ * { { * * * * { ^ ^ & * * * ^ ^ & ; ; ; . . ; & 6 6 l l l H H H H H H ` ` H l 6 H ` ` ` ` H l 6 /.b.b.b.b././.b.b.b.b./././././.b.l.{.H D D D U J J H ` ` {.U U 8.8.8.{.8.8.8.{.l.l.l.x.x.R.R.R.l.l.R.x.R.F+F+,+A+E+A+A+R.R.,+l+6.l.v.x.l.v.,+R.l.T.l.l.{.{.U {.` H {.3 U {.U +.t H 8 8.` {.` b.{.` H {.` ` H H {.{.{.H H H H ` 3 . ^ l +.M U } f M 5 8 3 & n $.{.t v Q !.L $.' & & | 9 | & & & . [ t.g.f.1.w h.|.p.9.q.B.G.R [ Q ! ! 7.+.+.8.M P P v.).v . . 6.;.! f n > G ' Q Z Q ).e G + 1 e G 1 [ k - [ } m +.M 9 = & | . & 9 6.> . P +.t + n ' P L $.$.n v G e $.e ' e e e [ e !.e [ P e v.3.I G m M / } {.n 9 [ + . ' = = + R.$.e $.).6.z Q z Q z z !.!.Q !.!.).5.(.Z ~.i.Q Q e Q Q Q Z ~.Z k.k.Z Z ].i.].2.i.2.,.,.,.V ,.A ].j 4.w.b+4.4.i.i.i.2.~.,.W I z Q e - e z e z e e z e e L e e I d d Z Z ~.Z < v e e z Z < b j [ 1 j j j.w.3.x Z , A A j w.V + ' 5.O.[.'.V ' 1 7.< d + d (.w.(.'.j.@+O.4.u.c+~+O.u.u.u.",
"~ ; ~ 2 2 ; . ; . . . ; . . . . * * * * * * * . { * * * * * .   ; ; ; . . . . . /.D   . * . * ` A.2 D ` 2 2 6 l D /.  . . . + + ~ . 2 . . ; . ; 2 ; . . . ~ ~ 2 ~ ^ 2 2 2 2 2 2 2 ~ ~ 2 2 ^ ^ 2 ^ ^ { { { { { { 2 6 6 6 2 2 ^ ~ & ^ . . & & & ^ { * . . * * * 6 2 2 { { { { * * * * * * * * * * { { * * { { { { ; . . . . ; ; ; ~ ~ ~ ; ; ; ; ; * * * * . . * * * ^ 3 3 3 8 D U l 8 8 8 8 8 l H H l l l H H H H ` H l l l l 6 l H H H l 6 6 6 6 l D D ` ` ` ` D D D D 6 6 D ` /.{.{.H 6 D l D U J h 6 6 8 3 3 3 8 H 8 H l l l H | m F t t / a M {.. l 9 & ' ' = 1 + e +.l.M t [ 6.- M M l.8.v.k.8.T.b.b./.H {.U 6 ` 6 ` l 3 D {.l.8.U b.b./.A.b.b.A.l.A.{./.` /.M M M t 5 2 6 l 3 * D U 8.+.8.U t t = ^ ^ . 9 ).Q I V T 4.W 7.e | | m M m > & & * [ t.h.f.,.] R 0 ].N.$+$+g.Z U e ! !.B ;.f m M z e e 1 - $.,+R.v.! v [ k v e ).5.I Z d ).- $.v.G G G L - 9 } + } M 9 . . ^ . * 9 P 8.8.l.8.+.+ P 1 G k e G [ L f +., ! f t M f $.i.L !.z !.R.P ^.A G [ t 9 n 6.).$.).k.R.).).6.k.!.7.5.5.!.!.5.).5.5.5.5.7.!.!.z !.$.$.(.5.i.2.$.6.!.5.v.2.i.w.w.5.5.m.w.4.@+w.j.t.t.j.j.j.j.t.t.].t.O.j.j.w V < V ].V I j d d ' 1 e z Q z e e f f f ' , f f ! ~.Z ! I I Z I + [ f [ $.d I w., } } e V 4.A V ].Z I 2.V j w.C+w.1 ,+w.0 0 A d E 7.b ! < = 7.k.(.s V j.j.].O.c+M.].].4.j.",
"~ ; ; . . . . ; 2 D l * * { { * { * * * * * * * ^ ^ { * * * * ^ * * . . * * * . * .   * * * * * / / / / 5 5 5 H / ~ *   . . . . = } } } . . H 6 6 { { D ` D l 6 ^ ^ 3 3 3 3 3 8 3 ^ ^ ^ ^ 3 8 8 3 & ; ^ 8 l l 8 8 8 8 8 8 3 ^ ^ & ^ 3 3 ^ ^ ^ ^ & ^ 3 8 8 8 3 ^ * * * * * * * { { { * * * * * * @ @ @ * * * @ @ * * * { * * * * . ; ; . . . . ; & | m M t M +.;.{.{.{.U U H m 9 } } } } } 9 9 9 9 9 9 9 9 9 } } 8 8 8 l l l H H l l 8 3 3 8 8 l l 6 l 6 ^ / } } 9 } } } } } } } 8 8 3 3 8 3 ^ ^ | | | | | ^ ^ ^ ^ ^ ^ ^ ^ ^ ^ ^ / / / / / / 5 5 } } } } 9 9 9 m 9 9 9 9 m m 9 9 m t U 9 } t m m +.M M M M +.+.{.U U U H {.U l H l 6 6 l 6 * . * ^ ~ ~ 6 H l l l l ^ l l 8 8 3 8 3 3 3 l U {.U l l {.l . & . & {.$.$.z e Q Q 6.).7 I !.6.{./ . . . ' i.[.t.[.0 ,.0 2.A W A 2.,.W W 7 W 7.i.i.!.!.R I C C O.E+d+a.B.o y * @.g [ 1.W I Q = - P !.! G G P n t U 9 . & ^ t } 9 m v - . = 5 t t 8 ^ & } & & . & - } 9 n n 9 L n v n v v 9 v [ P n $.$.W I Q k G Q !.I ).).P ).).G P G L [ n 9 [ n - [ ' 9 - } n ' [ - = m 9 9 P f f P ~.~.~.Z i.i.i.i.4.j.4.j.w.j.4.4.2.2.i.i.~.2.i.2.v.).).(.Z j j 2.j < b b V A A A < < d < , d I d z e Q G e Q Q z Q z 1 ' ' ' 1 e v ! b Q j V j.w.j 2.2.,.Z Z ~.I W W j , O.E+w+O.j Z Z d Q [ [ +.].A d 1 ' $.7.Z } 1 4.~+g.|.0 A ' V m.j.",
"; ; ~ ~ ~ ; . . * 6 2 * { { * * * * * . . . . . * * * * * * 3 8 * * { ^ ^ 3 3 3 8 3 3 3 8 3 3 3 / / / / / / 5 5 / ~ *   . . . . & - } 3 & ; H l D 6 6 D D D 6 6 3 3 3 ^ ^ ^ ^ ^ 8 8 8 8 3 3 ^ & 3 3 ^ ^ 3 3 ^ ^ 2 2 2 2 2 6 6 6 ^ 3 ^ ~ ; ; ; ; ~ ~ ~ ; ; . . . * * * * * * * * * * * * { { { * { * * * . . * * * * .     * { 3 3 8 l l H H U U +.+.+.+.M M M M 9 m m m 9 9 } } m m m m m 9 9 9 } 9 m m 9 } 9 m l l l l l l l l 8 8 8 8 8 8 l l D 6 l l 8 9 m 9 9 9 } } } } } } 8 8 3 3 3 3 3 ^ 9 | | ^ ^ ^ ^ | & & > | 9 9 m m t t 5 5 5 / / / 9 } } 9 m m m t M M M M +.+.M M l l U 8 3 8 & & . . . . . . . . . ; ; & 8 8 8 8 3 ; ; ~ ^ ~ 6 H l H U U H l H U U H {.{.{.{.U U {.{.U U 9 = } m H {.U t H m 9 {.L $.).).6.P ).G $.$.!.;.M = . . . ' i.j.t.'.0 W y 7.W ,.W 7.W y 7 < y W W W W W R B G & E+E+d+*.B.%.,+  *   G T y , ' k k k v f $.P v - = m 9 9 . & H t M m m = . . . & ^ & | | } } } & } M U t n v L n v L v [ L P ).$.P k k k I ).G Q G ).Q !.P L G $.).L G e [ 9 [ } n v [ v - L n - [ [ 9 [ 9 } ' ' ' ' [ e d ~.2.Z Z ~.2.2.A 4.j.4.4.].4.j.j.j.j.4.4.j.4.j d - < A Z ~.i.O.~.2.i.2.~.2.i.i.~.i.Z I v.~.< 2.e e 1 ' [ e e e Q e [ e e ' 1 z e P e I W A j 4.V ,.j < < d $.z e < < < 5.k.(.1 1 ).Q ' ' ' [ ;.w A d 1 + e 7.Z - I O.~+c+M.].j V ].m.j.",
"; ; ; ~ ~ ; . .   * * * { * . . . * * * * * * * * { { * * * { ^ { 3 3 3 3 ^ ^ 3 ^ * * { { * * * = = = = / / / / / ~ *   . . . + / } 9 8 . . 6 6 6 2 { { { * * { ~ ; ; ; ~ ~ ~ ~ ; ; ~ 2 6 6 6 6 2 6 6 2 ~ ; ~ ~ . .       . . * * * * * * * * *     . . * * * * { { { { { { * * . . . . . . . . . . . . & & ^ ^ 9 9 t M U M M M +.+.+.{.{.{.{.{.{.U M M M t t f 9 9 9 9 9 9 9 9 } } } 9 9 9 9 } } 9 m 9 } } } 9 l l l 8 8 8 8 8 2 6 l l H H H H l 6 8 l l H U t m m 9 9 m 9 9 9 8 3 ^ ^ ^ ^ ^ ^ & & & & & ^ ^ ^ f f f f f f f f 3 3 3 3 ^ ^ 3 3 3 ^ ^ ^ 3 ^ & ^ ^ ^ & & & & & & & . ; . . . . . & & & & & &     . . & & & 3 8 8 t 9 9 9 9 m H U 9 t M +.M M +.8.{.H U {.8.l.l.8.l.{.U {.U H H U U {.U H H t t U v v 9 - } - n [ [ f f v v f t M 9 v ~.].[.T A ~.W 7.W !.W !.W I !.B !.!.y 7 7 y B e ' + l+b+N.p.r.h.7.. & . < ~+,+Q 1 k 9 n ' [ [ 9 n [ } 9 & . . . ; ^ } = } = . = . } } & 9 9 9 L $.L [ [ [ 9 [ [ n [ v n L n G G e e e L P P z !.).d Z 1 z 7.P k G P ).).P P ).v f P f f P P f f ' f P $.v 6.).P $.!.Q Q !.Q 7.~.Z 7.i.7.7.v.i.i.2.i.i.2.i.i.4.4.w.w.4.4.4.4.w.i.i.i.j.j.4.j.i.~.2.O.w.i.~.~.i.2.W ~.2.j + j I I < + < d + ! < < < < < d d I e e < d j V A A d j b Q k.k.$.' [ ' [ e G e e ' } v = - 1 G - 1 ].W < e e z $.+ I + @+~+++s.b+j.V V 3.4.",
". . . ; ; . . ; * * . . * . . * * { 2 2 { { { 2 3 3 3 ^ { * * * { ^ 3 3 ^ { * * l 6 6 l l 8 3 3 3 3 3 ^ 3 3 3 3 / ~ *   * . . = & & 3 8 . . 6 6 2 { { * * * * 2 ~ ; . . ; ; ; ; ; ; ; ; ; ; ; ; . ; ; ; . . ; ; _ _ { { { { _ _ { { { { { { { { { { { { { { { { * * @ @ @ @ @ @ ; ; . . . . ; ; 9 m U +.{.{.{.8.8.{.{.$.$.{.8.l.+.+.+.+.+.P v n t m 9 m m t m m 9 9 9 9 9 9 9 9 9 9 m m m m m m 9 } } } 9 m 9 } 8 8 l l 8 8 8 8 6 6 l l D D l l 8 3 8 l m t H t 8 8 8 8 8 l l 8 H H H H H H U U F U U U {.U U U +.M M t m m 9 } 6 6 2 2 { * * * * . . * * .     . . . . . . . . ; . . . ; ; ; ~ | | | 8 c c | | 9 ^ | 9 & | m 9 m 9 9 9 9 } } 9 [ 9 n v v L +.+.{.H U {.8.l.l.l.8.+.t +.{.{.M m t m m m 9 9 9 9 - } } } } = } = } 9 9 n f e e b [ L $.2.i.W I I Q !.B $.Q Q Q Q B b Q Q B b b B [ ' b v.v.w.k.O.O.R.R.7.e ,+@+4.P e f n [ +.t m [ } [ - } 9 = & 8 ^ 3 3 / } m t } m } 9 n 9 P L L [ ' L $.L L P P k P P P k P 6.z Q Q z Q $.G ' z z I (.,+v.).z e ' [ ' [ e - [ ' ).v [ L $.!.P $.e L 6.e P ' ' e e z Q Q Q W I !.I !.v.i.- + d ~.~.~.i.i.~.i.O.O.j.j.u.w.u.u.O.w.i.i.4.4.4.V ].w.4.V V ].w.O.4.2.].i.w.].].2.].~.~.~.I Z Z j I I ~.~.Z ~.2.2.~.Z ~.W j 2.w.j.A I Z Q I e 1 e L } f f } - + v ' / 5 + - [ ' - I t.w.d 1 ' 1 7.Z I V @+c+~+c.4.].j 1 ].m.",
". . . . . . . ; * * . . * * . { { { 2 2 { { { 2 ^ ^ 3 3 ^ ^ ^ 3 { { ^ 3 3 3 3 ^ { * { ^ ^ * * * 2 2 ~ ; ~ 2 ^ ; / ~ *   . . . = & & ^ 2 . . { * { { * * * * * { { * * * * * * . * * * * * * * * * * * * { { { { @ * { { { { { { * * * * * * * * * * * * * * * * * * * * * * * { = } } } 9 m t H v P $.$.$.$.P P L P ).).).P v n f v v v f f f f t t t t t m m 9 } } } } } 9 9 9 t m m m 9 9 9 9 9 9 9 m t H t 9 3 8 l l 8 8 3 3 6 6 6 6 6 2 ^ ~ - = } } = = / = 8 3 ^ ^ 3 3 3 8 ^ 3 3 8 8 l l l m m t t m 9 9 | 6 2 ~ ~ ~ ~ ; ; * * * * * . . . * . * * { { { { ^ ^ 3 8 l l H H l 8 8 H U H l l t t t a t t a f m 9 m m | | m 9 9 n n v L v n n v v v v f f f [ } / } m m m m } 9 t M M M t m 9 9 9 M +.M t M m 9 m U +.U U m 9 9 m t L L Q Q Q P L < d I B Q Q b P z !.!.$.L L z b Q !.!.!.!.!.F k v.~+@+i.w.x.8.).R.,+R.w.~+A [ +.8.+.= t 9 9 t m M t F P L P 8 8 m m } 9 n n n P n k k Q 5.).).Q e $.$.e Q $.P G G ).$.P ).v.).k.v.).5.k.k.Q 6.$.d O.w.,+$.[ P G $.G e e ' 1 v L $.6.L e L = z + 6.l+[ ' ' L L !.Q z !.!.,.2.z !.!.- 1 e !.Q Z Z Z 2.~.~.2.i.j.j.4.4.4.j.4.].4.V ].].].4.4.t.j.4.j.4.j.4.j.V A 4.j.4.4.4.4.4.i.2.w.w.2.i.i.i.w.i.i.w.w.i.i.w.w.].@+O.b+b+w+w.Z Z Z I I e 1 e f P +.L v v ;.M . = = - e ' 1 I t.i.< e $.$.7.! Z V A A ].A j A ].1 V w.",
"; . . ; ; . . . * * * * { { * { 2 { { { { 2 2 2 3 3 3 3 3 3 3 3 3 ^ ^ ^ 3 3 3 { ^ ^ ^ 3 3 ^ { ^ { { * * 3 l 6 3 = ; .   . . . + & ^ ; ; .   2   * * . . . * .   * * * * { { { { . * * { 2 2 2 2 6 2 { { 2 2 2 { { { { { { * * * . . . ; & & & ; ; ; ^ ^ 3 3 8 8 3 3 3 3 8 8 l l m t +.+.+.+.+.+.P P P L v v v v v v n n n n v L n n v v v v L L M M M t m 9 } | } } 9 m m t t t 9 } } } } } 9 9 t H H H m 9 9 9 8 8 l 8 3 ^ & & & ^ ^ 3 8 8 8 8 [ [ 9 m } } 9 8 8 3 ^ ^ ^ ^ ^ ^ 8 8 8 8 8 3 ^ ^ & & & & & & & & @     @ @ @ @ @ . . . & & ^ ^ ^ ^ ^ ^ 3 8 8 8 8 8 8 l l l l H H U H 9 t t m H H M M M M M M M M m 9 m 9 } } 9 9 m m m t M +.+.+.n L +.L n [ [ 9 9 m 9 m 9 } m } + } m 9 9 m t M m m t M t t M M $.P P P v $.L P {.{.$.P G z d d e z e Q z z z e v L f L P L L v P e P $.$.P e 1 v v.,+O.@+k.k.5.{.6.R.,+@+w.,+~.. - 9 } = 5 ^ ^ . . } } [ [ [ v 9 m L P f L L z $.).).).).k.k.5.e 5.v.R.k.!.k.v.6.k.).6.$.).Q z e z Q ' !.k.v.!.{.$.I (.1 d [ [ ' 1 P $.P P k k e Q z !.k.!.!.v.6.7.1 7.v.6.+ Q L 6.!.Q !.!.!.7.$.' ' z 6.Q $.6.!.$.B I Q !.!.d Z ~.i.v.v.i.2.i.R.O.O.O.O.w.w.O.~+4.j.j.j.< V 4.w.O.w.w.O.O.j.w.j.4.O.w.4.j.w.O.j.j.w.w.w.j.j.w.w.w.w.].@+V w V < 0 A b , = ! I e 1 1 1 e [ L f } } 9 ' Q Z Z A V ~.d e 1 ' Q I j A V V ].~.~.A O.~.~.i.",
". . . ; ; . . ; * { { * 2 2 { { 2 { * { 2 2 2 2 8 3 3 3 ^ ^ { { 3 ^ ^ { { * * * ^ { ^ ^ ^ * * ^ ^ 3 3 3 D ` ` l . ; .   .   . . . . .     2 J { * * * * * * * *   . * * { 2 2 2 2 2 2 { { * * * * * * * * * * * . . . . . . . . 9 9 9 m t H H t U U U H t m m m m m t M M +.+.+.+.+.+.+.+.M t t t t t t m m t M 9 n L P P P P L M M M +.+.+.M M t t f m m 9 9 9 } } 9 9 m m m m } } 9 9 m m t H t H t m } } / } 8 3 ^ ^ ^ ^ ^ & } } 9 t M +.+.+.P P +.+.+.U U U 6 2 ~ ~ ~ ~ ; ; & & & & & & & & & & ^ | | | | | m m 9 m m m m m t F F F t t t m t m 9 9 9 9 9 9 m m m m 9 9 9 9 n n ' [ [ ' n n 9 9 9 9 9 m 9 9 | 9 9 | 9 | > | } } - - } } } } } m M t m m t M m t } 9 } } M 9 [ [ [ [ [ [ 9 n n n [ ' ' } 9 n G G P P G ).G L [ 9 k G G G G Q Q L v L 9 L L L v L [ [ v f v f L k $.$.P P k e 1 ,+'+'+'+w.(.(.6.L k.,+(.5.7.+ & & } f M t *   | & = } v $.$.).!.).7.v.i.i.v.v.v.5.k.k.k.w.(.(.I 7.7.7.!.I I < = ' 1 e G $.$.G I I Q Z i.7.!.d 9 1 Z A (.j k } ' [ 1 G P $.$.P Q !.7.z e 7.v.i.z Q $.z ! 7.v.e } M L f L P Q $.6.v.6.$.e Q G Q $.!.!.!.$.7.i.7.[ - ' P 6.;.L +.).(.i.k.w.O.w.w.j.4.t.j.O.j.t.j.4.4.4.u.j.j.j.j.u.j.w.u.u.u.j.u.u.O.O.w.u.O.O.O.O.u.O.u.O.4.t.N.N.t.O.j.w.w.2.2.3.V A d I < < b [ [ e d d < 0 V 0 j < 1 G Q I d A i.7.I 7.d < b !.d < < ",
". . . . . ; ; ~ 2 6 2 * 2 2 { { { * * * { 2 2 2 3 3 ^ ^ ^ ^ ^ ^ * * { * * * * ^ { { { { * * * { * { { { 3 l 3   . .     .   . . 2 2 ;     { h   * * * . . * * * @ * { { { * @ @ @         @ @ @ @ @ @ * { _ _ _ ^ 3 8 l H U U {.+.M t t t t t t m 9 } } } } } } f f v P $.$.$.$.+.+.P L v n v L m t F M F F M U {.+.$.P P P P P M M t M +.M t m M t f m m m m m t t t t t m 9 9 } } 9 9 m m m m m } = / 9 m m 9 8 ^ & & 8 l l l P +.+.{.{.{.{.{.$.L L L m 9 ^ & ; ; ; ; ; ; . . . & & ^ 3 8 H U U U {.8.8.{.{.U ).$.$.$.$.).$.$.F P U U +.+.+.+.M t t t t t t t m m t t t m t t f L v P L f f ' > > > | | | | | } t m m U M t M t t m m m t m m m m 9 9 m t t m t M t M M t +.m n n v P L n L {.+.+.L v L n [ [ e 1 e e e $.e Q $.).).6.).$.P P z L $.+.m +.n v f t f f M t t f f [ v f [ ' - ' !.O.m.m.u.m.~.,.;.f I 5.Z 5., f | ^ 9 + = .   3 & . & U v.v.).k Q Q !.R.v.w.w.O.R.).5.(.(.(.A (.Z ~.I Z I < Z ~.e e Q z $.z $.!.!.!.!.!.d ! ! d m ).5.].j.Z k t ).P ' [ e k P G z ! b b e e e i.7.Q z z 7.z !.< . & } + + f $.$.k Q 1 ).G 6.G ).Q ! + b b b z b . / = + = + . . - ' 1 ' d 2.i.i.t.t.t.t.O.t.O.O.u.u.O.O.u.u.O.O.u.u.O.O.@+@+u.u.u.j.j.u.u.4.4.u.u.m.u.u.j.j.t.j.j.t.N.j.j.j.4.i.4.4.m.].i.2.W ~.5.Z 5.l+b+t.T '.j.i.Z e e e d d ,.d ! b ! b !.$.B B W b ",
"* * * ; ; = = / = = = / 5 2 ~ ~ 3 3 3 3 3 3 ^ ^ | | | | | ^ ^ | F F F c 8 c F m c | | 8 & | 8 | ; 8 ^ & 3 8 ^ 8 { * *     . * * { @ @ @ { @ @ @ _ ; @ ; ; ; _ _ ^ ^ ^ ^ & & & ^ [ [ [ 9 n F F P +.+.+.L n 9 n n t t M +.+.+.+.M H H H H l 8 8 8 9 9 9 9 n n F P P L v L +.+.L n t t t m t t M M +.+.+.{.+.+.+.M M M M M +.+.+.M t t M +.{.{.+.M U M t t t t m m m c | | | | | | } m +.+.+.M m } m 9 m M M l 6 2 ; ; ; ~ 6 l l l l 6 6 2 * * * *   . * * * * * * ; ; ; ; ~ 2 2 3 [ 9 L L ).).).P $.P $.P ).$.$.v P P P P L P P $.$.).).).).).$.P L P P P L L L L n L v v v n L n [ [ [ v [ v L P L n P $.L v L v v v n n v L P $.L L v v v n 9 [ n n v P $.P v n L $.$.$.).$.L ).$.).).Q $.6.).Q !.$.!.!.v.Q 5.Q P $.$.P P $.P G F 9 k k k ).v.k.7.!.!.!.!.!.$.Q P +.+.L v v n 9 } m m } } m m } ).,+O.m.O.k.z v [ +.} +.8.8.[ ' 3 ^ ^ & . & l l E Z Z k n ' = / 9 - [ v = n n n !.!.7.!.v.7.P !.7.i.7.!.Q !.z Q P $.P v 7.$.v f v L P n v n [ ).6.P !.).$.P 1 e z ' L e L e z z P v [ + = [ 9 [ 1 1 z z 5.e !.!.G Q ' k G k 1 k 1 e z 1 e Q !.z v.v.6.z Q G 1 $.y y W !.7.W !.!.i.v.Q !.< ! B ! d I Z 7.7.i.v.R.O.O.,+v.v.i.O.@+~+O.@+~+@+@+O.@+@+O.O.t.O.t.O.O.u.O.O.@+~+~+~+@+@+j.4.j.u.@+~+@+~+N.N.@+N.N.N.t.O.u.j.j.O.j.4.u.w.w.w.O.O.j.V j e k k G Q G k Q k k k 1 ",
"* * * ; ; = / / a / = = / ~ ~ 2 ^ ^ ^ 3 3 3 3 3 ^ 3 D U H 8 ^ & l 8 l D U U H U l * ^ 3 ^ ^ D U 6 2 ~ ~ 2 ^ ; ; { * * * * . .     * 6 6 2 * { 2 2 { { 2 2 { { { & | t U U U U U $.{.{.8.8.{.{.P v n n 9 9 n P +.+.M M t t m m m m m 9 } = = / } n n F F F P U U +.P v n v v L L +.+.+.+.{.+.+.+.+.+.+.+.+.M M M M M t M M +.M M U H H t m m 9 9 9 | | | 9 9 9 9 } } } } 9 9 5 m U H t m m t t t {.U m 8 8 3 2 6 2 { * * { { * * ; . . . . . . . * * * * * * * * 8 l l H H U U U $.P $.L $.L P P ).$.).P ).P P v v v v v v v v L L P $.$.$.$.$.$.L P P P P P $.$.+.{.P P v n v n L L P ).P $.P $.P P $.).$.P $.$.L L P P P P v n n n v L P P L L P P $.$.$.P L v v P L P ).).P ).$.).$.P P ).).P ).).5.).k.$.5.).).6.6.6.6.k.6.).[ n F k k $.5.k.k.k.k.6.7.!.7.7.+.+.+.+.+.L L P 9 9 9 } } } } } +.R.R.O.'+w.G v l.l.9 L 8.{.[ ' = 9 t m 9 m t 9 (.5.$.$.L ;.} + G 6.).L k $.1 L !.f f f ! f !.!.$.b z Q b !.!.e L L L $.1 ' = [ - - [ [ G P k P f f + = + f [ [ v - v [ $.- [ v ' + - [ n - 9 $.R.v.!.5.$.5.Q 5.v.5.G 5.).e e ).5.!.5.5.$.1 z z I !.7.I I I Z i.$.Q $.G $.$.5.!.!.R.R.!.I < v.R.i.7.i.~.~.d d d A < , < 7 7 V j.V j.j A ].4.j.j.t.O.O.O.O.O.O.O.u.u.j.u.@+O.u.j.~+O.u.j.f.j.u.u.t.f.j.t.t.t.t.t.O.O.u.j.@+u.u.O.w.w.w.O.O.O.j.4.Z I d 1 1 ' ' d f f f [ ",
"* * { ~ ~ / / / / = . . ~ ~ 2 6 3 3 3 3 3 3 ^ ^ 2 6 6 2 * { 2 6 2 *   . . * ` b./.6 @ @ { _ ` /.D { * * * * *     . * * { 2 2 6 ^ ^ & ^ ^ 8 ^ & 9 9 m t F M U {.{.{.8.8.{.{.{.{.{.+.$.P P P L v t t t M M M M +.U H l 8 3 3 3 3 = / / = / } m t F F F F F F M U 9 v P +.+.$.$.$.t M M M M t t m M M M M M M M M +.M M M M M t t } / = & & & & = 9 9 9 9 | | 9 9 f f t M M +.+.+.U H 8 3 8 8 8 8 8 3 ^ { * * . . . .   . * * * * ; ; ; ; ; ; ; ; | | 9 m M U U U +.+.+.M M M M M ).P $.P ).P ).).P $.).L L n n n v v v L P P P P $.$.$.$.P L P $.n v v v n n n n [ n n v L P {.{.P P $.).L P P $.P P $.$.$.P P ).$.$.$.).).).$.P +.+.{.{.8.8.8.{.).).).).).$.).).$.$.$.$.).).$.).$.P P L P P P L z z Q Q ).Q ).).$.$.Q Q $.!.!.$.F U P v G Q ).6.!.!.!.!.P L L P M m 9 t t m m t m 9 } } } } } 9 m {.Q Z (.G [ U M t . = t 9 - } 9 m } = = } t +.Q k.Q $.' !.z z 1 $.G 1 = G e $.L ;.[ [ ;.f f [ Q Q Q Q Q !.Q z P e L k.P z e z L P $.k [ ' + = . 9 ' - n ' n [ [ 9 {.l.+ + . - ' G $.L ).).6.).k.5.).).).k.Q ).5.Q ).Q 5.l+k.$.Q $.$.Z Q I 5.).j I 2.Z ~.A < = E E E k k k k > j Z A (.Z d d j Z I Z Z ~.~.7.i.V i.2.2.W i.2.4.i.i.A O.w.j , A ! j < j A 4.4.j.w.u.j.u.u.4.j.u.4.u.O.O.O.O.O.w.@+N.N.@+N.N.N.N.u.u.j.4.u.4.4.u.j.j.j.j.w.w.j.j.O.w.i.i.~.V A A ! ! , = ",
"2 2 2 ~ ~ / / / + . . ; ~ 2 2 2 8 8 3 3 3 3 ^ ^ @ ~ _ @ ~ J b.A.A./.J /.A.A.A.A.b.J _ h ` /.b.b.D * . * * * { { 6 2 { * * * * { & t M +.m U +.{.6.).$.P $.$.).6.).).).$.$.$.$.).+.L f f f f L L +.+.+.+.+.M m 9 8 8 3 ^ ^ ^ ^ ^ & - } m t M M +.U U F F F F U U $.$.$.L v n n v {.+.+.M M M M M M M M M M M M M m m 9 9 9 } } / ^ ^ ^ 3 8 l H H 8 8 8 3 ^ ^ ^ 3 a a a a a a a a 6 2 2 { { { * * . . * * * * .   * * * * * . * * 8 8 l H U U U U $.$.$.$.+.{.{.+.+.+.+.L v n n [ 9 [ v n P v P P v v P n v n v v P P P P $.$.$.$.$.$.$.$.$.P P $.).).).).$.$.$.$.+.{.P L v n L n L v L L n n L P v P L v L v n P n v v v L v v v P +.+.{.{.{.{.+.$.$.).).$.).).6.$.$.P P $.$.P P ).$.P $.$.$.P $.).$.$.P G e e k $.$.I d d I Q Z M U n [ n n [ 9 +.P P +.+.{.+.P t m 9 m m m 9 m m 9 9 } } } 9 m & } - ' k - & l 9 9 } 9 +.9 } 9 f v v f L v f L [ 7.$.!.1 (.(.k.6.z e e 1 Q e ' M = . = = } +.t L $.!.P !.).P !.v.$.Q z z [ Q ).Q Q $.z e e Q $.P L - - $.v v n } 9 n + } v v L Q $.Q $.5.5.$.$.$.!.i.!.7.!.I I 5.).Z k.5.k.R.v.R.7.$.v.R.$.!.I i.i.O.i.2.,.2.i.5.5.$.I Z Q Q $.j (.A Z ~.5.(.V ~.~.I Z d Z I Z 2.2.~.w.w.O.2.~.Q d $.7.< d I I A j.w.w.j.w.j.O.j.j.j.w.j.4.j.O.j.O.w.j.j.w.j.w.j.j.t.t.t.t.t.t.w.O.w.j.w.j.j.w.w.w.w.j.j.j.w.w.t.j.t.t.j.j.j.4.b b ! ! ",
"2 2 { ~ ~ / / / = = ~ ~ 2 { * * 3 ^ ^ ^ 3 3 3 3 @ 6 J ` ` /.b.b.b.b.A.b.b.b.b.b.b./.` /.b.b./.` { . . .     * * . . ; & ^ 8 H U $.$.P 6.6.x.6.P k.5.$.$.$.).).).$.).).).$.P L v v v v L L L L v +.+.M m m 9 9 9 ^ ^ ^ ^ ^ ^ ^ ^ 9 m t M M M M t F F F F F F F U F F F F F U {.{.M M t m m m M M t t t m m m m m U U U U U H t m H H H H U U H H l l l l l l l H 3 3 3 ^ ^ * * * * * * .     * * * * *     . * * . ; 3 6 l H H ` M M M M +.+.+.+.P P L L P L L v P P P L L L L v n v $.v L v L n v v L n P P $.$.$.$.P P P P P P L L P $.$.$.).).P P P P P P P P L +.P +.+.+.{.+.P L P L v v P P n L v n v n n L v L P $.P L n [ ' [ [ [ 9 n n [ v v v v L L P P L P P P P P $.$.+.L L L P L L P L L P ).).6.6.6.!.!.5.!.$.$.$.Q M M } } m m - & = - } 9 t M t 9 t t t m m t m 9 9 m m } } 9 9 9 3 9 9 } m 9 & & 9 = & } {.9 } & ' v P ).6.$.f f ! L L $.Z (.Z Z ).G ).$.G e e ' L ' n L 9 +.{.+.$.z ).).P ).6.L ).5.k.5.5.Q $.5.k.5.).$.Q $.).).$.$.G G L $.k ).P k ).1 + k 6.P 1 Q d I $.k.).).Z 7.~.~.Z Z Z Z I Z 7.7.d Z ~.v.v.v.~.I ~.2.v.~.w.~.i.w.w.w.i.2.i.i.2.i.i.i.7.v.5.~.(.k.O.(.(.k.2.7.~.7.~.~.~.~.2.2.2.i.~.Z I d 7.!.i.e + Q i.7.V 4.i.2.w.i.2.4.4.j.j.w.w.w.O.w.j.w.j.4.4.j.j.w.j.j.w.w.w.w.j.w.w.w.w.j.j.j.j.j.j.w.w.j.j.j.w.w.t.f.j.j.j.t.O.N.O.O.O.O.",
"{ { * ; ~ / / / ~ ~ ~ ~ { * * { { { { { { { { { h J J h 6 _ ; @ ` J h { _ 6 h 6 @ ~ ; @ @       & ; ^ 8 3 ^ 3 3 m M +.+.+.+.{.{.).6.6.6.$.).).).).$.P $.).).).).{.{.+.M t m 9 } n n n v v n 9 [ 9 9 9 } } } / / & ^ ^ ^ ^ 8 l H M M M M M M M M F F F M M U U U +.+.{.+.P F n [ } } } } } 9 9 9 t t t m m 9 9 } 3 8 8 8 8 8 8 8 H l 8 8 8 3 & . * * * * * . * * * * * * * * * * . * * * . * { 2 * { * & & | 9 m U U U U t t t t +.+.M M M M t t v v v L P P P L L P P L P +.+.P P ).6.P $.).6.$.).$.$.L $.P $.L $.P P P P $.$.).$.).).).).).).).$.P P P P P P P P +.+.+.L v L n P P $.P $.P $.L v P L v L L L P L L P L v n n 9 9 n n [ 9 n 9 [ n n n n n n 9 9 L L P P v L P P ;.+.+.;.;.;.;.;.).$.).$.$.).P $.).6.6.).$.$.$.$.M M t 9 9 3 ^ 3 & } m m 9 9 9 } 9 m m 9 9 m m } 9 t t 9 } 9 m 9 F t m } } t m | } } } 9 U 9 m 9 } 9 m M +.t m t f f f f Q k d d e 5.v.!.!.!.7.v.6.).L e $.).- 1 L f L L $.6.).L G 5.$.$.).5.).k.!.!.$.!.!.!.5.k.Q $.v.Q 5.$.).5.5.).G ).v.,+k.k.5.,+w.(.Z w.5.(.~.2.W I ~.W 2.Z (.5.A O.w.~.5.5.~.W 2.2.2.W W Z i.~.i.i.~.Z ~.i.2.2.1.N.N.1.W 2.,+O.k.~.5.k.k.(.i.7.7.~.~.~.2.2.v.i.i.Z = d $.Q $.$.z Q k.Q k.k.i.2.i.i.w.i.w.i.i.w.2.].V V V A ! V 4.j.4.4.j.j.j.w.j.j.j.4.4.4.4.4.4.4.4.4.4.].4.j.j.j.4.j.j.j.t.j.j.f.4.j.t.t.c.c.u.y.",
"* * * ; ~ / = = ; ; ~ { * * { 2 2 { * * * * * . { * . .       . .   * * . .   * . ; . . ; ; 5 {.& = / } 9 9 } } L $.!.).).6.6.k.6.$.P P ).).6.).{.+.$.P L v n n } } } ' } } 9 m F F n 9 9 9 9 9 } 9 9 9 } } / = } } 9 m m M +.+.+.+.P P P P +.+.+.+.{.{.+.U U U F F 9 [ [ 9 n F t t M M M M M M M M M M t m 9 9 8 8 3 3 3 3 3 3 2 3 ~ ; ; ; ; . * * * * * * .     . * * * { { { ; ~ 2 2 2 ^ ^ 3 & 8 m m t P $.$.v L L L P P +.+.+.P P +.{.{.8.8.).).$.$.P P L v M M M M t M M t v L $.v $.$.).$.).$.$.v P v L n P P P $.$.).).6.).6.6.$.P ).).P $.P P L L L v v v P v L v n L n P L $.P $.P $.n L L P P v P $.P ).).$.P L L P $.+.+.P v v L L n v L L L v n n n f f v v f f v f f f f f f f f f v n P n v v n L U U M t t M M t 9 } 9 } & . ; ; ^ 8 l 3 & & & & } 9 m 9 9 9 9 } 9 m m m 9 m m t m m M M M M M | } m 9 } } . / } } / 9 H t m 9 9 M m 9 } n [ n P I !.I b I 7.Q !.).I $.v.k.v.Q + . + [ + L +.L P Q ).).k.5.k.).$.$.7.!.7.7.Q !.7.i.~.2.I i.2.i.2.O.i.w.i.O.w.w.w.5.w.k.5.w.5.5.O.i.i.w.2.w.~.~.W ~.i.2.Z A 2.~.Z 2.2.w.~.~.2.2.2.!.!.7.v.i.R.7.7.k.w.2.f.f.,.I 5.Q !.!.i.$.7.$.!.Z Z Z d I d Z Z B ! (.b+w.5.!.$.Z ).1 d 5.d $.Q Z Z w.O.~.! j Z A W W ,.,.~.w.O.j.w.O.O.w.j.j.j.j.j.j.j.w.w.j.w.w.j.4.j.j.j.j.j.j.j.j.4.4.j.j.4.4.j.j.j.w.w.w.w.j.j.j.j.",
"* * * ; ~ = = . . ; ~ { *   . * * * * . . * . . *   . 3 D l 3 ^ ; . . ; 2 ~ . . } } - 9 t 9 m 8.t +.M M +.{.{.{.!.7.!.!.Q Q $.!.$.$.).).).G G k t m m 9 } = = } . = 5 m H M t t F F F n n n n n l l 8 3 ^ ^ 8 l m t +.+.+.+.+.+.+.+.+.+.+.+.+.+.U F F n 9 [ 9 9 9 n F F F n F F M M M M M M t t M M M M M t t m l 8 3 ^ ; ; ; & ; ; . . . . ; ~ * * * * ^ ^ { * / / 5 l H H H l H l 8 8 3 3 3 3 / 9 m m v P $.!.L L P P P $.$.$.$.P P L P P P P P P L P P P L L M M M t t t t t L v P v $.L L n v v L n P L P L P P $.$.P P $.$.P ).$.v f v L v P L L L L L L L v P L L L L +.+.P L P v $.$.).L L L P P n v P v P P P L v v v v n v n 9 n v L n v L P P L v L P f f v L v $.).L M M M M t M M t P v $.9 [ } - [ . & & = } 9 - . } + = = . ; 2 { ^ ^ & & ^ 8 8 & ^ & ^ 8 ^ & & & } } } m m 9 m +.F n t t f f v 9 3 8 ^ 8 8 ^ 3 & l & & 3 & & ^ 3 m 9 = & } } } } < < d !.! Q d I < Z < I Z I I ~.9 [ +.v ' - n } I d $.Q I d 5.5.7.i.!.7.v.7.!.7.4.w.i.q+i.i.].w.].w.4.i.i.@+V ].(.k.k.V 5.V (.5.2.w.O.@+i.w.V 2.i.i.2.2.2.i.~.i.~+2.2.A V ~.A A z z ' ' + ).$.).E (.A W W Z E ^.! B !.b b !.7.z I ~.2.i.~.~.Z Z ! $.O.b+' = e B I 1 1 ' - d d I i.Z ~.w.Z j j V W W W ~.~.I W W w.4.j.j.j.j.j.j.j.w.j.j.w.j.4.j.w.j.4.j.].4.4.4.4.4.4.].4.j.j.4.].j.j.4.j.j.4.j.f.f.4.4.",
"; 2 ; . . . . ; * * * . . * *   & . . . & = = / } } f M t f } f ' [ 9 n n v L L L L +.+.+.+.P P P $.).6.6.).$.$.P +.+.{.{.{.+.P M t t t m m t +.9 } / } / = / 9 M M M M M M t t F F m 8 3 ~ / # 3 ^ ^ ^ 3 8 l H +.+.+.{.+.+.+.+.P P L v n n n n l H U U U U H l F n n n F F M U +.M M M M t t M D D l 6 2 { * * . . * * * * { { * * * * * * * * + B a a  .5.9 a 5 } } n F F F F 2 2 3 3 8 8 9 } [ 9 n L P P L L P n P L L P n P L L L P L L L +.L L v v L L v v L n v L 9 n +.L v L P L n +.n +.L L +.+.v n n v L v $.$.).P ).$.v +.+.L v v v n L v L n v P L +.v v L L L L P +.P $.P ).P $.L L +.P L v n n n L n L {.P P +.L n n 9 } [ 9 n n n n v v n n n L L v L L +.{.+.+.{.{.M F F P n n n M +.t t M 9 } M U t 9 & m | | | 9 M m m 9 9 m = & ^ 8 8 ^ & & & . . = 5 / + = 5 m t 9 9 9 } m 9 L L v f [ f f f } 9 9 } } 9 m 9 / / = / 5 2 ~ 2 l l U 9 ' + < I 9 9 v f 1 1 Q b $.).L k L k k ).A W Q L m U 2 . 3 l | M L $.!.v.).Q v.k.R.I I i.!.!.7.R.!.d I 7.!.I !.7.7.!.$.!.,+Q 7.!.7.7.i.!.i.2.2.~.2.~.7.v.(.w.5.w.(.5.(.(.!.!.W !.7.i.!.!.Z A A I A Z k.5.z z ' Q 7.k.e e $.1 d I 1 Z Z - z e ' [ [ 1 ' $.Z 1 I I Z ~.5.(.w.~.w.5.5.w.5.5.4.j.].4.].4.j.j.].O.@+j.j.4.w.j.4.j.].].].].4.j.V j ].4.4.4.].4.j.4.4.4.].4.j.4.j.].4.].j.].j.].4.4.4.4.4.4.4.w.u.u.u.u.",
"6 l 2 ; 2 ~ . . 2 . ; H H 2 ; 2 9 9 m m 9 9 m M +.M f f ' } } t L P +.+.+.+.+.+.v L P +.+.P P P P P $.$.P $.$.).+.P L v v v v v t t +.+.+.m } } = & = } 9 t H U M M M t t m m 9 9 | ^ & & & ^ ^ } } 9 m H U {.{.M M M t m 9 9 9 v v v v L L L L M M M M M t t M t t M U U U U M t m 9 9 9 } / }   . * * * * * * * * { * * * . . ~ ~ ^ 2 6 l l H  .5 H / U C {.a {.+.U U P F m c 6 6 6 8 8 8 9 9 n n v L v n n 9 n } n n v L v +.L P +.+.P L L P P P P P L L L v v n L P n L +.+.n v v n n L [ v L n n L L P +.P v n v v v n L v P +.+.+.P +.+.L L v L v v L v L +.+.+.+.P L L P ).$.P P L P P P +.+.P v n n n v ' [ v n n P P +.n n n v v L L L +.+.+.L v L P P v v n v P L v P U F F F F n 9 n 9 M t 9 t M t t m t U U {.M m 9 } m 9 t t 9 m } & = / } } = & . = + = / / = / t 9 m 9 t t m t t f f f f f f f f t 9 m t t m 9 t } } = . ; . . ~ U & 9 - + P v.7.f $.L z ' z !.Q G L k e G e e P d !.7.f L . U 3 . m } P L e I I z z ' !.I 7.Q $.!.7.!.Q d Q !.Q I d Q 7.Q 7.I !.i.I 7.7.7.Q !.Q ~.~.~.Z Z 7.v.7.(.k.k.V 3.k.O.3.O.w.j.j.4.4.].].Z ,+(.~.w.5.5.k.k.v.Q !.k.!.k.v.).v.v.$.5.5.5.Q z $.$.Q e e z k.5.5.(.(.5.(.k.w.~.O.O.5.5.5.(.w.V 4.].4.4.4.O.4.4.j.4.j.j.].4.j.].j.4.j.w.j.4.j.j.4.4.4.j.j.].].].].].4.j.j.4.4.j.].V 4.j.j.j.].4.j.4.4.j.j.j.w.u.j.4.4.",
"^ 3 3 8 ` ` H l 3 ; & l H 8 3 l 9 9 m m } / } 9 } f t {.+.{.+.+.L P P P P L L L L L P P P P P +.L P $.$.$.P P P +.+.+.+.+.+.+.+.+.t } = & = } m m t t t H U U H l l 8 8 8 3 3 3 5 5 / 3 8 m t t M M t t m 9 } - v v v L L P P +.M M M +.+.+.M M P L L L v f f L H H H H l 8 ^ ; ^ & ; ; ; . . . ^ ^ * * * * * * . ; ~ ~ ^ 2 6 6 t t t H U U U U U ` _ h t {.M H 9 F U M 9 } } } ~ ^ 3 ^ ^ } 9 t L P P P L L L v L v P L L P P {.n v L P L n n n v v L L L L v L n n n v n v L L n n n v L +.n L +.v v L L L L n P v v L n v v v n n n n v L v n +.L +.L L L v L +.P L +.+.L v L L v f f P $.).).M +.M m m m t m t m M t 9 9 } m m M +.+.+.M +.+.M +.+.M t m m m m m 9 9 t t m m F F F F n n n n m M t m t M M m } m m F t t 9 m M t 9 t t m M M t m } = = } 9 m 9 } - } } } 9 m L P L {.{.+.+.+.6.6.).$.P L P P +.L L P P v v P t t 9 / / = ; 3 & ^ 9 = L P z !.v $.Q v.!.v.~.d G e e k G G G L L ' f [ f v.f v {.L P G Q $.~.w.).k.k.).!.z 5.z 1 e z !.!.e $.k.z z Q !.z k.$.!.z z $.!.Q z !.!.i.,+~.Z 2.Z < ~.5.V 5.k.O.Z 5.w.w.u.m.O.u.u.u.'+5.k.k.O.k.5.k.~.5.(.Z 5.w.(.I 5.Z 5.5.v.(.k.k.5.5.w.k.5.k.5.5.5.~.w.(.5.w.Z Z (.5.Z ~.O.5.~.k.k.4.V i.2.2.4.4.V 4.4.V i.2.V A ].i.i.V ].i.].].4.4.4.].4.j.j.j.4.4.4.].].4.].].j.i.4.4.i.].V A V 4.].V ].i.i.2.i.w.j.4.4.",
"; ^ ^ 3 8 8 3 ; 3 & & & ^ 3 8 8 & | } m t t t M t M m +.t +.M M v v L L L v L L +.+.+.P P P +.+.P +.+.+.+.+.P L M M +.+.M t m } } = & & = } m t 9 m m 9 m t 9 } 3 3 ^ ^ & & ^ ^ = = = / } 9 9 n f f f L P $.$.$.P P P P P $.$.P +.+.+.+.+.M M M U t t H t 9 } 9 _ ; ; ; ; ; @ @ * * * * * * * * . . . . . ; ^ 3 H l 8 3 8 8 H H M M M M M M M M F H / = B w y f P t | & ^ 5 } ' 8 8 8 8 9 m M +.P P P L L P P P +.P P L v v v L P +.{.{.+.+.+.+.9 n n n 9 9 n n v L L v L L v L v L v v v v 9 n v v L +.P P +.+.).$.L $.v $.P P +.+.+.+.+.{.+.P +.P +.P L P v L P v n L P v v L P v L n P v L n m M t 9 9 t t m m 9 M M t t 9 M m t M +.M M M +.t M +.+.+.M t m } m m m t t m 9 n F F n n n F n m } } m 9 9 9 9 t M m t m M t +.+.+.t t t t M +.+.+.M m } } t +.).).).).).$.).6.{.{.+.8.8.+.+.+.v P ).6.6.).P L L +.P v n L P v M M M M H m 3 8 } = = = +.[ + e ' z < z d v.v.W G 1 e G G G L G } t +.$.e Q z !.L ).e e $.d ~.I < ~.!.d Q ' e 1 Q ).5.5.).e $.v.$.e $.z Q k.).).Q 5.$.Q G G Q z d I ! I $.$.7.i.A w.w.~.A 5.w.5.w.'+m.m.'+O.3.'+w.(.5.5.~.5.~.w.w.k.5.k.5.'+O.k.k.(.5.5.5.~.k.~.(.5.k.3.5.(.w.O.Z w.~.w.O.k.(.5.~.w.k.k.(.(.k.,+i.4.4.w.i.V i.].i.2.V 4.i.4.].].i.i.V V 2.4.4.w.4.j.j.w.w.4.j.4.w.j.].V ].].].j.w.].4.].w.4.i.].i.2.4.].].V ].4.4.4.4.4.",
"& | 9 | & & & . 9 } } m m } } 9 m t M U +.+.+.;.{.+.v v n P P +.+.+.+.+.+.+.+.{.+.+.+.P P +.+.+.+.+.M t M +.+.+.{.{.+.M m 9 - & & = 9 t M M M t t H H t m m } & ^ ^ & ; ; ; & ^ 5 5 5 t M U F F $.$.P P P P L L +.+.+.+.+.+.P L M M M a a a a a { @ @ @ * @ @ @ @ @ @ @ @ @ @ ; * * * * { { { { | | | 9 m t U U H t 9 9 m t H H n n n n n n n n z } L @+$+G.N.h.- | | 6 6 5 / } 8 3 ^ } 9 t M M +.{.+.P L P P L L P L L v v L P P P P +.P L L +.P P P L v v L L v L L L L L v L n L L L P L L L L v L +.P +.+.+.$.P L ).L $.L L v v L L L L L v +.L +.L v P L P +.L v P P v v L M t M m +.m m } 9 t t 9 9 m t m m } m t M M m M 9 m m m m m m m = } 9 9 9 9 } } } m m 9 m m 9 m n n n [ 9 F F n F 9 n F F F F U v P n P L $.v P +.+.+.+.P P L v m M +.M t 9 9 m G G Q $.Q G Q ).$.$.P ).).$.$.P ).P f f f L ).).P $.$.L L P P L f v n t M t 9 } } m . = ,+l.+ f ' ' 1 z z I ~.W G e e e k k k e t } v e Q !.I j + e ).' 1 Q i.v.i.< b + Q z $.).Q Q Q z $.' e Q Q 1 G z Q ).Q $.G ).z z z e z e z Q z e Q !.5.e j ~.~.5.Z ~.(.5.!.!.!.7.$.v.v.$.k.w.O.k.5.O.w.w.3.V 3.m.m.w.'+m.w.,+i.2.2.w.2.i.m.3.3.(.3.V V V ~.~.Z 5.5.5.Z (.5.k.5.(.Z 5.I Z i.V i.i.~.i.2.i.2.~.A A 2.~.2.~.2.i.~.2.w.2.~.2.].4.].2.4.V ].].j.].].].4.j.j.4.A V i.Z ~.Z i.i.Z ~.i.2.A d Z 2.V V ].].",
"& } m m } } m m m +.+.M t M M t U U U M t m +.;.P $.).$.).6.6.).{.{.{.+.+.+.+.+.P +.P L P +.+.+.+.M M M +.+.M M m } & . . & & = m t M M +.+.M M H H H m 9 } = & & & & & & ^ 3 8 t t M +.{.+.U M +.+.+.+.+.+.+.+.+.+.+.+.+.+.M t / / = ; . . . . { @ @ @ @ { _ _ ; ; ; ; ; ; . . ^ 3 3 ^ 3 3 3 3 9 m m m m m 9 } 9 } } 9 t M M M m m m t t M M M B P G q+d+B.a.9.! - ^ 6 6 ; . = . . & - 9 t L L P +.+.L L L L v L +.L P P P +.+.+.P P P L L L P n n n n n n v v v n v v v v v v n P P P {.P +.+.+.n 9 n v L P L L v v P v L v v L L L L v v L L L v L n n L v P L L L L L L L L M t M t +.M M t m t t 9 9 m m m H 9 9 9 9 9 } 9 9 9 } 9 9 9 9 } 9 9 9 } } } } } } 9 } } } } } m 9 n 9 [ 9 n F n F P P F F $.).P v v n v P P v v $.$.).P P $.P L M t t M M M m 9 Q $.).).).$.).6.$.$.P !.!.!.).!.).).).).).P L v k k k G G 1 [ k e k 9 9 v t m m - = m - + + n +.8.n f f e = Q $.P P G G G G k k L - $.e Q !.d W 1 z ' z ).z Q 1 2.< Z R.Q ).n n e 1 1 P ).k G P k k G 6.k P e $.$.$.P $.).G ).v.e ).).e $.e e e < I Z 7.i.~.Z I v v ! v v f + ' = + + 5.5.A I k.O.< '+].].].i.O.V i.w.i.w.2.w.i.i.4.w.i.].4.O.q+5.5.k.k.(.5.(.5.k.~.5.w.j j 1 j Z 2.2.i.Z 2.w.2.w.i.~.Z i.~.i.i.~.2.2.i.i.2.~.W i.2.,.~.2.2.i.2.4.4.j.j.].].j.].i.i.2.~.~.2.2.Z 2.2.i.2.I < < < 2.2.2.i.",
"9 9 t F 9 m F m L 8.8.v n +.{.+.F F L P +.+.;.6.).).6.v $.P ).P L P P P P P P P P +.+.P P +.+.L t M +.+.+.t f } / = & = } m H U m M M M M t 9 } & & & & & . & = = } } 9 9 m M +.{.{.+.{.{.+.+.+.U U U U U U U U U H 8 3 ^ & & . . . . . . . . * . ; ; . . . ; . } } } 9 m m m m m m m 9 9 m m 9 m m M M M M M t t t t t t m 9 9 M M M M +.+.+.+.M U i T d+B.B.N.l+!..   @ @ . . & = 9 m M +.+.$.9 n n n n L L n L +.v v L v P n L n 9 n n n n n P P P +.+.{.{.{.+.L P +.L P +.L P +.L v P [ n } 9 - - 9 n L +.L v n L L L n L v L v v v n n v L v n v n n L v P v L L v v L L L +.M t M t t m m m m m 9 9 9 9 m m } 9 } 9 m 9 t 9 9 9 9 m m m 9 } } } / = = & & } } } 9 m 9 9 t n n F n n n n n n $.P 9 F P F 9 $.P v n P P L L ).P P v v P L $.+.L n n L P P L $.$.).).$.).6.6.!.).!.!.).6.6.).$.$.).).).$.$.$.$.P P $.$.P L $.G Q G k v L F F P L L [ M t } } . 9 M = n P ).+ G P P G P L G P ).$.!.Q i.< !.I G G L L [ + } 8.].W w.!.Q ' $.P k P k k ' k G [ k P k 6.k k k P L k P 1 k [ G ).$.Q k.k.$.).).6.!.!.Q Z !.Q !.!.e ' e !.Q z Q 5.k.A+(.I 5.(.A 5.2.A l+A ~.w.V ~.A V 2.@+].V i.].~.A i.i.2.w.2.i.Z 5.k.k.k.5.k.5.O.,+(.~.5.w.(.(.(.Z k.5.~.k.(.5.5.(.Z ~.(.I Z (.~.~.~.2.2.2.w.2.i.2.~.W ,.i.2.,.4.j.j.j.].V ].4.(.(.5.(.Z Z Z Z Z A Z 5.5.5.5.~.~.~.~.~.",
"U F U +.U {.{.P P $.).$.P L $.6.{.P L +.{.{.P v $.$.6.n $.v $.n v L +.+.{.{.{.{.+.{.+.+.+.+.P v M M +.M f ' = = ^ 3 8 l H H H l t t 9 } } 9 9 } U H H H m 9 m U +.+.+.+.+.+.+.{.G k 9 [ } = = = & & . . & & & & ~ ; . . . ; ; ; . * { 2 6 l l D 9 +.{.+.v v v n +.U U U U +.U U M M M m m M M t n n n n n F F F v L P L v v L P U U H H t t m m H /.c 0 B.B.B.4 b+7./ @ @   * 8 9 t M +.M L v v v P +.P P +.+.P L +.n v L v P n P v n v L P L L +.P +.+.+.+.P L +.v L P n v P n v L n n +.n L n 9 9 v P v n v v L n P v L n P L L v v n n n v L L v L L L +.L +.L +.+.L v v v n } 9 } m } m 9 m 8 8 8 8 8 3 8 l 8 l H H l H l l l l l H H H H H l H H H H l 8 ^ ^ ^ 8 H U H l H F P U U M F F F F $.F F ).).F P $.P P n $.v n 9 P f v v v f [ L n n n v v L L L [ [ [ 9 n P ).6.!.7.!.!.!.!.7.$.L P ).).).P $.).$.).Q G k Q $.$.Q $.Q G G L v F L v L v {.t } t ^ & } } } + m [ ' G k e L G e P z z < !.z !.[ e n ).[ [ & } > . j O.2.I 6.P 9 - P n n k.$.9 - - L v ' n n - v [ [ 9 ).[ v $.$.n k $.G + G k.e ).!.7.!.Q Q !.7.7.Z (.w.w.A 3.O.w.w.k.Z w.5.5.~.k.w.~.b d 2.W Z w.V w.w.w.2.4.O.w.R.i.i.W < i.~.w.5.w.5.5.w.(.5.Z ~.5.~.,+k.~.(.(.d ! I Z ~.I ~.i.Z 7.~.k.i.2.~.~.v.7.~.~.I W 2.W ,.2.i.,.,.w.2.,.].].].4.O.w.].4.2.I ~.Z 7.~.2.Z Z Z 2.i.2.~.2.~.Z I I Z ",
").).).).).P P P L +.+.P L L P L v $.$.P P $.P n t M +.+.+.+.M M P L L L L v v L t m m t t } } } + = } } } t +.+.t H m 9 U H 9 9 v v v v v v v v H l l l 8 ^ 8 H H H H H H l 3 ^ @   @ { @ @ @ @ ; ; . . ; ; ; ; . & & ^ & | 9 m P +.+.+.+.P P P v P +.P +.L v L n n n n v L L L +.n [ v P v L v F M M F F F F F v L L L v v v v U U U H 5 5 5 l U l ^ ; { * @ @ [ n n } - 9 F F +.P +.+.+.+.+.+.+.L v P +.+.+.8.+.P +.{.+.+.+.P P P $.$.$.).$.$.$.Q $.).Q G Q Q P P P P P P P $.P P P P P L n n ' v L v v n 9 v t t t t m m m m m m m t t m t H H U {.{.U t m m / = = = = / / / ; ^ ^ & & ^ ^ & ^ & ; ; ; ; ; ; 3 8 l 3 ^ 8 l H m m m m m t m m v n v L P +.L v n F F F F F F n n v v 9 P L L P L v v $.).P P ).6.).L v $.P f L L P n 9 n v P P ).f f L f L L L f v P f P ).6.P $.$.).$.).P $.P ).6.6.G ).).$.k k $.L ).P $.P P L $.L ).G P e G v L v L f v f v n L {.n } } 9 9 } = } } t } 9 9 L P $.f v [ [ P G P G ).6.$.e + 1 Q e z k [ P [ 9 & } t } n - 9 k k.6.> k k k k k.- t . m M = f e z z z z 5.!.k.w.5.w.3.O.q+q+E+V V V ~.A A i.i.A < ~.~.i.2.~.A ).~.,.2.2.i.~.d I 7.7.O.w.k.w.w.m.C+3.3.O.Z m.3.w.O.i.i.A 4.~+w+@+2.w.V w.w.i.@+~++ V w.O.~+i.w.Z i.i.7.I Z ~.~.Z j k.5.(.(.5.5.x A A ].V i.(.w.j.w.].4.w.4.j.4.2.k.Z (.k.5.G $.V 4.2.4.4.i.i.i.7.7.B !.",
"U U +.U +.+.{.{.+.+.P L L P P P L P P n n v v n t M +.M M M M t $.$.P P P v f v } } } 9 9 9 t +.M +.{.{.{.8.{.+.6.6.6.).).$.P ).$.$.+.{.{.{.{.8.U H H H l ^ & 3 ^ & . . . . . . .   . .   . * . & & 3 8 H H H H U M t M +.{.{.U P +.+.P v v v v L +.+.+.+.P L L L L L L L L v n n v +.+.v n n +.n F +.U F F F F v L P P L L v n m 9 ^ ^ 5 5 5 5 9 8 3 & . . { h n n n F F P U {.+.+.+.P +.{.{.P P L P +.+.+.+.P P L +.+.+.+.{.{.$.).).).).).).).).).6.6.$.$.).$.$.$.).).).$.).).$.$.).).$.$.P L v +.+.L v n n n t t t t t t t t m 9 9 m m m 9 m m H U U H t t t / / / / / / = = ^ 3 3 & ; & ; . & & & ^ ^ 3 3 3 & = = & & / } } t M U t 9 } 9 t L L L P +.+.+.+.U M F n n F U +.).P L [ L v L v v P P L P L n n P v L $.).).).$.L $.P P $.L n [ $.$.).$.$.L P f ).f v v $.v P ).).$.$.P ).P P G $.L e e P ).6.6.$.L ).6.P G e ).P G $.e $.G ).$.L P v P v L f f n n L ' [ 9 9 [ } = } - 9 = } } f v $.L $.L f $.1 [ 1 P P 1 e G Q $.e $.n L +.U M m U + P G ).Q - G > 1 $.k.k 1 e [ v m 9 +.= ' !.!.z z Q !.e e 3.(.A j j (.V (.~.i.~.W 2.i.i.2.W w.2.i.2.Z i.2.).~.2.w.w.w.2.Z 7.$.d A ~.5.3.k.5.~.w.k.5.w.5.5.w.V Z 2.A A Z < j 2.~+O.b+V A 4.i.w.].@+E+@+i.< I Z v.i.i.~.R.,+,+Z Z Z k.Z k.k.].V V 2.i.2.,+Z V j.4.4.4.4.w.j.i.i.Z A ~.5.Q d V 2.2.~.~.2.2.2.i.7.z z ",
"t m m 9 5 t M M v [ ' [ 9 n n n n L P $.$.P $.).+.+.+.+.L L L v f f f f v v v v +.P L L v v L {.+.{.{.+.+.{.{.+.L $.$.P P P $.).{.+.U t 9 | & & 2 6 6 6 2 ^ ~ ~ & & & & & & & & . ^ ^ & 3 H H H M M +.+.{.{.{.{.{.{.{.+.$.$.P P L L L L v v L P +.+.+.M M M t t n n n v L L L L L n P v L +.n v n F F n [ [ [ [ [ v P P L L v n M F m 8 5 / 5 5 3 ^ & ; ; ~ 6 l n 9 n F U U U {.+.{.+.v P 8.{.L {.8.8.{.{.+.L n v v L P L +.{.{.).).).).).).).6.$.).).$.P $.).P P $.$.).).).$.$.).6.6.).).P L L t t M t 9 9 m 9 t t t t t t t t t 9 } 9 m 9 } } } 9 9 9 9 9 m m t H M +.+.+.M t l l l 8 8 8 8 3 ^ & & & ^ ^ ^ ^ m m 9 9 m t t t t m m 9 9 m m m L P P +.+.+.+.+.F F n n n n F F P P ).v n n P L L ).).$.$.).P L P f L P f f v [ P $.v v P P $.$.v $.$.v ).L 6.$.).L v f v f v L ).$.).).6.).).P ).).$.).k P P ).,+P G 1 $.6.L $.).$.G $.L L G P P P v P L $.v v L n L [ n n n 9 } } } - } & } 9 f f v L P P f L e [ e G ).6.P G ).L $.[ & . {.l.).v 6.G e !.I I d ).k.$.k.I Q 5.,.B b L ).x.).I e !.z Q Q Q Q !.Z Z V A 5.(.5.Z 2.W ~.2.i.W 2.2.i.2.2.I w.W 2.i.k.~.,.w.i.V Z k.7.!.2.5.5.(.5.O.~.7.~.v.I I i.~.i.I Z R.< Z i.,+,+,.~.V 2.V i.~.A ~.O.A V ~.~.w.i.i.< d i.i.I ~.(.(.5.k.w.Z (.I ^.O.V W V 2.R.(.].i.2.].].i.i.V 4.2.i.2.2.(.Z Z Z 7.i.i.i.i.7.2.!.!.z !.",
"5 / = = = / 5 5 v [ - 9 n n n L +.+.+.{.P n n n f f v v L P $.).).$.$.$.$.P P P L L P +.+.+.+.{.+.+.+.P P +.+.L +.M t 9 9 } - = * * * ^ ^ 3 3 8 { 2 2 { * * { { & & ^ | 9 9 | ^ t {.+.M +.+.+.{.{.+.+.P L L P P P P P P G G G G L L L L L P +.+.+.+.t m t t t M +.+.+.+.+.P L v n n {.L n L n P P [ & & } [ [ [ n L +.+.L L L L 9 9 9 3 = = 5 5 3 ^ & ^ 8 8 8 3 9 9 n F P F F F +.+.P n v {.+.n L L L L L L L v L L +.+.+.+.+.+.P +.+.+.P P +.{.P P $.$.P $.).$.+.{.{.{.{.{.{.{.n v v L L L P P t m t t m t M m t t t m m m 9 9 t 9 9 9 9 9 } } } } } } } } 9 9 5 5 / / 5 5 5 5 t t t t t t t t U U U U U U U H M M M M M M M t t m 9 9 t M M M P P +.+.+.P L L F F P U U F F F v v ).).P n P L [ v L n n v n n L v P P f v P L ).).v n L L P P L ).P f ).f ).P ).).$.L L L L f k G ).6.6.).$.P L $.).$.[ k L G k L k.$.P P ).k.).k P ).6.G P ).P P v P v P L L v 9 L n n [ [ n 9 9 9 } } = } } 9 9 9 n [ v [ L [ e P k k P e [ 6.9 $.n t & > ^ e + !.i.Z Z 2.W A ~.A A (.5.~.5.R y y Q ).Q (.Z !.k.e z !.!.!.5.b+,+5.5.~.5.~.~.7.~.i.2.~.~.v.2.i.~.v.2.,+i.2.~.I d A i.w.,.~.k.7.!.~.5.w.(.3.3.!.!.Q e + < = !.1 $.+ Q v.v.+ 5.i.~.w.2.i.2.~.w.2.W i.i.i.W ~.i.I i.7.~.I ~.Z ~.d 7.Z ~.I Z ~.7.Z (.l+R.i.b I v.Z Z ~.Z Z 2.2.V ].].i.i.2.~.~.~.e $.).).5.).$.$.).Q Q ).",
"/ = = = = / / / L 9 9 L P L L +.t m t M M M +.8.8.8.{.+.L v v n +.+.+.+.P P L L t t M +.+.+.+.+.M M +.+.M t 9 } { * * * { { { { ^ ^ ^ ^ ^ ^ { * ~ 2 2 2 6 l H H m t M U U U F t +.{.+.P +.P L {.6.).).$.$.$.).).L k e G P $.P G L L L L L L L L M t 9 9 t M M +.L L P P L L v v +.n L 9 v {.v n n [ n U U F F {.v L L n 9 9 n n t 9 & & / / / ; & ^ 3 8 3 8 9 9 M {.{.{.{.{.{.U +.+.P L L +.+.L +.L L P +.P P +.L L P P v n v n 9 m M t t m t M P v L $.P P $.$.+.+.+.+.+.{.{.{.8.{.U t m m 9 } m 9 m t m t M m m m m 9 9 9 9 9 9 9 9 9 9 } } 9 9 9 9 9 9 9 9 9 t m 5 5 5 5 5 5 } } 9 9 m m t t 9 9 9 9 m t t t t t M M t t t t L P P P v v L P L P +.+.+.P L v F F F M U P F P ).n L $.).P P n P $.P P P v n L [ v f f f v v P n P L $.).P v n v $.P P 6.f ).L ).$.$.).$.L f f G G P 6.6.6.).$.$.L L k G $.).k 1 e L e L k L e P G L $.$.G k P L P L P f v f v v n +.v L n n n 9 9 } } } } } } } } } 9 = m 9 +.L 1 k G P $.L ).e 1 P 8.9 m . 9 e v.7.l+Z W 2.i.~.w.R.~.2.I 2.2.@+1.+ , z Q 5.(.5.v.Q $.!.!.!.!.5.5.w.5.w.5.5.5.7.7.7.I i.!.i.7.$.v.I !.d Z i.Q 5.i.2.O.w.w.2.I i.i.Z ~.k.(.w.k.v.!.7.!.7.,+B R.1 ).5.I v.).d R.~.A Z Z Z 2.~.2.W 2.W ~.O.W 2.W ,+C+R.! Z d ! I Q R.,+,+I d < !.5.5.E+,++ !.Q + d d Z Z d I Z Z ,.2.i.W Z 7.i.e k G k [ k G G G ).G 1 1 ",
"& = = = / } } } n 9 n L P v v +.+.+.{.{.{.+.+.{.{.{.{.+.M M M M H U U H H U U H U H l 8 8 8 3 ^ & & & & & . . . @   @ @     @ @ ; ; & ^ 3 3 8 8 8 8 l H H U U U m m m m m m m m n n n n L L L P n n v v v v v v L v v v P P P L v L L L L L v v 9 9 } } m t m m [ 9 n v v L L L v P 8.L 9 v v {.l+l.[ [ U M n [ n n n 9 [ 9 n n U F 9 3 / / = ; ^ ^ ^ ^ } m m m [ F P F n F F n 9 [ [ 9 9 [ 9 n L n n v n } - [ L n n n [ 9 n 9 } 9 m m m 9 9 m n [ [ F n [ 9 n t t t 9 m t M t 9 } & & } 9 9 } 9 9 9 9 9 9 9 } 8 8 8 8 8 8 8 8 } } 9 9 9 } 9 9 9 9 9 9 9 9 9 9 } } } } } 9 9 9 9 9 9 m m m m t m m m m m t m m t t M M M t t M P P P P L L L L v L L P P L L v 9 [ 9 F U M F F ).n n n P L $.$.).$.P P $.v n P L 6.).P ).).P ).n L v P ).$.$.$.v v v L 6.L ).).v $.$.).P $.L f $.L k $.6.k.6.6.6.$.).).6.$.$.L 6.).P $.P e L L L ).G ).' P 1 e f v L $.v v f v L n P v +.L v n m m } 9 } 9 } } } & } } & } } m 6.P G k P $.e ' Q e 1 Q P ).[ [ e e e , ~.2.~.~.Q i.I $.< i.$.!.1.v.W v.).k.5.(.Q 5.5.k.!.!.!.5.~.2.~.~.I 7.7.,+).$.).5.5.I ).5.d 5.Q 5.1 Q k.Z Z I A O.4.,.~.k.!.!.I Z 5.Z 3.(.!.Q z 7.!.7.!.$.i.k.R.i.i.~.2.~.~.Z Z i.Z ~.v.2.~.W i.,.R.,+v.I I ~.~.Z ~.~.~.Z I 7.i.!.d I 7.v.E ' Z l+z ,+).k I d I Q I d I I I !.7.Q z $.$.[ 9 n [ - [ 9 [ [ n - } - ",
"} } 9 9 m m m t L L L +.+.L L +.f t M +.+.+.M M l l l 3 ^ & & & 3 2 ^ ; . . . . * .   . .         . . . . . . * ; . ; 8 3 8 H U M M M M M M M M +.+.M M M m 9 9 U U M F t t t F t t t m m t m } m t t M t t m m m F M t m 9 m F v L L L L v v n } 9 } } 9 9 } 9 P P P P L L L L L L L v v L L L n F +.{.+.P U {.P P L L L P P L | | | ^ ; = / 5 3 ^ & } m M L n F F F F F F F F v v L L L L P +.n n n v L v L P +.L v v v L L v m m m t m m m t t 9 m t m m m 9 t t t m m M M m U F m m m t m m m H t m m m m m 8 8 8 8 8 8 8 8 9 } } 9 9 9 9 m } 9 9 9 9 9 m m } } } 9 m t t t t t t M M t t M M t t t t t m m v n n v L v v v P v n n L P L v L v v v L L L v n [ [ F +.+.U U P P $.n L v $.).).$.P $.).P L $.L $.$.L $.).).$.6.6.P L P v $.).).P P v v v $.$.P 6.).).P 6.).P P G 1 G L ).).6.$.$.).6.6.P G P e e G $.P P G P P $.6.G $.L 6.).f L L $.v L v P v n L 9 n 9 [ [ 9 m 9 9 } m } } m = 9 } } } } - ' P $.P P ).6.$.Z ~.i.$.5.z ' ' P e 6.z 1 $.Z 2.5.!.z e z $.z e W 7.1 ).$.k.!.W 5.!.!.5.!.5.!.Q $.!.$.I Z d $.!.z $.k.5.z z 5.z z Q z Q e z $.!.).Z W q+2.V Z k.$.Q ~.(.k.O.Z j !.!.7.i.Z Q 7.!.Z O.~.~.2.w.2.O.Q !.I I 7.d $.7.i.W i.i.!.W !.v.~.7.I Z Z ~.d d Q e + + e !.7.b - ' 1 Q - ! [ n k k 1 G $.G Q Q ' e P $.[ = = - & | | | | & & . = . 9 = ",
"P P $.$.P P P $.+.+.P +.+.P P P M M M f } ' = + . . . . . . ; ; . * * * * * * * @ @ @ @ @ @ @ @ @ @ { _ _ _ _ 6 6.P v P P $.$.L +.+.M M M M M t P n n v L v L +.t t t t t m m m m m M t m +.+.9 M M M t t m t t F t m m t M M M P P L v n n [ } 8 8 ^ ^ 8 l H U v v L L v v v L v v 9 n v v v n +.U F n n U U F P P L L L v n [ t 9 & & / / / = ; 8 H t t t L L F n n F F F F F v v v v L L L L L P P L L P +.+.L n v L v L L n M M M M M M M M t M M M t U U t m t m 9 m t m 9 9 9 9 9 9 9 9 9 8 H 8 3 l l l H 8 8 8 8 8 8 8 8 m 9 } 9 m m m m m m m m m m t t M F m m m m m m M t t M M t t M t t t t t M t t +.L v L P L L v P P L v v v v L +.P L L L P L L U [ & > 9 F M +.$.6.6.P ).).$.P ).$.P $.).$.L P ).$.$.P v ).6.P L $.P $.).L P $.L L $.P f $.).).).$.L ).P L v ).P $.L P e G L ).).6.$.$.P ).G P L L ).L k 6.P ).P L P $.P e G ).).).$.$.v L L $.L +.8.L n [ 9 v } m } 9 & 9 } 9 M } t m t t M m L G ' 1 e [ G e ,.i.2.Z 2.7.$.!.).[ e k.).z ,+d $.e z L 6.P L L Q Q 1 P L z $.!.5.!.5.!.1 Q Q $.!.7.< I $.I Q d z Q z Q z 1 1 1 e R.Q k.Q !.!.!.5.~.j ~+A ~.2.5.!.!.R.k.(.O.V k.Z ~.~.7.~.~.i.i.i.4.i.i.V ].O.4.v.$.v.7.7.d 7.v.!.i.!.< !.i.I 7.v.i.i.~.Z I Z d !.Q , 7.Q b !.e k - $.!.b ' [ } e $.k Q G - e e f P M t = / & & & 9 9 | | & & | = = t = ",
"{.+.+.+.{.{.+.+.+.M M m m } - & @ @ @ @ @ @ @ @ * * * * * * * * ; ; ; ; . . . . . ; ; ; ; ^ 8 l m m m m m m m t t t t M M M M +.t m M m +.{.} 9 m F M t m m m F M m m t U U M t v v v L L L L L t t m t t t t t t t M M t t t t H t m m 9 } } } / } 9 m H H H t t t H H t m m m t t m 9 m t U U +.+.M t t M +.M +.M M M m m 9 | 2 ; ; ^ 3 3 ^ & } 9 m t M M M t M M M M M M M M M M M +.+.M t t L L L P +.P P L L v L P L v L P t t t t M M t t H H H H t m 9 9 m m m m m m m m 9 9 9 m m m m 9 3 8 l 8 8 8 l l 8 8 8 8 l l l 8 m m m m m m m m n F F F n n F F v v v v L L v v v L L L v v v L v L L L v v P +.P P L v L P P L L L L L v v L L v L P P P P P P v v v v n n n n v L L n 8.+.L P +.{.+.+.+.+.+.+.+.+.+.P +.+.+.+.{.+.+.{.8.{.+.L 6.k.).$.$.P P $.L +.L L +.+.L 8.+.L +.{.{.L v L P ).).$.P $.P L P P v n v 6.v L n P L $.v $.$.).P v v P ).).P L P P $.).L v v f e G e 1 e k e e = } - 9 } 9 = } f f = f - v f v 7.v.~.j Z Q Q k.Z ~.5.v.1 Q 6.L $.1 G G $.G G ).!.Q 5.5.$.v.z k.Z d Z R.Z Z 5.Z Z (.Z 5.Z 5.Z Z d 5.5.d (.d Z k.!.z v $.G 1 Z Z + 5.- @+t.4., A 1 ' I 1 1 5.2.< d 1 d - < < i.y Q Q G d 5.I Z 2.O.W 2.i.~.~.j W ! j W 2.i.2.i.w.Q 1 ).G ).I d < M ;.f ' ' 9 M = G 5.Z 1 j Z E i G ).G e P G [ L n L t } & & ^ * ~ ; ; ; ~ ^ 2 2 ~ ; . ; ",
"m m 9 } } = & & . .     . . . .   . . . * * * * * * * { { { { { ^ ^ ^ ~ ~ ~ ~ ~ & ^ ^ ^ ^ 3 3 8 m m m t t t t M M M M M M t t t F 9 m } m U m U m m m m m t t F m m F M F m m m L L L L L v v v M M M M M M M M t M M M M t t t m m 9 9 } } } 9 9 9 m t H U H H H t t H t m m m 9 m m m t U U U t M +.+.+.+.M m M t m m 9 9 | | ; ; ~ ^ & & ^ | m t M M M +.M M t t t t t t M M M M M +.+.M M M L P +.+.P L v v L v v v L v v L t t t t t t t t t m m m m m m 9 m m m m m m 9 9 9 9 9 9 9 9 9 | 3 8 8 8 8 8 8 8 9 9 9 9 m m m 9 m m m m m m t t F F F F F F F F L L L L P P P L v L L L v v L L L L L v v v L L P P L v L L L v n v v v v v L L +.+.P L v L P +.P P L L L L L v v v v n +.v v L n n n v L v n L v v n n n L L L L v v L P P L L n P L L $.v v n L +.+.P +.L n L P n n P P v n n L L L v L L P P v L v n n $.n v L $.P P n n 9 n P v f v P P P P f [ f v f v v f k P L k k k e e 9 } m } +.m t 9 [ [ [ [ ' [ } [ b ! I 5.(.k.1 $.].V (.k.Z $.z z k.e - z Q ' ' e Q !.!.!.k.5.1 5.R.(.v.Z (.Z I Z 5.Z I 5.(.Z I Z Z I d d k.Z (.,+!.Q !.k.).d A 4.5.V V ~+A 2.i.~.k.i.Z (.5.v.(.k.k.).R.5.7.$.!.v.k.Q $.5.Z Z 7.Z i.Q 7.7.Q !.I !.v.v.i.Z ~.d d ,+l+Q Z ' 1 !.!.z f f f f [ [ [ P f f !.!.Q Q ).n 9 n 9 [ 9 [ [ n n [ = . . . ; 3 ; . . ; ; ~ ^ ^ ; ; ; ; ",
". . ; . . . . ; @ @ @ @ @ @ @ @ ; ; ~ 3 6 6 l l D D D D l l 6 6 ^ ^ ^ ^ & ; & ^ & ^ 3 8 l l l l m m m t M M M M M M t t M t m m m 9 m m 9 9 m F F t m m F M F t t t F M t m m t M M t t t m m m m m t t t t t m M M M t t m m m 9 } } } } 9 9 m t t t t H H H H H t t t t t m t m m m m m m m 9 M M M M M M M t m 9 9 } | | | | . ; ^ & & & 9 F t M M t t M M t t t t t t M M M M M M +.+.M M M t M +.+.+.M M M t t t m t M t m m t t t t m m t m m m 9 9 9 9 9 9 9 9 9 9 9 9 9 9 9 9 | 9 9 9 | 3 8 8 8 8 l l 8 m m m m m m m m m m m m m t t F F F F F F F F F P L v L P P P L L L L L v v L L L v v v L L v v +.+.P L L P L L v L L v v L L v L L P P P P P P +.P L L L P L L L v v n L n v v L n v P P n v +.v L v v L L L L v v v L v v v L n L n L P L L P n v L L L L v n P n n v L v n n v n n n n n n v n L L v n L 9 n n v v P v L v L L v L P P L v L ).P P $.$.$.P v k P $.$.$.$.$.).v v n v P +.L L P L v v P P P L e $.l+l+Z Z ' $.A V w.w.j 2.i.i.6.).).e 6.l+).+ e ' z z e Q !.e d d 5.5.v.(.,+(.d 5.k.(.Z (.(.(.(.Z Z Z 5.I I Z 2.2.7.$.k.w.].].w.].4.O.V ~.e e A j ~.~.).1 k $.6.$.k.$.6.$.e 7.).).G $.$.Q I d 1 z Q e G R.5.Q v.$.6.).e ).).1 0 0 7 W !.! e f ! f L [ [ v 9 [ f M B B f f f m v n v v [ 9 v v | & & 9 3 & & 8 ; ; ; ~ ^ 2 2 2 2 2 6 6 ",
"{ { { * * . * * * * { { 2 6 D D H U U U U U U H l l l 6 6 3 ~ ~ & & ; ; ; ; ; & } } 9 t t H H H m m m t F t m m M m m t t t m m 9 9 t +.m } m 9 M t m m F F t m U m 9 9 m F F F F F t t t t t t t t H H H H t t t t t m m 9 9 9 } } } } 9 m m t t t t t t t m m m 9 9 m m m m m 9 m m t t t t t t t t t t t m m 5 5 3 ^ ^ ^ ^ ^ & ; & & 9 F F F t t t t t t t m M M t M M M M M M M M M M M M M t M +.+.M M M M t F F t t t t m m m t m m 9 m m m m 9 9 9 9 9 9 9 9 9 9 9 9 9 9 m 9 9 9 9 9 9 9 9 9 9 9 m t t m m m m m m m m t M t t t t M M M F F F F F F F F L L L L L P P P L L L L v v L L v v v L L L L L L P P P P P P L L P P v v L L n v v L +.+.P L L P L v v L L L L P v L P L v v v v n v P L n n v n v L L L L n n P L L L v n v L n v n v L n L P n n v n n v L n P v n L P L L L $.P v L L v v L n P P L L L n v L L L P L P L L v v P $.P L L P P L P $.$.).).$.P $.$.$.P L G L P +.n P L +.n v P P P P L P P $.!.$.k.k.Z I !.W w.V 3.A O.i.W W Q $.Q 5.Q 1 e $.Q !.!.z Q $.Q z 5.Z k.5.I (.(.I Z k.k.d 5.,+,+v.I Z (.Z (.(.5.k.2.2.~.Q 7.2.A w.@+j.@+w.V I + 9 ].V A d e P v } [ 9 9 - v 9 n v L k ).).Q I k.Z ).1 1 ' + e ' e v P + 9 n + [ [ 0 1.b+,., ! L } , - L L e = - P f !.Q b Q $.f 9 9 9 m 9 } } m 9 ^ & 3 H H 3 & 8 3 3 2 2 2 6 2 2 ^ ~ ^ 2 ",
"* * * * * * { 2 m t M M M +.+.{.U U H t m } } = ; ; ; ; ; ; ; ; & ^ ^ ^ ^ 3 8 8 H H H H H H H t t m m t t m m m m 9 9 m t t m m F m m M 9 9 M F m m m m m m m m t 9 } } m m t t t t t t t F M M m t t t t t m m m m m 9 9 } } } } 9 9 m m t t t m t t t m m 9 9 } / / } 9 9 9 9 m m m m 9 9 } } } 9 m t t 9 } = ^ ^ ^ ^ ^ = = = = & & | m U M t t M M M M M M t M M M M M M M M +.M M M M M M M M M M t t t m m m t F t m m m m 9 m m m 9 9 9 m 9 9 9 } } } 9 9 9 9 9 9 9 9 9 9 m 9 9 9 9 m m m 9 m 9 9 m t t m t m m t t m m t P L L L L L P P F F P U F F F U L P P P L L P +.L L L L v v L L v L L P P L L P v L P L L L L v n n v n n v v n +.L L L L v v L L v n n v L L L L L P +.L v v v n n L P n n v 9 n v v v v v v n L v v v v n n v v L v $.P v L n L v v v n v L v L v v L L L L L $.P L P P L v L L P P L P L L L $.P P L L v v v L L L L L P ).6.v f v L v v L v ).).).).6.).$.).P P $.v ).L P L P 6.6.6.G P L ).v f G I d b Z !.5.R.A+O.A V ,.W 7.I !.$.!.v.I Q v.!.$.!.5.!.1 z Z I d ' 1 Z 1 I I (.(.d Z Z Z Z (.(.5.5.(.I Z (.W A d ! I V V ~+O.4.O.].j d e ,+t.O.2.+ ).$.+.9 = - } - } = m t [ - . + e G ).I 1 P v.k.e L G e - x.9 . - . - 9 $ @+@+7.R.B v ' - e Q Q ).G Q - I A 3.O.O.R.k.[ & 9 9 ^ ^ & & ^ ^ & & ^ & & & ^ ~ ~ ^ ^ ^ ^ ^ ^ 2 ; ; ; ",
". ; ^ 3 8 H U U $.$.$.P L z z e } } / = & & . . & & ^ ^ ^ ^ ^ ^ } } 9 m t t H U +.+.M M M M M M M t t F F t m m m m 9 m t t m m F m m 9 } 9 m m 9 9 m m 9 9 m m 9 m m m m 9 9 m m m m m m m t t 8 8 8 8 8 3 3 3 3 3 3 3 ^ ^ 3 3 9 m t t t t t m m m t t m m 9 9 } } } 9 m m m m F m m 9 } & & & 3 ^ 3 8 8 ^ & & * * & & & = ; ; = 5 m m m t F F t t M t M M M t M M t M M M M M +.M M M M M M M U H t m t t t t m m m m m 9 9 m 8 8 8 8 8 8 8 8 } } } } } 9 9 9 9 9 9 9 9 9 9 9 9 9 9 9 9 m m m m m m m m t t t M t M M M t t M P P P P P P L L F F F U F F F U L L P P L L L P L L L v v v L L L P P P P L L L L +.+.P L L L L n n n v v v n n L v v L L v v L L v n v v L L v v L v P L L n n v n P P v L +.n L L v v v P +.+.L v v L L L L L P $.P $.P L ).L L L L L P P L L n v L v v L L L L v v L P P L L L P L v $.L P L P L L v P P $.$.$.P P P P P ).).).$.).$.v f v f e k G L $.$.$.).z P $.P !.$.$.$.G Q G ).G ).k k +.+.$.d A '+~.7 G G d I Z 2.I 2.I d ! Z ~.Z I d !.Q v.k.' ' e 5.Z (.k.k.k.(.5.k.k.(.Z Z R.k.(.(.I Z (.Z Z I d ' A I Q z ).~.< j - < 4.A V W Q v.,.v.I !.= $.n +.L - [ 9 9 [ & | [ 6.9 k $.).G ).$.e $.k.e e $.R.v.[ $.v.).P L 9 t.W ,.I !.! $.l+A+,+7.5.5.' I $.(.A Z m.O.k.Q > . 3 ^ & ^ ^ & & { { *   . & & & ; ; ~ ~ ~ ~ ~ ^ 6 ~ ; ~ ",
"t t t t t t t t 9 9 } } } } } } & & & & ^ ^ ^ ^ ^ ^ ^ ^ 3 3 3 3 9 m t H H H H U M t t t M M t t t m t t t m t F t m m t t m m m m m F } 9 m = } 9 9 m m 9 9 9 m 9 m t t m 9 9 9 9 9 9 | | 9 9 9 8 8 8 8 8 3 3 3 ^ ^ ^ ^ ^ 3 3 8 m t t t t t m m m m t m m m m m 9 9 m t t t m t m m m t t m m t 8 ^ & ; ; ; & ^ * * * ; ; = = / } t U F m F F F m t t m m t t t M t t t M M M t M t t t t m t t m m m m m m t t U m | 9 m 9 9 m 8 8 8 8 8 8 8 8 9 9 9 9 9 9 9 9 m 9 9 9 9 9 m m 9 9 9 m m m m m m t t t t t M t P L P $.P L L P P P P P P L v v F F F F F n F P L L L L L L v v P L L v v L L L P P L L L L L L P +.+.P L L L L P L L P P v n n n n n P +.L L L v v v v v v v v v P n L L P n v L 9 n L n v P n v v n n v L +.+.+.P L P P P P P L P L v n L ).L v v n L {.P v +.v L L v L P P L P P P $.$.).$.P L P v v $.n P v $.P $.L $.L $.P $.$.$.).).$.P P P P $.$.P P $.$.P $.$.$.$.P P ).v $.z !.L !.L $.Q Q G ).).5.$.Q 9 v $.d Z A+v.I . . ).' G d v.v.i.~.i.~.Z ~.I ~.5.v.5.z 5.!.z $.(.d R.5.Z (.(.k.v.k.Z ' I d d (.(.5.Z 1 1 I I 1 I < [ e 1 1 ~.O.1 A b+~+j.i.R.Z !.b [ z ' e 7.$.!.L [ f $.v > > > U 6.x.' [ $.).7.i.!.!.Q !.Z Q 6.Q 6.6.Q 6.).$.I !.!.!.z + = 5.d ~.v.~.Z d (.(.$.G - ' G - . ; . . . . . & ^ . @ * * * * ^ ^ ^ ; ; ~ ; ; ; ~ 3 ~ ; ; ~ ",
"t m m m m m 9 9 l 6 ^ ; ; ; ; ; ; ; ; ; ; ; ; ; ^ ^ 3 8 l l H H t M M M M t t m t t m m m m 9 } 9 9 m m m m m M m m m t t m m t m m U } 9 U } m m m m m m m 9 9 m 9 } 9 m m 9 } 8 8 3 3 3 3 3 3 3 ^ ^ ^ & & & & 3 3 3 8 8 l l H t t t t t t m m m m m m m m t t 9 m t H t m m m m m m F F t m t 3 ^ ^ ^ ^ ; ; ; * * * * ; = / 5 t +.+.M t F F F t t t m m t M t t m m m t t t m m 9 9 9 9 9 m m 3 8 l 8 3 ^ 3 8 {.8 & 3 l 8 8 l l 8 8 8 8 l l l m m m m m m m 9 9 9 9 9 m m m t m m m t t t t m t M M M t M M M L v L P P v v L P P P P L L v n U F F F F F F F P L L L +.+.L n P P L L L L L L P L v v L P L L v L L L v L L L P v v +.+.L v L +.v n v L v L P L L P P L L L L L +.n L +.+.n P {.n n P n v P L n v L L P +.+.P +.L L L v v v L n L P P v P ).n L L n v +.n [ L L L v n L +.P v $.$.P L P $.P v v P v v $.9 L v L L $.L $.P ).$.$.P L P $.).).$.P P $.$.P P $.$.P $.).$.$.L P ).Q Q Q e Q z z z k G Q G G G Q $.+.M $.Z A ~.2.0 F U F k.G e 1 I d Z 2.I I Z Z d e Q !.!.k.e $.z Z Z Z d Z Z I Z Z Z d d 5.5.5.v.(.(.Z I Z d d Z $.e [ = + k 5.(.- v.l+j.w < A < [ f L L $.! B b b v.1 e ).k G [ 9 > . [ k k Q k j ~.A j ~.2.I ~.Q $.e ' 1 Q Q z k.$.5.k.I k.Z 7.j W w.A Z (.(.Z l } } } . . # @ * . * * . 3 D * @ @ . * * & ^ 9 ~ ~ ; ; ; ; ; ~ 2 2 6 6 ",
"l l 8 8 8 8 3 ^ ; ; ; ; ; ; ; ; & & & & ^ | | 9 9 9 m m m m t H t t m m t t m m t t m m m m m t t t t t t t t t m m H U t m 9 m m m m m m 9 m m m m 9 m m m m 9 m m m 9 9 9 m m 3 3 8 8 8 8 8 8 3 3 3 ^ ^ ^ ^ ^ } 9 m m m m m m t m m m m t t m m m m t M M M M t M M t M M t m n m t t m 9 ^ & ; ; ~ ~ ~ ; ; ~ & & ^ 3 8 8 l U U U M M M M t m t t H H H t t m l l l l l l 8 8 l 8 8 8 l l l 8 8 8 8 8 8 ^ ^ 8 5 / 5 5 5 5 5 5 8 3 3 8 l 8 8 8 / m m 5 m m 5 m m 9 t 9 t m M m F F F F F F F U +.+.P L L P L v F F F F F F F n F M n F F n U U F F n F F U U F F F {.+.F F F n M F F F F F P P {.+.U P F F F F L L v n n L P P v n v n n v L n v v n n n L L v L P n L v 9 +.v [ L +.L {.n [ L L L n n n v n 9 n n n v v v v v n v v n n v n [ n +.n +.v [ +.9 v v v v L v n n L n v +.+.L v +.L P +.L P {.L L P {.{.L 9 v +.{.+.P v n L {.{.L v L $.$.P P P v - [ $.L P P ).L P v P $.).).P $.$.).$.G L $.P k P P P P P L v L P L $.P P L f L Q Q Q !.$.Q Q $.5.!.Q Q $.!.$.Q P f f L $.' v $.Q b Q !.!.7.i.!.d !.$.Q 7.d + Q I ! I $.I 7.d I 5.5.G k P P L $.v.7.O.w , i.5.k k G k [ $.9 } } t } - } t - } } + = 1 6.G G ).G $.e ).R.6.e ' k n v [ [ ).Q ' $.).[ L 6.k.).$.Q !.$.z e k k v L 9 > | & 3 ; ; .   * . . ~ ` {.H ; ; ; . . . . . ~ ; ; ; ~ ^ ~ ; ^ { { * ",
"l 8 8 3 ^ ^ & & ~ ~ ~ ~ ~ ~ ~ ; & & ^ | | 9 9 m m m t H H t t t H H t t t t m m t m m m t t t M m m m m m t t t t m t t t 9 9 m 9 m m m m m m m 9 9 9 m m t m m t F F M M F m m 8 8 8 8 3 3 3 3 3 3 3 3 3 8 8 8 m m t t t m m t m m m m m m m m m m m m t t t t t M M t m m t t t t t m m 8 3 ^ ~ ^ 2 3 ~ ~ ~ ~ & & 3 8 l l H U F t m m t t m 9 m t t t t m m 5 l l l l l l l 8 8 8 8 8 8 8 8 3 8 8 3 8 8 8 8 8 5 / / 5 5 / / 5 8 8 8 l l l 8 8 9 t m m H H t t t t M m M t M t F F F F F F F U P P L v L P L L P F F F F F F n F P n F F 9 F F F F n F F F F n n F F P F F F n U F F F F F F F n n n n n n F +.v v v v L L L L n n v L n v v 9 n v v n L P P L n v 9 L L n {.L +.v L 9 n n L n n n n n v L v n n n n n n v v v v L L v n v v 9 +.v L P L P L P L L L L L L L v P v v P P v v L L P +.P +.{.P +.+.[ P v l.P 8.8.+.+.+.+.v v L L ).$.P L v P P v n v L P v L P v $.L L L P $.L P $.).).P P $.P L L L v v L v f v f f P $.P P v P L L L $.$.P P $.G G G Q Q Q Q G v f L f f f ' f b 7.v.Q Q Q $.z I i.7.$.! I Z Q I !.!.$.I I I 7.).z $.Q z P v [ ' 2.~+].A Z Q ' > k > & 9 } & = . = +.= + 9 } M Q Q k G ' k G G e e [ G G k [ k n P $.6.).Q ' e 6.1 k L 6.6.$.[ e z G G P L n 9 9 | | & ^ . . . * * * ^ l ` ` ` H l 6 ~ ~ 3 6 6 3 ~ ~ ^ 2 6 2 ^ ^ ^ ^ { ",
"3 ^ ^ & & & & & ; & ^ ^ ^ ^ ^ ^ | | | 9 9 9 m t m m t t t m m m H H H t t t t t t t t t t t t M m m m m t t t t t m m m m 9 9 m 9 m m m m m m m 9 9 m m t t t t U M t m t M t m H l l 8 8 3 3 3 ^ ^ 3 8 8 l l l t t t t m m m m 9 m m m m m m m t t M M t M M M t M M t t t M M M t m 9 3 ^ ^ ^ ; ~ ~ ~ ; ; ; ; ^ 3 8 H H H H U m m m m m m m m m m m 5 5 5 5 5 l l l 8 8 8 l l 8 8 8 8 8 3 3 ^ 8 3 3 8 l l l l m 5 5 5 5 5 5 5 8 8 8 l l l 8 l 9 m m m U U t t t M M M M +.M M F F F F F F F U +.+.P L P +.+.+.P M F F F F F F F M F F F n F F F F F F F F n n F F F M P U +.F U M F F F F F F F F F F F F U {.n n v P P L v v v v L P v L L n v v L L P +.+.L v L n P L v +.L L n {.P 9 v 8.v v n n n L +.P v v v v v v L L L L P P L L L L v {.n n v v L n v L L L L P P L L +.L v L L v v L n n n L n +.n L +.L l.v 8.[ P 9 L n v +.+.P P +.v f v v v $.6.6.v v n P n P L L $.L L v v L v P L $.$.$.P P P P L L v f v v f f f f L L L L v P z e z P $.P P $.Q Q Q Q z z Q Q L P f f v ).$.f z ' Q $.e Q k.Q z $.!.k.5.k.k.v.z v.z e v.!.z e A+v.v.e - !.e e < i.2.V 2.Q e 9 9 F n M = . . {.P n L 9 [ P n +.G Q G G k k ' k 1 ' + G ).P = 1 - - ' G + 1 - e L k P 1 - ' 1 - v L m 9 9 | & . | & ^ & & . . . .   . { ^ ; ^ 8 H l 6 6 6 6 6 6 6 6 2 2 2 2 ^ ~ { { * * ",
"& & & & & & & ^ ; & ^ 3 3 8 8 3 9 9 m m 9 m m t t t m m 9 9 m t m m t t m m t H t t t t t t t t t t t t t t t t t m m 9 9 9 9 9 9 m m m m m m t 9 m m t H H t t U t m 9 m m t m l 8 8 3 3 3 8 8 } } 9 9 m m m m t t t t m m m m m m m m m m m m t t M M M t M M U H t t H U U t m m 9 | ^ & ^ { ; ; ; ; ; ; ; ~ 8 8 l H H H H H m m m m m t m m l l l l 8 8 l l 8 8 8 8 8 8 8 8 8 8 8 8 8 8 3 3 l 8 3 8 l l l l m m m m m 9 m m 9 9 9 m m m m m m t m m M U t m t +.M +.t +.M M F F F F F F n P v L v v v L P L F F F F M U F n F F F F F n F F F F M P F F F F n 9 n n n F F [ F F F F F F F F F F F F n n n F n n v +.+.L n v L L L L v L +.L L L L L P +.P L +.+.L +.P v +.v n 9 {.{.L L {.v L v v L P +.L v L L v v v L L L L P +.L L L L v +.+.n +.+.v {.L L L v v L L L L +.+.L v L L L v v v n P n L n n v n v v 8.l.8.v P v L {.+.P L v f L ).$.v L ).).P v n P v P L L L v P L L L v P G G L P L L P L P P L v L L f f L n v n n n n v f f f v L L v L $.$.$.L G G L P $.f P [ f v.v v v ' e z e + e !.e $.).+ e = e $.Q z e e z z k.1 I I + !.5.+ ' z j ,+2.2.I 1 ' n M {.9 = = +.m / n n [ $.n - [ n 1 + ' ' e e ' $.[ ' + P ).L + - n - + L 6.R.k.!.P k $.v n n v n m m ^ . . * * * & & & & ; ; ; ~ 8 { * { ^ ; ; 3 6 6 2 3 ^ ~ ; ; 6 2 3 ^ ^ ~ ~ ; { * * * ",
"& & & & & & ^ ^ 3 3 8 8 l l l l m m m m m m m t H H t m m t H U m m t t m m t t t t t t t t t m F t t t m m m m m m m m m m 9 9 m m m m m m t t m m t t H H t t m t H H t m 9 } 3 ^ ^ ^ ^ ^ 3 3 m m m m t t t t t t t F F t m m t t m m m m t F m m t t t m t M H H H t H H t 9 9 | ^ ^ & * * * ; ; ; ; ~ 3 6 l l l l l l l l l m m 9 9 m m 9 9 8 8 8 8 8 8 8 8 8 8 8 8 8 8 3 3 8 8 8 8 8 8 8 8 l 8 8 l l l l H } 9 m m m m m m m t t t t t t t m M M t M M F F t +.M +.t +.t M F F F F F F F P v v v v v L L v F F F F F F F n n n F F F F F F F F F F F F F F F F U U F F F n n n F F F F F n n n n F F F n n v n v +.+.v v L v v v v n L +.P P L L L P P L L L L L +.P L +.L +.v L v P L P n L v v v L L v n L v v n n n v v v L L v n n n n [ v n L n n +.v L v v v L L L v L P L v L P L v L v n P 9 n n n n n 9 P [ } - n n v {.{.L n v L P $.6.).L v P P ).L P L P v L n f f P L L L L ).P G G L G L P L P $.P v P P v f $.v v n n v n v n 9 9 n n n 9 [ k k G G L G G G f P f f - f f [ k.P e [ z e z 1 6.e ' e v.z ' 1 Q Q e = e ' 1 e + Z i.I z !.Q !.V @+Z z - [ P L } + . 9 9 = = t $.6.G Q 1 - 1 1 z e 6.6.$.G [ ' e e 1 [ + k L G v $.P 1 1 z ).R.).e P ).$.} = & 3 8 ^ . * * * * & & * { * * * ~ l 3 * { 6 6 8 3 H 6 ~ . . . . . ~ ~ ; ; ~ ~ ~ ~ ^ ^ { { ",
"& & & ^ ^ 3 8 8 m m m m m 9 9 9 9 m m m m m t t t t H H H t H H t t t t m m m t t t M M M M t t t t m m m m m 9 9 m m m m m m 9 m m t t m m t t t t t t t t t t t t t t 5 5 / / ^ ^ ^ ^ ^ 3 3 8 m t t M M M M M m m m t t t m m t m m m m m t t m m t t t t t t l H U H 8 ^ ^ 3 | ^ ^ ^ { ^ * * ; ~ ^ 2 2 6 l H H H l 8 8 l 8 8 8 8 8 8 8 8 8 8 8 8 8 8 8 8 8 8 8 8 8 l 8 8 3 ^ 8 8 8 8 8 8 8 8 8 8 l l H l H H } m m m m m m m t t M t t t t t t U M t F F t M M M M M M M M t F F F F U F F U P P P L L P P L U U F F n F F F F n F F F F n F F F n n F F F F 9 n F F n n F n F F F F F F F F F F F F U U P F L v v L L v v L n n L L L P +.L P L v L L L L L v v L P L L P L +.L L n +.n n v L v v L L v v v L L L v v v v v v L L v n n n n n v 8.P n +.v L L L L L L L L L L P P L L P P P v v v L n n P n +.n 9 n L P L n ' [ v L n n v L $.P P $.P $.$.P P n L n P v L 9 f f L v v P P ).$.G L G e L $.G v P L v L L f f F n n n F F n n n n n n n n 9 [ 9 9 n n v v v v P f ).f ' v + f P v 6.).f f 6.).6.6.6.P + 1 P G P [ e 1 P ).G e (.A (.i.7.7.i.v.~+2.+ ' P M {.[ + = f $.P e e G e 1 z $.Q z ' 1 [ 1 z [ - e Q e $.P P $.[ G ).).n v n [ e e [ Q $.+ ' n m & | l 3 8 & . * * . * * * * ^ . .   * .       ; 2 ^ . 2 ~ ; ; ; ; ~ ~ ^ ~ ~ ; ; ; ; ; ^ { { * ",
"& & 3 8 8 l l H m m 9 9 9 9 9 9 m m m t m m t t m m t t t m m m t t m m m m m m m m t M M t t m m m m m m m m m 9 m t m m m m m m t t t t m t t H t t t t t t t t 5 / = = = / / ^ ^ 3 3 8 8 l l t t t M M t t t m m m m m m m 9 t m m m m m t m M M t t t t t m 8 l H 8 ^ & & & ^ ^ ^ ^ { { { * ; ~ 2 6 6 l l l l l 8 8 8 8 8 3 8 8 8 8 8 8 8 8 8 8 8 8 8 8 8 8 8 8 8 8 l 8 8 8 8 8 l l 8 8 l l l l l H H H H H m t F t m t F t m t M t m t t t F P F n F F F F M M M t M t M t F F F F U F F U L L L v v v v v U U M F F F F F F n U F F F n F F F F F F F F F F F U U F F U F F F F F F F F F F F F F F F F n L L L L L L L L L L P P L P P L P L L P P L L L L v L L v L L v n L {.P P n L +.L L L L L v v L P P P P L L L L L L P L v v v L L n {.L 9 L [ n L L L P P L L v L P P +.P P +.+.P P {.L L v 8.v 9 L +.n n n L n L 9 n L v 9 n n $.P P P P $.$.f n n n n n L P n L f v v L P L P P G P G 1 G $.G f L L f v L v f n 9 n 9 n F 9 n m t t t m m m m L v n 9 9 n L P P $.P $.).L P f 9 L n n 8.v } +.k 1 k $.' G $.$.6.6.).G k G 1 G O.Z 2.~.Z i.!.!.@+].I $.8.& & . ' f ).R.).1 1 k.I d I I I Q k.l+B !.!.Q Q < b < [ ' ' G [ - + ' - - [ 1 ' e $.v.,+$.G 9 m 9 ^   & & . . . { { 2 * * . { . * @ @ * * * * ; ; ~ ^ . . ; ~ 2 2 ~ ; 3 ^ ~ ; ; ; ; ; { { * * ",
"8 l H H l l 8 8 m m 9 9 9 m m t t t t t m m m m m m m 9 9 9 m t m m 9 m m m m m m m t t t m 9 9 m m m m m m m m 9 m t m m m t t t t t t t m t t H t t m t t H H 5 / = = = / = = & ^ ^ 8 8 l H H t t t t t m m m t t m m m m m m t m m m t t t m M M t t t m m 9 l 8 ^ ^ 3 8 3 ; ^ ^ ^ * * * * * ~ 2 6 l l l 6 6 3 8 8 3 8 l 8 3 8 8 8 3 3 3 8 8 8 8 l l l l 8 8 8 8 8 8 l l l l l l l l l l l l H l l H U H l 8 m t F m m m t t t M M t t M M M P P F n P P P P M t M 9 M m M m n F n F P F F P L P P L L L L L n F F F P M F n F n P F F F n F F F F F F F n n F F F F n F F F F F F n n F F F F F F F F F F F L L L v v L L L +.P L L n v L v +.P P +.+.L v n L v P L v P P L P P {.L v v +.v v v L L v n n L L L P P P P P P L P P P L v v L L v L +.P L P L L L L L L L v n L L L P L v L +.L L {.v L n 8.n P L v +.+.L n n n [ v {.P n +.l.f v P $.$.$.$.L L P n v 9 $.P L P v L P $.).v f L L $.L [ G ).G f L L f v L L L F n F 9 [ 9 9 F 9 m m m m t t t 9 9 9 9 [ 9 n v f L ).P $.f v f v L +.L +.n 9 n n P v [ 9 n n v [ [ ).6.[ $.k.L 2.w.~.Z ~.Q I < T V Q n & & & 9 e G k 5.Z 5.A j d (.Z Z k.5.R.(.z 7.!.7.v.Q !.v.$.6.$.$.).6.P ).$.n v 6.e ).5.k.z e $.v } ^ 3 * & | ^ & ^ * * * * * . 2 { 6 _ 6 l l l 3 ; . ~ l 2 ^ ; ; ; ; ; ; . . . ; ; ; ~ 3 ^ ^ ^ { ",
"t 9 t m U t H m 9 9 m m m m m t H t m m m m 9 9 m m m m m m m m t m m 9 9 m m m m t m 9 9 m m 9 9 m t t t t m m m m m m m 9 m t H t t t t t m 5 l l l l l 8 8 l 3 3 ^ ^ & & ^ ^ 9 m t M M t t t +.M t m 9 m m t t M M +.M t t t 9 m t m m t t t H l l 8 8 l l l 3 3 3 ^ { * * * * . * * * * { ^ 8 8 8 8 8 8 8 8 3 3 3 3 8 8 8 l 8 | | c | | | c } 9 9 m 9 9 9 m 9 t H t m t t t m 9 9 t t m m H F F t m 9 9 m t t M M t M t t M m t M M M M t t m t t t M M +.+.M t M t t M t +.M M M t t t t M M M t M m M t M M F n n n n F F F +.F F n [ F n M M M t t t t t t m m t t m m t t m 9 9 m M M +.t t t t t t t m n n n F F F F n F F n F {.F n +.F n F P U F F F v P v +.v +.L +.L L L v L L L v M F F U U F F U L n +.L P +.L +.P +.P L +.P L L +.P L v L L L L L P L v {.v 8.L L +.+.v n L v [ {.+.+.P L v n n n 9 n +.L {.v n v v P v v L v v v L {.+.P L n v {.9 P n n n P +.k Q G ).$.Q ).1 $.$.$.G e G ).$.$.G ).Q ).e Q $.$.L P [ n P 6.L n P v n v v n n n n n v P n P v z z z z z z Q Q k G ).$.Q Q Q Q F {.{.m v 7.v.O.~.i.R.R.2.W < ~.N.N.].7 + 7.L + A ! 1 $.& . 8 D 5.5.(.5.I (.5.5.7.$.!.I Q v.Q i.v.~.~.2.R.7.v.v.5.5.k.5.k.5.d (.3.m.O.w.).z k L H H H H a a a a 6 l l 6 2 2 ~ ; . . . ; 3 6 l l a 5 ~ * * * ; / . * { * . . ; ; 2 { * { { * * { . * * * ",
"m 9 m 9 H m t m m m t t t t t t H t t m t t t m m m m m m m m m m m m m m m m t m t m m 9 m m 9 9 m m m t m m m 9 9 9 m m m t H m m m m t t t m H l l l 8 3 3 3 ^ ^ ^ ^ 3 3 8 8 m m t F M M F t m t t t t t m m m m t t m m m m m t t t t H H H l l H H l 8 ^ & * * * * * * * * * * * { ^ ^ 3 3 l l 8 8 8 8 8 8 8 8 8 8 8 8 8 8 c | 8 c c | c m } } 9 m m m m 9 t m m t t t m t m m m m m m m m m m m m m m t t m M M M M t m t M t t t t t t t t t t t t t M M M t +.M M M t M m t M M M t t t m t m M m t m m F F n n F F F F F U F F F n F n t t t t t t t t t m m t t m m m t m m m m t t M M M M M M M t m F F F F F F F F F F F F U F n U F F F F F F F F L P L L v L L P v v v v v L L v U F F M P F F F v v P L L L v P P +.L v L P P +.L L L P L L L L L +.+.+.8.v {.L P +.+.L L P L n v L L L L P P v L L v P n +.P v P v v 9 9 v L +.n v +.+.P P n n L 9 +.+.+.L v n G P P R.k P $.e L P P $.6.6.).$.).k G k ).G L k n 9 n ' [ n P n L P L L P L v L $.P L L $.v $.L P P L L L P P $.Q Q $.Q G G G G ).n v M f Q I Z I v.v.i.~.~.v.v.t.4.,.i.!.!.v f Z !.1 k . m & | d - I ' ).$.5.d z z !.Q z 7.!.R.7.~.I ~.v.k.7.Z k.(.Z 5.5.(.5.5.(.5.5.k.6.6.{.{.5 / / = . . / = . . . . ; ~ ^ ^ ~ ~ 2 6 l l l l / / ~ { * * ; = . * { * . . ; ; * { { { * * * * * * * * ",
"m 9 m 9 t m t H m t t t t t t t t m m m t t t t t t t t m m m m m m m m m m m m 9 m m m m m m 9 9 9 m m m m m m m m m t t m m t m m m m t t t t 8 8 3 ^ ^ ^ ^ 3 & ^ 3 8 8 l l l t t m t M M F t m m m m m 9 } } m 9 9 9 9 9 9 m 9 m m m m m m m 8 l l 8 3 ^ ^ 3 * * * * * * * * * * * ^ 3 3 8 6 l l 8 8 8 8 8 8 8 8 8 8 8 8 8 8 9 9 9 9 9 9 9 m 9 9 9 m m m m 9 H 9 } t H m m t m t t 9 9 m m 9 m m m t t F F t m M M t M t t +.M M t t t t t t M M M M M M t t t t +.M M M m t m t M M M t m m m t t M t M m m F F F F F F F F F F F F F F F n m t t t t t t t t t t t t m m m m t t t m m m m M M t t t t m m F F F n F F F F F F F F F F F F F F F F F F P U P L P L L L P P L L L v L L L v +.U F U U F F F v P L P L n L v L P L v v v L +.v L P P L L L P n L P L +.[ +.n P P P L L P P L n P +.L P +.+.v P +.v +.v v +.L v v P L v L n n v n v v L L n n +.L +.{.L P v L P P e v.1 L $.).1 G P P ).).).6.).L P L ).L $.P $.P ).P P L $.P P n n L L v L P P P v n $.v P P P P P L L P P P ).Q $.G k G G G G n 9 M v $.e Z I I - d !.!.!.Q ,.2.2.I 1 $.).n 1 ).Q Q Q v.G Q $.).5.G $.).k.$.Q z !.!.!.!.$.!.!.k.!.k.!.k.5.5.$.5.k.k.5.k.R.$.k.5.).$.P t 9 = . . ; ; . ; 3 ~ 6 6 6 l l l l H H H H H H l l 6 = ~ { { * ; . + * * * * * * * * * 2 6 2 { { { * * * * * ",
"m m t t t m H U m t t t t t t t m m m m m m m m m t t t t m m m m m m m m 9 9 9 9 9 9 m m m 9 9 m m m 9 9 m m m m m t t t m m m t t m m m m m 9 ^ & & ^ ^ ^ ^ 3 8 8 8 l l l l H t t m m t t t t l l 8 8 3 ^ ^ ^ 8 8 8 8 8 8 8 l 8 8 8 3 3 3 3 3 8 8 ^ ; . & 8 H * * * * * * * * ; ; ; 3 2 2 6 6 8 8 8 3 8 8 8 8 8 8 8 8 8 8 8 8 9 9 9 9 9 9 9 9 t m 9 9 9 m m 9 H 9 9 m H t m t m t t m m t t m m m m m t F t t m M t m t t +.{.m m t M M t m m t t t t M M M t t m M t m t m t t t t m m m t t t t t M t M t t F F F F F F F F F F n n F F F 9 m m t t t t t t M t t t t t m t m t t t t m m t t m m m m m m m F F n n n F F F F F F n n F F F F F F F F F M U L v P v P v P L L L L v L P P L U F F F F F F F v +.v P L v P v n L L L L L v P L L L L L L P +.L P P L +.n {.+.P L L L L L L P L +.+.L L P P v P P n {.+.n +.L +.+.+.P L +.P +.P v v n v L v L +.+.L +.n L n +.$.$.[ v $.L P 6.n L v n v n v 6.P v P L ).L $.$.L L P P P L L L P 9 n L v v P L v v n 9 L n L L v v L L L P L v P G P G k G G G G L [ ;.v P G d 1 z $.z e $.e z !.I $.7.).[ [ v n v P ' z !.d ~.).$.k 1 k ).).G !.P !.!.6.6.v.!.!.6.z P z ).).!.).P ).k.P k 6.).{.+.m } = & . ; { ^ 3 8 6 D D D H l l H H 6 6 6 H l 3 ; . . . . . ; * * * . + = ; ; ; . . * * * * 2 6 2 * { { * . * * * ",
"m m t H t t t U m t t t m m m m t t t t t m m t m m m m t t m m m m m m m 9 9 } 9 9 9 m m m m m m m m m m m m m 9 9 m t t t t H t m m m 9 9 | | 8 3 ^ 3 8 8 3 3 H l l l l l l H m m m m 9 9 m m l 8 8 3 3 8 8 l 8 3 3 8 8 8 8 8 8 8 8 8 3 8 8 3 ^ 2 2 ~ ; . ; ~ * * * * * * * * ^ ^ ^ 3 8 3 3 8 3 8 8 8 8 8 8 8 8 8 8 8 8 8 8 8 m m m m m m m 9 t t m m m m m 9 t t t m t t t t t m m t t m m t t m m 9 m m m m m M t m t t M {.9 9 m t t t m m m 9 m m t t t m t m t m m t m M t t m m m m t t t m t m m m m m F F F F F F F F F F n n F F n n m m m t t t t t t t t t t t t M m m t t t t M M t t m m t t m m F n n n F F F F n F F n n F F F n F F F F M F F v n L v P n v n n n n n L +.+.P F n n F F F F F n P n L P L +.v n L L L +.P P +.L L v L L P P P P P L L +.L +.+.P L v L L L L L +.L v L L L L +.v P n +.+.v {.L L L +.L L +.+.+.+.P +.L L P L +.L +.n +.n L [ v P +.L n 8.L v P P $.v n $.P v P {.+.+.;.8.8.8.{.n n n v L L n v L v v v n P $.L v P L n L 9 v v v v v v v L v n e 1 G G k G G G d 6.$.R.+.n P 1 G L k P e 6.e $.1 e P f v f 9 . M m {.G Q !.Z 2.6.$.$.n ).P $.L n n L n n v 8.+.P +.L +.+.+.+.{.P $.{.v } v n } / / = ; ; ~ 2 6 l 8 3 * * ^ 3 3 6 2 3 6 l 6 6 6 H l 6 ~ ; ; ; ; . * * * . . / a = ; . . . . . . . { 2 * . * * . . . * * ",
"m m m H t t m H m m t t m m m m m m t t m m m m m m m m m m m m 9 9 m m m m m 9 m m m t t m m t m m m m m m m m m m m t m m m t m m 9 9 9 9 | | 8 3 3 8 l l 8 8 H H l l l l l H 8 8 8 8 3 3 8 8 8 8 8 8 3 3 3 3 3 3 3 8 8 8 3 3 8 8 8 3 8 8 8 3 * * { * * . . . * * * * * * { ^ 5 5 5 5 5 5 5 5 8 8 l l l l 8 8 5 5 5 5 m m m m t t t m m t m 9 m m m t t t m 9 9 t t m 9 m t t H m m t t 9 9 t t m 9 9 9 9 m m m M M t t m m t m m m m m t t t m m m m m m m m m m M t t M m M m m t t t t m 9 t m t 9 m 9 m m F F F F F F F F F n F n F U F F m m m m t t t t m m m m t m t t m m t t t t M M M M t t t t m m n n F F F F F F F n F F n F U F n F F F M U F F L L P L P L v n v v v v L P L L F F F F F F F F n L v v L L P v v L L v L v v P L v L L P P L v v v L L P L L v P L L L L L L L {.L v L P v L +.n +.P n v +.l.L v L {.+.+.+.v n L L {.+.P P v L P {.9 +.n L 9 v F F U U n F F [ P U F n F F n F L v L L L L L P $.$.L P P P n v v v v n n v P v n n L v v [ L n P L v n n v v n f [ L L v v v L k.l+1 + = v $.G n v + ).v 9 [ ).+.L v } n L {.L & & 9 P n 6.$.Q P +.+.+.L n n P m M +.M m 9 M t - 9 M M t = m +.{.m t U {.m . } / ; ; ~ 3 ^ *   ^ 3 *   . .     l 6 ~ ~ ~ 3 6 6 ; . . . . . . . . . * * . . a +./ = . . * . . . . * { * . * * * * * * * ",
"m m 9 H m t m t m m t t m m m m m m t m m m m m m m m m m m m m m m m m m m m m t m m t t m m t m m m m m m m m m m m m m 9 9 m 8 | | | 8 8 | | 8 3 3 8 l l l l l l l l l l l l 8 8 8 3 3 3 3 8 6 6 6 6 2 3 ~ ~ 6 2 2 6 6 6 2 2 2 2 3 ~ ^ 2 ^ ~ * * * * * * * * * * * * * ^ 3 3 5 5 5 l l 5 5 5 l l l l l l 8 8 5 5 m m m m m m m t t m t t m 9 m m t t t m m m 9 m m m 9 9 m t 9 9 9 9 9 9 9 m m m 9 9 9 9 m m m t t t M m 9 9 t t t t t t t t m m m m m m m t t m M t t M m M m m t t t t m 9 t m t 9 t 9 t m F F F F F F F F F n F F F U F F t m m m m t t t m m m m m m m t t t m t t t t t t t m m m m m m F F F F F F F F F n F F F F U F F F F F F U U F L L L P L P L L P P L v L L v n F U U F F F F F n L +.L v L L L P P L v v v n v v L L P P L L v L L +.+.+.P L L P P L L L L L v +.P L P P L L P v P +.n v P {.P 8.{.{.P L +.P +.v v +.P L L n v {.{.[ v v v n L m 9 t M - m t 9 m M t 9 9 9 m t f f M M f f t +.L $.v L v L [ n n v v n n n n n n ' n n n 9 $.[ M t m 9 m t t m L f L L v L v L I l+R.f 9 v L 6.P {.[ v {.8.P = t } 9 m t m M n m 9 & & . t M m m m = } 9 +.m M - } } m m 9 - 9 H 5 / 5 M 5 t 5 H l ^ & ^ 8 ^ & ; . * * ^ ^ *   ; 2 ~ ~ 6 2 ; ; 3 ~ . . . . ; . ; ; ; ; ; ; ; ; * . * * * . / a / = . . * * . . * * * * * * * * * * . . ",
"m t 9 H m t m t 9 m m m m m m m m t t t t t t t m m m m m m m 9 m m m m m m m m t m 9 m m 9 m t m m m m m m 9 9 9 9 9 9 9 9 m t | | | | | | | | U H l l l 8 8 8 8 8 l l 8 8 8 8 8 3 3 3 3 8 8 3 2 2 2 2 2 6 6 6 6 2 2 6 6 6 2 2 2 2 ^ ; ; ; ; . * * * { { * * * * * * * ^ 3 8 l 5 5 5 l l 5 5 5 8 8 8 8 8 l l l 5 m m t t t m m t H H t H M H m H H t m 9 9 m H H m m t t 9 m U = } } } } m m 9 9 9 9 9 9 9 m t 9 m m m M M m t m m t t t m 9 9 9 m m m 9 9 m t M m t 9 9 t m M M t m m m t t m m 9 t 9 M 9 m 9 F F F F F F F n F n U F F U n n t t m m m m t t t m m t t m m t M t t t t t m m t m m m t t t t F F n n n F F n F n F U F F U F U P F n F U U F n v 9 L n +.L P v v v n v L v n F F P F n n F F v L {.L n L n P v L L L +.P L L L L L L v v v L n v P L n v v P L L L L L P L v v v v v L L L v L n +.P P n v P v n L v v L v L P L P L v L v L {.{.[ n v n 9 n t t t 9 t t 9 m m m m m t U t - f } } f f t f f n $.L P P ).L $.L P L v L n [ L P [ n v n n ).- } 9 9 m t t m 9 +.f v v f L v L Z ' z L m +.{.F m } M } t m } t m 9 t M m 9 9 } t m | . & . 3 3 } m +.+ t = 9 } m } & } = = . H = / / 5 / + = . . . . / . . / .   . * * * * ^ ( ; ^ ; . ^ ^ ; ^ ; ~ ~ ~ 6 H l 6 ; ; . . . . ; ; * * * * * . + , / = . . * * * * * . . * * * * * * .     "};
