/* XPM */
static char * Thumbs_Up_Crying_Cat_xpm[] = {
"530 365 256 2",
"  	c #000000",
". 	c #000200",
"+ 	c #080100",
"@ 	c #000306",
"# 	c #010400",
"$ 	c #070309",
"% 	c #020601",
"& 	c #050904",
"* 	c #150A02",
"= 	c #1C0807",
"- 	c #0B0E02",
"; 	c #110D19",
"> 	c #0D100D",
", 	c #1D1303",
"' 	c #261406",
") 	c #281417",
"! 	c #191A08",
"~ 	c #211713",
"{ 	c #231626",
"] 	c #1D191B",
"^ 	c #181B17",
"/ 	c #1C1A24",
"( 	c #251B03",
"_ 	c #251B0E",
": 	c #301900",
"< 	c #271E00",
"[ 	c #37210A",
"} 	c #302505",
"| 	c #39211D",
"1 	c #2F2517",
"2 	c #2A280F",
"3 	c #302611",
"4 	c #27281C",
"5 	c #282630",
"6 	c #282727",
"7 	c #3D2403",
"8 	c #3B231A",
"9 	c #302620",
"0 	c #332801",
"a 	c #332635",
"b 	c #37282D",
"c 	c #403103",
"d 	c #4E2E08",
"e 	c #442F27",
"f 	c #3E330F",
"g 	c #47301B",
"h 	c #41321C",
"i 	c #3D322C",
"j 	c #4B3012",
"k 	c #3B341E",
"l 	c #363432",
"m 	c #39342B",
"n 	c #35343B",
"o 	c #3B3425",
"p 	c #3C3516",
"q 	c #5E3B07",
"r 	c #4A3D44",
"s 	c #4B3E38",
"t 	c #513E22",
"u 	c #524007",
"v 	c #4F3E2E",
"w 	c #603B14",
"x 	c #5B3C1C",
"y 	c #593C27",
"z 	c #513F28",
"A 	c #424243",
"B 	c #56401A",
"C 	c #4B4323",
"D 	c #4E431A",
"E 	c #494330",
"F 	c #4B4329",
"G 	c #474339",
"H 	c #734320",
"I 	c #684C01",
"J 	c #6E4917",
"K 	c #6D4920",
"L 	c #684A30",
"M 	c #664D16",
"N 	c #6B4A28",
"O 	c #5C4C53",
"P 	c #674B38",
"Q 	c #604F26",
"R 	c #5B4E47",
"S 	c #5E4E3D",
"T 	c #674D28",
"U 	c #5D5031",
"V 	c #525152",
"W 	c #555147",
"X 	c #5A5136",
"Y 	c #58513E",
"Z 	c #654E32",
"` 	c #624F37",
" .	c #795622",
"..	c #635C48",
"+.	c #785B12",
"@.	c #74593D",
"#.	c #755B25",
"$.	c #7B5835",
"%.	c #6D5C42",
"&.	c #6C5D3E",
"*.	c #685E43",
"=.	c #755B37",
"-.	c #7D5A2F",
";.	c #745D2E",
">.	c #745B46",
",.	c #615F60",
"'.	c #6E5E4B",
").	c #656056",
"!.	c #715F37",
"~.	c #6C5E57",
"{.	c #6C634E",
"].	c #8A653A",
"^.	c #746B56",
"/.	c #8A6643",
"(.	c #846945",
"_.	c #846A3B",
":.	c #7F6B45",
"<.	c #826954",
"[.	c #7A6C51",
"}.	c #866B34",
"|.	c #7A6B63",
"1.	c #846A4D",
"2.	c #7D6C59",
"3.	c #746E64",
"4.	c #726E70",
"5.	c #7F6D4D",
"6.	c #7B725C",
"7.	c #977347",
"8.	c #907740",
"9.	c #8A7855",
"0.	c #817970",
"a.	c #897864",
"b.	c #847A63",
"c.	c #91785F",
"d.	c #997754",
"e.	c #947A49",
"f.	c #957958",
"g.	c #977A50",
"h.	c #927A69",
"i.	c #8B7D61",
"j.	c #817E7E",
"k.	c #927D51",
"l.	c #8B816A",
"m.	c #94805C",
"n.	c #898179",
"o.	c #A07B6D",
"p.	c #91806E",
"q.	c #8B8270",
"r.	c #A08554",
"s.	c #938A76",
"t.	c #A1885D",
"u.	c #9D886D",
"v.	c #9B8877",
"w.	c #9D8964",
"x.	c #A58966",
"y.	c #AA877C",
"z.	c #AA8871",
"A.	c #918E8E",
"B.	c #AB896A",
"C.	c #9B8C85",
"D.	c #958F86",
"E.	c #9C8F72",
"F.	c #AE8884",
"G.	c #A6906B",
"H.	c #A69076",
"I.	c #A49080",
"J.	c #9C937F",
"K.	c #B6928B",
"L.	c #AF9689",
"M.	c #AF9877",
"N.	c #AE9971",
"O.	c #AA998A",
"P.	c #A79B80",
"Q.	c #AE997F",
"R.	c #A49C8A",
"S.	c #BA977A",
"T.	c #B89784",
"U.	c #B49982",
"V.	c #A39F9A",
"W.	c #B4A279",
"X.	c #ADA38B",
"Y.	c #B2A191",
"Z.	c #B5A186",
"`.	c #B7A17F",
" +	c #ACA391",
".+	c #B99F92",
"++	c #B0A385",
"@+	c #B2A380",
"#+	c #C1A484",
"$+	c #BDA88D",
"%+	c #BCA986",
"&+	c #C6A592",
"*+	c #C1A69A",
"=+	c #B8AA8C",
"-+	c #B4AB92",
";+	c #BCAA81",
">+	c #B5A9A9",
",+	c #BDA993",
"'+	c #B6AB99",
")+	c #B1AD9A",
"!+	c #BBAA9A",
"~+	c #B6B1AB",
"{+	c #C2B18E",
"]+	c #BDB0AF",
"^+	c #C5B094",
"/+	c #C9AEA2",
"(+	c #BDB2A0",
"_+	c #B8B4A0",
":+	c #C4B19A",
"<+	c #C1B1A6",
"[+	c #BEB39A",
"}+	c #C3B1A0",
"|+	c #C0B394",
"1+	c #BCB3A6",
"2+	c #BEBAA6",
"3+	c #C4B9A6",
"4+	c #C1BCA1",
"5+	c #CABA9B",
"6+	c #CDB9A3",
"7+	c #CCB9A8",
"8+	c #C8BBA3",
"9+	c #C2BCB4",
"0+	c #CABAAF",
"a+	c #C5BCAF",
"b+	c #C0BEAF",
"c+	c #C0BDBB",
"d+	c #C8BEAB",
"e+	c #C3C0AB",
"f+	c #CEC3B0",
"g+	c #D2C3A5",
"h+	c #D5C2AF",
"i+	c #D0C4AB",
"j+	c #C7C6B7",
"k+	c #CAC6B1",
"l+	c #CBC5C0",
"m+	c #D4C3B8",
"n+	c #CEC5B8",
"o+	c #D2C7B4",
"p+	c #D7CCB8",
"q+	c #D9CCB3",
"r+	c #D2CEB9",
"s+	c #D6CDBF",
"t+	c #D2CECC",
"u+	c #D1D0C0",
"v+	c #DDCDC1",
"w+	c #E0CDBC",
"x+	c #D6D3CB",
"y+	c #E0D5C2",
"z+	c #DCD6C8",
"A+	c #DBD7C1",
"B+	c #DAD6D5",
"C+	c #E4DCCC",
"D+	c #E2DFD7",
"E+	c #E1E0DE",
"F+	c #EBE8E5",
"G+	c #F3F1EF",
"% % % % % % % % % % % . . % % % & % % % % % % % % % % % % % % % % % % % % % % % % % % % % % . . . . . . . % % % % % % % % % % % % % % % % % % % % % % % % % % % % % % % % % % % % % % % % % % % % % % % % % % % % % % % % % % % % % % % % % % % % % % % % % % % . . . . . . . . . . . . . . . . . . . . . . . . % % % % % % % % % % % % % % % % % % % % % % % % % % % % % % % % % % % % % % % % % % % % % . . % % % . . . . . . . . . . . . + + . + + + + + + + + = = = + + + + = * * * * * = + + + + + + + + + + + + + + . + + . . + + + + . . . . . . + . . . . . . . . . . . . . . . . . . . . . . . . . . . . . . . . . . % % % % % % % % % % % % % % % . . . . . . . . . . . . . . . . . . . . . . . . . . . . . . . . . . . . . . . . . . . . . . . . . . . . . . . . . . . . . . . . . . . . . . . . . . . . . . . . . . . . . . . . . . . . . . . . . . . . . . . . . . . . . . . . . . . . . . . . . . . . . . . . . . . . . . . . . . . . . . . . . . . . . . . . . . . . . . . . . . . . . . . . . . . . . . . . . . . . . . . . . . . . . . . . . . . . . % % % % % % % % % % % % % % % ",
"% . . . % % % . . . . . . . . . . . . . . . . . % % . . . . . . % . . . . . . . . . . . . . . . . . . . . . . . . . . . . . . . % % % . % % % % % % % % % % % % % % % % % % % % % % % % % % % % . . . % % % % % % % % % % % % % % % % % % % % % % % % % % % % % . . . . . . . . . . . . . . . . . . . . . . . . . . . . . . % % % % % % % % % % % % % % % % % % % % % % . . . . . . . . . . . . . . . . . . . . . . . . . . . . . . . . . . + + + + + + = * ~ _ ~ 9 9 9 9 9 9 9 9 9 9 9 9 9 _ _ , , ~ * * * * * + + + + + + + + . + + + + + + + + + + + . % . . . . . . . . . . % . . . . . . . . . . . . . . . . . . . . . . % % % % % % % % % % % % % % % . . . . . . . . . . . . . . . . . . . . . . . . . . . . . . . . . . . . . . . . . . . . . . . . . . . . . . . . . . . . . . . . . . . . . . . . . . . . . . . . . . . . . . . . . . . . . . . . . . . . . . . . . . . . . . . . . . . . . . . . . . . . . . . . . . . . . . . . . . . . . . . . . . . . . . . . . . . . . . . . . . . . . . . . . . . . . . . . . . . . . . . . . . . . . . . . . . . . . . . . . . . . . . . . . . . . ",
". . . . . . . . . . . . . . . . . . . . . . . . . . . . . . . . . . . . . . . . . . . . . . . . . . . . . . . . . . . . . . . . . . . . . . % % % % % % % % % % % % % % % % % % % % % % % % % % . . . . . % . . . . . . . . . . . . . . . . . . . . . . . . . . . . . . . . . . . . . . . . . . . . . . . . . . . . . . . . . . . . . . . . . . . . . . . . . . % % . . . . . . . . . . . . . . . . . . . . . . . . . . . . . . . . . . . + + + + + + * _ 9 9 i i s s s s s s s s s s s s i i i 9 9 9 9 _ _ _ , ~ * * * * * * + + + + + + + + + + + + + + % % % + . . . . . . . . . . . . . . . . . . . . . . . . . . . . . . % % % % % % % % % % % % % % % . . . . . . . . . . . . . . . . . . . . . . . . . . . . . . . . . . . . . . . . . . . . . . . . . . . . . . . . . . . . . . . . . . . . . . . . . . . . . . . . . . . . . . . . . . . . . . . . . . . . . . . . . . . . . . . . . . . . . . . . . . . . . . . . . . . . . . . . . . . . . . . . . . . . . . . . . . . . . . . . . . . . . . . . . . . . . . . . . . . . . . . . . . . . . . . . . . . . . . . . . . . . . . . . . . . . ",
". . . . . . . . . . . % % . . . . . . . . . . . . . . . . . . . . . . . . . . . . . . . . . . . . . . . . . . . . . . . . . . . . . . . . . . % & & & & & & & & % % % % % % % % % % % % % % % . . . . . . . . . . . . . . . . . . . . . . . . . . . . . . . . . . . . . . . . . . . . . . . . . . . . . . . . . . . . . . . . . . . . . . . . . . . . . . . . . . . . . . . . . . . . . . . . . . . . . . . . . . . . . . . . . . . . + . + + + + = ~ _ 9 s s s R R R R R R R R R R R R R R R s G G G s o o o 1 1 8 8 _ _ _ _ _ , * + + + + + + + + + + + + + + . . . . . . . . . . . . . . . . . . . . . . . . . . . . . . . % . . . % % % % . . . % % % % . . . . . . . . . . . . . . . . . . . . . . . . . . . . . . . . . . . . . . . . . . . . . . . . . . . . . . . . . . . . . . . . . . . . . . . . . . . . . . . . . . . . . . . . . . . . . . . . . . . . . . . . . . . . . . . . . . . . . . . . . . . . . . . . . . . . . . . . . . . . . . . . . . . . . . . . . . . . . . . . . . . . . . . . . . . . . . . . . . . . . . . . . . . . . . . . . . . . . . . . . . . . . . . . . . . . ",
". . . . . . . . . . % % % % % . . . . . . . . . . . . . . % % % . . . . . . . . . . . . . . . . . . . . . . . . . . . . . . . . . . . . . . . % % % % % % % % % % % % % % % % % % % % % % % % % % . . . . . . . . . . . . . . . . . . . . . . . . . % % % % % . . . . . . . . . . . . . . . . . . . . . . . . . . . . . . . . . . . . . . . . . . . . . . . . . . . . . . . . . . . . . . . . . . . . % % % . . . . . . . . . . . . . . + + + + + * _ 9 s R R R R R R '.'.~.'.'.'.'.'.'.'.'.S S S S S S S S v v v v v o o h o 1 k 3 ( , = * + + + + + + + + + + + . . . . . . . . . . . . . . . . . . . . . . . . . . . . . . % . . . . % % % . . . . % % . . . . . . . . . . . . . . . . . . . . . . . . . . . . . . . . . . . . . . . . . . . . . . . . . . . . . . . . . . . . . . . . . . . . . . . . . . . . . . . . . . . . . . . . . . . . . . . . . . . . . . . . . . . . . . . . . . . . . . . . . . . . . . . . . . . . . . . . . . . . . . . . . . . . . . . . . . . . . . . . . . . . . . . . . . . . . . . . . . . . . . . . . . . . . . . . . . . . . . . . . . . . . . . . . . . . . ",
"% . . . % % % . . . % % % % % % . . . . . . . . . . . % % % % % % . . . . . . . . . . . . . . . . . . . . . . . . . . . . . . . % % % % % % % % % % % % % % % % % % % % % % % % % % % % % % % % % . . . . . % % % % % % % % % % . . . . . . . . . % % % % % % % . . . . . . . . . . . . . . . . . . . . . . . . . . . . . . % % % % . . . % % % . . % % % % % % % % % % . . . . . . . . . . . . % % % % % % % % % . . . . . . . . . . . + + + + * ' 9 i s R R R R S S '.'.'.'.'.'.'.'.2.2.'.'.'.'.'.'.'.'.'.S S S S S S S S v E z z h [ [ ' = = * + + + + + + + + . . . . . . . . . . . . . . . . . . . . . . . . . . . . . . % % . . . % % % % . . . % % % . . . . . . . . . . . . . . . . . . . . . . . . . . . . . . . . . . . . . . . . . . . . . . . . . . . . . . . . . . . . . . . . . . . . . . . . . . . . . . . . . . . . . . . . . . . . . . . . . . . . . . . . . . . . . . . . . . . . . . . . . . . . . . . . . . . . . . . . . . . . . . . . . . . . . . . . . . . . . . . . . . . . . . . . . . . . . . . . . . . . . . . . . . . . . . . . . . . . % % % % % % % % % % % % % % % % ",
"% % % % % % % % % % . . % % % % % % % % % % . . % % % % % % % % % % % % % % % % % % % % % % % . . % % % % % % % % % % % % % % % % % % % % % % % % % % % % % % % % % % % % % % % % % % % % % % % % . . . % % % % & % % % % % % % % % % % % % % % % % % % % % % % . . . . . . . . . . . . . . . . . . . . . . . % % % % % % % % % % % % % % % % % % % % % % % % % & % % % % % % . % % % % % % % % % % % % % % % % % % . . . . . . . . . . + + + + * ~ 9 i s R R R R S S S S S S '.'.'.'.'.'.'.'.'.'.'.'.'.'.'.'.'.'.'.'.'.'.S S S '.` ` z z g 7 : : : ' * * + + + + + . . . . . . . . . . . . . . . . . . . . . . . . . . . . . . . . . . . % % % . . . . % . . . . . . . . . . . . . . . . . . . . . . . . . . . . . . . . . . . . . . . . . . . . . . . . . . . . . . . . . . . . . . . . . . . . . . . . . . . . . . . . . . . . . . . . . . . . . . . . . . . . . . . . . . . . . . . . . . . . . . . . . . . . . . . . . . . . . . . . . . . . . . . . . . . . . . . . . . . . . . . . . . . . . . . . . . . . . . . . . . . . . . . . . . . . . . . . . . . . . . . . % % % % % % % % % % % % % ",
"% % % % % % % % % % % . % % % % & & & % % % % % % % & & & % % % & % % % % % % % & & % % % % % % % % % & & & & & % % % % % % % % % % % % % % % % % % % % % % % % % % % % % % % % % % % % % % % % % % % % % % % % & % % % % % % % % % % % % % % % % % % % % % % % . . . . . % % % % % . . . . . . . . . % % % % & % % % % % % % % % % % % % % % & % % & & & & & % % % % % % % % % % % % % % % % % & & % % % % % . % . . . . . . . @ . . + + + + + * ~ _ 9 i s s s s v v S S S S P ` S '.'.'.'.'.'.'.'.'.'.'.'.'.'.>.'.'.'.'.'.'.'.2.2.'.'.` P v z v h h : , = * + + + . . . . . . . . . . . . . . . . . . . . . . . . . . . . . . . . . . . . . . . . . . . . . . . . . . . . . . . . . . . . . . . . . . . . . . . . . . . . . . . . . . . . . . . . . . . . . . . . . . . . . . . . . . . . . . . . . . . . . . . . . . . . . . . . . . . . . . . . . . . . . . . . . . . . . . . . . . . . . . . . . . . . . . . . . . . . . . . . . . . . . . . . . . . . . . . . . . . . . . . . . . . . . . . . . . . . . . . . . . . . . . . . . . . . . . . . . . . . . . . . . . . . % % % % % % % & & & % % ",
"% % % % % % % % . . . . . . % % % % % % % % % % % % % % % % . . % . . % % % % % % % % % % . . . . . % % % % % % % % % % % % % % % % % . . % % % % % % % % % % % % % % % % % % % % % % % % % % % % % % % % % % % % % % % % % % % % % % % % % % % . . . . . . % % . . . . . . . . . . . . . . . . . . . . . . . % % % % % % . . . . . . . % % % % + + % % % % % % % % % % % % % % % % % % % % % & % % % . . . . . . . . . . . . . $ . . . + + + + * ~ _ 9 e s s s v v v v v z z z z P ` >.>.` ` ` >.>.>.>.>.` >.>.'.'.>.>.>.>.>.>.<.<.2.2.2.<.'.'.'.` t j 7 0 : , * * + % . . . . . . . . . . . . @ . . . . . . . . . . . . . . . . . . . . . . . . . . . . . . . . . . . . . . . . . . . . . . . . . . . . . . . . . . . . . . . . . . . . . . . . . . . . . . . . . . . . . . . . . . . . . . . . . . . . . . . . . . . . . . . . . . . . . . . . . . . . . . . . . . . . . . . . . . . . . . . . . . . . . . . . . . . . . . . . . . . . . . . . . . . . . . . . . . . . . . . . . . . . . . . . . . . . . . . . . . . . . . . . . . . . . . . . . . . . . . . . . . . . . . % % % % % % % % % % % ",
"% % % % % % % % . . . . . . . . . . % % % % % % % % % % % . . . . . . % % % % % % % % % % . . . . . . . % % . . % % % % % % % % . . . . . . % % % % % % % % % % % % % % % % % % % % % % % % % % % % % % % % % . . . . . . . . . % % % % % % % % . . . . . . . . . . . . . . . . . . . . . . . . . . . . . . . % % % % % % . . . . . . . % % % % + + % % % % % % % % . . . . . . % % & & & % & & % % % . . . . . . . . . . . . . $ . . . + + + + = ~ _ 9 e s v v v v v v z z t t t Z Z Z Z P P P ` ` >.` Z Z Z Z ` ` >.>.>.>.>.>.<.<.<.<.h.h.h.h.a.[.%.Z t B c 0 < ( , * % % . % % % . . . . . + . . . . . . . . . . . . . . . . . . . . . . . . . . . . . . . . . . . . . . . . . . . . . . . . . . . . . . . . . . . . . . . . . . . . . . . . . . . . . . . . . . . . . . . . . . . . . . . . . . . . . . . . . . . . . . . . . . . . . . . . . . . . . . . . . . . . . . . . . . . . . . . . . . . . . . . . . . . . . . . . . . . . . . . . . . . . . . . . . . . . . . . . . . . . . . . . . . . . . . . . . . . . . . . . . . . . . . . . . . . . . . . . . . . . . . . . . . . . . . . . . . ",
"% % % % % % % % . . . . . . . . . . . % % % & & % % % % . . . . . . . . % % % % % % % % % . . . . . . . % % . . % % % % % % % % . . . . . . . . % % % % % % % % % % % % % % % % % % % % % % % % % % % % % . . . . . . . . . . . . . . . . . . . . . . . . . . . . . . . . . . . . . . . . . . . . . . . . . . % % % % % % . . . . . . . % % % % + + % % . . % % . . . . . . . . % % & & % % & & % % % % . . . . . . . . . . . . $ . . . + + + + = ~ | e e s v v v v y v v z t j t t Z L L L L L L L L L L Z Z L P P P >.>.>.>.>.<.<.<.<.h.h.h.h.a.c.5.5.&.Q C D z p } < , ! - - - - % . . . . . . . . . . . . . . . . . . . . . . . . . . . . . . . . . . . . . . . . . . . . . . . . . . . . . . . . . . . . . . . . . . . . . . . . . . . . . . . . . . . . . . . . . . . . . . . . . . . . . . . . . . . . . . . . . . . . . . . . . . . . . . . . . . . . . . . . . . . . . . . . . . . . . . . . . . . . . . . . . . . . . . . . . . . . . . . . . . . . . . . . . . . . . . . . . . . . . . . . . . . . . . . . . . . . . . . . . . . . . . . . . . . . . . . . . . . . . . . . . . . . . . . ",
"% % % % % % % % . . . . . . . . . . . . % % % & % % % % . . . . . . . % % % % % % % % % % . . . . . % % % % % % % % % % % % % % . . . . . . . . . . . . . . . . % % % % % % % % % % % % % % % % % % % . . . . . . . . . . . . . . . . % % % % % % . . . % % % % . . . . . . . . . . . . . . . . . . . . . . . % % % % % % . . . . . . . % % % % + + % . . . . . . . . . . . . . % % % % % % % % & % % % % % % . % % % % % . . . @ . . . . + + + * ~ | i e s s s v v y y y y j j j x x N L N L L N L L N x x x x L L L L L L L @.@.@.@.1.1.1.c.c.m.9.9.5.:.:.&.&.S X F p k } 2 2 ! ! - % . . . . . . . . . . . . . . . . . . . . % % . . . . % % . . . % % . . . . . . . . . . . . . . . . . . . . . . . . . . . . . . . . . . . . . . . . . . . . . . . . . . . . . . . . . . . . . . . . . . . . . . . . . . . . . . . . . . . . . . . . . . . . . . . . . . . . . . . . . . . . . . . . . . . . . . . . . . . . . . . . . . . . . . . . . . . . . . . . . . . . . . . . . . . . . . . . . . . . . . . . . . . . . . . . . . . . . . . . . . . . . . . . . . . . % % % . . . % . . . . . . . . . . ",
"% % % % % % % % % % % % . . . . . . . % % % % % % % % % % % . . % % % % % % % % % % % % % % . . . . . . . . . . % % % % % % % % % % % . . . . . % % . . . . % % % % % % % % % % % % % % % % % % % % % . . . . . . . . . . . . . % % % % % % % % % % % % % % % % . . . . . . . . . . . . . . . . . . . . . . . % % % % % % % % % % % % % % % % % + + % % % % % % % % % % % % % % % % & & % % % & & & & % % % % % % % % % % % . . $ . . . . + + = = ~ | i e s R R v y y y y j j d d x x x x x N N N N N x x x x x N L L L L L L L $.$.$.$.$.$.1.1.f.f.f.f.9.9.9.c.2.2.{...X C p 2 2 2 - % . . . . . . . . . . . . . . . . . . . % % % % % % % % % % % % % % % % . . . . . . . . . . . . . . . . . . . . . . . . . . . . . . . . . . . . . . . . . . . . . . . . . . . . . . . . . . . . . . . . . . . . . . . . . . . . . . . . . . . . . . . . . . . . . . . . . . . . . . . . . . . . . . . . . . . . . . . . . . . . . . . . . . . . . . . . . . . . . . . . . . . . . . . . . . . . . . . . . . . . . . . . . . . . . . . . . . . . . . . . . . . . . . . . . % % % % % % % % % % % % % % % . % % ",
"% % % % % % % % % % % % . . . % % % % % % % % % % % % % % % . . % % % % % % % % % % % % % % . . . . . . . . % % % % % % % % % % % % % % % % % % % % % % % % % % % % % % % % % % % % % % % % % % % % % % % % % . % % % % % % % % % % % % % % % % % % % % % % % % . . . . . . . . . . . . . . . . . . . . . . . & % % & % % % % % % % % % % % % % + + % % % % % % % % % % % % % % % % & & % % % % & % % % % % % % % % % % % % % % $ % . + % + + = = ~ | i s s R R P y y y j j d d d x x x x w w w w w w w w w w w x N N N N N H N K K K K K -.$.$.(.(.g.f.f.m.u.u.v.p.a.6.{.X F C k 2 ! . . . . . . . . . . . . . . . . . . . . % % % % % % % % % % % % % % % % . % . . . . . . . . . . . . . . . . . . . . . . . . . . . . . . . . . . . . . . . . . . . . . . . . . . . . . . . . . . . . . . . . . . . . . . . . . . . . . . . . . . . . . . . . . . . . . . . . . . . . . . . . . . . . . . . . . . . . . . . . . . . . . . . . . . . . . . . . . . . . . . . . . . . . . . . . . . . . . . . . . . . . . . . . . . . . . . . . . . . . . . . . . . . . . . . . % % % % % % % % % % % % % % % % % ",
"% % % % % % % % % % . . . . . . . . . . . . . . . . . . . . . . . % % % . . . % . . % % % . . . . . . . . . % % . . . . . . . . . . . . . . . . % % % % % % % % % % % % % % % % % % % % % % % % % . . . . . . . % % % % % % % % . . . . . . . . . . . . % % % . . . . . . . . . . . . . . . . . . . . . . . . % % % % % % % % % % % % % % . . . + + % % % % . . . . . . % % % % % % % % % % % % % % % . . . . . % % % % % % % % $ % % + % + + + = ) | e e s s R P y y y x j d d d w w w w w w w w w w w w w w w w w w w H H H H J J K K J J J J -.$.(.f.f.m.u.H.v.v.p.l.b.^.*.*.Y E 2 ! % . . . . . . . . . . . . . . . . . . % % % % % % % % % % % % % % % % % % % % . . . . . . . . . . . . . . . . . . . . . . . . . . . . . . . . . . . . . . . . . . . . . . . . . . . . . . . . . . . . . . . . . . . . . . . . . . . . . . . . . . . . . . . . . . . . . . . . . . . . . . . . . . . . . . . . . . . . . . . . . . . . . . . . . . . . . . . . % % % % % . . . . . . . . . . . . . . . . . . . . . . . . . . . . . . . . . . . . . . . . . . . . . . . . . . % . . . . % % % % % % % % % % % ",
". . . . . . . . . . . . . . . . . . . . . . . . . . . . . . . . . . . . . . . . . . . . . . . . . . . . . . . . . . . . . . . . . . . . . . . . % % % % % % % % % % % % % % % % % % % % % % . . . . . . . . . . . . . . . . . . . . . . . . . . . . . . . . . . . . . . . . . . . . . . . . . . . . . . . . . . . . . . . . . . . . . . . . . . . + . . . . . . . . . . . . . . . . . . . . . . % . . . . . . . . . . % % % % % $ % % + % + + + = ) | | e e s s v y y y j d d d d d w w w w w w w w w w w w H H w w w w w w w w J J  . . .J J J J -./.(.f.f.c.u.v.v.v.p.l.b.6.6.^...Y o 4 ! - . . . . . . . . . . . . . . . . % % % % % % % % % % % % % % % % % % % % % . . . . . . . . . . . . . . . . . . . . . . . . . . . . . . . . . . . . . . . . . . . . . . . . . . . . . . . . . . . . . . . . . . . . . . . . . . . . . . . . . . . . . . . . . . . . . . . . . . . . . . . . . . . . . . . . . . . . . . . . . . . . . . . . . . % % % % % % % % % % . . . . . . . . . . . . . . . . . . . . . . . . . . . . . . . . . . . . . . . . . . . . . . . . . . . . . . . . . . . . . . . . . . ",
". . . . . . . . . . . . . . . . . . . . . . . . . . . . . . . . . . . . . . . . . . . . . . . . . . . . . . . . . . . . . . . . . . . . . . . . % % % % % % % % % % % % % % % % % % % % . . . . . . . . . . . . . . . . . . . . . . . . . . . . . . . . . . . . . . . . . . . . . . . . . . . . . . . . . . . . . . . . . . . . . . . . . . . . . . . . . . . . . . . . . . . . . . . . . . . . . . . . . . . . . . . . . . . . @ % % % + + + + = = ) | | e e v e e y g j j d d d d w w w w w H H H H H H H H H H H H H H w w H  . . . . .J J J J J -././.(.g.k.m.m.m.i.i.i.i.i.b.6.{.Y E k 2 ! % . . . + . . + + . . % . . . . . % & & % % % % % % % % % % % % % % % % % . . . . . . . . . . . . . . . . . . . . . . . . . . . . . . . . . . . . . . . . . . . . . . . . . . . . . . . . . . . . . . . . . . . . . . . . . . . . . . . . . . . . . . . . . . . . . . . . . . . . . . . . . . . . . . . . . . . . . . . . . . . . . . . . . % % % % % % % % % % % % % . . . . . . . . . . . . . . . . . . . . . . . . . . . . . . . . . . . . . . . . . . . . . % % % % . . . % % % % . . . . . . . ",
". . . . . . . . . . . . . . . . . . . . . . . . . . . . . . . . . . . . . . . + . . . . . . . . . . . . . . . . . . . . . . . . . . . . . . . . % % % % % % % % % % % % % % % % % % % % % . . . . . . . . . . . . . . . . . . . . . . . . . . . . . . . . . . . . . . . . . . . . . . . . . . . . . . . . . . . . . . . . . . . . . . . . . . . . . . . . . . . . . . . . . . . . . . . . . . . . . . . . . . . . . . % % % % % % % % % + + + + = = ) | | 8 e e e e y g j j d d d d w w w w H H H H H H H H H H H H H H H H H H  . . . . .J J J J J  .-.-.(.(.(.5.9.9.9.m.i.i.i.l.l.6.^.Y E k 2 ! - . . . + . + . + + + % . . . . % & & % % . . % % % % % % % % % % % % % . . . . . . . . . . . . . . . . . . . . . . . . . . . . . . . . . . . . . . . . . . . . . . . . . . . . . . . . . . . . . . . . . . . . . . . . . . . . . . . . . . . . . . . . . . . . . . . . . . . . . . . . . . . . . . . . . . . . . . . . . . . . . . . . . % % % % % % % % % % % % % . . . . . . . . . . . . . . . . . . . . . . . . . . . . . . . . . . . . . . . . . . . . . . . . . . . . % . . . . . . . . . . ",
". . . . . . . . . . . . . . . . . . . . . . . . . . . . . . . . . . . . . . . . . . . . . . . . . . . . . . . . . . . . . . . . . % % % . . % % % % % % % % % % % % % % % % % % % % % % % % % % . . . . . . . . . % . . . . . . . . . . . . . . . . . . . . . . . . . . . . . . . . . . . . . . . . . . . . . . . . . . . . . . . . . . . . . . . . . . . . . % . . . . . . . . . . . . . . . . . . . . . . . % % % % % % % % % % % % % + + + + = = ) | | 8 e e e e y y j j d d d w w w H H H H H H H H H H H H H H H H H H H H  . . . . . .J J J J J  . .;.;.;.=.!.:.:.9.9.m.i.E.E.l.b.6...Y F k < ! * + . . . + + + + % . . . % % & & % % . . % % & & & & & & % % % % % . . . . . . . . . . . . . . . . . . . . . . . . . . . . . . . . . . . . . . . . . . . . . . . . . . . . . . . . . . . . . . . . . . . . . . . . . . . . . . . . . . . . . . . . . . . . . . . . . . . . . . . . . . . . . . . . . . . . . . . . . . . . . . . . . % % % % % % % % % % % % % . . . . . . . . . . . . . . . . . . . . . . . . . . . . . . . . . . . . . . . . . . . . . . . . . . . % % % % % . . . . . % % ",
"% % % % % % % % . % % % . . . . % % . . . . % % % . . . . . . . % % % % . . . . % % . . . . . . . . . . . . . . % % % % % % % % % % % % % % % % % % % % % % % % % % % % % % % % % % % % % % % % % % . . . . % % % % % % % % % % % % % % % % % % . . . . . . . . . . . . . . . . . . . . . . . . . . . . . . . . . . . . . . % % % % % % % % % . % % % % % % % % % % % % . % % % . . . % % % % % . . % % % % % % % % % % % % % % % % % % + + + + + = ) | | | e e e e y y y j d d w w w N H H H H H H H H H $.$.$.$.$.$.$.-.-.-.-.].-.-.-. . . .J J J  . . . . .#.#.#.;.;.:.:.k.9.i.i.l.l.l.6.{.X E h 3 ( * + . . + + + + % . . . % % & & % % . . % % & & & & & + % % % % % % . . . . . . . . . . % % % % % % % % . . . . . . . . . . . . . . . . . . . . . . . . . . . . . . . . . . . . . . . . . . . . . . . . . . . . . . . . . . . . . . . . . . . . . . . . . . . . . . . . . . . . . . . . . . . . . . . . . . . . . . . . . . . . . . % % % % % % % % % % % % % . . . . . . . . . . . . . . . . . . . . . . . . . . . . . . . . . . . . . . . . . . . . . . . % % % % % % % % % % % % % % % % ",
"% % % % % % % % % % % . . . . . % % % % % % % % % % % % % % % % % % % % % % % % % % % . . . . . . . % % % % % % % % % % % % % % % % % % . . . . % % % % % % % % % % % % % % % % % % % % % % % % % % % % % % % % % % % % % % % % % % % % % % % % . . . . . % % . . . . . . . . . . . . . . . . . . . . . . . . . . . . . % % % % % % % % % % % % % % % % % % % % % % % % % % % % % % % % % % % % % % % % % % % % % % % % % % % % % % % % + + + + + = ) ) | 8 e e 8 g y y y x d d q w K K H H H H H H H $.$.$.$.-.$.$./.$.$.$.-.-.].].].-. . . . . . . . . . . . .#.#.#.#.#._._.k.9.9.w.E.s.l.b.[.*.X F 3 < * + . + + + + + . . . . % % & & % % . % % % & % % % & % % % % % % . . . . . . . . . . % % % % % % % % . . . . . . . . . . . . . . . . . . . . . . . . . . . . . . . . . . . . . . . . . . . . . . . . . . . . . . . . . . . . . . . . . . . . . . . . . . . . . . . . . . . . . . . . . . . . . . . . . . . . . . . . . . . . . . % % % % % % % % % % % % % . . . . . . . . . . . . . . . . . . . . . . . . . . . . . . . . . . . . . . . . . . . . . . % % % . . % % % % % % % % % % % % ",
"% % % % % % % % % % . . . . . . % % % % % % % % % % % . . % % % % % % % % % % % % % % % . . . . . . % % % % % % % % % % % % % % . . . . . . . . % % % % % % % % % % % % % % % % % % % % % % % % % % % % % % . . . . . % % % % % % % % % % % % % . . . . . . . % . . . . . . . . . . . . . . . . . . . . . . . % % % % % % % % % . . % % % % % % % % % % % % % % % % % % . % % % % % % % % % % % % % % % % % % % % % % % % % % % % % % % + + + + + = ) | | 8 8 8 8 g g y y x d d q w w K H H H H H H $.$.$.-.$.$././././.].].].].].].].].-. . . . . . . . . . .I I I I I I #.#.}._.k.m.w.E.E.c.i.[.*.X F 3 ( + + + + + + + . . . . % % & & % % % % % % % % % % % % % % % % % + + + + . . . . . . % % % % % % % % % . . . . . . . . . . . . . . . . . . . . . . . . . . . . . . . . . . . . . . . . . . . . . . . . . . . . . . . . . . . . . . . . . . . . . . . . . . . . . . . . . . . . . . . . . . . . . . . . . . . . . . . . . . . . . % % % % % % % % % % % % % % . . . . . . . . . . . . . . . . . . . . . . . . . . . . . . . . . . . . . . . . . . . . . . . . . . . . % % % . . . . . % % ",
"% % % % % % % % % . . . . . . . % % % % % % % % % % % . . . . . % % % % % % % % % % % % % . . . . . . % % % % % % % % % % % % % . . . . . . . . % % % % % % % % % % % % % % % % % % % % % % % % % % % % % % . . . . . . % % % % % % % % % % % % . . . . . . . % . . . . . . . . . . . . . . . . . . . . . . . % % % % % . . . . . . . % % % % % % % % % % % % % % % . . . . % % % % % % % % % % % % % % % % % % % % % % % % % % % % % % + + + + + * = ' | 8 8 8 8 g g y y x d d q q q K H H H H H H $.$.$.-.$./././.].].].].].].].].].].].]. . . . . . .#. . .J I I I I I I +.#.}._.k.9.m.m.m.9.5.[.*.X F k ( * + + + + + . . . % % % & % % % % % % % % % % % % % % % % + + + + + + + . . . . % % % % % % % % % % . . . . . . . . . . . . . . . . . . . . . . . . . . . . . . . . . . . . . . . . . . . . . . . . . . . . . . . . . . . . . . . . . . . . . . . . . . . . . . . . . . . . . . . . . . . . . . . . . . . . . . . . . . . . . % % % % % % % % % % % % % % % . . . . . . . . . . . . . . . . . . . . . . . . . . . . . . . . . . . . . . . . . . . . . . . . . . . . . . . . . . . . . ",
"% % % % % % % % % . . . . . . % % % % % % % % % % % . . . . . . . % % % % % % % % % % % % . . . . . . % % % % % % % % % % % % % . . . . . . . . % % % % % % % % % % % % % % % % % % % % % % % % % % % % % % . . . . . . % % % % % % % % % % % % . . . . . . . . . . . . . . . . . . . . . . . . . . . . . . . % % % % . . . . . . . . % % % % % % % % % % % % % % % . . . . % % % % % % % % % . % . . . . % % % % % % % % % % % % % % % + + + + + + = ) ' 8 8 8 8 g g g y x d d q q q w w w H H H H H $.-.-.$.$./.].].].].].].].7.7.].].].].].-. . . . .#. . . .I I I I I I +.#.#.#._.:.:.9.9.:.9.5.[.{...E k < * * * + + . . . % % % % % % % % % % % % % % % % % % % % + + + + + + + % % . . % % % % % % % % % % . . . . . . . . . . . . . . . . . . . . . . . . . . . . . . . . . . . . . . . . . . . . . . . . . . . . . . . . . . . . . . . . . . . . . . . . . . . . . . . . . . . . . . . . . . . . . . . . . . . . . . . . . . . . . % % % % % % % % % % % % % % % . . . . . . . . . . . . . . . . . . . . . . . . . . . . . . . . . . . . . . . . . . . . . % % % % % % % % % % % % % . % % ",
"% % % % % % % % % . . . . . % % % % % % % % % % % % . . . . . . . % % % % % % % % % % % % % . . . . . . % % % % % % % % % % % % % . . . . . . % % % % % % % % % % % % % % % % % % % % % % % % % % % % % % % % % . . . % % & % % % % % % % % % % % . . . . % % % . . . . . . . . . . . . . . . . . . . . . . . % % % . . . . . . . . . % % % % % % % % % % % % % % % . . . . % % & & & % % % . . % % % % % % % % . . . . . . . . % . % % % + + + + + + = ' 8 8 e e g g g j d d d w w w w w w H H H H H $.$.$.$.$.$./././././.].].7.7.7.7.].].].].}.].].].].]. . . . . .+.+.+.+.+.#.#._._.(.(.(.(.5.5.[.[.^...Y E k ( , * + + . . % % % % % % % % % % % % % % % % % % % % % % % % % % . . . . % % . % % % % % % % . . . . . . . . . . . . . . . . . . . . . . . . . . . . . . . . . . . . . . . . . . . . . . . . . . . . . . . . . . . . . . . . . . . . . . . . . . . . . . . . . . . . . . . . . . . . . . @ @ . . . . . . . . . . . . . . % % % % % % % % % % % % % . . % % . % % % . . . . . . . . . . . . . . . . . . . . . . . . . . . . . . . . . . . . . . . % % % % % % . . . . . . . . . . ",
"% % % % % % % % % . . . . . % % & & & & & & & & % % . . . . . . . . % % % % % % % % % % % . . . . . . . % % % % % % % % % % % % % % % . . % % % % % % % % % % % % % % % % % % % % % % % % % % % % % % % % % % % . . . % % % % % % % % % % % % % % . . . . . % . . . . . . . . . . . . . . . . . . . . . . . . % % % % . . . . . . . . % % % % % % % % % % % % % % % . . . . % % & % % % % % . . % % % % % % % % % % % % % % % % . . % % % + + + + + + = ' ' 8 e e y y y x d d d w w w w w w w w H H H H $.$.$.$.$././.$.$./.].].].7.7.7././.].].].].].].].].].]. . . .+.+.+.+.+.#.#.#._.-.;.=.=.:.5.9.i.6.^...Y E k 3 _ * . . . % % & & % % % % % % % % % % % . % % % % % % % % % % . . . . % % . % % % % % % % . . . . . . . . . . . . . . . . . . . . . . . . . . . . . . . . . . . . . . . . . . . . . . . . . . . . . . . . . . . . . . . . . . . . . . . . . . . . . . . . . . . . . . . . . . . . . . @ @ . . . . . . . . . . . . . . % % % % % % % % % % % % % . . . . . . . . . . . . . . . . . . . . . . . . . . . . . . . . . . . . . . . . . . . . . . . . . . . . . . . . . . . . . . . ",
"% % % % % % % % % . . . . % % % & & & % % % % % % % % % . . % % . % % % % % % % % % % % % % . . . . % % % % % % % % % % % % % % % % % % % % % % % % % % % % % % % % % % % % % % % % % % % % % % % % % % % % % % . . . % % % % % % % % % % % % % % . . . . % % . . . . . . . . . . . . . . . . . . . . . . . . % % % % % % % % % . . % % % % % % % % % % % % % % % % . . % % % % % % % % % % % % % % % % % % % % % % % % % % % % . . . . % + + + + + + * ' ' 8 e e y y y y j d d w w w w w H w w H H H $.$.$.$.$.$.$.$.$././././.7.7.7.7././././.7.7.7./././.].].].}.+.+.+.+.+.#.+.+. . . . .;.;.:.:.9.m.i.6.^.{.Y E k k ! - . . % % & & % % % % % % % % % . . . . . . . . . . . . . . . . . % % . % % % % % % % . . . . . . . . . . . . . . . . . . . . . . . . . . . . . . . . . . . . . . . . . . . . . . . . . . . . . . . . . . . . . . . . . . . . . . . . . . . . . . . . . . . . . . . . . . . . . . @ @ . . . . . . . . . . . . . . % % % % % % % % % % % % % . . . . . . . . . . . . . . . . . . . . . . . . . . . . . . . . . . . . . . . . . . . . . . . . . . . . . % % % % % % % % % % ",
"% % % % % % % % % . . . . % % % % % % % % % % % % % % % % % % % . % % % % % % % % % % % % % % . % % % % % % % % % % % % % % % % % % % % % % % % % % % % % % % % % % % % % % % % % % . . . . . . . . % % % . . . % % . % % % % % % % % % % % % % % % . . % % % % . . . . . . . . . . . . . . . . . . . . . . . % % % % % % % % % % % % % % % % % % % % % % % % % % % % % % % % % % % % % % % % % % % % % % % % % % % % % % % % % . . . . % + + + + + + * = ' 8 e y y y y y j d d w w w w w w w w H H H $.$.$.$.$.$.$././././././.7.7.7.7.7.7.7.7.7.d.7.7.7.7._._._.}.}.+.+.+.+.+.+.+.+. . . .#.#.(.(.(.9.9.[.[.[.{.Y Y E 2 ! - % % % % % % % % % % % % % % % . . . . . . . . . . . . . . . . % % . % % % % % % % . . . . . . . . . . . . . . . . . . . . . . . . . . . . . . . . . . . . . . . . . . . . . . . . . . . . . . . . . . . . . . . . . . . . . . . . . . . . . . . . . . . . . . . . . . . . . . @ @ . . . . . . . . . . . . . . % % % % % % % % % % % % % . . . . . . . . . . . . . . . . . . . . . . . . . . . . . . . . . . . . . . . . . . . . . . . . % % % % % % % % % % % % % % % ",
". . . . . . . . . . . . . . . % % % % . . . % % . . . . . . . . . . . . . . . . . . . . . . . . . % % % % % % % . % % % % % % . . . % % % % . . . . . . . . . . . . . . . . . . . . . . . . . . . . . . . . . . . . . . . % % % % % % % % % % % % % . . . . . . . . . . . . . . . . . . . . . . . . . . . . . . . . . . . . . . . . . . . . . . % % . . . . . . . . . . . . . . . . . . . . . . . . . . . . . . . . . . . . . . . . . . . + + + + + + * = ' 8 e g y y y y x x d w w w w w H H H H K $.$.$.$.$.$.$./././././././.d.d.d.d.d.d.d.d.d.d.d.d.7.e.7.7.}.}.}.+.+.+.+.+.+.+.+. . . . .#./._.(.(.5.5.5.[.^.*...X F 3 ( - % % % % % % % % % % % % % % % % % % . . . . . . . . . . . . % % . % % % % % % % . . . . . . % % % % . . . . . . . . . . . . . . . . . . . . . . . . . . . . . . . . . . . . . . . . . . . . . . . . . . . . . . . . . . . . . . . . . . . . . . . . . . % % % % . . . . . . @ @ . . . . . . . . . . . . . . % % % % % % % % % % % % % . . . . . . . . . . . . . . . . . . . . . . . . . . . . . . . . . . . . . . . . . . . . . . . . . % % % % . . . . . . . . . . ",
". . . . . . . . . . . . . . . . . . . . . . . . . . . . . . . . . . . . . . . . . . . . . . . . . . . . . . . . . . . . . . . . . . . . . . . . . . . . . . . . . . . . . . . . . . . . . . . . . . . . . . . . . . . . . . . . . . . . . . . . . . . . . . . . . . . . . . . . . . . . . . . . . . . . . . . . . . . . . . . . . . . . . . . . . . . . . . . . . . . . . . . . . . . . . . . . . . . . . . . . . . . . . . . . . . . . . + + + + + + = = ' 8 8 v y y y y x x x w w w H N H H K K $.$.$.$.$././././././././././.d.d.d.d.d.d.d.d.d.d.d.d.e.e.e.e.8.}.}.}.+.+.+.+.+.+. . . . . . .-.].(.(.(.:.5.5.[.[.{...X k 3 , * * % % % % % . % % % % % % % % + + + . . . . . . . . . . . % % . % % % % % % % % % % % % % % % % % % . . . . . . . . . . . . . . . . . . . . . . . . . . . . . . . . . . . . . . . . . . . . . . . . . . . . . . . . . . . . . . . . . . . . . . . . . . % % % . . . . . . @ @ . . . . . . . . . . . . . . + + + + % % % % % % % % . . . . . . . . . . . . . . . . . . . . . . . . . . . . . . . . . . . . . . . . . . . . . . . . . . . . . . . . . . . . . . . . ",
". . . . . . . . . . . . . . . . . . . . . . . . . . . . . . . . . . . . . . . . . . . . . . . . . . . . . . . . . . . . . . . . . . . . . . . . . . . . . . . . . . . . . . . . . . . . . . . . . . . . . . . . . . . . . . . . . . . . . . . . . . . . . . . . . . . . . . . . . . . . . . . . . . . . . . . . . . . . . . . . . . . . . . . . . . . . . . . . . . . . . . . . . . . . . . . . . . . . . . . . . . . . . . . . . . . . . . + + + + + * = ' 8 8 v y y y L y x x w x N N N H H K $.$.$./././././././././.d.d.d.d.d.d.d.d.d.d.d.d.d.d.d.d.e.e.e.e.8.8.}.}.}.}.+.+.#.+. . . . . . . . .;.=.=.!.!.!.[.[.[.'.X F k 3 _ , * % % % % % % % % % % % % . + + + + . . . . % % . . . . % % . % % % % % % % % % % % % % % % % % % % . . . . . . . . . . . . . . . . . . . . . . . . . . . . . . . . . . . . . . . . . . . . . . . . . . . . . . . . . . . . . . . . . . . . . . . . . . . . . . . . . . @ @ . . . . . . . . . . . . . . + + + + % % % % % % % % . . . . . . . . . . . . . . . . . . . . . . . . . . . . . . . . . . . . . . . . . . . . . . . . . . . . . . . . . . . . . . . . ",
". . . . . . . . . . % % . . . . . . . . . . . . . . . . . . . . . . . . . . . . . . . . . . . . . . . . . . . . . . . . . . . . . . . . . . . . . . . . . . . . . . . . . . . . . . . . . . . . . . . . . . . . % % . . . . . . . . . . . . . . . . % % % . . . . . . . . . . . . . . . . . . . . . . . . . . . . . . . . . . . . . . . . . . . . . . . . . . % . . . . . % % % % % . . . . . . . . . . . . . . . . . . . . . . . . . . . . + + + + + * = ' 8 8 v v v y L L x x x N N N N N N $.$.$.$./././././././.d.d.d.d.d.d.d.d.d.d.d.d.d.d.d.d.d.g.g.g.e.e.e.8.8.}.}.}.}.}.}.#.+. . . . . . .-. .K T =.=.!.&.[.[.[.'.Y F h 8 _ , * + + + + . . . . . . . . + + + + . . . . % % . . . . % % . % % % % % % % % % % % % % % % % % % % . . . . . . . . . . . . . . . . . . . . . . . . . . . . . . . . . . . . . . . . . . . . . . . . . . . . . . . . . . . . . . . . . . . . . . . . . . . . . . . . . . @ @ . . . . . . . . . . . . . . + + + + % . % % % % % . . . . . . . . . . . . . . . . . . . . . . . . . . . . . . . . . . . . . . . . . . . . . . . . . . . . . . . % % . . . . . . . . ",
"% . . . . . . . % % % % % % % % % % % % % . . . % % % % % % % % % % % % % % % % % % % % % % % % % % % % % % % % . . . . . . . . % % % % % % % % % % % % % % % % % % % % % % % % % % % % % % % % . . % % % % % % % % % % % % % % % % % % % % % % % % % % % % % . . . . . . . . . . . . . . . . . . . . . . . . % % % % % % % % % % % % % % % . . . . . % % % % % % % % % % % % % % % % % % % % % % % % % % % % % . . . . . . . . . . . . . + + + + + + + = ' [ g g v v y L x x x x x N N K K N $.-.$.$./././././././.d.d.d.d././.d.d.d.d.d.d.d.d.d.d.d.g.g.g.g.g.r.e.e.8.8.8.}.}.}.}.#. . . . . .J J J J J J T =.!.!.:.5.5.*.` v g 8 ' ~ * + + + + + + + + + + + + + + % % % % % $ $ @ @ @ @ @ @ % % @ @ @ @ @ @ @ @ @ % % % % . % % % % % % . . . . . . . . . . . . . . . . . . . . . . . . . . . . . . . . . . . . . . . . . . . . . . . . . . . . . . . . . . . . . . . . . . . . . . % % . . . . . . . . . . . . . . . . . . . . . . . . % % . . . . . . . . . . . . . . . . . . . . . . . . . . . . . . . . . . . . . . . . . . . . . . . . . . . . . . . . . . . . . % % % % % % % % % % % % % ",
"% % . . . % . . % % % % % % % % % % % % % % % % % % % % % % % % % % % % % % % % % % % % % % % % % % % % % % % % % % % % % % % % % % % % % % % % % % % % % % % % % % % % % % % % % % % % % % % % % % % % % % % % . % % % % % % % % % % % % % % % % % % % % % % % . . . . . . . . . . . . . . . . . . . . . . . % % % % % % % % % % % % % % % % % % % % % % % % % % % % % % % % % % % % % % % % % % % % % % % % % . . . . . . . . . . . . . + + + + + + + = ' 8 g g v z y y x x x x x N N N N $.$.$.$.$././././././././.d.d./././.d.d.d.d.d.d.d.d.d.d.d.t.t.t.t.r.r.r.e.e.e.8.8.8.}.}.}.].-. . . .J I q q q J T T !.!.:.:.:.[.*.S v e 8 ' ~ = + + + + + + + + + + + + + % % % % % + + + % % % % % % % @ @ @ @ @ @ @ @ @ % % % % % % % % % % . . . . . . . . . . . . . . . . . . . . . . . . . . . . . . . . . . . . . . . . . . . . . . . . . . . . . . . . . . . . . . . . . . . . . . % % % . . . . . . . . . . . . . . . . . . . . . . . . . . . . . . . . . . . . . . . . . . . . . . . . . . . . . . . . . . . . . . . . . . . . . . . . . . . . . . . . . . . . . . % % % % % % % % % % % % % % ",
"% % % % % % % . % % % % % % % % % % % % % % % % % % % % % % % % % % % % % % % % % % % % % % % % % % % % % % % % % % % % % % % % % % % % % % % % % % % % % % % % % % % % % % % % % % % % % % % % % % % % % % % % % % % % % % % % % % % % % % % % % % % % % % % % . . . . . . . . . . . . . . . . . . . . . . . % % % % % % % % % % % % % % % % % % % % % % % % % % % . . . . . % % % % % % % % % % % % % % % % % . . . . . . . . . . . . . . + + + + + + + = ' [ g g v z y y x x x x N N N N $.$.$.$.$./././././././././././././.d.d.d.d.d.d.d.d.d.d.d.t.t.t.t.t.r.r.r.r.r.e.e.8.7.}.].].].-.#. .J I q q q q J T !.!.!.:.:.:.&.` S v e 8 ' ~ = + + + + + + + + + + + + + + + + + + + + % % % % % % % % @ @ @ @ @ @ @ @ % % % % % % % % % % . . . . . . . . . . . . . . . . . . . . . . . . . . . . . . . . . . . . . . . . . . . . . . . . . . . . . . . . . . . . . . . . . . . . . . . . . . . . . . . . . . . . . . . . . . . . . . . . . . . . . . . . . . . . . . . . . . . . . . . . . . . . . . . . . . . . . . . . . . . . . . . . . . . . . . . . . . . . . . % % % % % % % % . . . . . . . ",
"% % % % % % % % % % . . . . . % . . % % % % % % % % % % % % % % % % % % % % % % % % % % % % % % % % % % % % % % % % % % % % % % % % % % % % % % % % % % % % % % % % % % % % % % % % % % % % % % % % % % % % % % % % % % % % % % % % % % % % % % % % % % % % % % . . . . . . . . . . . . . . . . . . . . . . . % % % % % % % % % % % % % % % % % % % % % % % % % % % . . . . . . % % % % % % % % % % % % % % . . . . . . . . . . . . . . . . . + + + + + + = ' : 8 g g g y j j j x x N N N N $.$.$.$.$./././././././././././././.d.d.d.d.d.d.d.d.d.d.d.t.t.t.t.t.r.r.r.r.r.e.e.e.7.7.7.].].]. . . .J I q q J J M #.;.;.;.!.:.!.&.` ` v e e 9 = = + + + + + + + + + + + + + + + + + + + + % % % % % % % % @ @ @ @ @ @ @ % % % % . % % % . . . . . . . . . . . . . . . . . . . . . . . . . . . . . . . . . . . . . . . . . . . . . . . . . . . . . . . . . . . % . . . . . . . . . . . . . . . . . . . . . . % % % . . . . . . . . . . . . . . . . . . . . . . . . . . . . . . . . . . . . . . . . . . . . . . . . . . . . . . . . . . . . . . . . . . . . . . . . . . . . % % % % . . . . . . . . . . ",
"% % % % % % % % . . . . . . . . . . . % % % % % % % % . . . . % . . . . % % % % % % % % % . . . . . . . . . . % % % % % % % % % % % . . . . % % % % % % % % % % % % % % % % % % % % % % % % % % % % % . . . % % . % % % % % % % % % % % % % % % % % % % % % % % . . . . . . . . . . . . . . . . . . . . . . . % % % % % . . . . . . . % % % % % % % % % % % % % % % . . . . . . % % % % % % % % % . . . . . . . . . . . . . . . . . . . . . . . + + + + + * ' : [ g g g g j j j x x N N N N $.$.$.$.$./././././././././././././.d.d.d.d.d.d.d.d.d.d.B.t.t.t.t.r.r.r.r.r.r.e.e.7.7.7.7.7.7.].].#. . .J J I J M M #.#.;.;.;.;.!.@.Z ` P v e 9 ~ ~ = = = + + + + + + + + + + + + + + % % % % % % % % % % % % @ @ @ @ @ @ @ . . . . . . . . . . . . @ @ . . . . . . . . . . . . . . . . . . . . . . . . . . . . . . . . . . . . . . . . . . . . . . . . . . . . . . . . . . . . . . . . . . . . . . . . . . . . . . . . . . . . . . . . . . . . % . . . . . . . . . . . . . . . . . . . . . . . . . . . . . . . . . . . . . . . . . . . . . . . . . . . . . . . . . . . . . . . . . . . . . . . . . . . ",
"% % % % % % % % . . . . . . . % % % % % % % % % % % % % % % % % . . % % % % % % % % % % % % % . . . . . . . % % % % % % % % % % . . . . . . . % % % % % % % % % % % % % % % % % % % % % % & & & % % % . . . . . . . . % % % % % % % % % % % % % % % . . . . . . . . . . . . . . . . . . . . . . . . . . . . . % % % % % . . . . . . . % % % % & & % % % % % % % % % . . . . . . % % % % % % % % . . . . . . . . . . . . . . . . . . . . . . . . + + + + + * ' ' 8 8 g g g j j j x x N N N N N $.$.$.$./././././././././././././.7.7.7.d.d.d.d.d.B.B.B.t.t.t.r.r.r.r.r.r.r.r.r.r.e.e.7.d.7.7.}._.#.#. . .I I I  . .#.#.#.#.;.;.=.&.&.>.S s e e | 9 ~ ~ * + + + + + + + + + + + + + + + % % % . % % % % % % % @ @ @ @ @ @ @ @ @ @ . . . . . . . . @ @ @ . . . . . . . . . . . . . . . . . . . . . . . . . . . . . . . . . . . . . . . . . . . . . . . . . . . . . . . . . . . . . . . . . . . . . . . . . . . . . . . . . . . . . . . . . . . % % % . . . . . . . . . . . . . . . . . . . . . . . . . . . . . . . . . . . . . . . . . . . . . . . . . . . . . . . . . . . . . . . . . % % % % % % . . ",
"% % % & & & % % % . . . . . % % % % % % % % % & % % % % % % % % . % % % % % % % % % % % % % % . . . % % % % % % % % % % % % % % . . . . . . . % % % % % % % % % % % % % % % % % % % % % % % & & % % % % . . . . . . % % % % % % % % % % % % % % % % . . . . . . . . . . . . . . . . . . . . . . . . . . . . . % % % % % % % % % . . % % % % % & & % % % % % % % % % % % % % . . % % % % % % % % % . . . . . . . % % % . . . . . % % % % . . . . + + + + + * ' ' ' 8 g g g j j j x x N N N N N $.$.$.$./././././././././.].].]./.7.7.7.7.d.d.d.d.B.B.t.t.t.r.r.r.r.r.r.r.r.r.r.r.r.r.r.g.d.e.7.(._.#.#. . . . . .J M M #.#.#.;.=.@.@.>.>.S R s e e e | ' ~ * + + + + + + + + + + + + + . . . . . % % % % % % % % @ @ @ @ @ @ @ @ @ @ @ @ @ @ @ @ @ @ @ @ . . . . . . . . . . . . . . . . . . . . . . . . . . . . . . . . . . . . . . . . . . . . . . . . . . . . . . . . . . . . . . . . . . . . . . . . . . . . . . . . . . . . . . . . . . % . . . . . . . . . . . . . . . . . . . . . . . . . . . . . . . . . . . . . . . . . . . . . . . . . . . . . . . . . . . . . . . . . . % % % % % % % . . ",
"& & & & & & & % % % . . . % % % % % % % % % % % % % % % % % % . . . % % % % % % % % % % % % . . . . % % % % % % % % % % % % % % % . . . . . % % % % % % % % % % % % % % % % % % % % % % % % % % % % % % % % % % % % % % % % % % % % % % % % % % % % % % % % % % . . . . . . . . % . . . . . . . . . . % % % . % & & % % % % % % % % % % % % % % % % % % % % % % % % % % % % % % % % % % % % % % % % . . % % % % % % % % % . . . % % % % % % % % + + + + + + * ' ' 8 8 g g j j j j x N N N N N $.$.$.$././././././././.].].].].].7.7.7.7.7.d.d.d.B.t.t.t.r.r.r.r.r.r.r.r.r.r.r.r.r.r.r.t.g.g.e.(._._.#.#.#. . .I J M M #.#.;.;.=.@.@.>.>.'.'.R R s s e | _ , * * + + + + + + + + + + + + . . . . % % % % % % % % @ @ @ @ @ @ @ @ @ @ @ @ @ @ @ @ @ @ @ @ . . . . . . . . . . . . . . . . . . . . . . . . . . . . . . . . . . . . . . . . . . . . . . . . . . . . . . . . . . . . . . . . . . . . . . . . . . . . . . . . . . . . . . . . . . . . . . . . . . . . . . . . . . . . . . . . . . . . . . . . . . . . . . . . . . . . . . . . . . . . . . . . . . . . . . . . . . . . . . % % % % % % % % ",
"% % % % % % % % % % % % % % % % % % % % % % % % % % % % % % % % % % % % % % % % % % % % % % % % . . % % % % % % % % % % % % % % % % % % % % % % % % % % % % % % % % % % % % % % % % % % % % % . % % % % % % % % % % % % % % % % % % % % % % % % % % % % % % % % . . . . . . . . . . . . . . . . . . . . . . . % & & & % % % % % % % % % % % % % % % % % % % % % % % % % % % % % % % % % % % % % % % . . . % % % % % % % % % % % % % % % % % % % % . . + + + * ' : [ 8 g g g j j j B x N N N $.$.$.$.$.$.$.$././.-.-.].].].].].].}.}.8.7.7.7.7.e.d.d.d.r.r.r.r.r.r.r.r.r.r.r.r.r.r.r.r.t.g.g.g.g.(._._._.}.}.#. . .M M I M #.#.;.=.=.@.@.>.>.'.S S v v h 3 1 _ , * * + + + + + + . . . . . + $ $ + + + + % % % % % % % @ @ @ @ @ @ @ @ @ @ @ @ @ @ @ @ @ . . . . . . . . . . . . . . . . . . . . . . . . . . . . . . . . . . . . . . . . . . . . . . . . . . . . . . . . . . . . . . . . . . . . . . . . . . . . @ @ @ @ @ @ @ @ @ @ @ @ @ @ @ @ . . . . . . . . % % % . . . . . . . . . . . . . . . . . @ @ @ @ @ @ @ @ @ . . . . . . . . . . . . . . . . . . . . . . . . . . . . . . % % % % % % % ",
". . . . . . . . % % % % % % . . % % % % % % % % % % % % % . . . . . . . . . % % . % % % % % . . . . . % % % % % . . . . . . . . % % . . . . % % % % % % % % % % % % % % % % % % % % % . . . . . % % % % % % % % % % % % % % % % % % % % % % % % % % % % % % % % . . . . . . . . . . . . . . . . . . . . . . . % % % % % % % % % % % % % % % % % % % % % % % % % % % % . . . % % . . % % % % . . . . . . . . . . % % . . % % % % % % % % % % % % . . . + + + + * ' ' [ 8 8 [ g j j B x N N $.$.$.$.$.$.$.$.$././.].].].].].-.-.-.].}.8.7.7.7.7.7.d.d.d.r.r.r.r.r.r.r.r.r.r.r.r.r.r.r.r.t.g.g.g.g.g.(._._._._.}.#.#.#.M I I I #.T T T =.@.>.>.>.'.S S S v v o 1 _ ! * * + + + + + . . . . + + + $ + + + + % % % % % % % @ @ @ @ @ @ @ @ @ @ @ @ @ @ @ @ @ . . . . . . % . . . . . . . . . . . . . . . . . . . . . . . . . . . . . . . . . . . . . . . . . . . . . . . . . . . . . . . . . . . . . . . . . . . . . @ @ @ @ @ @ @ @ @ @ @ @ @ @ @ @ . . . . . . . % % % % % % % . . . . % % % . . . % . . . @ @ @ @ @ @ @ @ @ . . . . . . . . . . . . . . . % % . . . . . . . . . . . . % % % % % % % % ",
". . . . . . . . . . . . . . . . . . . . . . . . . . . . . . . . . . . . . . . . . . . . . . . . . . . . . . . . . . . . . . . . . . . . . . . . . . . . . . . . . . . . . . . . . . . . . . . . . . . . . . . . . . . . . . . % . . . . . . . . . . . . . . . . . . . . . . . . . . . . . . . . . . . . . . . % . . . . . . . . . . . . . . . . . . . . . . % % . . . . . . . . . . . . . . . . . . . . . . . . . . . . . . % % % % % % % % % . . . . . + + + * ' ' ' : : [ 7 g j B x N N $.$.$.$.$.$.$.$.$././.].].].].].].].-.}.7.}.7.7.7.7.7.7.7.e.e.g.g.g.g.g.g.g.g.t.t.t.t.r.r.t.t.g.g.g.g.g.g.g.7.7._._._._.#.#.I I I M T T T =.=.@.>.>.'.>.>.S S S v s i m 4 , * + + + + + + + + + + + + + + + + + % % @ . % % @ @ @ @ @ @ $ $ @ @ @ @ @ @ @ @ @ . . % % % % % % % % % % % % . . . . . . . . . . . . . . . . . . . . . . . . . . . . . . . . . . . . . . . . . . . . . . . . . . . . . . . . . . . . . . . . . . . . . . @ @ @ @ @ @ @ @ % % % % % % % % % % % % % % % % % % % % % % % % % % % @ @ @ @ @ @ @ @ @ @ . . . . . . . . . . . % % % % % % % % % % % % % % % % % % % % % % % % % % ",
". . . . . . . . . . . . . . . . . . . . . . . . . . . . . . . . . . . . . . . . . . . . . . . . . . . . . . . . . . . . . . . . . . . . . . . . . . . . . . . . . . . . . . . . . . . . . . . . . . . . . . . . . . . . . . . . . . . . . . . . . . . . . . . . . . . . . . . . . . . . . . . . . . . . . . . . . . . . . . . . . . . . . . . . . . . . . . . . . . . . . . . . . . . . . . . . . . . . . . . . . . . . . . % % % % % % % % % . . . . . + + + + * = ' ' : : [ 7 j B T N N $.$.$.$.$.$.$.$.$./././.].].].].].].].}.7.8.7.7.7.7.7.e.e.7.e.g.g.g.g.t.t.t.t.t.t.t.t.t.t.t.t.t.t.k.k.g.k.g.g.g.g.7.(._._.#.#.#.#.#.T T T N N T @.@.>.>.>.%.%.'.S R W G o 9 _ * + + + + + + + + + + + + + + + $ $ @ @ + % . @ @ @ @ @ @ $ @ @ @ @ @ @ @ @ @ @ % % % % % % % % % % % % % % . . . . . . . . . . . . . . + + + + + + + + . . + + . . . . . . . . . . . . . . . . . . . . . . . . . . . . . . . . . . . . . . . . . . . . @ @ @ @ @ @ @ @ % % % % % % % % % % % % % % % % % % % % % % % % % % @ @ @ @ $ @ @ @ @ @ @ . . . . . . % % % % % % % % % % % % % % % % % % % % % % % % % % % % % % % ",
". . . . . . . . . . . . . . . . . . . . . . . . . . . . . . . . . . . . . . . . . . . . . . . . . . . . . . . . . . . . . . . . . . . . . . . . . . . . . . . . . . . . . . . . . . . . . . . . . . . . . . . . . . . . . . . . . . . . . . . . . . . . . . . . . . . . . . . . . . . . . . . . . . . . . . . . . . . . . . . . . . . . . . . . . . . . . . . . . . % % % . . . . . . . . . . . . . . . . . . . . . . . . . . . % % % % % % % . . . . % . + + + * * ' ' ' : : [ j B y L N $.$.$.$.$.$.$.$./././././.].].].].].].}.}.8.e.e.e.e.e.e.e.e.g.g.g.f.x.t.t.t.t.t.t.t.t.t.t.t.t.t.t.t.t.t.t.t.t.t.k.g.g.(._._.#.#.#.#.;.;.-.N N N N T @.@.1.5.5.[.2.'.'...Y v 1 _ * + + + + + + + + + + + + + + + $ $ $ + + + @ @ @ @ @ @ $ $ @ @ @ @ @ @ @ @ @ % % % % % % % % % % % % % % % . . . . . . . . . . . . . + + + + + + + + + + + + + . . . . . . + + + + . + + + . . . . . . . . . . . . . . . . . . . . . . . . . . . . . . . . . . . % % % % % % % % % % . % % % % % % % % % % % % % % % @ @ @ @ @ $ $ $ @ @ @ @ @ . . . . . % % % % % % % % % % % % % % % % % % % % % % @ @ @ @ @ @ @ @ @ @ ",
". . . . . . . . . % % % % % % . . . . . . . . . . . . . % % % % % % . . . . . . . . . . . . % % % % % . . . . . . . . . . . . . . . . . . . . . . . . . . . . . . . . . . . . . . . . . . . . . . . . % % % % % % % % % % % % % % % % % % % % % % % % % % % % % . . . . . . . . . . . . . . . . . . . . . . . . . . . . . % % % % % % % . . . . . . % % % % % % % % % % % % % % % . . . . . . % . . . . . . . . % % % % . % % % % % % % % % % % . % % % % + + + * * * ' ' ' : : 7 j x L N $.$.$./.$.$.$././././././.].].].].-.-.}.8.8.e.e.e.e.e.e.e.e.g.g.g.x.x.t.t.t.t.t.t.t.t.w.w.w.w.t.t.t.t.t.t.t.w.w.t.k.k.g.7.(._._._._.$.$.$.N N N N N T @.@.5.5.[.2.2.2.{.{.S v 1 _ ~ * + + + + + + + + + + + + + + $ $ + + + $ @ @ @ @ $ $ $ $ $ $ @ @ @ @ @ @ % % % % % % % % % % % % % % . . . . . . . . + . + + + + + + + + + + + + + + + + + . . . . . . . + + . . . . . + . . . . . . . . . . . . . . . . . . . . . . . . . . . . . . . . . . . . . . % % . . . . . . . . . . . . . . . . . . . . @ @ @ @ @ @ @ @ @ @ @ @ @ . . . % % % % % % % % % % % % % % % % % % % % % % % % @ @ @ @ @ @ @ @ @ @ ",
". . . . . . . . % % % % & % % % % % % % % % % % % % % % % % % % % % % % % % % % % % % % % % % % % % % % % % % % % % % % % % % % % % % % % % % % % % % % % % % % % % % % % % % % % % % % % % % % . % % % % % % % % % % % % % % % % % % % % % % % % % % % % % % % . . . . . . . . . . . . . . . . . . . . . . . % . . % % % % % % % % % % % % % % % % % % % % % % % % % % % % % % % % % % % % % % % % % % . . . . % % % % % % % % % % % % % % % % % % % % % + + + + + * = = = ' [ 7 u x N $.$./././././././.d.g.d.e.e.e.8.7.}.}.}.8.8.e.e.e.e.r.r.r.t.t.t.t.t.t.x.t.t.t.t.t.w.t.t.w.w.w.w.w.w.w.w.t.t.t.w.w.w.t.t.k.k.g.7.7._._.=.$.$.$.N N x N N T =.=.5.5.[.[.2.2.'.'.S v i 9 , * + + + + + + + + + + + + + + + + + + $ @ @ @ @ @ @ @ @ @ @ @ @ @ @ @ @ % % % % % % % % % % % % % % % . . . % % . . . . + + + + + + + + + + + + + + + + + + + . . . . . . . . . + + + + . . . . . . . . . . . . . . . . . . . . . . . . . . . . . . . . . . . . . . . . . . . . . . . . . . . . . . . . . . . . @ @ @ $ $ $ $ @ @ @ @ @ @ % % % % % % % % % % % % % % % % % % % % % % % % % % % @ @ @ @ @ @ @ @ @ @ ",
"% % % % % % % % % % % % & % % % % % % % % % % % % % % % % % % % % % % % % % % % % % % % % % % % . . % % % % % . % % % % % % % % % % % % % % % % % % % % % % % % % % % % % % % % % % % % % % % % % % % % % % % % % % % % % % % % % % % % % % % % % % % % % % % % . . . . . . . . . . . . . . . . . . . . . . . % % % % % % % % % % % % % % % % % % % % % % % % % % % % % % % % % % % % % % % % % % % % % % % % % . % % % % % % % % % % % % % % % % % % . % + + + + + + = = = ' : 7 u x N N $.$././././././.d.g.g.e.e.e.e.7.8.8.8.8.8.e.e.e.r.r.r.t.t.t.t.t.t.t.t.t.t.t.t.w.t.G.G.w.w.w.w.w.w.w.w.t.t.w.w.w.w.t.t.t.k.k.g.g.7._.$.$.$.$.N N N N N T =.=.!.5.5.<.<.2.[.'.'.S v i 1 _ * + + + + + + + + + + + % + + + + + $ @ @ @ @ $ $ $ $ @ @ @ @ @ @ @ @ % % % % . % % % % % % % % % % % . % % % . . . . + + + + + + + + + + + + + + + + + + + + . . . . . . . . . . . . . . . . . . . . . . . . . . . . . . . . . . . . . . . . . . . . . . . . . . . . . . . . . . . . . . . . . . . . . . . . @ @ @ $ $ $ $ $ @ @ @ @ @ % % % % % % % . % % % % % % % % % % % % % % % % % % % @ @ @ @ @ @ @ @ @ @ ",
"% % % % % % % % . % % % % % % % % % % % % % % % % % % % . . . % % % % % % % % % % % % % % % . . . . . % % % % % % % % % % % % % % % % % % % % % % % % % % % % % % % % . . . . . . % % % % % % % % % % % % % % . . . . % % % % % % % % % % % % & % . . . % % % % . . . . . . . . % . . . . . . . . . . % . . . % & % % % % % . . . . . % % % % % % % % % % % % % % % . . . . % % % % % % % % % % % % % % . . . . . . % % % % % % % % % % % % % % % % % % % % + + + + + + = = ' : 7 d x N N $.$././././././.d.d.g.r.e.e.e.e.e.e.e.e.e.e.r.t.t.t.t.t.t.t.t.x.x.x.x.x.x.x.w.G.G.G.G.t.t.t.t.t.t.t.t.w.t.t.t.t.t.t.t.t.t.k.k.k.k.:.=.$.$.$.$.N N N N N T =.=.=.!.!.!.5.5.[.%.'.S E h 3 ( , * + % + & * + + + + + % % + + + + + $ $ $ + + + $ @ % % % $ @ @ % % % % % . . % % % % % % % % % % % % % % . . . + + + + + + + + + + + + + + + + + + + . . . . + . . . . . . . . . . . . . . . . . . . . . . . . . . . . . + + . . . . . + + . . . . . . . . . . . . . . . . . . . . . . . . . . @ @ @ @ @ $ $ $ $ $ $ $ $ $ $ $ @ @ @ @ @ @ @ @ @ @ @ @ @ @ @ @ @ @ @ @ @ @ @ @ @ @ @ @ @ @ @ @ @ @ @ @ @ @ @ ",
"% % % % % % % % % % % % % % % % % % % % % % % % % % % % . . . % % % % % % % % % % % % % % % . . . . . % % % % % % % % % % % % % % % % % % % % % % % % % % % % % % % % . . . . . % % % % % % % % % % % % % % % . . . . % % % % % % % % % % % % % % . . . % % % % . . . . . . . . . . . . . . . . . . . . . . . % % % % % % % % . . . . % % % % % % % % % % % % % % % . . . . % % % % % % % % % % % % % . . . . . . . % % % % % % % % % % % % % % % % % % % + + + + + + + = = = ' 7 d x x N $.$./.(.(./.(.7.d.g.t.r.r.r.r.r.r.r.g.e.r.r.t.t.t.t.t.t.t.t.t.x.x.x.x.x.x.x.w.G.G.G.G.t.t.t.t.t.t.t.t.t.t.t.t.t.t.t.t.t.k.k.k.k.k.k.(.$.$.$.$.N N N T N N =.=.=.=.=.=.!.5.5.[.%.%.X C z h 3 , * + + + * + + + + + + + + + + + + + $ $ + + $ $ @ @ % . $ @ @ % % % % % % % % % % % % % % % % % % % % % . . . + + + + + + + + + + + + + + + + + + + . . . . . . . . . . . . . . . . . . . . . . . . . . . . . . . . . . . . . . . . . + . . . . . . . . . . . . . . . . . . . . . . . . . . @ @ @ @ @ @ $ $ $ $ $ $ $ $ $ $ $ @ @ @ @ @ @ @ @ @ @ @ @ @ @ @ @ @ @ @ @ @ @ @ @ @ @ @ @ @ @ @ @ @ @ @ @ @ @ @ ",
"% % % % % % % % % % % % % % % % % % % % % % % % % % % % . . . . % % % % % % % % % % % % % % . . . . . . % % % % % % % % % % % % % % % % % % % % % % % % % % % % % % % . . . . . % % % % % % % % % % % % % % % . . . . % % % % % % % % % % % % % % . . . % % % % . . . . . . . . . . . . . . . . . . . . . . . % % % % % % % % % % % % % % % % % % % % % % % % % % . . . . % % % % % % % % % % % % % % % . . . . . % % % % % % % % % % % % % % % . % % % % + + + + + + + + = = ' : 7 d x N N -./.(.(./.(.d.g.t.t.r.r.r.r.r.r.t.g.r.r.r.t.t.t.t.t.t.t.t.t.x.x.x.x.x.x.x.x.w.G.G.w.t.t.t.t.t.t.t.t.t.t.t.t.t.t.t.t.k.k.k.f.f.g.g.(././.$.$.$.N N $.$.$.N N T T T T =.!.:.5.5.5.&.&.` t t } ( , * * * + + + + + + + + + + + + + + + + $ $ $ $ @ @ . @ @ @ % % % % % % % % % % % % % % % % % % % % % . . . + + + + + + + + + + + + + + + + + + + + . . . . . . . . . . . . . . . . . . . . . . . . . . . . . . . . . . . . . . . . . . . . . . . . . . . + . . . . . @ @ @ @ @ @ @ @ . @ @ @ @ @ @ @ $ $ $ $ $ $ $ $ $ $ @ @ @ @ @ @ @ @ @ @ @ @ @ @ @ @ @ @ @ @ @ @ @ @ @ @ @ @ @ @ @ @ @ @ @ @ @ @ @ @ ",
"% % % % % % % % % % % % % % % % % % % % % % % % % % % % % . . . % % % % % % % % % % % % % % % . . . . . % % % % % % % % % % % % % % % % % % % % % % % % % % % % % % % . . . . . % % % % % % % % % % % % % % % % . . % % % % % % % % % % % % % % % % . . % % % % . . . . . . . . . . . . . . . . . . . . . . . % % % % % % % % % % % % % % % % % % % % % % % % % % . . . % % % % % % % % % % % % % % % % . . . . % % % % % % % % % % % % % % % % @ @ @ @ @ $ $ $ + + + + + + = = ' : d d x N $./.(.(.(.(.g.g.t.t.r.r.r.g.g.t.g.g.r.t.t.t.t.t.t.t.t.t.t.t.x.x.x.x.x.x.x.x.w.w.w.w.w.w.w.w.w.w.w.x.t.t.t.t.t.t.g.g.g.g.f.f.f.f.f././././.$.$.$.$.$.=.$.$.N N N T T =.=.(.:.:.5.5.&.&.Z t t h } < , , * * + + + + + + + + + + + + + $ $ $ $ $ $ @ @ @ @ @ . . % % % . . . % % % % % % % % % % % % % . . . . . + + + + + + + + + + + + + + + + + + + . . . . . . . . . . . . . . . . . . . . . . . . . . + . . + + + . . . . . + . . . . . . . . . . . . . . . . . . @ @ @ @ @ @ $ $ @ @ @ @ @ @ @ @ @ @ @ @ @ @ @ @ $ $ @ @ @ @ @ @ @ @ @ @ @ @ @ @ @ @ @ @ @ @ @ @ @ @ @ @ @ @ @ @ @ @ @ @ @ @ @ @ @ @ ",
"% % % % % % % % % % % % % % % % % % % % % % % % % % % % % % % % % % % % % % % % % % % % % % % % % % % . % % % % % % % % % % % % % % % % % % % % % % % % % % % % % % % % . . % % % % % % % % % % % % % % % % % % % % % % % % % % % % % % % % % % % % % % % % % % . . . . . . . . . . . . . . . . . . . . . . . % % % % % % % % % % % % % % % % % % % % % % % % % % % % % % % % % % % % % % % % % % % % % % % % . % % % % % % % % % % % % % % % . $ $ $ $ $ $ $ $ + + + + + + + = ' : d d x N $.(.(./././.g.g.g.g.g.g.g.g.g.g.g.g.g.g.g.t.t.t.t.t.t.t.t.t.x.x.x.x.x.x.x.x.x.w.w.w.w.w.w.m.m.f.f.f.f.f.f.f.f.f.f.f.f.f.f.f.f.f.f././././.$.$.$.$.$.=.=.$.N N N T T =.=.(.(.(.:.1.:.5.&.&.Z ` z h 3 : , * * + + + + + + + + + + + + $ $ $ $ $ $ @ @ @ . . . . . . . . . . . . % % % % % % % % % % % . . . . . + + + + + + + + + + + + + + + + + + + . . . . . . . . . . . . . . . . . . . . . . . . . + . . . . . . . . + + + + + + + + + + + + + + + % % % + . . . . . @ @ @ $ $ $ @ @ @ @ @ @ @ @ @ @ @ @ @ @ @ @ @ @ @ @ @ @ @ @ @ @ @ @ @ @ @ @ @ @ @ @ @ @ @ @ @ @ @ @ @ @ @ @ @ @ @ @ @ @ @ @ @ @ ",
"% % % . . . % % % % % . . . % % % % % % % % % % % % % % % % % % % % % % % % % % % % % % % % % % % % . . . . . % % % % % % % % % % % % % % % % % % % % % % % % % % % % % % % % % % % % % % . % % % % % % % % % % % % . % % % % % % % % % % % % % % % % % % % % % . . . . . . . . . . . . . . . . . . . . . . . % % % % % % % % % % % % % % % % % % % % % % % % % . . . % % % % % . . . . . % % % % % % % % % % % % % % % % % % % % % % % % @ @ @ $ $ @ $ $ $ $ $ $ + + + + + + = = : 7 j x x N =.(.(./././.f.d.d.d.d.d.g.g.g.g.g.g.g.g.g.g.g.t.t.t.t.t.t.x.x.x.x.x.x.x.x.x.w.w.w.w.m.m.m.f.f.f.f.f.f.f.f.f.f.f.f.d.d.f.f.f.f.f./././././.=.=.$.$.$.$.$.N N N N T $.=.=.(.(.(.(.1.5.5.[.%.%.` z z h [ ' * + + + + + + + + + + + + + $ $ $ $ @ @ . . . . . . . . . . . . . . . % % % % % % % % % . . . . . . + + + + + + + + + + + + + + + + + + + + + . . + + . . . . + + . . . . . . . . . . . . + + + + + . . . . . . . . . . + . + + + + . + + + + + . + + . . . . . % @ @ $ $ @ @ @ @ @ @ @ $ $ $ $ $ $ $ $ $ @ @ @ @ @ @ @ @ @ @ @ @ @ @ @ @ @ @ @ @ $ $ $ $ $ $ $ $ $ @ @ @ @ @ @ @ @ @ @ @ @ @ ",
". . . . . . . . % % . . . . . . % % % % % % % % . . . . . % . . . . . . . . . . . . . . . . . . . . . . . . . . . . . . % . . . . . . . . . . . . . . . . . . . . . . . . . . . . . . . . . . . . . . . . . . % . . . . . % % % . . . % % % % % % % % % % % % % . . . . . . . . . . . . . . . . . . . . . . . % % % % . . . . . . . . . . . . . % % % . . . . . . . . . . . . . . . . . . . . . % % % % % . . . % % % % % % % % % % % % % @ @ @ $ @ @ $ $ $ $ $ $ + + + + + + = = : [ 7 d w N =./.(./././.(.7.7.d.d.d.d.d.d.g.e.e.g.g.g.g.g.g.x.t.t.t.t.x.x.x.x.x.x.x.x.x.x.w.w.m.m.m.m.f.f.f.f.f.f.f.f.f.f.f.f.d.d.f.f.f.f.f././././.(.(.(././.$.$.$.N N N N N N $.=.=.(.(.(.1.<.<.<.[.2.'.%.` z g [ ' ' * * * + + + + + + + + + + $ $ $ $ + . . . . . . . . . @ . . . . . . % . . . . % % % % . . . . + + . . . . . . + + + + + + + + + + + . + + + . + + + . + + + + + . . . . . + + + + + + + + + + + + . . . . . . . . . . + + . . . . + + + + + . . . + + . . . . . @ @ $ @ @ @ @ @ @ $ $ $ $ $ $ $ $ $ $ @ @ @ @ @ @ @ @ @ @ @ @ @ @ @ @ @ @ @ @ $ $ $ $ $ $ $ $ $ @ @ @ @ @ @ @ @ @ @ @ @ @ ",
". . . . . . . . % . . . . . . . . . . . . . . . . . . . . . . . . . . . . . . . . . . . . . . . . . . . . . . . . . . . . . . . . . . . . . . . . . . . . . . . . . . . . . . . . . . . . . . . . . . . . . . . . . . . . . . . . . . . . . . . . . % % . . . . . . . . . . . . . . . . . . . . . . . . . . . % . . . . . . . . . . . . . . . . . . . . . . . . . . . . . . . . + + . . . . . . % % % . . . . . % % % % % % @ @ % % % % @ @ @ @ @ @ @ @ $ $ $ $ + + + + + + + + = ' : 7 d w K =.$././.-.-./././.7.d.d.d.d.d.e.e.e.e.d.d.d.d.d.d.g.g.g.g.x.x.x.x.x.x.x.x.x.x.w.w.m.m.m.f.f.f.f.f.f.f.f.f.f.f.f.f.f.f.f.f.f.f.f.1./././.(.(.(././.$.$.$.N N N K K N N $.=.=.=.1.1.<.c.c.h.a.2.'.'.` z h g [ ' ' * = + + + + + + + + + + $ $ + + . . . . . . . . . @ @ . . . . . . . . . . . . % % . . . + . . . . . . . . + + + + + + + + + + + . + + + + + + + + + + + + + + + + . . . + + + + + + + + + + + + + + + . . . . + + . . + . . . + + + + + + + . . . . . . . . . @ @ @ @ @ @ @ $ $ $ $ $ $ $ $ $ $ $ @ @ @ @ @ @ @ @ @ @ @ @ @ @ @ @ @ @ @ $ $ $ $ $ $ $ $ $ $ @ @ @ @ @ @ @ @ @ @ @ $ $ ",
". . . . . . . . . . . . . . . . . . . . . . . . . . . . . . . . . . . . . . . . . . . . . . . . . . . . . . . . . . . . . . . . . . . . . . . . . . . . . . . . . . . . . . . . . . . . . . . . . . . . . . . . . . . . . . . . . . . . . . . . . . . . . . . . . . . . . . . . . . . . . . . . . . . . . . . . . . . . . . . . . . . . . . . . . . . . . . . . . . . . . . . . . . . . . . . . . . . . . . . . . % % % % % % % % % % % @ @ @ @ @ $ $ $ $ $ $ $ + + + + + + + + = ' [ 7 d d x N $.$.$.$.-.].].].7.d.d.d.d.7.7.7.7.7.7.7.d.d.d.d.f.f.f.f.f.f.f.f.f.f.x.x.x.x.x.x.m.m.m.m.f.f.f.f.f.f.f.f.x.x.x.x.x.f.f.f.f.f.f././././././././././.$.=.$.N N N x K N N $.$.$.$./.<.<.c.c.c.c.2.%.` S ` v v g 8 ' ' = * + + + + + + + + + + + + + + + . . + . . . + + + + . . . . . . . . . . + + . . . . . . . . . . + + + + + + . + + + + + + + + + + + + + + + + + * * * * * * * * , , , , , ! , * * + + * * ! , * + + + + + * * + + + + + + + + + + + + % . . . . % % % . % % % % @ @ @ @ $ $ $ $ $ $ $ $ $ $ @ @ @ @ % % % @ . . % % % % % + . @ $ $ $ $ $ $ $ $ . + . . . . . . + . . % & > > > ",
". . . . . . . . . . . . . . . . . . . . . . . . . . . . . . . . . . . . . . . . . . . . . . . . . . . . . . . . . . . . . . . . % . . . . . . . . . . . . . . . . . . . . . . . % % . . . . . . . . . . . . . . . . . . . . . . . . . . . . . . . . . . . . . . . . . . . . . . . . . . . . . . . . . . . . . . . . . . . . . . . . . . . . . . . . . . . . . . . . . . . . . . . . . . . . . . . . . . . . . . % % % % % % % % % % % % @ @ @ @ @ $ @ $ $ $ $ @ + + + + + + + + = ' : 7 d d x N N $.$.-.-.-.].]./.7.d.d.d.7.7.7.7.7.7.d.d.d.d.d.f.f.f.f.f.f.f.x.x.x.x.x.x.x.x.x.m.m.m.m.f.f.f.f.x.x.x.x.x.x.x.x.x.x.x.f.f.f.f./././././././././././.=.=.$.N N N K K N N N $.$.$.1.1.<.<.c.c.[.[.%.%.'.S S v e 8 ' ' ' * * * * + + + + + + + + + + + + + . + + . + + . . . % . % % % % % % % % + + + + + + + + + + + + + + + + + + + + + + + + + + + + + + * * * ~ ~ 9 9 9 9 m m m m m m m m 4 4 4 ! ! ! ! ! 4 4 4 _ , * * * ~ ~ _ , , , * * * * * * * * > & & % % % % % % . . . % . . @ @ @ $ $ @ @ @ @ @ @ @ @ $ @ @ @ % % % @ . % % % . . . + % % $ $ $ $ $ $ $ @ + + + . + . + + % % & > ^ ^ 6 6 ",
". . . . . . . % . . % % . . . . . . . . . . . . % % . . . . % % . . . . . . . . . . . . . . % % % % % % % % . . . . . % % . . . % % % % % % % . . . . . . . . . . . % % % % . . % % % % % . . . . . . . . . . . % % % % . . . . . . . . . . . . . . . . . . . . . . . . . . . . . . . . . . . . . . . . . . . . . . . . % % % % . . % % . . . . % % % % . . . . % % % % % . . . . . . . . . . . . . . . . % % . % % % % % % % % % % % % % % @ @ @ $ @ @ @ $ $ @ + + + + + + + + + = : 7 d d d w N N $.$.-.-./._./.7.7.d.d.7.7.7.7.7.d.d.d.d.d.d.f.f.f.f.f.f.x.x.x.x.x.x.x.x.x.x.w.w.w.w.x.x.x.x.x.x.x.x.x.x.x.x.x.x.x.x.x.x.x.d.d.d.d.d.d.d././././.(.(.=.$.N N N N N N N N $.@.@.1.1.<.<.c.[.[.[.[.'.'.S S S v v o 1 1 _ , , * * * + + + + + + + + + + + + + + + + + + + % & & % & & + + * + + + + + + + + + + + + + + + + * * * * ~ ~ ~ ~ ~ ~ _ _ _ _ 9 9 i i i s G G G W W W W W W G G G G G m m m m m m m m m 4 4 _ _ _ 9 m o o m 9 9 1 1 9 9 9 9 9 4 ^ ^ - > > > - - - & % % . . . % % @ @ . . . . . . . . + . . . . . . . . . . . . . + + + + + + $ $ $ $ . . . . . . + . . % % > - ^ 4 m l A ",
". . . . . . % % % % % % . . % % . . . . . . . . % % % % . . . % % % % % % % % % . . % % % % % % % % % % % % % % % % % % % % % % % % % % % % % % % % % % % . . . . % % % % % % % % % % % % % % % . % % % % % % % % % % % % % % % % % % % % % % % % % % % % % % % . . . . . . . . . . . . . . . . . . . . . . . % . . % % % % % . . % % % % % % % % % % % % % % % % % % % % % % % . . . . % % % % % % % % % % % % % % % % % % % % % % % % % % @ @ @ @ @ @ @ @ @ @ + + + + + + + + + = ' [ 7 d d x x T N =.=./././././.7.d.d.d.d.d.d.d.d.d.g.d.d.d.f.f.f.f.m.x.x.x.x.x.x.x.x.x.x.x.w.w.w.w.x.x.x.x.x.x.x.x.x.x.x.x.x.x.x.x.x.x.x.f.d.d.d.d.f.f.f.d././.(.(.(.=.$.$.N N N N N N $.@.@.@.1.<.<.<.<.<.[.[.%.'.'.'.'.S S S v o 1 1 _ , * * * * * * * * * * * * * * * * * * * * * * * * * * * * * * * * ~ * * * * * ~ ~ ~ ~ ~ * ~ ~ ~ 9 9 9 9 m i i i m m m m s G s G W W W W ).).).).).).).).).).).W W W G G G G m m m m m 4 9 1 m m s E E E E G G m m m m m m m m 4 4 9 9 4 4 4 ^ ^ ^ - & & % & & % % % % . . . . . . % . . % % . . . . . . . % % + + + + + + + + + + + + + + + + + + + + * ~ 9 m m G G V ",
"% % . . % % % % % % % . . . % % % % % % % % % % % % % % . . . . % % % % % % % % % % % % % % % % % % % % % % % % % % % % % % % % % % % % % % % % % % % % % % % % % % % % % % % % % % % % % % % % % % % % % % . . . . % % % % % % % % % % % % % % % % % % % % % % . . . . . . . . . . . . . . . . . . . . . . . % % % % % % % . . . . % % % % % % % % % % % % % % % % % % % % % % % % % % % % % % % % % % % % % % . . . . . . . . % % % % % % . . @ @ @ @ @ @ @ @ + + + + + + + + + = ' [ 7 j d B x T T $.=.-././././.(.7.d.d.g.d.d.g.g.g.d.f.f.f.x.x.x.w.w.w.x.x.x.x.x.x.x.x.x.x.G.G.G.G.G.G.G.G.G.G.x.G.G.x.x.x.x.x.x.x.x.x.x.f.f.f.f.f.f.f.f.d.d./.(.(.(.=.$.$.$.N N N N N N N @.@.1.1.<.<.<.<.<.<.>.%.'.'.'.'.'...S S E h 1 3 3 3 ( ( ( ' ' ' , , _ _ 9 9 9 9 9 9 9 9 9 9 9 9 9 9 9 9 9 9 9 9 9 9 9 9 9 9 9 9 9 9 9 9 9 9 i i i m s G s G W W O O O O R R ,.,.).).).).).3.3.3.).).).).).).).W W G G G G m m m m m m m m m m G E E E G G W G G G G G G G G G G s s m m G m m m 1 _ ! - * * * - - & & % % % % % % % % % % % . . . . . . + + + + + + + + + + + + + + + + + + + + * * _ 1 m m G W W W ",
"% % % % % % % % & % % . . . % % % % % % % % % % % % % % . . . . % % % % % % % % % % % % % % . . . . . % % % % % % % & & & & % % % % % % % % % % % % % % % % % % % % % % % % % % . % % % % % % % % % % % % % . . % % % % % % % % % % % % % % % % % % . . . . % % . . . . . . . . . . . . . . . . . . . . % % % & & & & % % % % . . . . % % % & & % % % % % % % % . . . . . % % % % % % % % % % % % % % % . . . . . . . . . . . . % % % % % % . . . @ . @ @ @ @ . . . + + + + + + + * ' : 7 7 j B B T T T =.$.-././././.7.g.d.g.g.g.g.g.f.f.x.x.x.x.x.x.w.G.G.G.G.G.G.G.G.G.G.G.G.G.G.G.G.M.M.M.M.G.G.G.G.G.G.G.G.x.x.x.x.x.x.x.f.f.f.f.f.f.f.f.d.d./.(.(.(.(.$.$.$.$.$.$.N N N N L @.@.1.1.<.<.<.<.<.<.>.%.'.'.'.'.'.{.{...Y E E v E E E v v h h h 1 1 o i i i i i i i i i i m m m i i i 9 9 9 9 i i i i i i i i i m i 9 i i m s s s s O R R ,.~.~.~.~.~.~.~.~.~.).).).).).).).).).W W W W W Y G G m m m m m m m m m m m m m o E E E E E Y W G G W W W W G G G W W W W W W W W G G m m 4 4 ! ! ! ! ! ! ! ! - - - * * - & % % + + + + + + + + + + + + + + + + + + + + + + + + + * , _ 1 o s E W W ).).",
"% % % % % % % % % % . . . . . % % % % % % % % % % % % % . . . . . % % % % % % % % % % % % % . . . . . . % % % % % % % % % % % % % % . . . . % % % % % % % % % % % % % % % % . . . % % % % % % % % % % % % % . . % % % . % % % % % % % % % % % % % % . . . . . . . . . . . . . . . . . . . . . . . . . . . . % & & & & % % % . . . . . % % % % & % % % % % % % % . . . . . . % % % % % % % % % % % % % . . . . . . . . . . . . . % % % % % . . . . @ . @ @ @ @ . . . + + + + + + + * ' : 7 7 c B B T T T T -.$./././.(.g.f.f.g.t.t.t.x.x.x.x.x.x.x.x.x.G.G.M.M.M.M.M.G.G.G.G.G.G.M.M.M.M.M.M.M.M.M.G.G.G.G.G.G.G.G.G.x.x.x.x.x.f.f.f.f.d.f.f.f.d.d./.(.(.(.(.$.$.$.$.$.$.N N N L L L @.@.1.1.<.c.c.<.<.%.%.%.%.'.{.{.{.{.{.{.............S S S S v v v v s s s s s s i i i i i i i i i i i i i i i i i s s s m m i i i i i i s s s s s R R ,.~.~.).).).).).).).).).).).W W W W W G G G G G E o o m 1 1 9 9 m m m m 9 9 m o o o o E E E E E E G G G G G G G G W W W ).).).).).).W W G E o o o o o o o o o 4 1 1 ! _ _ , ! ! , * * * * * * * * * * * * * * + + + + + + + + * * ' ' 1 o v v S S S '.'.'.",
". . . . . . % % % . . . . . . % % % % % % % % % % % % % . . . . . . % % % % % % % % % % % . . . . . . . % % % % % % % % % % % % % . . . . . . % % % % % % % % % % % . . . . . . . % % % % % % % % % % % % % % . . . . . . % % % % % % % % % % % % . . . . . . . . . . . . . . . . . . . . . . . . . . . . . . % % % % % . . . . . . . % % % % % & & % % % % % % . . . . . . . % % % % % % % % % % % % . . . . . . . . . . . . . % % . . . . . . . . . @ @ @ . . . . + + + + + + + + , } [ c t B B Q T T $.=.=././.(.g.f.f.f.t.t.t.x.x.x.x.x.B.B.x.G.G.M.N.M.M.M.M.M.M.G.G.G.G.G.M.M.M.M.M.M.M.M.M.G.G.G.G.G.G.G.G.G.x.x.x.x.x.f.f.f.f.d.f.f.f.d.d./.(.(.(.(./.$.$.$.$.$.N N N L L Z Z @.@.1.<.c.c.<.<.<.%.%.%.%.{.{.{.{.{.{.{.{.{.{.{.{.'.'.'.S S v v v s s s s s s i i i i i m m m i s s i i i i i s s s s m m i i i i i i m m i i s s R R ,.,.W ).).).).).).W W W W G G G G m m m m m o o 1 2 1 _ _ 1 9 1 9 9 1 1 1 1 3 1 o o k k k k k o o o s G G G G G W Y W ).).).).).).).W Y E E E E E W W W W G G G o o k 3 2 2 2 ( ( ( ( ( ( _ _ ' _ ' ' ' ' ' ' ' , * = * * = ' ' ' [ o v S '.'.'.'.'.'.'.",
"% % % % % % . . . . . . . . % % % % % % % % % % % % % % % . . . % % % % % % % % % % % % % % . . . . . % % % % % % % % % % % % % . . . . . . % % % % % % . . . . . . . . . . . . . . . . . . . . . . . . . . . . . . . . . . . . . . . . . . . . . . . . . . . . . . . . . . . . . . . . . . . . . . . . . . . % % % % % . . . . . . . . % % % % % % % % % % % % % . . . . . % % % % % % % % % % % % % . . . . . . . . . . . . . % % % % . . . . . . . . % % % . + + % + + + + + + * ' : [ 7 t U Z Z &.!.!.(.(.(.(.g.f.f.x.x.x.x.x.M.S.S.S.S.M.M.M.M.M.M.M.`.M.M.N.N.N.M.G.G.M.M.M.M.M.S.S.M.M.M.M.M.M.M.M.M.G.G.G.G.G.x.x.B.x.f.f.f.f.f.f.f.f.f.f.(.(.(.(.(.=.=.$.$.$.N N N N L L L L L @.1.1.1.c.c.<.[.[.%.` ` X X X X X X %.%.%.%.'.'.'.'.S P S v v v e e e i i i i o i o o o i i i m m i i 9 m m m m m m m m m m m 9 m m m m i m i m G G G G G s s G W W G G G G G m m m m o 9 9 1 1 1 1 1 1 _ _ _ _ 1 1 1 1 _ , , _ _ 1 9 m k k k 3 3 1 9 9 m m m m m G G E G W W ).).......W Y W E E Y Y ............Y Y E E E k k k k k k h h h g g g 8 8 8 8 [ [ [ [ : : : ' ' ' : [ [ h v S '.'.'.'.'.'.'.S ",
"% % % % % % . . . . . . . % % % % % % % % % % % % % % % % % . . . . . % % % % % % % % % % % % % . . % % % % % % % % % % % % % % % % % . % % % % % % % % . . . . . . . . . . . . . . . . . . . . . . . . . . . . . . . . . . . . . . . . . . . . . . . . . . . . . . . . . . . . . . . . . . . . . . . . . . . % % % % % % % % % % % % % % % % % % % % % % % % % % % % . . % % % % % % % % % % % % % % % % % . . . . . . . . . % % . . . . . . . . . . . % % % % + + + + + + + + + + ' ' : 7 D U Z &.%.5.:.(.1.f.f.f.x.x.x.x.x.M.S.`.`.`.`.`.M.S.M.M.M.M.M.M.M.M.N.N.M.M.M.M.M.M.M.M.M.M.M.S.M.M.M.M.M.G.G.G.G.M.M.M.M.M.x.B.B.f.f.f.f.f.f.f.f.f.f.(.(.(.1.(.=.=.$.$.$.N N N L L L L L L @.1.1.1.c.c.c.[.5.&.Z Z t t C C C C Z Z Z Z ` ` ` S P P P v v v e e e e e e o o o o 1 1 9 9 9 i i 9 9 9 9 9 1 9 9 1 9 1 1 9 9 1 9 1 1 9 9 9 9 i i s s s i i m i m m m i m m 9 1 _ _ _ _ _ _ _ _ _ _ _ _ _ 1 1 1 1 1 _ , * * * , _ _ 1 9 3 3 3 3 3 < 1 1 1 1 9 9 1 o o o G G G W Y Y Y Y W W E E Y Y ....{.{.{.{.{.......Y Y E E E E E E v v v v v v v v v v v v g g g g g 7 [ 7 g g z z S '.2.2.2.2.'.>.S S ",
"% % % % % % . . % % % % % % % % % % % % % % % % % % % % % % % % . . . % % % % % % % % % % % % % % % % % % % % % % % % % % % % % % % % % % % % % % % % % . . . . . . . . . . . . . . . % % % . . . . . . . . . . . . . . . . . . . . . . . . . . . . . . . . . . . . . . . . . . . . . . . . . . . . . . . . . % % % % % % % % % % % % % % % % % % % % % % % % % % % % % % % % % % % % % % % % % % % % % % % % . % . . . % % % % % % % . . . . . . . . . % % % % . + + + + + + + + + , ( } h F U &.%.[.[.5.9.m.m.w.w.G.G.G.M.S.`.`.`.`.`.`.`.M.S.`.`.M.M.M.M.M.M.N.M.M.G.G.G.M.M.M.M.M.`.M.M.S.S.M.M.M.G.G.G.G.M.M.M.M.M.M.M.B.B.B.B.f.f.f.f.f.f.f.d.(.(.1./.=.=.$.@.$.N N L L L L N L L @.@.1.1.9.m.c.c.5.&.Z Q D D c c c f t D t t t t t t z z v v v g e e e e e e e e 1 1 1 1 9 9 9 9 9 9 9 _ _ 1 1 1 1 1 1 1 _ _ _ 1 _ _ _ _ , , _ 9 9 i i 9 9 _ _ _ 1 9 9 9 1 _ _ , * * * * , , , , _ _ _ _ 1 1 9 1 9 1 _ * * + + * , _ _ _ 3 3 < ( ( _ , , , _ _ _ ( 1 3 3 o o o E E E E E E E E E E Y Y ..{.{.{.{.{.{.......*.X X X X X X S ` ` S ` P P P P ` ` ` ` ` ` z z z z z z ` S '.[.[.2.2.[.>.>.` P P ",
"% % % % % % % % % % % % % % % % % % % % % % % % % % % % % % % % . . . . % % % % % % % % % % % % % % % % % % % % % % % % % % % % % % % % % % % % % % % % . . . . . . . . . . . . . . . % % . . . . . . . . . . . . . . . . . . . . . . . . . . . . . . . . . . . . . . . . . . . . . . . . . . . . . . . . . . % % % % % % % % % % % % % % % % % % % % % % % % % % % % % . . % % % % % % % % % % % % % % % % . . . . . . . . . . % . . . . . . . . . . % % % % % % % + + + + . . + * , < p C X *.^.[.i.i.m.m.m.w.w.G.G.M.M.M.M.M.M.`.`.`.`.M.M.M.M.M.M.M.M.M.G.G.G.G.G.G.G.M.M.M.M.M.M.`.`.M.M.M.M.M.M.G.G.G.G.G.M.M.M.S.S.S.M.B.x.x.x.x.f.f.f.f.f.f./.1.1./.$.@.@.@.N N L L L N L N L L Z @.1.1.9.m.m.m.9.5.!.Q Q D c c c 0 c c c c f t t t t t z z g g g g g g e e 8 8 8 1 1 1 9 9 9 9 9 9 _ _ _ _ _ _ _ _ _ _ _ _ _ _ _ _ , , , , , _ 1 1 1 1 _ , , , _ 9 9 9 1 _ _ , * * * * * * , , _ _ _ _ 1 1 1 1 9 9 1 _ _ , , , , , _ _ ( ( ( ( ( , , , _ _ _ _ _ ( ( < 1 1 1 k k k k k h h k k F F E X Y ....X X *.X X *.X X X X X ` ` ` ` ` ` ` >.>.>.>.>.>.>.>.>.>.` ` ` ` >.>.>.<.<.[.[.[.<.<.>.` Z L y ",
". . . . . . . . . . . . % . . . . . . . . . . . . . . . . . . . . . . . . . . . % % % % . . . . % . . . . . . . . . . . . . . . . . . . . . . . . . . . . . . . . . . . . . . . . . . . . . . . . . . . . . . . . . . . . . . . . . . . . . . . . . . . . . . . . . . . . . . . . . . . . . . . . . . . . . . . . . . . . . . . . . . . . . . . . . . . . . . % . . . . . . . . . . . . . . . . . . . . . . . . . . . . . . . . . . . . . . . . . . . % % % % % . % % . + . . . . + ( 2 k E ..^.b.b.l.l.u.u.u.H.G.G.G.M.M.M.G.M.M.M.M.M.M.M.M.M.M.M.M.M.N.N.G.G.G.G.G.G.G.M.M.M.M.M.`.`.`.`.M.M.M.M.M.M.M.M.M.M.N.M.M.`.`.`.S.B.B.B.x.x.x.f.f.f.f.f.1.1.1.1.@.@.@.$.N L L L L N L L L L Z @.@.1.5.m.m.m.m.9.!.!.U Q D c c 0 0 0 c c c t t f t t g g g g g g 8 8 8 8 8 8 8 8 1 1 1 1 _ _ _ _ _ , , , , , , _ _ _ , , , _ _ , , , * * * * , , , , * * * ~ _ 9 9 9 9 _ , * * * + + * * * * ~ , , , _ , , _ 9 9 9 9 1 _ , , , , , _ _ _ _ _ _ _ , _ _ _ _ _ _ ( ( ( _ _ ( ( 3 3 3 3 } } 3 3 k p C F F F X X X X X X U U Z Z Z Z Z Z Z Z Z Z ` >.>.>.>.<.<.<.<.<.>.>.%.[.[.<.<.c.c.h.c.c.<.<.>.>.L L y y ",
". . . . . . . . . . . . . . . . . . . . . . . . . . . . . . . . . . . . . . . . . . . . . . . . . . . . . . . . . . . . . . . . . . . . . . . . . . . . . . . . . . . . . . . . . . . . . . . . . . . . . . . . . . . . . . . . . . . . . . . . . . . . . . . . . . . . . . . . . . . . . . . . . . . . . . . . . . . . . . . . . . . . . . . . . . . . . . . . . . . . . . . . . . . . . . . . . . . . . . . . . . . . . . . . . . . . . . . . . . . . . . . . . % % % . + . . . % ! 2 E Y {.^.b.b.l.l.u.u.u.H.G.w.G.G.M.M.G.G.G.M.M.M.M.M.M.G.M.M.M.M.N.N.N.N.M.G.G.M.M.M.M.Q.`.`.`.`.`.`.`.`.M.M.M.M.M.M.M.M.M.M.M.M.M.M.M.M.M.M.M.G.G.x.x.x.x.x.f.f.f.(.(.(.=.=.$.$.=.$.$.N $.$.=.=.=.=.(.(.9.m.w.w.E.w.9.:.:.!.!.Q u u c c c c u B B u B B t t t t g g g g g g g g g h h h 3 3 3 _ _ _ , , , , , , , _ _ _ ~ ~ ' , _ , , , * * * * * , , , * * * * _ 9 9 9 _ _ , * = * + + + * * = = = = = = = = ~ 9 i i 9 9 ' ~ ' ~ ' ~ ~ , _ _ _ _ _ _ _ _ _ _ _ ( ( ( ( ( ( ( ( < < 3 3 3 3 3 3 } 3 k h p p C F C C C C C t t t t t t t t t t Z L ` >.>.>.<.<.<.<.<.<.<.[.[.c.c.c.c.c.h.c.c.<.>.>.L y y y y ",
". . . . . . . . . . . . . . . . . . . . . . . . . . . . . . . . . . . . . . . . . . . . . . . . . . . . . . . . . . . . . . . . . . . . . . . . . . . . . . . . . . . . . . . . . . . . . . . . . . . . . . . . . . . . . . . . . . . . . . . . . . . . . . . . . . . . . . . . . . . . . . . . . . . . . . . . . . . . . . . . . . . . . . . . . . . . . . . . . . . . . . . . . . . . . . . . . . . . . . . . . . . . . . . . . . . . . . . . . . . . . . . + . % % + . + . . . % ! 2 E Y {.^.b.b.a.p.p.u.u.u.m.m.m.B.G.x.x.x.G.M.M.M.M.M.M.G.M.M.M.M.N.N.N.N.M.M.M.M.M.M.Q.Z.`.`.`.`.`.`.`.`.`.`.`.M.M.M.M.M.M.M.M.M.M.M.M.M.M.M.G.G.G.x.x.x.x.x.f.f.f.1.(.(.(./.$.$.=.=.=.=.=.=.=.=.=.(.(.(.9.m.m.w.w.w.m.9.9.5.:.!.!.Q u c c c u u B B B B z z z t t t g g g g g g h h h o 3 3 3 _ _ _ _ , , , _ _ _ _ 1 1 9 9 ' _ _ _ _ , , , * * * , , , * * * * _ 9 9 9 _ _ , = = = * * * * = ~ ' ~ ' ' ' ~ ~ ' 9 i 9 9 9 ' ' ~ ~ ' ' ~ , , , , , , _ _ ( ( ( ( ( ( ( ( ( ( < < < 3 } } } } 3 3 3 } } } } 3 p p p p p p f f f f f j j j j j j y y L L ` >.>.>.>.<.<.<.<.[.c.c.c.c.c.h.c.<.<.>.` L y y y y y ",
". . . . . . . . % . . . . . . . . . . . . . . . . . . . . . % % % % . . . . . . . . . . % . . . . . . . . . . . . . . . . . . . . . . . . . . . . . . . . . . . . . . . . . . . . . . . . . . . . . . . . . . . . . . . . . . . . . . . . . . . . . . . . . . . . . . . . . . . . . . . . . . . . . . . . . . . . . . . . . . . . . . . . . . . . . . . % % % % . . . . . . % % . . . . . . . . . . . . . . . . . . . . . . . . . . . . . . . . . . . . . . . . % % + + . . . . . - ! 2 E Y ..^.6.b.p.p.p.u.c.u.f.f.f.m.x.x.x.x.G.G.M.M.M.M.G.G.M.M.M.M.N.N.`.`.`.`.`.`.`.Q.Z.Z.Z.Z.Z.Z.Z.Z.Z.Z.`.`.`.`.M.M.M.M.M.M.M.M.M.M.M.B.G.G.G.G.G.x.x.x.x.x.x.f.f.1.(.(.1./././.(.1.1.1.1.1.1.1.(.(.(.(.5.9.m.m.w.w.m.m.m.i.9.:.!.!.u u c c c u u B B B z z t t z g g g h g h h 3 3 3 1 3 3 ( _ _ _ _ , _ _ _ _ _ 1 1 9 9 9 9 9 9 9 _ _ , , * * * * * * * * * * , 9 9 9 9 _ , = = = * = = ~ ' | 9 9 9 9 9 | 9 | 9 i 9 9 9 ' ~ ~ ~ ~ ' ~ , , , , , , _ _ ( ( ( ( ( ( ( ( ( ( < 3 3 3 3 3 < < < < < < < 3 } } k p p p h p f f f f j j j j j j j j j y y L P P >.>.>.<.<.<.<.h.h.h.h.h.h.h.<.>.` L y y y y y y ",
". . . . . . . . % % % % % % . . % . . . . . . . . . % % % % % % % % % % % % % . % % % % % % % % % % % % % % % % . . . . . . % % % % % % % % . . . . . . . . . . . . . . . . . . . . . . . . . . . . . . . . . . . . . . . . . . . . . . . . . . . . . . . . . . . . . . . . . . . . . . . . . . . . . . . . . . . . . . . . . . . . . . . . . . . . . . . . . . . . . . . . . . . . . . . . . . . . . . . . . . . . . . . . . . . . . . . . . . . . . . . . . . . + & & . . . . + % ! 2 E Y ..^.6.a.p.p.p.u.c.c.f.f.f.f.w.w.G.G.G.M.M.M.M.M.G.M.M.M.M.M.M.M.`.`.`.`.`.`.`.`.`.`.`.`.`.`.`.`.`.`.`.`.`.`.M.N.N.N.N.N.G.G.G.G.G.G.G.G.G.G.G.x.x.x.B.x.x.f.f.f.1.(././.(.1.(.(.1.1.1.1.1.1.1.1.1.1.9.9.9.m.w.w.m.w.w.w.i.i.9.!.Q u c c c u u u B B t t t t t t t h g h g 3 3 3 1 1 [ 3 1 _ _ _ _ _ _ _ _ _ _ 1 9 m m m m m m m 9 _ _ , , * * * * * , , , * , _ 9 9 9 _ , , ~ ~ ' = = ~ 9 9 i b b b i 9 9 9 9 9 9 9 9 ~ ~ ~ ~ = = ) , , , , * , , _ ( ( 3 3 3 3 3 3 3 3 3 3 3 3 3 3 3 < < < < < < < } } 3 p p } } } 0 0 0 0 0 7 7 7 7 7 7 7 j j y y L L L >.>.<.<.<.<.c.c.c.<.h.<.<.>.L L y y j y y y y ",
". . . . . . . . % % % % % % % % % % % . . . . % % % % % % % % % % % % % % % % . % % % % % % % % % % % % % % % % % % % % % % % % % % % % % % % % % % % % . . . . . . . . . . . . . . . . . . . . . . . . . . . . . . . . . . . . . . . . . . . . . . . . . . . . . . . . . . . . . . . . . . . . . . . . . . . . . . . . . . . . . . . . . . . . . . . . . . . . . . . . . . . . . . . . . . . . . . . . . . . . . . . . . . . . . . . . . . . . . . . . . . . . + % % + . . . . . . - 2 E Y ..{.6.6.p.a.a.u.c.c.f.f.f.f.x.G.G.G.M.M.M.M.M.M.M.M.`.`.`.`.`.`.`.`.`.`.`.`.`.`.`.`.`.`.`.`.`.`.`.`.`.`.`.`.`.N.N.N.N.G.G.G.G.G.G.G.G.G.G.G.G.x.x.x.B.x.x.f.f.f.1.1./.(.(.(.1.1.1.1.1.1.1.1.1.1.1.1.:.:.9.9.m.m.m.m.E.E.E.i.9.:.Q D u c c u u u c c t t t t t t f h h h h [ 3 3 _ ( ( ( ' _ _ _ _ _ 1 1 1 1 1 9 m m m m G G m m 9 1 _ _ , , , * * * , , , * , _ _ 9 9 9 _ _ ' ' ' ~ ~ ~ 9 9 b b b b i i 9 9 9 i 9 9 9 ~ ~ = = * * = , , , , , , , _ ( 3 3 3 3 3 3 3 3 3 3 3 3 3 3 3 } < < < < < < 3 } } } p } } } } 0 } } } [ 7 [ [ [ [ [ [ 7 j y y y P P P >.>.<.<.<.<.<.<.<.<.<.>.P P y y y y y y P P ",
"% % . % % % % . % % % % % % % % % % % % % % % % % % % % % % % % % % % % % % % % % % % % % % % % % % % % % % % % % % % % % % % % % % % % % % % % % % % % . . . . . . . . . . . . . . . . . . . . . . . . . . . . . . . . . . . . . . . . . . . . . . . . . . . . . . . . . . . . . . . . . . . . . . . . . . . . . . . . . . . . . . . . . . . . . . . . . . . . . . . . . . . . . . . . . . . . . . . . . . . . . . . . . . . . . . . . . . . . . . . . . . . . . . . . . . . . . . - 2 k E Y ..^.6.a.a.a.c.c.f.1.f.f.m.B.G.G.M.M.`.`.`.`.M.M.`.`.`.`.`.`.`.`.`.%+%+`.`.`.`.`.`.`.`.`.`.`.`.`.`.`.`.`.`.`.M.N.N.N.N.G.G.G.G.G.G.G.G.G.G.G.G.x.x.B.B.x.x.f.f.f.1.(.(.(.(.1.1.1.f.9.9.9.1.1.1.1.1.:.:.:.9.9.9.m.m.E.E.E.E.9.:.!.Q D u u u u u c c f f f t t f f h h h } 3 [ ( ( ' ( ( ( _ _ _ 1 1 1 1 1 1 1 1 m m m m G G m m 1 1 1 _ _ , , * * * , , * * ~ _ ~ 9 9 9 9 9 9 9 9 ~ ' 9 9 i i i i i i b 9 9 b i i 9 9 _ * * * + + = * , , , , , _ _ 3 3 3 3 3 3 3 3 3 3 3 3 3 3 3 3 3 < < < < < 3 3 3 3 p p } } } 0 } } [ : [ [ : : : : : : [ 7 j y y P P >.>.>.<.<.<.<.<.<.<.<.>.>.P y y y y y y P P P ",
"% % % % % % % . % % . . . % % % % % % % % % % % % % % % % % . . . . . % % % % % % % % % % % % % % % % % % % % % % % % % % % % % % % % . . % % % % % % % . . . . . . . . . . . . . . . % . . . . . . . . . . . . . . . . . . . . . . . . . . . . . . . . . . . . . . . . . . . . . . . . . . . . . . . . . . . . . . . . . . . . . . . . . . . % . . . . . . . . . . . . . . . . . . . . . . . . . . . . . . . . . . . . . . . . . . . . . . . . . . . . . . . . . . . . . . . . . . - 2 p E Y ..{.^.6.a.a.c.c.f.f.f.f.w.G.M.M.M.`.`.`.%+%+`.`.`.`.`.`.`.`.`.`.`.%+%+`.`.`.`.`.`.`.`.`.`.`.`.`.`.`.`.`.`.`.M.N.N.N.N.N.N.G.G.G.G.G.G.G.G.G.G.G.G.x.B.x.f.f.f.f.1.(.(.(.(.(.1.1.f.9.f.1.1.1.1.1.=.:.:.:.:.9.9.9.m.w.E.E.i.9.:.!.Q Q D u u u u c c f f f f f 0 0 0 h } } 3 3 3 ( ( ( ( ( _ _ 1 1 1 1 1 1 1 1 1 m m m m m m m 9 1 1 _ _ _ , , * * * * * * * , ~ 9 9 9 9 9 9 9 9 9 9 9 9 9 b i i i i i i 9 i i i i i 9 _ * * + + + = * , , _ ( ( 1 1 3 3 3 3 3 3 3 3 3 3 3 3 3 < < < < < < < < 3 } k p p p p p 0 } } } < : : : [ : : : : : : 7 j j y P P P >.>.>.<.<.<.<.<.<.>.>.>.P P y y y y y y P P P ",
"% % % % % % % % . . . . . . % % % % % % % % % % % % % % . . . . . . . % % % % % % % % % % % % % % % % % % % % % % % % % % % % % % . . . . . % % % % % % . . . . . . . . . . . . . . . . . . . . . . . . . . . . . . . . . . . . . . . . . . . . . . . . . . . . . . . . . . . . . . . . . . . . . . . . . . . . . . . . . . . . . . . . . % % % . . . . . . . . . . . . . . . . . . . . . . . . . . . . . . . . . . . . . . . . . . . . . . . . . . . . . . . . . . . . . . . . . . - 2 2 E Y ..{.^.6.a.a.c.u.c.f.f.w.G.M.M.M.`.`.%+%+%+%+%+`.`.`.`.`.`.`.`.`.`.%+%+`.`.`.`.`.`.`.`.`.`.`.`.`.`.`.`.`.`.`.M.M.N.N.N.N.N.N.N.N.N.G.G.G.G.G.G.G.G.x.x.x.m.f.f.f.1.(.(.1.1.1.1.f.9.f.1.1.1.1.1.=.=.!.!.!.:.:.:.9.m.i.i.w.i.9.:.!.Q Q D u u c u c c f c c 0 0 0 0 } } } } } 3 ( ( ( ( ( ( _ _ _ 1 1 1 1 1 3 1 3 1 o i m i i 9 9 _ _ _ , , , , = * * * * * = ~ ~ 9 9 9 9 9 9 9 9 9 9 9 9 i m i i i i m i i i i i i i 9 _ * * + + + = , , _ _ 3 3 1 1 k k 3 3 3 3 3 3 3 3 3 ( ( < < < < < 3 } } 3 h k p p p p f 0 } } } } [ : [ [ [ : : : : [ 7 j y y P P >.>.>.<.<.<.<.<.<.>.>.>.P P y y y y j y y y y y ",
"% % % % % % % % . . . . . . . % % % % % % % % % % % % . . . . . . . . % % % & & % % % % % % % % % % % % % % % % % % % % % % % % . . . . . . . % % % % % . . % % . . . . . . . . . . . . . . . . . . . . . . . . . . . . . . . . . . . . . . . . . . . . . . . . . . . . . . . . . . . . . . . . . . . . . . . . . . . . . . . . . . . . . . . . . . . . . . . . . . . . . . . . % % % % % % % % . . . . . . . . . . . . . . . . . . . . . . . . . . . . . . . . . . . . . . . . . . - 2 2 E Y ..^.6.b.a.p.u.u.u.m.w.G.M.M.`.`.`.%+%+%+^+^+%+%+%+%+%+%+%+`.%+%+`.`.`.`.`.`.`.`.`.W.W.W.W.W.W.W.W.`.`.`.`.`.M.N.N.N.N.M.M.M.N.N.N.N.G.G.G.G.G.G.G.x.x.w.w.m.f.f.f.f.f.f.1.1.1.9.9.1.1.1.1.1.(.=.=.!.!.;.;.!.!.:.9.9.9.9.9.9.:.!.!.Q u u u c u c c f c 0 0 } } } } } } < < < < ( _ ( ( ( _ _ _ _ _ ( ( ( 1 1 1 1 1 9 9 9 9 1 _ _ _ _ _ , , , = = = * * = = ~ ~ 9 9 9 i b i i i 9 9 9 9 i i i b i i i i i i m m m m 9 _ * + + + * = , , _ ( 3 3 1 1 3 3 3 3 3 3 3 ( ( ( ( ( ( ( < < < 3 } } k p p p p p p f f 0 } } } } } } [ [ [ [ : : : 7 j j y L L >.>.>.>.<.<.<.<.<.>.>.P P L L y y y y j y y y y y ",
"% % % % % % % % % % . . . % % % % % % % % % % % % % % % % . . . % . % % % % % % % % % % % % % % % % % % % % % & % % % & & % % % % % . . . % % % % % % % . . . . . . . . . . . . . . . . . . . . . . . . . . . . . . . . . . . . . . . . . . . . . . . . . . . . . . . . . . . . . . . . . . . . . . . . . . . . . % % . . . . . . . . . . . . . . . . . . . . . . . . . . . . . . . . % % % % % . . . . . . . . . . . . . . . . . . . . . . . . . . . . . . . . . . . . . . . . . . - 2 k E Y {.6.a.q.v.I.H.H.H.G.G.H.M.`.`.%+%+%+%+%+%+%+%+%+%+%+%+%+%+%+%+%+`.`.`.`.`.`.`.`.`.W.W.W.W.W.W.W.W.`.`.`.`.M.M.N.N.N.M.`.`.`.`.N.N.N.N.G.G.G.G.G.G.G.G.w.w.w.m.f.f.f.f.f.f.1.1.1.1.1.1.1.1.(.(.=.=.!.!.;.;.;.;.!.!.:.:.:.:.:.!.!.Q Q u u u c u c c c c 0 } < < ( ( ( ( ( ( ( ( ( _ ( ( < _ _ _ _ _ _ _ _ _ 1 1 1 1 9 9 1 9 _ _ _ _ _ _ , , , = = = * * = = = ~ b 9 i i i s m i 9 9 9 9 9 9 9 b b b i i i i m s s s m 1 , * * * * = , , _ ( 3 3 1 3 3 3 ( ( ( ( ( ( _ ( ( _ _ ( < < < 3 3 k p p p p p p f 0 } } 0 } } } } } [ 7 7 7 7 7 7 7 j y L L >.>.>.>.<.<.<.>.>.>.>.>.L L L y y y y j y y x y y y ",
"% % % % % % % % % % % % % % % % % % % % % % % % % % % % % % % % % % % % % % % % % % % % % % % . % % % % % % % % % & & & & & % % % % % % % % % % % % % % . . . . . . . . . . . . . . . . . . . . . . . . . . . . . . . . % % % % . . . . . . . . . . . . . . . . . . . . . . . . % . . . . . . . . . . . . . . . . % % % . . . . . . . . . . % % . . . . . . . . . . . . . . . . . . . . . . . . . . . . . . . . . . . . . . . . . . . . . . . . . . . . . . . . . . . . . . . . . . - 2 2 E Y ^.a.q.s.J.O.Q.Z.Q.Q.Q.Q.`.Z.`.%+%+%+%+%+%+%+%+%+%+%+%+%+%+%+%+`.`.`.`.`.`.`.M.`.`.W.W.W.W.W.W.W.W.`.`.`.`.M.M.N.N.N.M.`.`.`.`.`.N.N.N.G.G.G.G.G.G.G.G.G.G.w.w.m.f.f.f.f.(.1.1.1.(.1.1.1.(.1.(.=.=.:.!.!.!.;.;.;.;.!.!.!.!.!.!.Q Q D u u u u u c c c 0 0 } < ( , , , , , , ( ( ( ( < < < _ _ _ _ _ ' ' ' ' 1 1 1 1 i 9 1 9 9 9 _ _ _ _ , , , = = = * * * = = ~ b 9 b i s s s i 9 9 _ 9 9 9 9 9 b 9 i i m i m s s s m 9 , * * * * * , , , ( < 3 1 ( ( ( ( ( ( ( ( _ _ _ _ _ _ ( < < 3 } k k p p p f p p } } } } } } } } } } 0 7 7 7 d d d j x L L @.>.<.<.<.<.<.<.>.@.@.@.L L L L y x x x x j j j j j x ",
"% % % % % % % % % % % % % % % % % % % % % % % % % % % % % % % % % % % % % % % % % % % % % % % % % % % % % % % % % % % % % % % % % % % % % % % % % % % % . . . . . . . . . . . . . . . . . . . . . . . . . . . . . . . . . . . . . . . . . . . . . . . . . . . . . . . . . . . . . . . . . . . . . . . . . . . . . . . % . . . . . . . . . . . . . . . . . . . . . . . . . . . . . . . . . . . . . . . . . . . . . . . . . . . . . . . . . . . . . . . . . . . . . . . . . . . . . % - 2 k F ..^.b.s.J.J.P.Z.Z.Z.Z.Q.`.Z.`.%+%+%+%+%+%+%+`.`.`.%+$+%+%+`.`.`.`.`.`.N.N.N.N.N.W.W.W.W.W.W.W.W.W.N.W.W.W.W.W.N.N.N.N.N.W.W.`.`.M.N.N.N.N.G.G.G.G.t.G.G.G.w.w.m.m.f.f.f.f.f.1.1.(.(.(.(.(.(.(.(.(.(.:.:.!.;.;.;.;.;.!.!.Q Q Q Q Q u u u u c u u c c 0 0 0 } } < ( , , , ( ( ( ( < < 3 3 3 1 _ _ ' ' ' ' ' ' _ 1 1 1 9 9 9 1 9 1 1 _ _ _ _ , = = = * * * * ' ~ ' ' 9 b i s G s m 9 9 _ _ _ _ _ _ _ _ 9 9 i i m m m m m 9 _ , * * * * * * , , , < ( ( ( ( ( ( ( ( , , , , , , , ( < 3 } p p p f f f f 0 0 } < < < ( ( ( ( : } 7 7 7 j j j x x x L @.>.<.<.<.<.<.<.>.@.@.@.L L L L x y x x x x j j j j y y ",
"% % % % % . . . . . % % % % . . % % % % % % % % . . % % % . % % . . . . . . . . . . . . . % % % . . . % % . . . . . . % % % . . % % % % % % % % % % % % . . . . . . . . . . . . . . . . . . . . . . . . . . . . . . . . . . . . . . . . . . . . . . . . . . . . . . . . . . . . . . . . . . . . . . . . . . . . . . . . . . . . . . . . . . . . . . . . . . . . . . . . . . . . . . . . . . . . . . . . . . . . . . . . . . . . . . . . . . . . . . . . . . . . . . . . . . . . . . - 2 k E ..6.l.s.J.P.Z.-+,+,+Z.Z.`.Z.%+%+%+%+%+%+%+`.`.`.`.`.`.`.`.`.`.`.`.M.N.N.N.N.N.N.W.W.W.W.W.W.W.W.W.N.W.W.W.W.W.N.N.N.N.N.W.W.`.`.M.N.N.N.N.G.G.G.G.G.G.G.w.w.w.m.m.f.f.f.f.f.1.(.(.(.(.(.(.(.(.(.(.(.:.:.!.;.;.;.M M !.Q Q Q Q Q u u u u c c c c c c 0 0 0 0 } } < ( _ ( < < < < < 3 3 3 3 1 1 _ ' ' _ ' ' ' 1 1 1 1 9 9 9 9 _ _ _ _ _ _ _ , , = = = * * = ' ~ ~ 9 9 b i s s m i 9 ~ _ _ _ _ , * ~ , 9 9 m i m m m m m 1 , , * * * * * * * * , ( ( ( ( ( ( , , , , , , , , , , ( < 3 } p p p f f f f 0 0 } < < < < < ( ( < } 0 7 c j B B Z L L L @.>.<.<.<.<.<.>.@.@.Z L L L L L x x x x x x j j j j j j ",
". . . . . . . . . . . . . . . . . . . . . . . . . . . . . . . . . . . . . . . . . . . . . . . . . . . . . . . . . . . . . . . . . . . . . . . . . . . . . . . . . . . . . . . . . . . . . . . . . . . . . . . . . . . . . . . . . . . . . . . . . . . . . . . . . . . . . . . . . . . . . . . . . . . . . . . . . . . . . . . . . . . . . . . . . . . . . . . . . . . . . . . . . . . . . . . . . . . . . . . . . . . . . . . . . . . . . . . . . . . . . . . . . . . . . . . . . . - 2 k E ..6.s.J.R. +-+,+,+,+$+$+$+$+%+%+%+%+`.`.`.`.`.`.`.`.`.`.`.`.`.`.M.M.M.N.N.N.N.W.W.W.W.W.W.W.W.W.W.N.W.W.W.W.W.W.N.N.N.W.W.W.`.`.`.N.N.N.N.G.G.G.G.G.G.G.w.w.w.m.m.m.f.f.f.f.1.1.1.1.(.(.(.(.(.(.(.:.:.:.!.!.!.;.Q Q Q Q Q Q D D u u c c c c c c f c 0 0 0 0 } < < < < < } } } 3 3 3 3 3 3 1 1 1 1 _ : : ' : 8 1 8 1 1 8 1 1 ' ' ( _ _ _ _ , , , , = = * = ' ~ ' 9 9 i i s G m 9 9 _ , , , , * * * * _ 9 i m m m m m 1 _ , , , , , , * * + * , ( ( ( , , , , , , , , , , , , , < < 3 p p p f f f 0 0 0 } } < < < < < } < } c c f t B Z Z Z L @.@.>.<.<.<.<.<.<.@.@.L L L L L L L x x x x x x j j j j j j ",
". . . . . . . . . . . . . . . . . . . . . . . . . . . . . . . . . . . . . . . . . . . . . . . . . . . . . . . . . . . . . . . . . . . . . . . . . . . . . . . . . . . . . . . . . . . . . . . . . . . . . . . . . . . . . . . . . . . . . . . . . . . . . . . . . . . . . . . . . . . . . . . . . . . . . . . . . . . . . . . . . . . . . . . . . . . . . . . . . . . . . . . . . . . . . . . . . . . . . . . . . . . . . . . . . . . . . . . . . . . . . . . . . . . . . . . . . . - 2 k E ..6.s.J. + +-+:+,+,+$+$+$+$+%+%+%+`.`.`.`.`.`.`.`.`.#+#+#+`.`.`.M.M.M.M.M.N.N.N.N.W.W.W.W.W.W.W.W.N.W.W.W.W.W.W.W.W.W.W.W.W.`.`.`.`.N.N.N.G.G.G.G.G.G.G.w.w.w.w.w.w.m.m.m.9.9.9.1.1.1.1.(.(.(.:.:.:.:.:.!.!.!.Q Q Q Q Q Q D D u c c c 0 0 0 0 0 0 0 } } } } < ( ( < } } } } } 3 3 3 3 3 k 1 1 1 1 1 : : : [ 3 3 h h o o e 1 1 ' ' ' _ ( _ _ , , , , , , , , _ 1 9 i i s s G s m 9 _ _ _ _ _ , * * , 1 m m m m m 9 1 _ _ , , , _ _ , * * + * , < ( ( ( ( ( , , , , , , , , , ( < 3 3 p p p f f f 0 0 0 } } } } } } 0 0 c c c t B Q Q Z Z @.@.@.@.1.1.<.<.<.<.>.@.L L L L N x x x x x x x x x x x x x x x ",
". . . . . . . . . . . . . . . . . . . . . . . . . . . . . . . . . . . . . . . . . . . . . . . . . . . . . . . . . . . . . . . . . . . . . . . . . . . . . . . . . . . . . . . . . . . . . . . . . . . . . . . . . . . . . . . . . . . . . . . . . . . . . . . . . . . . . . . . . . . . . . . . . . . . . . . . . . . . . . . . . . . . . . . . . . . . . . . . . . . . . . . . . . . . . . . . . . . . . . . . . . . . . . . . . . . . . . . . . . . . . . . . . . . . . . . . . . - 2 k E ..6.s.J. + +-+,+,+,+$+$+$+Z.`.`.`.`.`.`.`.`.`.%+%+%+#+#+%+`.`.`.N.N.M.N.N.N.N.N.N.N.W.W.W.W.W.W.W.N.W.W.W.W.W.W.W.W.W.W.W.W.`.`.`.`.N.N.N.G.G.G.G.G.G.G.w.w.w.w.w.w.w.m.m.m.m.m.9.9.1.1.1.(.:.:.!.!.!.!.!.!.Q Q Q Q Q D D D D D c c 0 0 } } } } } } } } } < ( , _ < 0 } } 3 3 3 3 3 k k k 1 1 1 1 1 [ [ [ 8 h o v v v v v v k 3 3 3 3 3 ( _ , , , * * * , , _ 9 m i s G s G G m 1 1 _ _ _ _ , , , _ m m m m m m 9 1 _ _ _ _ _ _ _ _ * * * , ( } ( < ( ( ( ( ( ( ( ( , _ _ ( < 3 3 h p p p f f 0 0 0 0 0 0 0 0 0 0 f c f D D Q Z &.&.&.&.@.@.@.@.1.1.1.1.1.1.@.@.L L L N N x x x x x x x x x x x x x x x ",
". . . . . . . . . . . . . . . . % % % % % % % % % % % % % % % % . . . . . . . . % % % % . . . . % % % % % % % % % . . . . . . . % % % % % % % % . . . . . . . . . . . . . . . . . . . . . . . . . . . . . . . . . . . . . . . . . . . . . . . . . . . . . . . . . . . . . . . . . . . . . . . . . . . . . . . . . . . . . . . . . . . . . . . . . . . . . . . . . . . . . . . . . . . . . . . . . . . . . . . . . . . . . . . . . . . . . . . . . . . . . . . . . . . . . . . . . . - 2 p E ..6.q.J. + +,+,+,+,+$+$+Z.$+`.%+%+`.`.`.`.`.`.%+%+%+%+%+%+%+`.W.N.N.N.N.N.N.N.N.N.N.W.W.W.W.W.W.N.N.N.N.N.N.N.W.W.W.W.W.W.W.`.`.`.`.N.N.N.N.G.G.G.G.G.G.w.w.w.w.w.w.w.w.w.m.m.m.m.9.1.1.1.:.:.!.!.!.!.!.=.Q Q Q B D D D D D D f c c 0 0 } < < ( ( ( ( ( ( < ( , , < } } 3 h h k k k k k k k k 3 3 3 3 3 h k E v Y Y S S Y E E k 1 3 3 3 ( ( , * * * * * , , _ 1 o i s E G G G o 1 3 ( ( ( ( _ _ 3 1 o o o o m 9 1 _ _ _ 1 1 _ _ _ _ , * * , < } 3 2 2 < < ( ( ( ( ( _ ( ( 3 3 h k k p p p f 0 0 0 0 0 0 0 0 0 0 f f D D U Q &.&.5.5.5.5.1.1.@.1.1.@.1.1.1.1.@.@.L L L N N N x x x x x x x x x x x x x x ",
"% % % % % % % % % % % % % % % % % % % % % % % % % % % % % % % % % % % % % % % % % % % % % % % % % % % % % % % % % % % % . % % % % % % % % % % % % % % % . . . . . . . . . . . . . . . . . . . . . . . . . . . . . . . . . . . . . . . . . . . . . . . . . . . . . . . . . . . . . . . . . . . . . . . . . . . . . . . . . . . . . . . . . . . . . . . . . . . . . . . . . . . . . . . . . . . . . . . . . . . . . . . . . . . . . . . . . . . . . . . . . . . . . . . . . . . . . . - ! 2 F ..6.l.J.R. +,+,+,+,+$+Z.Z.$+%+%+%+`.`.`.`.`.%+%+%+%+%+%+%+%+%+W.N.N.N.N.N.N.N.N.N.N.N.N.N.W.N.N.N.N.N.N.N.N.N.N.N.N.W.W.W.W.`.`.`.`.N.N.N.N.G.G.G.G.G.w.w.w.w.w.w.w.w.w.m.m.m.m.9.1.1.1.1.:.!.!.;.;.!.Q T Q Q B B D D D D D D c 0 0 } < ( _ , , , , , , , ( ( , _ < } } h h h k k k k k k k k 3 3 3 3 3 k k E Y Y Y Y Y Y Y E E k k k 3 3 ( , * + + + * , , _ 1 o o o o E E E k k 2 ( _ _ _ _ ( 3 o o o o o 3 1 _ , , _ 1 1 _ _ _ _ , , , ( < } 3 3 3 2 3 < < < < < ( ( 3 3 k F E E F p p f 0 0 0 0 0 0 0 0 f c f D D U U &.&.5.5.5.[.5.1.1.1.1.@.@.@.@.@.@.@.@.L L L N N N N N x w x x x x x x x N N N ",
"% % % % % % % % % % % % % % % % % % % % % % % % % % % % % % % % % % % % % % & & % % % % % % % % % % % % % % % % % % % % % % % % % % % % % % % % % % % % . . . . . . . . . . . . . . . . . . . . . . . . . . . . . . . . . . . . . . . . . . . . . . . . . . . . . . . . . . . . . . . . . . . . . . . . . . . . % . . . . . . . . . . . . . . . . . . . . . . . . . . . . . % % % % % % % % . . . . . . . . . . . . . . . . . . . . . . . . . . . . . . . . . . . . . . . . . . . . - ! 2 F ..6.q.J.R. +Z.,+Z.Z.Z.Z.Z.$+%+%+`.`.`.`.`.%+%+%+%+%+%+%+%+%+%+%+W.N.N.N.N.N.N.N.N.N.N.N.N.N.N.N.N.N.N.N.N.N.N.N.N.N.W.W.W.W.`.`.`.`.W.N.N.N.G.G.G.G.G.G.G.w.w.w.w.w.w.m.m.m.m.9.9.:.1.1.:.!.!.!.;.#.Q Q T Q Q B B B B u D D f 0 } } < ( , , , * * = * * , , ( , _ < 0 } h h h k k k k k k k 3 3 3 3 2 3 k k E Y Y Y ..Y Y Y Y E E k k k 3 ( , * + + + * , , ( 3 3 1 o o E E E o k 2 ( ( , , ( < 3 o E o o o 3 _ , * * _ 1 1 ( _ 1 3 ( _ , ( < } 3 3 k k 3 3 3 2 2 2 3 3 3 k k E E E F F p f 0 0 0 0 0 0 f c c c D D U U &.&.5.5.5.5.5.5.1.1.1.@.@.@.@.@.@.@.@.L L L N N K K M M J J N N K K K K N $.$.$.",
"% % % % % % % % % % % . . . % % % % % % % % % % % % % % . . . . % % % % % % % % % % % % % % % % % % % % % % % % % % % % % % % % % . . . . . % % % % % % . . . . . . . . . . . . . . . . . . . . . . . . . . . . . . . . . . . . . . . . . . . . . . . . . . . . . . . . . . . . . . . . . . . . . . . . . . . . . . . . . . . . . . . . . % % . . . . . . . . . . . . . . . . . . . . . . . . . . . . . . . . . . . . . . . . . . . . . . . . . . . . . . . . . . . . . . . . . . % - ! 2 F ..^.b.s.J.P.X.Z.Z.Z.Z.Z.Z.#+#+#+W.`.`.`.`.`.#+%+%+%+^+%+{+%+%+;+W.W.W.N.N.N.N.N.N.N.N.N.N.N.N.N.N.N.N.N.W.W.W.W.W.W.W.W.W.W.`.`.`.`.`.M.N.N.G.G.G.G.G.G.G.w.w.w.w.w.w.m.m.m.9.1.1.1.1.(.=.=.=.=.T T T T B B B B B B u B c c c } : ' , , = * * * * + + + * , ( ( < } 0 3 h h k k k k k k k k k k k 3 3 k k k E Y Y ........Y Y Y E E v o 1 3 _ , * + * * , , _ ( 3 3 o o v E o k k 2 < < _ _ ( 3 o o G E o o 1 , * * * , _ 1 3 1 1 o 1 3 ( < < } 3 1 k k k 3 3 3 3 3 3 3 k k h v F F F F p 0 0 0 0 c f f c c D D D Q U &.&.5.5.5.5.5.5.5.1.1.@.@.@.@.@.@.@.L L L L L K K K K K K T T J K J K K -.;.-.$.$.",
"% % % % % % % % % % % . . . . % % % % % % % % % % % % . . . . . % % % % % % % % % % % % % % . . . . % % % % % % % % % % % % % % . . . . . . . . % % % % . . . . . . . . . . . . . . . . . . . . . . . . . . . . . . . . . . . . . . . . . . . . . . . . . . . . . . . . . . . . . . . . . . . . . . . . . . . . . . . . . . . . . . . . . . . . % . . . . . . . . . . . . . . . . . . . . . . . . . . . . . . . . . . . . . . . . . . . . . . . . . . . . . . . . . . . . . . . . % - ! 2 F Y ^.b.q.J.P.P.Z.Q.Q.Q.Z.Z.U.#+`.W.W.`.`.`.`.#+#+%+%+%+%+{+%+%+;+;+W.W.W.N.N.N.W.N.N.N.N.N.N.N.N.N.N.W.W.W.W.W.W.W.W.W.W.W.W.`.`.`.`.`.M.N.N.G.G.G.G.G.G.G.w.w.w.w.w.w.m.m.9.9.1.1.1.=.=.=.=.T T T x B B B B B B B B B c c 0 } ( ' ' * * * * * * * * + + * ( < < } } f h h k k k k k k k k k k k k k k k k k E Y Y ..........Y Y Y E E E k 3 1 _ , , , , , , , _ ( 3 3 k o o o o k 3 3 ( ( ( ( 1 o o G E o o 1 , + + * , _ 1 3 3 1 1 3 3 3 3 3 3 3 k k k k k 3 3 3 k 1 k k h h h F z F F h p f c c f f D D D D U Q !.&.&.5.5.5.5.5.5.5.5.1.1.@.@.@.@.@.@.L L L L N N J J J K K K K M J K K K -.;.;.=.=.=.",
"% % % % % % % % % % % . . . . % % % % % % % % % % % % % . . . . . . % % % % % % % % % % % . . . . . % % % % % % % % % % % % % % . . . . . . . % % % % % . . . . . . . . . . . . . . . . . . . . . . . . . . . . . . . . % % . . . . . . . . . . . . . . . . . . . . . . . . . . . . . . . . . . . . . . . % % % . . . . . . . . . . . . . . . . . . . . . . . . . . . . . . . . . . . . . . . . . . . . . . . . . . . . . . . . . . . . . . . . . . . . . . . . . . . . . . . . . . % ! 2 p Y {.6.q.s.P.P.Z.Q.Q.Q.Q.S.U.S.S.N.N.S.S.S.S.#+#+#+#+%+%+%+%+%+;+W.W.W.W.W.W.W.W.N.N.N.N.N.N.N.N.N.N.W.W.W.W.W.W.W.W.W.W.W.W.`.`.`.`.M.M.N.N.G.G.G.G.G.G.G.w.w.w.w.w.w.m.m.9.1.1.1.=.=.=.T T T T w w B B w B B B B B c c } < _ , * = + + + + * * * * + * , < 3 } 3 h p h k k k k k k k k k k E k k k k k k E E Y ....{.{.{.....Y Y E E E o k 3 ( _ , , , _ _ , , _ ' 1 1 o i o o o 1 1 3 ( ( 1 9 m m E G o o 1 , + + + , _ ( _ 3 1 1 k 1 3 3 3 } 3 k k k k 3 3 3 k k h h h h h h z z F F C p f f D D D D D D Q U !.!.5.5.5.5.5.5.5.5.5.1.1.1.1.@.@.@.@.@.L N N N N N J J J J K K K K K K K -.;.;.=.=.$.$.",
"% % % % % % % % % % . . . . % % % % % % % % % % % % % % . . . . . . % % % % % % % % % % % . . . . . % % % % % % % % % % % % % % . . . . . . . % % % % % . . . . . . . . . . . . . . . . . . . . . . . . . . . . . . . . % . . . . . . . . . . . . . . . . . . . . . . . . . . . . . . . . . . . . . . . . % % % % . . . . . . . . . . . . % % % . . . . . . . . . . . . . . . . % % % . . . . . . . . . . . . . . . . . . . . . . + + + + . . . . . . . . . . . . . . . . . . . . . . - 2 p Y {.6.q.s.J.Q.Q.H.H.H.H.M.U.M.M.M.S.M.M.M.M.S.#+#+#+#+#+#+%+#+W.W.W.W.W.W.W.W.W.W.N.N.N.N.N.N.N.N.N.W.W.W.W.W.W.W.W.W.W.W.W.`.`.`.M.M.N.N.N.G.G.G.G.G.G.G.G.w.w.w.w.w.m.m.9.1.1.(.=.=.T T N T B w w w w w B B B j j c 0 < , , * * * + + + + + + + + * * ( 3 h h h h p k k k k k E E E E E E E E E E E E E E Y Y ....^.^.^.{...Y Y Y Y E E k 3 ( _ _ _ _ _ , , = ' ' _ 9 i i i m m m m 1 9 9 9 m m m G o o o 1 , * * + * , _ _ 3 3 o o k k 3 3 3 k h h h h 3 3 3 h h h h h h h z z v z z t t D D D D D D Q Q Q !.!.:.5.5.5.5.5.5.5.5.1.1.1.1.1.1.@.@.@.@.@.$.$.N N N  . . . .#.;.;.#.-.-.-.;.;.;.-./././.",
"% % % % % % & & % % . . . . % % % % % % % % % % % % % % . . . . % % % % % % % % % % % % % % % % % % % % % % % % % % % % % % % % . . . . . . . . % % % % . . . . . . . . . . . . . . . . . . . . . . . . . . . . . . . . . . . . . . . . . . . . . . . . . . . . . . . . . . . . . . . . . . . . . . . . . . . . . . . . . . . . . . . . . . . . . . . . . . . . . . . . . . . . % % % % . . . . . . . . . . . . . . . . . . . . . . . . . . . . . . . . . . . . . . . . . . . . . . . - 2 p X {.6.b.q.s.v.H.u.u.G.H.B.B.M.M.M.M.M.x.M.M.M.S.#+#+#+#+#+#+#+#+#+W.#+W.W.W.W.W.W.N.N.N.N.N.N.N.N.N.W.W.W.W.W.W.W.W.W.W.W.W.`.`.M.M.N.N.N.N.G.G.G.G.G.G.G.G.w.w.w.w.w.m.m.9.1.1.=.=.T T T B B w w B q w w B B c j j 7 : ' , , * * + + + + + + + + + * , ( 3 h h k F F E E E F E E E E E E E E E E E E E Y Y ....{.^.^.^.^.^.....Y Y Y Y E k k 3 < ( _ _ _ _ ' * = ~ ' | 9 i i i i m i i 9 9 9 m i i m i i 9 ( , * * + * , _ ( 3 h o o o h 3 3 h h h h h h 3 h h h h h v v v z z z z z t t t B Q Q U Q Q Q U !.!.:.:.5.5.5.:.:.:.(.(.(.(.1./.1.1./././.$.$.$.$.$.$.$.-.;.;.;.;.;.;.;.;.;.;.-.-./.(.(.(.(.",
"% % % % % % % % % % % % % % % % % % % % % % % % % % % % % % % % % % % & & & % % % % % % % % % % % % % % % % % % % % % % % % % % % . . . . % % % % % % % . . . . . . . . . . . . . . . . . . . . % . . . . . . . . . . . . . . . . . . . . . . . . . . . . . . . . . . . . . . . . . . . . . . . . . . . . . . % % . . . . . . . . . . . . . . . . . . . . . . . . . . . . . . . . . . . . . . . . . . . . . . . . . . . . . . . . . . . . . . . . . . . . . . . . . . . . . . . . . . - 2 p F ..6.b.l.p.p.u.u.u.x.x.x.B.B.B.x.M.x.x.x.M.M.S.#+#+#+#+#+#+#+#+`.`.`.W.W.W.W.W.W.W.W.W.N.N.N.N.N.N.N.N.W.W.W.W.W.W.W.W.W.W.`.`.M.M.N.N.N.G.G.G.G.G.G.G.G.G.w.w.w.w.m.m.m.9.(.1.=.=.T T T B B w w w w w w B B j j 7 [ ' ' * * * + + + * * + + + * * , , < h k k E F F E E E F E E E Y Y Y Y Y Y Y Y Y Y Y ....{.^.^.^.6.6.^.{...Y Y Y E E k o 3 3 3 1 3 1 ' ' ' ~ 9 | 9 i i s s i i i i i m i i i i i m 9 1 _ , * + + * , , ( 3 h o k k h h h h h h h h h h h h v v v v v v z z z z t t t Z Z Z &.=.=.!.!.!.!.:.:.:.:.:.:.:.:.:.:.:.(.(.(./././././././.$.$.$.$.$.$._._._.}.}.}.}.#.-.].]._._._._._.(.(.",
". . . . . . . . % % % % % % % % % % % % % % % % % % % % % % % % % % % % % % % % % % % % % % % % . . . . . . % % % % . . . . . . % % % % % % % % % % % % . . . . . . . . . . . . . . . . . . . . . . . . . . . . . . . . . . . . . . . . . . . . . . . . . . . . . . . . . . . . . . . . . . . . . . . . . . . . % . . . . . . . . . . . . . . . . . . . . . . . . . . . . . . . . . . . . . . . . . . . . . . . . . . . . . . . . . . . . . . . . . . . . . . . . . . . . . . . . . . - 2 p F ..6.q.q.p.a.c.c.m.f.f.x.B.B.B.B.S.S.S.S.S.S.S.S.#+#+#+#+#+#+#+#+W.`.W.W.W.W.W.W.W.W.W.N.N.N.N.N.N.N.N.N.N.N.N.N.N.W.W.W.W.`.`.M.M.M.N.N.G.G.G.G.G.G.G.G.G.w.w.w.m.m.m.m.9.(.1.=.=.T T T T T w w w d d d B c j 7 7 : ' ' , , * * * * * * * + * * * , , < 3 h F F F X E E E E E E Y Y Y Y Y Y Y Y ..........{.^.^.^.^.6.6.^.{...Y Y Y E E E o o o k k 3 1 1 9 9 9 9 9 i i s s s s s i m i i i o o o i 9 1 _ _ * * * * * * , ( 3 3 h k k k h h h h h h h h h h h v v v v v v z z g g t t t Z Z &.=.!.!.!.!.!.!.:.:.:.:.:.:.:.:.:.(.(.(.(././././././././././././././.(.(.(._._._._._._._._._._._._._._._.",
". . . . . . . . . . . . . . . . . . . . . . . . . . . . . . . . . . . . . . . . . . . . . . . . . . . . . . . . . . . . . . . . . . . . . . . . . . . . . . . . . . . . . . . . . . . . . . . . . . . . . . . . . . . . . . . . . . . . . . . . . . . . . . . . . . . . . . . . . . . . . . . . . . . . . . . . . . . . . . . . . . . . . . . . . . . . . . . . . . . . . . . . . . . . . . . . . . . . . . . . . . . . . . . . . . . . . . . . . . . . . . . . % % % . . . . . . . . - 2 p F *.^.b.l.p.a.c.c.m.f.f.B.B.B.B.B.S.S.S.S.S.S.S.S.#+#+#+#+#+#+#+#+W.`.W.;+W.W.W.W.W.W.W.N.N.N.G.G.G.N.N.N.N.N.G.N.N.N.N.N.N.M.M.M.N.M.N.N.G.G.G.G.G.G.G.G.G.w.w.w.m.m.m.m.9.(.1.=.=.=.T T N T w B q d d d d c j 7 7 } : ' , , , , , , , * * + + * * = , ( } h C F X Y Y Y Y E E Y Y ......................{.{.^.^.^.^.6.^.^.{...Y Y Y Y E E E E E E k o 3 1 1 9 e i i i i s s m m m m s m i o o 1 3 9 1 _ _ , , * * * * * , , ( 3 k k k k h h h h h h h h h h v v S S S v z z g g g g t t Z Z &.=.=.!.!.!.!.!.:.:.:.:.:.:.:.:.(.(.(.(.(././././././././././././././.e.e.e.e.7.7._._._._._._._._._._._._.",
". . . . . . . . . . . . . . . . . . . . . . . . . . . . . . . . . . . . . . . . . . . . . . . . . . . . . . . . . . . . . . . . . . . . . . . . . . . . . . . . . . . . . . . . . . . . . . . . . . . . . . . . . . . . . . . . . . . . . . . . . . . . . . . . . . . . . . . . . . . . . . . . . . . . . . . . . . . . . . . . . . . . . . . . . . . . . . . . . . . . . . . . . . . . . . . . . . . . . . . . . . . . . . . . . . . . . . . . . . . . . . . . % % % . . . . . . . . - ! p F *.^.b.l.p.a.c.c.f.f.f.B.B.B.B.B.S.S.S.S.S.S.S.#+#+#+#+#+#+#+#+W.W.`.`.`.`.W.N.N.N.N.N.N.N.N.N.N.N.G.G.G.G.G.N.G.G.G.N.N.N.N.N.N.N.N.N.N.N.G.t.t.t.G.G.G.w.w.w.m.m.9.9.9.(.(.(.(.=.=.=.T N T B w w q q d c c c c 7 0 [ ' ( _ , , , , , , , * * * , , _ } f p F X X ........Y Y ..{.^.^.^.^.^.^.^.^.^.^.^.^.^.^.^.6.3.3.6.3.)...Y S Y E E E E E E E E v o 1 o o o i o i o m m o o o o m m i 9 9 9 9 1 1 _ _ _ , , * * * * * , _ ( 3 h h v h h h h h h v v v v v S S S P v z z g g g g y y Z Z Z =.@.=.=.!.!.!.!.!.:.:.:.(.(.(.(.(.(././././././././././.].].].].(.(.e.g.g.e.e.e.7.7.8.8.8.e.e.e.g.7.}.}.",
". . . . . . . . . . . . . . . . . . . . . . . . . . . . . . . . . . . . . . . . . . . . . . . . . . . . . . . . . . . . . . . . . . . . . . . . . . . . . . . . . . . . . . . . . . . . . . . . . . . . . . . . . . . . . . . . . . . . . . . . . . . . . . . . . . . . . . . . . . . . . . . . . . . . . . . . . . . . . . . . . . . . . . . . . . . . . . . . . . . . . . . . . . . . . . . . . . . . . . . . . . . . . . . . . . . . . . . . . . . . . . . . % . % . . . . . . . . - ! 2 C *.^.b.q.p.p.c.m.c.f.f.B.B.B.B.S.S.S.S.S.S.S.S.#+#+#+S.S.#+#+#+`.`.`.#+`.`.W.W.N.N.N.N.N.G.N.G.t.G.t.t.t.t.t.t.t.G.G.G.N.N.N.N.N.N.N.G.t.t.t.k.k.k.w.w.w.m.m.9.k.k.9.:.:.:.(.(.=.=.=.T T N T T B u w w q B B B c c c 0 < ( ( ( _ ( ( ( ( _ , ( < } < } 0 p F X ..{.^.^.^.^.^.^.^.3.0.0.0.a.a.a.a.b.0.0.6.6.6.6.6.6.0.0.0.0.3.).....Y Y E E Y Y Y Y Y E v o i i o o i i o o m o o o o 1 9 9 1 _ 9 ' 9 _ _ _ _ _ _ , , , * * , , ( 3 3 h h p h f h h v v v v S S S S S v v g g g g g j y Z Z Z Z T T =.=.=.=.!.!.!.!.!.:.(.(.(.(./././././././././././././.].]./.g.g.g.g.g.g.g.g.g.g.e.e.e.e.e.e.g.7._._.",
". . . . . . . . . . . % % % . . . . . . . . . . . . . % % % % % % . . . . . . . . . . . . . . . . . . . . . . . . . . . . . . . . . . . . . . . . . . . . . . . . . . . . . . . . . . . . . . . . . . . . . . . . . . . . . . . . . . . . . . . . . . . . . . . . . . . . . . . . . . . . . . . . . . . . . . . . . . . . . . . . . . . . . . . . . . . . . . . . . . . . . . . . . . . . . . . . . . . . . . . . . . . . . . . . . . . . . . . . . . . . . . . . . . . . . . . . . % - ! 2 C ..6.q.q.s.v.u.u.u.x.x.B.B.B.B.S.S.S.S.S.S.S.#+#+#+#+#+S.#+#+#+`.`.#+#+#+`.W.W.N.N.N.N.N.t.t.t.t.t.t.t.t.r.r.t.t.t.G.G.G.G.G.N.G.G.t.t.t.k.k.e.e.k.k.k.k.k.:.:.:.:.:.:.:.:.=.=.=.T T T N T T T B B B B B B B B u u c 0 < < < ( < < } 0 0 0 0 0 0 0 0 0 p F X ..{.^.6.6.6.6.6.6.6.a.0.n.n.n.n.q.q.q.n.n.n.q.q.q.q.q.n.n.n.0.0.3.3.{...Y Y Y Y Y Y W Y E E E o o o o o o o o o 1 1 1 1 3 1 ( _ _ _ ' ' ' ' ' ' ' ' _ ( , * * * ' ' : } h h z h C h v v v v v S S S S v v g g g j j t y t Z T T T T T T T T T =.=.=.=.=.!.=.=.=.(./././././././././././././.]./.7.d.g.t.t.t.t.t.t.t.t.t.t.g.t.t.k.g.g.7.7.",
"% % % % % % % % % % % % % % % % % % % % % % % % % % % % % % % % % % % % . % % % % % % % % % % % % % % % % % . . . . . . % % % % % % % % % % % % % % % % . . . . . . . . . . . . . . . . . . . . . . . . . . . . . . . . . . . . . . . . . . . . . . . . . . . . . . . . . . . . . . . . . . . . . . . . . . . . . . . . . . . . . . . . . . . . . . . . . . . . . . . . . . . . . . . . . . . . . . . . . . . . . . . . . . . . . . . . . . . . . . . . . . . . . . % % . . . . . . % - ! 2 F ..6.q.s.s.H.H.u.H.G.z.B.B.B.B.S.S.S.S.S.S.S.S.#+#+#+#+S.#+#+#+#+%+#+#+#+#+W.W.N.N.N.G.t.t.t.t.t.t.G.t.t.r.r.t.t.t.t.G.G.G.G.G.G.G.w.w.k.k.:.:.:.:.k.k.:.:._.;.;.;.;.!.!.;.;.=.T T T T T T T T M M M M T B B B D u c 0 < < ( < } } 0 0 c f f f f c f f C X *.{.^.6.6.6.b.b.b.l.l.l.q.q.s.s.s.s.J.J.D.D.D.D.D.D.n.n.s.s.s.n.q.a.6.^.{...Y Y Y Y Y Y Y Y E E E v o k 3 3 3 3 3 3 ( ( ( ( _ _ _ _ _ ' ' ' ' ' ' ( ( ( ( , ' = = ' ' ' h h v z t C v z v v v v v v v v v g g [ 7 7 j y B Z Z Z T T T T T T T T T T T T T =.=.=.=.=.$.$././././././././.$././././.d.d.d.t.x.x.t.t.t.x.t.t.t.t.t.t.t.k.g.e.7.",
"% % % % % % % % % % % % % % % % % % % % % % % % % % % % % % % % % % % % % % % % % % % % % % % % % % % % % % % % % % % % % % % % % % % % % % % % % % % % . . . . . . . . . . . . . . . . . . . . . . . . . . . . . . . . . . . . % % % % % % % % . . . . . . . . . . . . . . . . . . . . . . . . . . . . . . . . . . . . . . . . . . . . . . . . . . . . . . . . . . . . . . . . . . . . . . . . . . . . . . . . . . . . . . . . . . . . . . . . . . . . . . . . . % % . . . . . . % % - 2 2 F *.^.q.s.J.H.H.H.H.G.H.B.B.B.B.M.S.#+#+#+#+S.#+#+#+#+S.S.#+#+#+#+`.#+#+`.`.W.N.N.N.G.t.t.t.t.t.t.t.t.t.t.r.r.t.t.t.w.G.G.G.G.G.w.w.m.k.k.:._.;.;._._._._.;.#.#.;.;.;.;.;.;.T M M M T T T T T M M M T T T Q Q B D u c c } < < } 0 0 c c c D D D f f C F X *.^.6.b.b.b.b.l.l.l.q.s.s.s.s.J.J.J.J.R.R.R.R.R.J.J.J.J.J.s.J.D.D.n.q.a.6.^.{.....Y Y Y Y Y Y Y Y E E k k 3 3 < ( ( ( ( ( _ , , , , , , ' ' ' ' ' : : : : : ' ' ' ' ' ' ' } h h h f C z z v v v v v v v v g g [ [ [ 7 j t T T T T T T T T B T T T =.T T T T T T T =.$.$.$.$.$.$.$.$.$.$.$.$.$./././.d.d.d.x.x.x.x.x.x.x.x.x.x.t.t.t.t.k.g.g.g.",
"% % % % % % % % % % % % . . % % % % % % % % % % % % % % % % % % % % % % % % % % % % % % % % % % % % % % % % % % % % % % % % % % % % % % % % % % & & % % . . . . . . . . . . . . . . . . . . . . . . . . . . . . . . . . . % . . . . . . . . . . . . . . . . . . . . . . . . . . . . . . . . . . . . . . . . . . . . . . . . . . . . . . . . . . . . . . . . . . . . . . . . . . . . . . . . . . . . . . . . . . . . . . . . . . . . . . . . . . . . . . . . . . % . % . . . . . . % % - 2 2 F ..^.q.J.J.H.H.H.H.H.H.B.B.B.B.B.M.S.S.S.S.S.S.S.S.S.S.S.S.#+#+#+`.#+`.`.`.N.S.N.G.t.t.t.t.t.t.t.t.t.t.t.r.r.t.t.t.w.w.w.w.w.w.w.w.k.k._._.;.#.#.#.;.;.;.#.#.#.#.#.;.;.#.M M M M M M M M M M M M M T T Q Q Q Q D B c c c 0 0 c c c c D D D D D C C C X *.{.6.b.q.q.l.l.l.q.s.s.s.s.s.J.J.R.R.R. + + + + +R.R.R.J.J.D.D.D.D.D.q.a.6.^.{.{.{.....Y Y Y Y Y Y Y E F h 2 3 < ( , , , , , , , * * * * * * * , _ < 3 3 3 3 : ' ' ' = = ' : } } } 0 f h z v v v v v v g g 8 [ [ [ [ 7 j B T T Z T T B B B B B T T =.=.T T T T T T N $.$.$.$.$.$.$.$.$.$.$.-.$./././.d.d.d.x.x.x.x.x.x.x.x.x.x.t.w.t.t.t.t.k.k.",
"& & & & & & & & % % % . . . . % % % % % % % % % % % % % . . . . . % % % % % % % % % % % % % % % % % % % % % % % % % % % % % % % % % % % % % % % % % % % . . . . . . . . . . . . . . . . . . . . . . . . . . . . . . . . . . . . . . . . . . . . . . . . . . . . . . . . . . . . . . . . . . . . . . . . . . . . . . . . . . . . . . . . . . . . . . . . . . . . . . . . . . . . . . . . . . . . . . . . . . . . . . . . . . . . . . . . . . . . . . . . . . . . . . % . . . . . . . % - ! 2 F ..6.q.J.P.Q.H.H.H.H.H.B.B.B.B.B.x.B.B.B.B.B.B.M.S.S.S.S.S.S.#+#+`.S.S.S.M.M.M.x.G.t.t.t.t.t.t.t.t.t.t.t.r.r.t.t.t.w.w.w.w.w.m.m.m.k.:._.;.#.M M M #.#.#.#.#.#.#.#.;.;.;.M M M M M M M M M M M M M T T T Q Q Q Q D B D D D D D D D D D D C C C F F X ..{.6.q.q.q.s.s.s.s.s.s.s.s.s.J.R.R.R. + + +)+ + + + + +R.R.R.R.R.R.D.D.n.q.6.^.^.^.^.^.{.......Y Y Y Y E F p 3 < ( , * * * * * * * * * * * * * * * , ( < 3 3 } 3 < ( ' = = = ' : } 0 0 f h h v v g g v g g g [ [ : [ [ j j B B T T T B B B B B B T T =.=.=.T T T T T N $.$.$.$.$.$.$.$.$.$.$.-.$./././.d.d.d.x.x.x.x.x.x.x.x.x.x.w.t.t.t.t.t.t.t.",
"% % % % % % % % % % . . . . . % % % % % % % % % % % % . . . . . . . % % % % % % % % % % % % % % % % % % % % % % % % % % % % % % % % % % % % % % % % % % . . . . . . . . . . . . . . . . . . . . . . . . . . . . . . . . . . . . . . . . . . . . . . . . . . . . . . . % % % . . . . . . . . . . . . . . . . . . . . . . . . . . . . . . . % % . % % . . . . . . . . . . . . . . . . . . . . . . . . . . . . . . . . . . . . . . . . . . . . . . . . . . . . . . . . . . . . . % . . % - ! 2 F ..6.q.J.P.P.Q.Q.H.H.H.B.B.B.B.B.B.B.B.B.B.B.B.B.M.S.S.S.S.S.S.S.M.M.M.M.M.x.x.x.x.t.t.t.t.t.t.t.t.t.t.t.r.r.t.t.t.w.w.w.m.m.m.m.9.k.:._.#.M M M M M M #.#.#.#.#.#.;.#.;.#.M M M M M M M M M M M T T =.!.=.=.=.Q Q Q D D D D D C U D C U U X ......{.^.6.q.s.s.J.J.s.s.s.s.s.s.s.J.R.R. +)+)+'+)+)+1+1+'+)+)+ + + +R.R.J.J.s.s.q.6.6.6.6.6.6.^.{.{.{.......Y X F p 3 < _ , * * * * * * * , , , * * * * * , ( 3 3 3 3 } 3 < < ' ' ' ' : } 0 0 f h h g g g g g g [ [ [ : : [ 7 j j B B B T T B B B B B B T T =.=.T T T T T T $.$.$.$.$.$.$.$.$.$.$.$.-.$./././.d.d.f.x.x.x.x.x.x.x.x.x.G.w.w.t.t.t.t.t.t.",
"% % % % % % % % & % % . . . % % % % % % % % % % % % % % . . . . % % % % % % % % % % % % % % % % % % % % % % % % & & & & & & & & % % % % % % % % % % % % . . . . . . . . . . . . . . . . . . . . % . . . . . . . . . . . . . . . . . . . . . . . . . . . . . . . . . . . . . . . . . . . . . . . . . . . . . . . . . . . . . . . . . . . . . . % . . . . . . . . . . . . . . . . % % . . . . . . . . . . . . . . . . . . . . @ @ @ @ . . . . . . . . . . . . . . . . . . . . . . . . . - 2 k Y {.b.q.I.O.Q.Q.Q.Q.H.H.x.B.B.B.B.B.B.B.B.B.B.B.B.B.B.B.B.M.M.M.M.x.B.x.x.x.x.x.G.G.t.t.t.t.t.t.t.t.t.t.t.t.t.t.r.r.k.m.k.k.k.m.k.k.:.:.;.#.I I I I I M #.#.#.#.#.;.#.#.#.#.#.M J M q q q q M T T =.!.!.!.!.=.=.=.Q Z &.&.U U U U U U &.&.*.^.^.{.^.6.b.q.s.J.J.R.R.J.J.s.J.J.J.J.R. +)+)+_+(+(+(+_+(+(+1+1+1+)+'+ +R.R.R.J.J.s.s.q.q.q.q.q.b.6.6.6.6.6.^.{...Y E k } } ( , , * * , , , ( < < < < < < _ , , } } h h p p p 0 } } < : : } } 0 f C v v g g g [ [ [ [ : : : : [ 7 7 j j B B T T T B B B B B T T T T T T T T =.=.$.$.$.$.$.$.$.$.$.$.$.$.$././././.d.d.f.x.x.x.x.B.x.G.G.w.w.w.w.w.w.w.t.w.w.",
"% % % % % % % % & % % . . % % % % % % % % % % % & & % % % % % % % % % % % % % % % % % % % % % % % % % % % % % % % % % % % % % % % % % % % % % % % % % % . . . . . . . . . . . . . . . . . . . . . . . . . . . . . . . . . . . . . . . . . . . . . . . . . . . . . . . . . . . . . . . . . . . . . . . . . . . . . . . . . . . . . . . . . . . . . . . . . . . . . . . . . . . . . . . . . . . . . . . . . . . . . . . . . . . @ @ . . . . . . . . . . . . . . . . . . . . . . . . . . - 2 k Y ^.q.s.I.O.Q.Q.Q.U.H.H.B.B.B.B.B.B.B.B.B.B.B.B.B.B.B.B.B.B.B.B.x.x.x.x.x.x.x.t.t.t.t.t.t.t.t.t.t.t.t.t.t.k.k.k.k.k.k.k.k.k.k.k.k.9.:.:.;.#.M I I I I M #.#.;.;.;.;.#.#.#.;.#.M J J K J J T T T =.!.:.:.:.5.:.&.&.&.&.&.&.&.&.*.*.*.&.[.[.[.6.6.6.b.q.q.s.J.R.R.R.R.R.J.J.J.J.R.R. +)+_+_+2+2+2+3+d+3+3+2+b+1+_+)+)+R.R.R.R.J.J.J.J.J.J.s.s.s.q.q.q.q.6.6.^.{.Y E F h } < ( , , , , ( < } } } } } } } } } 0 f k E E F F F F p h h 0 } h h t C F v z g g g [ [ [ : : : : : [ [ 7 j j B Z Z T T Z T B T T T T T T T T T =.=.=.$.$.$.$.$.$.$.$.$.$.$.$././././.d.d.f.B.x.x.x.x.B.x.G.G.w.w.w.w.w.w.w.t.w.w.",
"& & & & % % % % % % % % % % % % % % % % % % % % & & % % % % % % % % % % % % % % % % % % % % % % % % % % % % % % % % % % % % % % % % % % % % % % % % % % . . . . . . . . . . . . . . . . . . . . . . . . . . . . . . . . . . . . . . . . . . . . . . . . . . . . . . . . . . . . . . . . . . . . . . . . . . . . . . . . . . . . . . . . . . . . . . . . . . . . . . . . . . . . . . . . . . . . . . . . . . . . . . . . . . . . . . . . . . . . . . . . . . . . . . . . . . . . . . % ! 2 E Y ^.q.s.I.O.Q.Q.Q.U.H.H.B.B.B.B.B.B.B.B.B.B.B.B.B.B.B.B.B.B.B.x.x.x.x.x.x.t.t.t.t.t.t.t.t.t.t.t.t.t.t.t.k.k.k.k.k.k.k.g.g.(.k.9.9.9.9.:.:.#.M I I I I I #.#.}.}.#.#.;.#.#.#.#.M M M T T T T T T !.:.:.:.:.5.5.5.5.5.[.[.[.5.5.[.[.[.[.i.b.b.l.q.q.s.J.J.R. + + + + +R.R.R.R.R.R. +)+(+2+d+e+e+k+k+k+k+k+k+a+a+2+)+)+R.R.R.R.R.R.R.R.R.R.R.J.R.J.s.s.s.q.q.6.^...Y E h k } ( , , , _ ( < } p p p p 0 0 0 0 p C F Y Y Y Y Y X F F z h p t C F X X v z g g [ [ [ : : : : : [ [ [ 7 j j B Z Z Z Z Z Z T B T T T T T T T T =.=.=.N $.$.$.$.$.$.$.$.$.$././././.d.d.f.B.B.x.x.x.x.B.x.G.w.w.w.w.w.w.w.w.t.w.w.",
"% % % % % % % % % % % . % % % % % % % % % % % % % % % % % % % % . . % % % % % % % % % % % % % % % % % % % % % % % % % . . % % % % % % % % % % % % % % % . . . . . . . . . . . . . . . . . . . . . . . . . . . . . . . . . . . . . . . . . . . . . . . . . . . . . . . . . . . . . . . . . . . . . . . . . . . . . . . . . . . . . . . . . . . . . . . . . . . . . . . . . . . . . . . . . . . . . . . . . . . . . . . . . . . . . . . . . . . . . . . . . . . . . . . . . . + + + . % ! 2 E ..^.0.s.I.O.O.Q.Q.U.H.H.B.B.B.B.B.B.B.B.B.B.B.B.B.B.B.B.B.B.x.x.x.x.f.f.f.g.g.g.g.r.t.t.t.t.t.t.t.t.t.k.k.k.k.m.g.g.g.g.(.(.(.9.9.9.9.9.:.;.#.M M M I M #.}.}.}.}.}.;.#.#.;.;.T M M T T T T T =.!.:.:.:.:.5.5.5.5.[.[.[.[.[.[.[.[.[.[.b.l.s.J.J.J.R.R. +'+'+'+'+'+'+ +R.R.R.R. +)+)+2+3+e+k+k+n+k+k+k+j+k+e+b+2+)+)+R.R.R.R.R.R.R. + +R.R.R.R.R.R.J.J.s.q.b.^.{.Y E F p } ( , , , _ ( < 0 p p C p p f f p F X Y ..{.{.{...Y Y X F z F t X X X ` S z g g [ [ : : : : : : [ [ [ 7 j j B Z Z Z Z T T T B B T T T B B T T =.@.=.N N N N N N N $.$.$.$././././.d.d.f.B.B.x.x.x.x.B.x.w.w.w.w.w.w.w.w.w.t.w.w.",
". . . . . . . . . . . . . . . . . . . . . . . . . . . . . . . . . . . . . . . . . . . . . . . . . . . . . . . . . . . . . . . . . . . . . . . . . . . . . . . . . . . . . . . . . . . . . . . . . . . . . . . . . . . . . . . . . . . . . . . . . . . . . . . . . . . . . . . . . . . . . . . . . . . . . . . . . . . . . . . . . . . . . . . . . . . . . . . . . . . . . . . . . . . . . . . . . . . . . . . . . . . . . . . . . . . . . . . . . . . . . . + + + . . . . + + + + + - ! k E ..3.n.s.O.O.O.Q.Q.U.U.H.B.B.B.B.B.B.B.B.B.B.B.B.B.B.B.B.B.B.B.x.f.f.f.f.g.g.g.g.e.r.g.g.t.t.t.t.t.t.k.k.k.g.g.g.g.g.f.(.(.(.(.f.9.9.9.9.:.:.!.;.;.T #.#.;._._._._._.!.;.;.;.;.T T T T T T =.=.!.!.:.:.:.5.5.5.5.[.[.[.[.[.[.[.[.[.[.i.l.s.P. + + + + +'+'+(+(+(+(+'+)+ + +R. + +)+_+2+d+k+k+k+r+u+u+r+r+j+k+e+2+)+)+R.R.R. + + + +)+ + + + +R.R.R.R.J.J.s.q.6.^...X F p } _ , , , _ ( < 0 f C C C C C C X X ..{.^.^.^.^.{.....Y Y Y X X X ..%.%.S z g [ [ : : : : : : : [ [ 7 7 g t B Z Z Z Z T T B B B B B B B B T T =.@.T N N N N N N N N $.$.$.$./././.d.d.d.d.d.x.x.x.x.B.x.w.w.w.w.w.w.w.w.w.t.w.w.",
". . . . . . . . . . . . . . . . . . . . . . . . . . . . . . . . . . . . . . . . . . . . . . . . . . . . . . . . . . . . . . . . . . . . . . . . . . . . . . . . . . . . . . . . . . . . . . . . . . . . . . . . . . . . . . . . . . . . . . . . . . . . . . . . . . . . . . . . . . . . . . . . . . . . . . . . . . . . . . . . . . . . . . . . . . . . . . . . . . . . . . . . . . . . . . . . . . . . . . . . . . . . . . . . . . . . . . . . . . . . . . . + . . . . + . . . + + * 2 E Y {.0.n.C.O.O.O.Q.U.U.U.H.B.B.B.B.B.B.z.z.z.z.z.z.z.z.z.z.B.B.B.x.f.f.d.d.g.g.e.e.e.e.g.g.g.t.t.t.t.k.k.g.g.g.g.g.g.g.f.(.(.1.1.f.f.f.9.9.1.(.:.!.!.!.;.;._.:.:.k.k.:.:.!.!.!.!.!.=.=.=.=.=.!.!.!.:.5.5.5.5.9.c.[.[.[.[.[.[.[.[.[.[.[.i.s.P. +'+'+'+'+'+'+'+(+(+(+(+'+'+)+)+)+)+)+)+_+2+d+k+k+r+u+r+s+r+r+k+k+e+2+)+)+R.R. + + +)+)+)+)+)+)+)+ + +R.R.R.J.s.q.6.^...X C f < , , , , , ( < 0 f C C X X X X *.*.{.^.^.6.6.^.^.{.....Y Y X X ..*.*.%.S z g 7 [ [ [ [ : : : : [ [ 7 j t t t Z Z Z t B B B B B B B B B B T T T =.T N N N N N N N N N $.$.$./././././.d.d.d.x.x.x.x.B.x.w.w.w.w.w.w.w.w.w.t.w.w.",
". . . . . . . . . . . . . . . . . . . . . . . . . . . . . . . . . . . . . . . . . . . . . . . . . . . . . . . . . . . . . . . . . . . . . . . . . . . . . . . . . . . . . . . . . . . . . . . . . . . . . . . . . . . . . . . . . . . . . . . . . . . . . . . . . . . . . . . . . . . . . . . . . . . . . . . . . . . . . . . . . . . . . . . . . . . . . . . . . . . . . . . . . . . . . . . . . . . . . . . . . . . . . . . . . . . . . . . . . . . . . . + + . . . . . . + + + , < o Y ).6.n.D.O.Y.Y.Y.Z.U.U.U.H.B.B.B.B.B.B.z.z.z.z.z.z.z.z.z.z.z.B.B.x.f.f.d.d.d.e.e.e.e.e.g.g.g.g.t.t.t.k.g.g.g.g.g.g.g.g.f.1.1.f.f.f.f.f.m.m.9.9.5.:.:.:.:.:.:.9.m.m.m.m.9.:.:.:.:.:.:.!.!.!.:.:.:.:.5.9.9.9.9.i.i.i.i.i.c.c.[.[.[.[.[.b.i.J. +'+'+(+'+(+'+(+(+(+(+(+(+(+)+)+'+)+)+)+_+2+2+e+k+k+r+u+r+r+r+r+k+k+e+2+_+)+ + +)+)+)+)+)+)+_+)+)+)+)+ + + +R.R.J.q.6.6...X C f } , , , , ( ( } 0 f D C U X X *.{.{.^.^.6.6.6.6.^.'.{.......*...*.*.*.%.z z g g 7 [ [ [ [ : : : [ [ 7 j g t t t t B B B B B B B B B x x B B Z Z N N N N N N N N N N N N $.$.$.$././././././.d.d.f.x.x.x.w.w.w.w.w.w.w.w.w.t.k.k.",
". . . . . . . . . . . . . . . . . . . . . . . . . . . . . . . . . . . . . . . . . . . . . . . . . . . . . . . . . . . . . . . . . . . . . . . . . . . . . . . . . . . . . . . . . . . . . . . . . . . . . . . . . . . . . . . . . . . . . . . . . . . . . . . . . . . . . . . . . . . . . . . . . . . . . . . . . . . . . . . . . . . . . . . . . . . . . . . . . . . . . . . . . . . . . . . . . . . . . . . . . . . . . . . . . . . . . . . . . . . . . . + . . + . . . + + + , ! o G ..3.n.D.D.O.Y.Y.Y.Z.U.U.U.H.S.B.S.B.S.S.z.z.z.z.z.z.z.z.z.z.z.B.B.f.f.f.g.d.d.e.e.e.e.e.g.g.g.t.t.t.t.k.g.g.e.g.g.g.g.f.f.1.f.f.f.f.f.f.m.m.m.m.m.9.9.9.9.9.9.m.m.w.m.m.m.9.9.9.5.5.:.:.:.:.:.5.5.5.9.m.i.i.m.i.i.l.l.l.a.a.i.i.i.6.b.l.s.P.X.(+(+3+3+3+(+3+3+3+3+3+3+(+(+(+(+_+_+2+2+e+e+k+k+k+r+u+r+u+r+r+k+k+k+e+_+)+)+)+)+)+_+_+_+_+_+_+_+)+)+)+)+)+ +R.J.s.q.6.{.Y C f 0 < ( < } } } 0 c f C U X *.*.*.{.^.6.6.6.6.a.6.6.^.^.{.{.{.{.*.*.*.'.*.` z z g g 7 7 [ [ [ : : [ [ 7 j j t j x y j j j j j B B B B x x B B B B x N N x x x N N N N N N N N $.$.$.$.$./././.7.d.f.f.f.f.f.f.m.m.m.m.k.w.w.k.k.k.",
". . . . . . . . . . . . . . . . . . . . . . . . . . . . . . . . . . . . . . . . . . . . . . . . . . . . . . . . . . . . . . . . . . . . . . . . . . . . . . . . . . . . . . . . . . . . . . . . . . . . . . . . . . . . . . . . . . . . . . . . . . . . . . . . . . . . . . . . . . . . . . . . . . . . . . . . . . . . . . . . . . . . . . . . . . . . . . . . . . . . . . . . . . . . . . . . . . . . . . . . . . . . + + + + + + + + + . . . . . . . . . . + . + + . . + + * , 4 G ).3.n.D.D.R.O.Y.Y.Y.U.U.U.U.T.z.T.T.T.S.S.S.S.S.S.z.z.z.z.z.z.z.B.f.d.d.d.f.f.g.e.8.8.e.g.g.g.g.g.g.g.g.g.k.e.7.7.g.g.g.g.1.f.f.f.f.f.f.c.u.u.u.m.u.c.m.m.c.9.m.m.w.G.w.w.m.m.9.9.9.5.5.5.5.5.5.9.9.9.m.m.w.w.w.E.E.E.u.i.l.l.l.l.i.l.l.l.J. +'+3+3+a+d+a+d+d+a+d+d+3+3+3+2+_+_+2+2+2+e+e+k+k+n+r+r+r+r+r+k+k+k+k+k+e+2+_+)+_+_+_+_+2+2+2+b+b+_+)+)+)+)+)+ +R.J.s.q.6.{.X C D f 0 0 0 0 0 0 c f C U X *.*.{.{.^.6.6.6.6.a.a.a.6.6.^.^.{.{.^.^.^.^.'.%.` z z z g g 7 [ [ : : : [ [ [ 7 7 j j j j j j d d j j j j j j j j x x x x x x x x x N N N N N N K K -.-.-.$.$.$.$.$.]././.7.7.f.f.f.k.k.k.k.m.t.k.k.k.k.",
". . . . . . . . . . . . . . . . . . . . . . . . . . . . . . . . . . . . . . . . . . . . . . . . . . . . . . . . . . . . . . . . . . . . . . . . . . . . . . . . . . . . . . . . . . . . . . . . . . . . . . . . . . . . . . . . . . . . . . . . . . . . . . . . . . . . . . . . . . . . . . . . . . . . . . . . . . . . . . . . . . . . . . . . . . . . . . . . . . . . . . . . . . . . . . . . . . . . . . . . . . . . . + + + + + + + + + . . . . . . . . . . . + . . . . . ! 4 m W ).n.D.D.R. + +!+!+.+.+U.U.U.T.z.T.T.T.S.S.S.S.z.z.z.z.z.z.z.z.z.B.f.d.d.d.f.f.g.e.e.e.e.g.g.g.t.t.t.t.g.g.e.e.7.7.g.g.g.g.1.f.f.f.f.f.c.c.u.m.m.u.c.c.c.c.c.m.u.u.u.u.u.u.u.m.9.9.9.9.9.9.c.c.c.9.m.m.m.w.E.E.E.E.E.J.s.l.l.l.l.l.l.l.l.s.P. +(+3+d+a+n+f+f+f+f+n+f+d+d+3+2+2+2+2+e+e+k+k+k+n+k+r+r+r+r+r+r+r+k+k+k+e+e+2+2+2+2+2+2+2+e+e+e+2+2+_+)+)+)+)+)+ +R.s.l.6.^.*.U C f f 0 0 0 f f f C C X *.*.*.{.{.^.^.6.6.6.6.a.6.6.6.6.^.^.^.6.^.^.^.2.%.` z z z z t g g 7 [ [ [ [ [ 7 7 7 j j j j j d d d d d d d d j j j j j j j x x x x x N N N N N N K K K K K K $.$.$.$./././././.(.(.(.(.g.k.k.k.k.k.k.k.k.",
". . . . . . . . . . . . . . . . . . . . . . . . . . . . . . . . . . . . . . . . . . . . . . . . . . . . . . . . . . . . . . . . . . . . . . . . . . . . . . . . . . . . . . . . . . . . . . . . . . . . . . . . . . . . . . . . . . . . . . . . . . . . . . . . . . . . % % . . . . . . . . . . . . . . . . . . . . . . . . . . . . . . . . . . . . . . . . . . . . . . . . . . . . . . . . . . . . . . . . . . . . . . . + + + + + + + + + + . . . . . . . . . . . . . . . % ! o G ).0.D.R. + + +<+<+<+!+.+U.U.U.U.z.T.T.T.T.z.z.z.z.z.z.z.z.z.z.z.z.B.f.d.d.f.f.f.g.e.e.e.e.g.g.g.t.t.t.g.g.g.e.7._._.(.(.(.g.f.f.f.f.f.c.u.u.u.c.c.c.c.c.u.u.u.u.u.u.u.E.E.E.c.c.c.c.c.i.i.i.c.i.c.a.i.u.E.E.P.P.P.P.P.P.J.s.s.s.s.s.s.s.J.P. +'+(+d+f+n+f+n+n+n+o+f+f+f+a+d+e+e+e+e+k+k+k+k+k+r+r+r+r+r+r+r+r+u+r+r+k+k+k+e+e+e+e+2+2+e+e+e+e+e+2+_+)+)+)+)+ +R.J.s.l.6.^.*.X U C f f f c f f C C U X *.*.*.{.{.{.^.^.^.6.6.6.6.6.6.6.6.6.6.6.6.6.^.2.%.` ` P z z z z g g 7 7 7 7 7 7 j j j j j j j 7 7 7 7 7 7 d j j j j j j j j x x x x x N N N N K K K K K K K K K K N N -.-././././.(.(.(.(.f.k.m.m.w.m.k.k.",
". . . . . . . . . . . . . . . . . . % . . . . . . . . . . . . . . . . . . . . . . . . . . . . . . . . . . . . . . . . . . . . . . . . . . . . . . . . . . . . . . . . . . . . . . . . . . . . . . . . . . . . . . . . . . . . . . . . . . . . . . . . . . . . . . . . . . . . . . . . . . . . . . . . . . . . . . . . . . . . . . . . . . % . . . . . . . . . . . . . . . . . . . . . . . . . . . . . . . . . . . . . . . . + + + + + + + + + . . . . . . . . . . + . + . . % ! o W ).n.D. + +!+<+<+<+}+!+*+&+U.T.T.T.T.T.T.T.z.z.z.z.z.z.z.z.z.B.B.B.B.f.f.f.f.f.g.g.e.e.e.e.k.t.t.t.t.t.k.k.e.7._._._._._.(.(.(.1.f.f.f.c.u.u.u.c.c.c.c.p.p.p.u.p.p.p.v.v.v.v.p.a.a.a.a.a.a.a.a.a.a.p.p.l.s.J.P.X.X. + +P.J.J.P.J.P.P.P.P.P. +'+'+3+d+f+f+n+o+o+o+o+o+f+f+n+a+e+e+k+k+k+k+r+r+r+r+r+r+r+r+r+r+A+r+r+r+r+r+k+k+k+k+e+e+e+e+e+e+e+e+2+_+-+-+-+-+ +R.J.s.l.6.^.{.*.X X C p f f p C C X X X *.*.*.{.{.{.{.{.^.^.^.6.6.6.6.6.6.6.6.b.6.6.6.2.%.S S ` P z z z z g 7 7 7 g j j g t t g j j j 7 7 7 7 7 j j j y y y y y j j y y y y L N N N N K K K K K K K K K N N N  .-.-./.(.(.(.(./.(.f.f.m.m.m.m.9.9.",
". . . . . . . . . . . . . . . . . . % . . . . . . . . . . . . . . . . . . . . . . . . . . . . . . . . . . . . . . . . . . . . . . . . . . . . . . . . . . . . . . . . . . . . . . . . . . . . . . . . . . . . . . . . . . . . . . . . . . . . . . . . . . . . . . . . . . . . . . . . . . . . . . . . . . . . . . . . . . . . . . . . . . . . . . . . . . . . . . . . . . . . . . . . . . . . . . . . . . . . . . . . . . . . + + + + . . . . . . . . . . . . . . . . % . . - 2 E W 3.D. +~+1+<+<+<+<+}+*+*+&+U.T.T.T.T.T.T.T.z.z.z.z.z.z.z.z.z.B.B.f.f.f.f.f.f.g.g.g.e.e.e.e.t.t.t.t.t.t.k.k.e.7._._._.]._.(.(.(.(.1.f.f.f.c.c.c.c.u.h.p.h.p.p.a.a.a.a.p.v.v.v.p.a.a.a.a.b.2.b.b.b.b.l.l.l.J.P.R. + + + +R.R.R.P.O.R.R.R. + +'+'+(+3+d+f+o+o+o+s+s+s+o+o+n+n+n+k+k+k+k+k+k+r+r+r+r+r+r+r+r+r+r+A+A+r+r+r+r+r+r+k+k+k+k+k+k+e+e+e+e+2+_+-+-+-+X. +R.J.s.l.b.6.^.{.*.X X C C C C C F X X X X *.*.*.*.{.{.{.{.^.^.^.6.6.6.6.6.6.6.b.6.6.6.2.[.'.'.` ` P z z z g g g g g t t t t t t g j j j 7 7 j j j j y y y y y y y y y y y y L x x x x x w w w w w K K N N N N  .;.;.-./.(.(.(./.(.1.f.9.m.m.m.9.9.",
". . . . . . . . . . . . . . . . . . . . . . . . . . . . . . . . . . . . . . . . . . . . . . . . . . . . . . . . . . . . . . . . . . . . . . . . . . . . . . . . . . . . . . . . . . . . . . . . . . . . . . . . . . . . . . . . . . . . . . . . . . . . . . . . . . . % % % % . . . . . . . . . . . . . . . . . . . . . . . . . . . . . . . . . . . . . . . . . . . . . . . . . . . . . . . . . . . . . . . . . . . . . . . . + + . . . . . . . . . . . . . . . . + + + * * 2 o Y ).n.R.'+<+a+a+0+0+<+}+*+*+&+U.T.T.T.T.T.T.z.z.z.z.z.z.z.z.x.x.f.f.f.f.f.f.f.f.g.g.g.e.e.e.e.t.t.t.t.t.t.t.k.e.7._._._.]._.(.(.(.(.(.1.f.m.m.c.c.u.h.h.h.p.p.h.a.a.2.a.p.v.v.v.p.p.a.b.b.2.6.6.2.b.b.l.p.s.J.P. + +'+ + + + +O. +R. + + + +'+(+(+3+d+f+f+n+o+o+s+s+s+s+s+o+n+k+k+k+k+k+k+r+r+r+r+r+r+r+r+r+r+A+A+r+r+r+r+r+r+r+r+r+r+k+k+k+k+e+e+e+2+_+-+-+X.X.X.P.J.s.l.b.6.6.^.^.*.X X F C C C X X X X X X *.*.*.*...{.{.{.{.^.6.6.6.6.6.6.6.6.6.6.6.2.[.'.'.>.` ` ` P z z t j j t t t t t t z g g j j j j j j j y y y y y y y y y y y y y L x x x x x K K K K K K K N N N N ;.;.;.;.;.=.=.=.(.(.(.(.9.9.m.m.9.9.",
". . . . . . . . . . . . . . . . % . . . . . . . . . . . . . . . . . . . . . . . . . . . . . . . . . . . . . . . . . . . . . . . . . . . . . . . . . . . . . . . . . . . . . . . . . . . . . . . . . . . . . . . . . . . . . . . . . . . . . . . . . . . . . . . . . . % % % . . . . . . . . . . . . . . . . . . % . . . . . . . . . . . . . . . . . . . . . . . . . . . . . . . . . . . . . . . . . . . . . . . . . . . . . . . + + . . . . . . . . . . . . . . + + + * , ( o Y ).0.D. +1+a+a+a+0+0+}+}+*+*+.+U.T.T.T.z.T.T.z.z.z.z.z.z.B.x.x.f.f.f.f.f.f.f.f.f.g.g.g.e.8.8.e.t.t.t.t.t.t.t.k.k.e.7._._._._.(.(.(.(.(.1.1.9.m.c.u.u.h.h.h.h.h.h.a.a.2.a.a.p.v.v.v.p.a.a.b.b.6.6.2.a.a.p.v.s.J.P. + +'+'+'+'+ +Y. + +'+'+'+'+(+3+3+3+d+f+f+n+o+n+s+s+s+s+n+o+n+k+j+j+j+k+k+r+r+r+r+r+r+r+r+r+r+A+A+r+r+r+r+r+r+r+r+r+r+r+r+k+k+k+k+e+2+_+_+)+ +R.P.J.s.l.l.b.a.q.6.6.^.^.*.X X X X X X X X X X X *.*.*.*...{.{.{.^.^.^.6.6.6.6.6.6.6.6.6.2.2.'.'.'.>.>.` ` P z z B t t t t t z z z z z g g j j y y y y y y y y y y y y y y L L L x x x N N K K K K K N N N N N N #.;.;.;.=.=.=.=.(.(.(.:.:.k.k.k.k.k.",
". . . . . . . . . . . . . . . . % . . . . . . . . . . . . . . . . . . . . . . . % . . . . . . . . . . . . . . . . . . . . . . . . . . . . . . . . . . . . . . % . . . . . . . . . . . . . . . . . . . . . . . . . . . . . . . . . . . . . . . . . . . . . . . . . . . . . . . . . . . . . . . . . . . . . . . . . . . . . . . . . . . . . . . . . . . . . . . . . . . . . . . . . . . . . . . . . . . . . . . . + . . . . . . . . . . . . . . . + . . . . . . . + + + * _ 1 E ..3.n.R.Y.<+a+a+a+0+<+}+*+*+*+.+U.U.U.z.z.T.z.z.z.z.z.z.z.B.x.x.f.f.f.f.f.f.f.g.g.g.g.g.7.8.8.e.r.t.t.t.t.t.t.r.e.e.7._._._._.(.(.(.(.(.1.1.1.9.m.u.h.h.h.h.h.h.h.a.a.a.a.a.p.p.v.v.p.p.a.b.b.2.6.2.a.a.v.s.s.P.R. +'+'+'+'+'+!+Y.'+'+'+(+(+(+3+3+3+d+d+f+f+o+o+n+s+s+s+s+s+r+k+j+k+k+j+k+k+r+r+r+r+r+r+r+r+r+r+A+A+A+A+A+A+A+A+r+A+A+r+r+r+r+r+k+k+k+e+2+_+)+ + +P.J.s.s.l.l.q.q.q.q.6.6.^.{.....................X *.*.*.....{.{.{.{.^.^.6.6.6.^.6.6.6.6.2.2.'.'.'.'.>.>.` ` ` P Q B t t t z z P P z z z y y y y y y y y P P y y y y y y L L Z Z L L N T N N K K K K N N N K N N #.;.;.;.=.=.=.=.(.(.:.:.:.:.:._.:.:.",
". . . . . . . . . . . . . . . . . . . . . . . . . . . . . . . . . . . . . . . . . . . . . . . . . . . . . . . . . . . . . . . . . . % % . . . . . . . . . . . . . . . . . . . . . . . . . . . . . . . . . . . . . . . . . . . . . . . . . . . . . . . . . . . . . . . . . . . . . . . . . . . . . . . . . . . . . . . . . . . . . . . . . . . . . . . . . . . . . . . . . . . . . . . . . . . . . . . . . . . . . . . . . . . . . . . . . . . . . . . . . . . . . + + + , 9 E ).0.D. +'+3+3+3+3+}+}+!+!+*+&+U.U.U.U.U.H.H.H.H.H.u.u.x.x.x.x.x.f.f.f.f.f.g.g.g.g.7.7.7.7.7.e.e.e.t.t.t.k.k.k.k.g.e._._._._._.(.(.(.=.=.=.1.<.c.h.h.v.v.v.v.v.h.h.p.a.a.a.a.a.p.p.v.v.p.p.a.a.a.2.a.p.p.v.v.J.R. + +'+(+(+}+'+'+'+!+(+}+3+3+3+3+3+d+d+f+f+o+n+o+s+s+s+o+n+r+r+r+k+r+r+r+r+r+r+r+r+r+r+r+r+r+r+r+r+A+A+A+A+A+A+A+A+A+A+A+A+r+r+r+r+k+k+k+e+2+)+)+ +R.J.s.s.s.s.s.s.s.s.l.l.b.6.^.{.{.{.*.*.*.*.*.*.*.*.X X ....{.{.{.{.{.^.^.6.^.^.6.6.6.2.2.2.'.'.>.>.>.>.>.>.P P ` Z Z Z Z P P P ` P z v y y y y P P P P P P P P y y P P L L L L Z Z T T T T T T T T T T T T T T ;.;.;.!.!.;.!.:.:.:.:.:.:._._._.:.:.",
". . . . . . . . . . . . . . . . . . . . . . . . . . . . . . . . . . . . . . . . . . . . . . . . . . . . . . . . . . . . . . . . . . . . . . . . . . . . . . . . . . . . . . . . . . . . . . . . . . . . . . . . . . . . . . . . . . . . . . . . . . . . . . . . . . . . . . . . . . . . . . . . . . . . . . . . . . . . . . . . . . . . . . . . . . . . . . . . . . . . . . . . . . . . . . . . . . . . . . . . . . . . . . . . . . . . . . . . . . . . + + + + + + + + * 1 v {.0.D. +1+3+7+3+3+}+}+!+!+,+&+&+U.U.U.U.H.H.H.H.H.z.B.x.x.x.x.x.f.f.f.f.f.g.g.g.g.7.7.7.7.7.e.e.e.k.k.k.k.k.k.k.g.7._._._._._.(.(.(.=.=.=.1.<.c.h.h.v.v.v.v.v.v.h.p.p.a.a.a.a.p.p.v.v.v.p.a.a.a.a.a.p.v.J.J.R. + +'+(+(+3+3+}+'+(+(+}+3+3+3+3+3+3+d+f+f+f+o+o+o+s+o+o+o+o+r+r+r+r+r+r+r+r+r+r+r+r+r+r+r+r+r+r+r+r+r+r+r+r+A+A+A+A+A+A+A+A+r+r+r+r+r+k+k+e+e+_+)+ +R.R.J.s.s.J.J.J.J.J.s.s.l.b.6.^.^.^.{.*.*.*.*.*.*.*.*...*...{.{.{.{.{.^.^.^.^.^.^.^.6.6.2.2.'.'.>.>.>.>.>.>.>.>.%.` ` Z Z ` ` ` ` ` ` P P P P P P P P P P P P P P P P P ` ` Z Z Z Z T T T T T T T T T T T T T T ;.;.;.;.!.;.!.:.:.:.:.:.:._.;.;.;.;.",
". . . . . . . . . . . . . . . . . . . . . . . . . . . . . . . . . . . . . . . . . . . . . . . . . . . . . . . . . . . . . . . . . . . . . . . . . . . . . . . . . . . . . . . . . . . . . . . . . . . . . . . . . . . . . . . . . . . . . . . . . . . . . . . . . . . . . . . . . . . . . . . . . . . . . . . . . . . . . . . . . . . . . . . . . . . . . . . . . . . . . . . . . . . . . . . . . . . . . . . . . . . . . . . . . . . . . . . . . . . . + + . . + + + + , 1 E {.n.R.'+}+7+6+}+}+}+!+!+,+,+&+&+U.U.U.U.H.H.H.H.H.H.z.x.x.x.x.x.f.f.f.f.f.f.g.g.g.g.(.7.7.7.7.e.e.k.k.k.k.k.k.g.g.e._._._._._.(.(.=.=.=.=.1.<.c.h.h.v.v.v.v.v.v.v.p.p.a.a.a.a.p.p.v.v.v.v.p.a.a.a.p.v.I.J.R.R. +'+(+3+3+d+3+3+}+}+}+3+d+d+d+3+3+d+f+f+f+o+o+o+o+o+o+o+o+o+n+r+r+r+u+u+u+u+r+r+r+r+r+r+r+r+r+r+A+A+r+A+A+A+A+A+A+A+A+A+A+A+r+r+r+r+r+r+k+k+k+2+_+)+ +R.J.J.J.J.R.R.R.R.J.J.s.l.b.6.^.^.^.{.{.{.{.{.{.*.*.X ....{.{.{.{.{.^.^.6.^.^.^.^.^.6.a.2.2.'.>.>.>.>.>.>.>.>.%.%.%.%.%.>.>.>.P P ` P P P P P P P P P P P P P P P P P P ` ` Z Z Z Z T T T T T T T T T T T T T ;.;.;.;.;.;.=.:.:.:.:.:._.;.;.;.;.;.",
". . . . . . . . . . . . . . . . . . . . . . . . . . . . . . . . . . . . . . . . . . . . . . . . . . . . . . . . . . . . . . . . . . . . . . . . . . . . . . . . . . . . . . . . . . . . . . . . . . . . . . . . . . . . . . . . . . . . . . . . . . . . . . . . . . . . . . . . . . . . . . . . . . . . . . . . . . . . . . . . . . . . . . . . . . . . . . . . . . . . . . . . . . . . . . . . . . . . . . . . . . . . . . . . . . . . . . . . . . . . . . . . + + + + = 1 S {.n.I.'+}+}+:+:+:+,+,+,+,+&+&+&+U.U.U.U.U.H.H.H.H.H.z.B.x.x.x.x.f.f.f.f.f.f.g.g.g.(.(.(.7.7.7.7.e.k.k.k.k.k.k.e.e._._._.;._.;._.(.=.=.=.1.1.<.c.h.h.h.v.v.v.v.v.p.p.p.a.a.a.a.p.p.v.v.v.v.p.p.p.p.v.v.I.O.O.Y.'+'+(+3+d+d+d+3+3+3+3+7+f+f+d+d+d+f+f+f+f+f+o+n+o+o+o+o+o+n+s+r+r+r+u+u+u+u+u+r+r+r+r+r+r+r+r+A+A+A+A+A+A+A+A+A+A+A+A+A+A+A+A+r+r+r+r+r+r+k+k+e+2+)+)+ +R.R.R.R. + + + +R.R.J.s.l.b.6.6.^.^.{.{.{.{.{.*.*.......{.{.^.^.^.^.6.6.^.^.[.^.^.6.a.a.2.2.>.>.>.>.>.>.>.>.<.[.[.[.<.>.>.>.>.>.>.>.>.>.P P P P P P P P P P P P P P ` >.>.>.@.Z Z T T T T T T T =.=.T T T T ;.;.;.;.;.!.!.:.:.:.:.:._.;.;.#.;.;.",
". . . . . . . . . . . . . . . . . . . . . . . . . . . . . . . . . . . . . . . . . . . . . . . . . . . . . . . . . . . . . . . . . . . . . . . . . . . . . . . . . . . . . . . . . . . . . . . . . . . . . . . . . . . . . . . . . . . . . . . . . . . . . . . . . . . . . . . . . . . . . . . . . . . . . . . . . . . . . . . . . . . . . . . . . . . . . . . . . . . . . . . . . . . . . . . . . . . . . . . . . . . . . . . . . . . . . . . . . . . . . . . . + + + + ' 8 S '.p.I.Y.!+:+:+:+,+,+,+,+,+$+$+#+U.U.U.U.U.H.H.H.H.H.B.B.x.x.x.x.x.f.f.f.f.g.g.g.g.(.(.(.g.7._.e.e.k.m.m.k.k.k.k.:._._.#.;.;.;.;.:.(.1.(.1.<.<.c.h.h.h.v.v.v.v.v.v.v.p.a.a.a.a.p.p.v.v.I.v.v.v.v.v.I.I.O.O.Y.Y.'+(+3+d+f+f+f+f+d+d+f+f+f+f+f+f+f+f+f+f+f+f+o+o+o+s+n+n+s+s+s+r+r+r+r+r+r+u+u+u+r+r+r+r+r+r+r+r+A+A+A+A+A+A+A+A+A+A+A+A+r+A+A+A+r+r+u+u+r+r+r+k+e+2+_+)+)+)+)+)+)+)+)+)+)+ +R.J.s.b.6.6.6.^.^.^.{.{.^.{.{...{.{.{.^.^.6.6.6.6.6.^.{.*.^.6.2.a.a.2.2.>.>.>.>.>.>.<.<.<.[.[.<.<.<.>.>.>.>.>.>.>.>.>.>.>.>.P P P P P P P P P P >.>.>.>.@.@.Z T T T T T T =.=.=.=.T T T =.=.=.=.=.=.(.(.:.:.:.:.:.!.;.;.;.;.",
". . . . . . . . . . . . . . . . . . . . . . . . . . . . . . . . . . . . . . . . . . . . . . . . . . . . . . . . . . . . . . . . . . . . . . . . . . . . . . . . . . . . . . . . . . . . . . . . . . . . . . . . . . . . . . . . . . . . . . . . . . . . . . . . . . . . . . . . . . . . . . . . . . . . . . . . . . . . . . . . . . . . . . . . . . . . . . . . . . . . . . . . . . . . . . . . . . . . . . . . . . . . . . . . . . . . . . . . . . . . . . . . . + + + ' 3 S '.p.I.Z.,+,+$+$+$+$+$+$+,+$+,+$+#+U.U.U.U.U.H.H.H.B.B.x.x.x.w.w.w.f.f.f.f.g.g.g.(.(.(.(.g.:._.e.e.k.m.m.k.k.k.k.:._._.;.;.;.;.=.!.1.:.1.1.<.c.h.h.a.h.v.v.I.I.I.I.v.p.p.a.a.a.p.p.p.v.I.I.I.I.I.I.I.O.O.Y.Y.!+}+3+7+f+o+o+o+f+f+f+o+n+f+f+f+f+f+f+f+f+f+f+f+n+n+o+n+n+s+s+s+s+s+s+r+r+r+r+r+r+r+r+r+r+r+r+r+r+r+r+r+r+r+r+r+r+r+r+A+r+r+r+A+A+r+r+u+u+u+u+r+k+k+e+2+2+_+_+_+_+_+1+_+_+)+)+R.J.s.l.b.b.6.6.6.^.^.^.^.^.{.{.{.^.^.6.6.6.6.6.6.6.^.{.[.^.6.b.a.a.2.2.>.>.>.>.>.>.<.<.<.c.c.c.<.<.>.>.>.>.>.<.<.<.<.<.>.>.P P P P P P P P P >.>.>.>.>.@.@.Z T N T T T =.=.@.@.@.Z T T =.=.=.=.=.(.(.(.:.:.:.:.:.!.;.;.;.;.",
". . . . . . . . . . . . . . . . . . . . . . . . . . . . . . . . . . . . . . . . . . . . . . . . . . . . . . . . . . . . . . . . . . . . . . . . . . . . . . . . . . . . . . . . . . . . . . . . . . . . . . . . . . . . . . . . . . . . . . . . . . . % % . . . . . . . . . . . . . . . . . . . . . . . . . . . . . . . . . . . . . . . . . . . . . . . . . . . . . . . . . . . . . . . . . . . . . . . . . . . . . . . . . . . . . . . . . . . . . . . . . . . + + + + ' 3 S ^.a.H.Z.,+$+$+$+$+$+$+$+$+$+$+#+#+U.U.U.U.U.H.H.G.H.B.B.x.x.w.w.w.f.f.f.f.g.g.g.:.(.(.(.(.:.:.e.e.k.m.m.k.k.k.:.:._._.;.;.;.;.!.!.:.5.1.<.c.c.h.h.h.v.v.v.I.I.I.I.C.v.p.p.a.a.p.p.p.v.I.I.I.O.O.O.O.O.Y.'+!+}+3+3+f+o+s+s+p+o+f+o+p+o+o+f+f+f+f+f+d+d+d+d+f+f+n+n+n+o+s+s+n+n+n+s+r+r+r+r+r+r+r+r+r+r+r+r+r+r+r+r+r+r+r+r+r+r+r+r+r+r+r+r+r+A+r+r+u+u+r+u+r+r+k+k+k+e+e+2+2+2+2+2+2+_+_+)+R.J.s.s.l.b.b.b.6.6.^.^.^.^.^.{.^.^.6.6.a.6.6.6.6.6.^.{.[.6.b.b.a.p.2.2.>.>.>.>.>.>.<.<.h.c.c.c.<.<.<.>.>.>.<.<.<.<.<.<.>.>.P P P P P P P P P P >.>.>.>.@.@.Z T N T T T =.=.@.@.@.Z T T =.=.=.=.(.(.(.(.:.:.:.:.!.!.;.;.!.!.",
". . . . . . . . . . . . . . . . . . . . . . . . . . . . . . . . . . . . . . . . . . . . . . . . . . . . . . . . . . . . . . . . . . . . . . . . . . . . . . . . . . . . . . . . . . . . . . . . . . . . . . . % % % . . . . . . . . . . . . . . . . % % % % . . . . . . . . . . . . . . . . . . . . . . . . . . . . . % % . . . . . . . . . . . % . . . . . . . . . . . . . . . . . . . . . . . . . . . . . . . . . . . . . . . . . . . . . . . . . . . . . . . + + + + _ 3 Y ^.a.H.Z.,+^+^+$+$+$+$+$+$+$+#+U.U.U.U.U.U.U.H.G.G.H.B.B.x.x.w.w.m.f.f.f.f.f.g.k.:.(.(.(.:.:.:.e.e.k.m.m.k.k.k.:.:._._.;.;.#.;.!.!.:.5.1.c.c.h.h.h.h.v.v.I.I.I.I.I.C.C.p.p.a.a.p.p.p.v.I.I.O.O.O.O.Y.Y.!+}+}+}+7+7+f+o+s+s+p+o+f+f+o+n+o+f+f+f+d+d+d+d+d+d+d+a+f+n+k+n+n+n+o+o+n+n+r+r+r+r+r+r+r+r+r+r+r+r+r+r+r+r+r+r+r+r+r+r+r+r+r+r+r+r+r+A+r+r+u+u+u+u+r+r+r+u+r+k+k+e+e+e+e+b+2+2+2+_+ +R.J.s.l.b.b.b.b.6.^.^.6.6.^.^.^.6.6.a.a.a.a.6.6.6.^.{.^.6.b.b.p.p.2.2.<.>.>.>.>.>.<.<.h.c.c.c.<.<.<.<.>.<.<.<.<.<.<.<.>.>.P P P P P P P P P P >.>.>.>.>.@.Z T N T T T =.=.@.@.@.Z Z T =.=.=.=.(.(.(.(.:.:.:.:.!.!.;.;.!.!.",
". . . . . . . . . . . . . . . . . . . . . . . . . . . . . . . . . . . . . . % % . . . . . . . . . . . . . . . . . . . . . . . . . . . . . . . . . . . . . . . . . . . . . . . . . . . . . . . . % % % % . . . . . . . . . . . . . . . . . . . . . . . . . . . . . . . % % . . . . . . . . . . . . . . . . . . . . . . . . . . . . . . . . . . . . . . . . . . . . . . . . . . . . . . . . . . . . . . . . . . . . . . . . . . . . . . . . . . . . . . . . . . . . + + + ' 3 S 2.a.H.Z.$+^+%+%+%+$+$+Z.Z.Z.Z.U.U.U.U.U.Q.H.H.G.G.G.G.w.w.w.w.m.m.f.f.f.f.f.f.f.(.:.:.:.:.:.e.e.e.k.m.m.k.k.k.:.:.:.;.;.#.#.;.;.!.5.5.c.c.c.c.h.h.h.v.v.v.v.v.v.I.I.v.p.p.p.p.p.p.p.v.I.I.O.O.Y.Y.!+}+}+a+d+7+d+f+f+o+p+p+n+f+f+f+f+f+f+f+f+a+a+a+d+d+d+d+f+f+k+f+n+n+o+o+o+o+o+o+k+r+r+r+r+r+r+r+r+r+u+u+r+r+r+r+r+r+r+r+r+r+r+A+u+u+u+u+u+u+u+u+u+u+u+u+r+A+A+A+u+r+k+k+k+k+k+k+k+e+2+_+ +R.J.s.l.b.b.b.b.6.6.6.6.6.6.6.6.b.b.q.q.b.b.b.6.6.^.{.^.6.b.a.p.p.a.a.[.[.[.<.<.<.2.a.c.c.h.h.h.h.<.<.<.<.<.h.h.h.h.<.<.>.>.P P P P P >.>.>.>.>.<.<.<.<.1.=.=.=.=.=.=.=.=.=.=.!.!.!.!.=.=.=.1.(.(.(.(.:.:.(.!.!.!.!.!.!.!.",
". . . % % . . . . . . . . . . . . . . . . . . . % % . . . . . . . . . . . . . . . . . . . . . . . . . . . . . . . . . . . . . . . . . . . . . . . . . . . . . . . . . . . . . . . . . . . . . . . . . . . . . . . . . . . . . . . . . . . . . . . . . . . . . . . . . . . . . . . . . . . . . . . . . . . . % % . . . . . . . . . . . . . . . . . . . . . . . . . . . . . . . . . . . . . . . . . . . . . . . . . . . . . . . . . . . . . . . . . . . . . . + . . . + + ' [ S '.a.v.Q.Z.$+$+%+%+Z.Z.Z.Z.U.U.U.H.H.U.U.Q.H.H.G.G.G.G.w.w.w.w.m.m.f.f.f.f.f.f.f.f.k.:.:.:.:.e.e.e.k.k.m.k.k.k.:.:.:._.;.;.;.;.!.:.5.9.9.c.u.u.v.v.v.v.v.v.v.p.p.v.v.v.p.p.p.p.p.p.v.v.I.I.O.Y.!+}+}+}+3+a+d+f+f+f+f+n+p+o+o+f+f+f+f+f+f+f+d+a+a+a+d+d+d+f+f+f+f+f+n+n+o+n+o+o+o+o+j+j+k+r+r+r+r+r+r+r+u+u+r+r+r+r+r+r+r+r+r+r+r+r+u+u+u+u+u+u+u+u+u+u+A+A+A+A+A+A+u+u+r+k+k+r+r+k+k+e+2+_+)+R.J.s.l.l.b.b.b.6.6.6.6.6.6.6.6.b.b.q.q.b.b.6.6.6.^.{.^.6.b.a.p.p.a.a.[.[.[.>.>.>.[.2.c.c.c.c.c.<.<.<.<.<.<.h.h.h.<.<.>.>.P P y y P P >.>.>.>.>.<.<.<.<.1.=.=.=.=.=.=.!.=.=.=.:.(.!.!.=.=.=.1.(.(.(.(.:.:.(.!.!.!.!.!.:.:.",
". . . . . . . . . . . . . . . . . . . . . . . . . . . . . . . . . . . . . . . . . . . . . . . . . . . . . . . . . . . . . . . . . . . . . . . . . . . . . . . . . . . . . . . . . . . . . . . . . . . . . . . . . . . . . . . . . . . . . . . . . . . . . . . . . . . . . . . . . . . . . . . . . . . . . . . . . . . . . . . . . . . . . . . . . . . . . . . . . . . . . . . . . . . . . . . . . . . . . . . . . . . . . . . . . . . . . . . . . . . . . . + + . + + + ' [ z '.a.v.Q.Z.$+$+%+%+Z.Z.Z.Z.U.U.U.H.H.H.H.H.H.G.G.G.G.w.w.w.w.m.m.f.f.f.f.f.f.f.k.k.k.k.:.:.:.e.e.e.k.k.k.k.k.k.:.:.:.:._._._._.:.:.5.9.c.u.u.u.v.v.v.v.v.v.h.p.p.p.v.v.v.p.p.p.p.v.v.v.I.I.O.Y.'+}+0+3+a+n+f+f+f+f+f+f+n+o+f+f+f+f+f+f+f+d+d+a+d+d+d+d+d+f+f+f+f+o+n+o+o+n+o+o+o+o+n+n+n+o+n+s+s+s+s+s+s+s+p+r+p+y+A+r+r+r+r+r+r+r+u+u+u+u+u+u+u+u+u+u+A+A+A+A+A+A+z+A+u+r+r+u+u+u+k+k+e+_+)+R.J.s.l.l.b.b.b.6.6.6.6.6.b.b.b.b.q.q.q.b.b.6.6.6.^.^.^.6.b.b.p.p.a.a.[.[.%.>.>.>.>.[.<.<.<.<.<.<.<.<.<.<.<.h.h.<.<.<.>.P P y y y P P >.>.>.>.<.<.<.<.1.1.=.=.=.=.T =.;.=.=.=.:.:.:.:.(.(.(.1.(.(.(.(.(.(.:.!.!.!.!.!.:.:.",
". . . . . . . . . . . . . . . . . . . . . . . . . . . . . . . . . . . . . . . . . . . . . . . . . . . . . . . . . . . . . . . . . . . . . . . . . . . . . . . . . . . . . . . . . . . . . . . . . . . . . . . . . . . . . . . . . . . . . . . . . . . . . . . . . . . . . . . . . . . . . . . . . . . . . . . . . . . . . . . . . . . . . . . . . . . . . . . . . . . . . . . . . . . . . . . . . . . . . . . . . . . . . . . . . . . . . . . . . . . . . . + + . + + + ' [ z '.a.p.H.Z.$+$+$+$+Z.Z.Z.M.U.U.H.H.H.H.H.H.G.G.w.w.w.w.w.m.m.f.f.f.f.f.f.f.f.f.k.k.k.k.:.:.:.e.e.e.k.k.k.k.k.k.k.k.:.:.:.:.:.:.:.1.9.m.u.H.H.H.H.H.I.v.v.v.h.h.p.p.v.v.v.v.v.s.s.s.I.I.I.I.O.Y.(+}+3+3+a+a+f+f+f+f+f+f+f+f+f+f+f+f+f+f+f+f+d+d+f+f+f+d+f+f+f+f+n+n+n+n+n+n+o+o+o+o+n+n+n+o+o+s+s+s+s+s+s+s+p+p+r+p+u+u+r+r+u+r+r+r+s+s+s+s+s+s+s+s+u+u+u+u+A+A+A+A+z+z+u+u+u+u+u+u+r+k+e+2+)+ +R.s.l.l.b.b.6.^.^.^.6.6.b.b.b.q.q.q.q.q.b.b.6.6.^.^.^.6.6.b.b.a.a.2.[.%.%.>.` ` >.>.>.<.<.<.<.<.<.<.<.<.<.<.<.<.<.>.>.P y y y P P >.>.>.>.<.<.<.<.<.1.=.=.=.=.T T =.;.=.=.=.:.:.:.(.(.(.(.(.(.(.(.(.:.:.:.:.:.:.:.:.:.:.",
". . . . . . . . . . . . . . . . . . . . . . . . . . . . . . . . . . . . . . . . . . . . . . . . . . . . . . . . . . . . . . . . . . . . . . . . . . . . . . . . . . . . . . . . . . . . . . . . . . . . . . . . . . . . . . . . . . . . . . . . . . . . . . . . . . . . . . . . . . . . . . . . . . . . . . . . . . . . . . . . . . . . . . . . . . . . . . . . . . . . . . . . . . . . . . . . . . . . . . . . . . . . . . . . . . . . . . . . . . . . . . + + . + + + = : z '.[.u.H.Q.Z.Z.Z.Z.Z.M.M.M.U.U.H.H.H.H.H.G.G.w.w.w.w.w.m.m.f.f.f.f.f.f.f.f.f.k.k.k.k.k.k.:.:.e.e.e.k.k.m.m.m.m.m.k.9.k.k.:.k.k.9.9.m.u.H.Q.Q.Q.Q.Q.I.I.v.v.h.h.p.p.v.I.I.I.J.J.J.J.I.I.I.O.O.!+<+}+a+d+a+n+f+f+f+f+f+f+f+f+f+f+f+f+f+f+f+f+f+f+n+n+a+a+a+f+f+f+f+f+n+n+n+n+o+f+f+f+o+o+o+n+o+o+p+p+p+p+o+o+o+s+s+s+s+s+s+s+s+s+s+s+s+s+s+s+s+s+s+s+s+s+s+u+A+A+A+A+A+A+A+r+A+A+A+A+r+k+e+2+)+)+R.J.s.l.b.b.6.^.{.^.6.6.b.b.b.q.q.q.q.q.q.b.b.6.6.^.^.6.6.6.2.2.2.[.%.%.>.` Z Z Z ` @.@.>.<.<.<.<.<.<.<.<.<.<.<.>.P P P y y y P P >.>.>.<.<.<.<.<.<.@.=.=.T T T T =.;.=.=.(.:.:.:.!.!.!.(.:.:.:.:.:.:.:.:.:.:.:.:.:.:.:.",
". . . . . . . . . . . . . . . . . . . . . . . . . . . . . . . . . . . . . . . . . . . . . . . . . . . . . . . . . . . . . . . . . . . . . . . . . . . . . . . . . . . . . . . . . . . . . . . . . . . . . . . . . . . . . . . . . . . . . . . . . . . . . . . . . . . . . . . . . . . . . . . . . . . . . . . . . . . . . . . . . . . . . . . . . . . . . . . . . . . . . . . . . . . . . . . . . . . . . . . . . . . . . . . . . . . . . . . . . . . . . . + + + + + + = ' t ` [.c.H.Q.Z.Z.Z.Z.Z.M.M.M.H.H.H.H.H.H.H.G.G.w.w.w.w.m.m.m.m.f.f.f.f.f.f.k.k.k.k.k.k.k.k.k.k.e.e.e.k.k.k.m.m.m.m.m.m.k.k.k.k.9.9.m.m.u.Q.Z.Z.Z.Z.Q.L.L.I.v.h.h.h.v.I.I.I.J.J.J.J.J.I.I.I.O.Y.'+}+}+a+d+a+a+f+f+d+d+d+f+f+f+f+d+d+f+d+d+d+d+d+d+f+f+a+a+a+f+f+f+f+f+n+n+n+f+f+f+f+f+o+o+o+o+n+o+p+p+p+o+n+o+o+o+s+s+s+s+s+s+s+s+s+s+s+s+s+s+s+s+s+s+r+r+s+s+r+A+A+A+A+A+A+A+A+A+A+A+A+r+k+2+_+)+ +J.s.l.b.6.^.{.{.{.6.b.b.q.q.q.q.q.q.q.q.q.b.6.6.^.^.6.6.6.6.^.2.%.*.%.Z Z Z L Z Z ` ` >.>.>.<.<.>.>.>.<.<.>.>.P L L y y y L P P >.>.>.>.<.<.<.<.>.@.=.T T T T T =.;.=.=.=.:.:.:.!.!.!.!.(.:.:.:.:.5.5.:.:.:.:.:.:.:.:.",
". . . . . . . . . . . . . . . . . . . . . . . . . . . . . . . . . . . . . . . . . . . . . . . . . . . . . . . . . . . . . . . . . . . . . . . . . . . . . . . . . . . . . . . . . . . . . . . . . . . . . . . . . . . . . . . . . . . . . . . . . . . . . . . . . . . . . . . . . . . . . . . . . . . . . . . . . . . . . . . . . . . . . . . . . . . . . . . . . . . . . . . . . . . . . . . . . . . . . . . . . . . . . . . . . . . . . . . . @ . . . . . . . + + + + + ' 7 z >.c.u.Q.Z.$+Z.Z.Z.Z.M.M.U.U.U.H.H.H.B.G.w.w.w.w.w.w.m.m.m.f.f.f.f.f.g.k.k.k.k.k.k.k.k.k.k.e.e.e.k.k.k.k.m.m.m.m.m.m.m.m.m.m.m.m.m.H.Q.Z.,+,+,+Z.O.L.L.I.v.h.h.v.I.I.I.J.J.R.R.R.I.O.O.O.Y.!+}+}+a+3+a+a+f+f+d+d+f+d+d+d+d+d+d+d+d+d+d+d+d+d+a+a+e+e+k+n+n+n+f+o+n+n+n+f+f+f+f+f+o+o+o+n+o+o+o+o+o+o+o+o+n+s+s+u+s+s+s+s+s+s+s+s+s+s+s+s+s+s+s+s+s+s+s+s+p+y+y+y+A+A+A+A+A+A+A+A+A+r+k+2+_+)+ +J.s.l.b.6.^.{.{.^.6.b.q.q.q.q.s.q.q.q.q.q.b.6.6.6.6.6.6.^.^.^.'.%.%.` Z Z y y L L ` ` >.@.@.>.@.@.@.@.>.@.@.L L y y x x y L L P P >.>.>.>.<.<.>.>.Z T N N T T T =.;.=.=.=.!.=.=.=.=.=.=.=.!.:.:.:.5.5.5.:.:.:.:.:.:.:.",
". . . . . . . . . . . . . . . . . . . . . . . . . . . . . . . . . . . . . . . . . . . . . . . . . . . . . . . . . . . . . . . . . . . . . . . . . . . . . . . . . . . . . . . . . . . . . . . . . . . . . . . . . . . . . . . . . . . . . . . . . . . . . . . . . . . . . . . . . . . . . . . . . . . . . . . . . . . . . . . . . . . . . . . . . . . . . . . . . . . . . . . . . . . . . . . . . . . . . . . . . . . . . . . . . . . @ @ @ @ @ @ @ . . . . . + + + + + + = [ z @.<.u.H.Z.Z.Z.Z.Z.Z.M.M.U.U.H.H.H.H.H.G.w.w.w.w.w.w.w.t.k.k.k.k.f.f.g.k.k.k.k.k.k.k.k.k.k.k.k.k.k.k.k.k.k.m.m.m.m.m.m.m.m.m.m.m.m.H.Q.,+,+,+!+,+Y.Y.L.L.I.v.v.v.I.I.J.J.R.R.R. +O.R.R.O.Y.'+(+}+a+3+a+a+f+f+f+d+f+d+d+d+d+d+d+d+d+d+d+d+d+d+a+a+a+a+j+n+n+n+n+n+n+n+n+o+f+o+o+o+o+n+o+o+p+p+p+p+n+o+o+o+n+s+u+r+s+s+s+s+s+s+s+s+s+s+s+s+s+s+s+s+s+s+s+s+r+p+y+y+A+A+A+A+A+A+A+A+r+k+e+2+[+-+X.P.s.s.b.6.^.{.{.^.6.b.q.q.q.s.s.s.s.q.q.q.b.b.6.6.6.6.6.^.^.^.'.%.%.Z Z Z y y L P ` ` >.@.@.@.@.@.@.@.L L L L y j j j j x L P L P >.>.>.>.>.>.>.@.T N N N T T T =.;.=.=.=.!.!.!.!.!.!.!.!.!.!.:.:.5.5.5.:.:.:.:.:.:.:.",
". . . . . . . . . . . . . . . . . . . . . . . . . . . . . . . . . . . . . . . . . . . . . . . . . . . . . . . . . . . . . . . . . . . . . . . . . . . . . . . . . . . . . . . . . . . . . . . . . . . . . . . . . . . . . . . . . . . . . . . . . . . . . . . . . . . . . . . . . . . . . . . . . . . . . . . . . . . . . . . . . . . . . . . . . . . . . . . . . . . . . . . . . . . . . . . . . . . . . . . . . . . . . . . . @ @ @ . . . . . @ . . @ @ . . . + + + + + = : t >.2.h.H.Q.Z.`.`.Z.Q.M.M.M.M.M.M.G.G.G.w.w.w.w.w.w.w.w.w.m.m.m.m.k.k.k.k.k.k.k.k.m.m.m.m.m.m.m.m.k.k.k.k.k.k.m.m.m.m.m.m.m.m.m.m.m.H.Q.,+!+}+!+!+.+.+Y.L.L.I.I.I.I.I.I.R.R. + + + + + + +!+<+3+3+0+d+a+a+f+f+d+d+d+d+d+d+d+d+d+d+d+d+d+d+d+d+d+d+d+f+f+f+o+o+n+o+o+o+o+n+n+o+o+o+o+o+o+o+o+o+o+o+o+o+f+o+o+o+s+s+s+s+s+s+s+s+s+s+s+s+s+s+s+s+p+p+s+s+s+s+p+y+y+A+z+z+A+A+A+A+A+A+r+r+e+2+_+)+ +R.s.l.l.6.^.^.{.^.b.b.q.q.s.s.s.s.s.s.q.q.b.b.b.b.b.b.b.6.6.^.'.'.%.` Z Z L L L P P P P Z Z Z Z Z Z L L L x y j j d j x y y P P P >.>.>.>.>.>.@.@.Z T N N T T T =.;.=.=.=.=.=.=.=.=.!.!.!.!.!.:.:.:.:.:.:.:.:.:.:.:.:.",
". . . . . . . . . . . . . . . . . . . . . . . . . . . . . . . . . . . . . . . . . . . . . . . . . . . . . . . . . . . . . . . . . . . . . . . . . . . . . . . . . . . . . . . . . . . . . . . . . . . . . . . . . . . . . . . . . . . . . . . . . . . . . . . . . . . . . . . . . . . . . . . . . . . . . . . . . . . . . . . . . . . . . . . . . . . . . . . . . . . . . . . . . . . . . . . . . . . . . . . . . . . . . . . . . . . . . . . . @ @ @ @ @ . . . + + + + = = [ t ` <.h.H.Q.Q.M.M.M.M.M.M.M.M.M.M.G.G.G.G.w.w.w.w.w.w.w.w.w.m.m.m.m.m.k.k.k.k.m.m.m.w.w.w.w.w.w.w.m.m.k.k.m.m.m.m.m.m.m.m.m.m.m.m.u.H.Z.,+:+}+}+!+!+!+.+Y.L.O.I.I.O.O.O.R. + + + + + + +'+(+(+3+a+0+d+0+a+f+f+f+d+f+d+d+d+d+d+d+d+d+d+d+d+d+d+d+d+f+n+f+f+f+o+n+o+o+n+n+o+o+o+o+o+o+n+n+o+n+n+n+n+o+f+f+f+o+o+s+s+s+s+s+s+s+s+s+s+s+s+s+s+p+p+s+s+s+s+s+s+p+y+A+y+z+z+z+A+A+A+A+A+r+r+k+e+2+)+)+R.J.s.l.6.^.^.^.^.b.b.q.q.s.J.J.J.J.J.s.q.q.q.b.b.b.b.b.b.6.6.2.'.%.%.Z Z L L P P P P P L L L L L L N L x x x j j j x y L P P P P >.>.>.>.>.>.@.@.Z T T =.=.=.=.=.;.=.=.=.=.=.=.=.1.!.=.=.=.:.:.:.:.:.:.:.:.:.:.:.:.:.",
". . . . . . . . . . . . . . . . . . . . . . . . . . . . . . . . . . . . . . . . . . . . . . . . . . . . . . . . . . . . . . . . . . . . . . . . . . . . . . . . . . . . . . . . . . . . . . . . . . . . . . . . . . . . . . . . . . . . . . . . . . . . . . . . . . . . . . . . . . . . . . . . . . . . . . . . . . . . . . . . . . . . . . . . . . . . . . . . . . . . . . . . . . . . . . . . . . . . . . . . . . . . . . . . . . . . . . . . . . @ @ . . . . . + + + = ' [ t ` <.h.u.H.Q.M.M.M.M.M.M.M.M.G.x.G.G.G.w.w.w.w.w.w.w.w.w.w.w.w.w.w.w.w.w.w.w.w.w.w.w.w.w.G.G.w.w.w.w.w.w.m.m.m.m.m.m.m.m.u.m.u.u.u.H.Z.,+:+}+}+!+!+!+*+Y.Y.O.O.O.O.O. + + +'+'+'+'+'+'+'+}+3+a+3+0+d+0+a+f+f+f+f+f+d+d+d+d+d+d+d+d+d+d+d+d+d+d+d+n+f+f+f+f+f+o+n+o+o+n+o+n+n+n+n+o+o+o+f+o+o+o+o+f+f+f+f+f+n+o+s+s+s+s+s+s+s+s+s+s+s+s+s+p+p+p+p+s+s+s+s+r+y+y+y+z+z+z+A+A+A+A+A+A+r+k+k+e+_+)+ +J.s.l.6.^.^.^.6.b.q.q.s.s.J.R.R.R.J.J.s.q.q.q.q.l.l.l.l.b.b.2.2.%.%.` Z P P P ` ` P P L L L L N N L x x x y y y y y L L P P P P P P >.>.>.>.@.@.@.=.=.=.=.=.=.=.!.=.=.=.T =.=.=.1.!.!.=.=.:.:.:.:.:.:.:.:.:.:.:.:.:.",
". . . . . . . . . . . . . . . . . . . . . . . . . . . . . . . . . . . . . . . . . . . . . . . . . . . . . . . . . . . . . . . . . . . . . . . . . . . . . . . . . . . . . . . . . . . . . . . . . . . . . . . . . . . . . . . . . . . . . . . . . . . . . . . . . . . . . . . . . . . . . . . . . . . . . . . . . . . . . . . . . . . . . . . . . . . . . . . . . . . . . . . . . . . . . . . . . . . . . . . . . . . . . . . . @ . . . @ . . . . . . . . . . . + + + * ' : j z %.<.c.u.H.G.G.G.G.G.G.G.G.G.G.G.x.G.w.w.w.w.w.w.w.w.w.w.w.w.w.w.w.w.w.w.w.w.w.w.G.G.G.G.G.G.G.G.G.G.w.w.w.w.w.w.m.m.m.u.u.u.u.u.H.Q.Z.!+}+}+}+}+!+!+!+Y.Y.O.O.O.O. + + +'+'+'+'+'+'+(+(+3+3+a+3+0+d+0+a+d+d+d+d+d+d+d+d+d+d+d+d+d+d+d+d+d+d+d+d+n+f+f+f+f+f+f+o+f+f+o+o+o+o+o+f+f+f+f+f+f+f+f+f+f+f+f+f+n+n+n+s+s+s+s+s+s+s+s+s+s+o+o+o+o+o+p+p+s+s+s+s+p+y+z+C+z+z+z+A+A+A+A+A+y+A+r+k+k+2+_+)+R.J.s.b.6.6.^.6.b.q.q.s.J.R.R.R.R.R.R.J.J.s.s.s.s.s.s.l.l.b.a.2.[.%.>.` ` ` ` >.>.>.P L L L L L L L L L L P P L L L P >.>.>.>.P P P >.>.>.>.>.>.@.=.1.1.1.(.(.(.!.=.=.=.T =.=.=.1.(.!.=.=.:.:.:.:.:.:.:.:.:.:.:.:.:.",
". . . . . . . . . . . . . . . . . . . . . . . . . . . . . . . . . . . . . . . . . . . . . . . . . . . . . . . . . . . . . . . . . . . . % . . . . . . . . . . . . . . . . . . . . . . . . . . . . . . % . . . . . . . . . . . . . . . . . . . . . . . . . . . . . . . . . . . . . . . . . . . . . . . . . . . . . . . . . . . . . . . . . . . . . . . . . . . . . . . . . . . . . . . . . . . . . . . . . . . . . . . . @ @ @ @ @ @ @ . . . . . . . . . . . . . + + + ' : [ g ` >.<.c.u.w.w.w.w.G.w.w.w.G.G.G.w.x.x.x.w.w.w.w.w.w.w.w.w.w.w.w.w.w.w.G.G.G.G.G.G.G.G.G.N.N.N.N.G.G.G.G.G.w.w.w.w.m.m.u.u.u.u.u.H.H.Q.,+!+}+<+}+}+!+!+!+Y.Y.Y.O.O.O.O. + +'+'+'+(+1+1+(+3+a+3+d+0+0+d+0+a+d+d+d+d+d+3+3+3+3+d+d+d+d+d+d+d+d+d+d+d+f+n+n+n+n+n+f+f+f+f+f+f+f+f+f+f+f+f+f+f+f+f+f+f+f+f+f+f+n+n+s+s+s+s+s+s+s+s+s+s+s+s+s+s+o+o+p+p+p+p+p+s+s+z+z+C+z+z+z+y+y+A+A+A+y+A+r+r+k+e+2+)+)+R.J.l.b.b.6.b.q.q.s.s.J.R.R.R. + + +R.R.J.J.J.s.s.s.s.q.a.a.2.[.[.%.>.` ` >.>.>.>.>.@.@.>.>.@.>.>.>.@.>.>.>.` ` ` >.>.>.>.>.>.>.>.>.>.>.>.>.>.@.1.1.1.1.(.(.(.:.(.=.=.=.=.=.=.1.1.(.!.=.:.:.:.:.:.:.:.:.:.:.:.:.:.",
". . . . . . . % . . . . . . . % % . . . . . . . . . . . . . . . . . . . . . . . . . . . . . . . . . . . . . . . . . . . . . . . . . . . . . . . . . . . . . % % . . . . . . . . . . . . . . . . % % % % . . . . . . . . . . . . . . . . . . . . . . . . . . . . . . . % % % . . . . . . . . . . . . . . . . . . . . . . . . . . . . . . . . . . . . . . . . . . . . . . . . . . . . . . . . . . . . . . . . . . . . . . @ @ @ @ @ @ . . . . . . . . . . . . . . + * , ' [ g P >.<.c.c.u.w.w.w.w.w.w.w.w.w.w.w.w.x.x.x.x.w.w.m.m.t.m.w.w.w.w.w.G.G.G.G.G.G.G.G.G.G.G.N.N.N.N.N.N.N.G.G.G.G.w.w.w.u.u.u.u.u.u.H.H.L.Y.Y.!+<+}+}+}+}+!+!+Y.Y.Y.O.O.O.O. + + +'+'+'+1+(+3+3+a+a+3+3+0+d+d+d+d+d+d+d+3+3+3+3+3+3+d+d+d+d+d+d+d+d+d+d+f+f+n+f+f+f+n+f+f+f+f+o+f+o+o+o+o+f+f+f+f+f+f+f+f+f+f+o+n+n+s+s+s+s+s+s+s+s+s+s+s+s+s+s+o+p+p+p+p+p+s+p+s+z+z+z+z+z+z+A+y+y+y+A+y+A+y+r+r+k+e+2+)+ +J.s.q.q.b.b.q.q.s.J.J.R. + + + + +R.R.J.J.J.J.J.J.s.s.p.a.a.2.[.%.>.>.>.>.<.<.<.<.<.<.<.<.<.>.>.<.<.<.>.>.>.` >.>.>.>.>.>.>.>.>.>.>.>.>.>.<.<.1.1.1.1.(.(.(.:.(.(.=.=.=.=.1.1.1.1.:.=.:.:.:.:.:.:.:.:.:.:.:.:.:.",
". . . . . . . . . . . . . . . . . . . . . . . . . . . . . . . . . . . . . . . . . . . . . . . . . . . . . . . . . . . . . . . . . . . . . . . . . . . . . . . . . . . . . . . . . . . . . . . . . . . . . . . . . . . . . . . . . . . . . . . . . . . . . . . . . . . % % % . . . . . . . . . . . . . . . . . . . . . . . . . . . . . . . . . . . . . . . . . . . . . . . . . . . . . . . . . . . . . . . . . . . . . . @ @ @ @ . . . . . . . . . . . . . . . + * _ ( 3 v S P '.<.c.c.m.m.w.m.w.m.m.m.t.w.w.m.m.x.x.x.x.m.m.m.m.k.m.m.k.w.w.w.G.G.G.G.G.G.G.G.G.G.G.G.N.N.N.N.N.N.N.G.G.G.G.w.w.u.u.u.H.H.H.H.H.L.Y.!+}+}+}+}+<+}+!+!+Y.Y.Y.O.O.O.O. + + +'+'+(+1+(+3+3+3+3+a+a+0+a+3+d+d+d+3+3+3+3+3+3+3+3+d+d+d+d+d+d+d+d+d+d+d+f+n+n+n+n+n+f+f+f+o+o+o+o+o+o+o+o+f+f+o+o+o+f+f+o+o+o+n+s+s+s+s+s+s+s+s+s+s+s+s+s+s+s+p+p+p+p+p+s+p+s+s+z+z+z+z+z+z+y+A+A+y+A+y+y+y+p+r+k+e+e+_+)+R.J.s.q.q.q.q.s.s.J.R. + + + + + +R.R.J.J.J.J.J.J.s.s.v.p.p.a.[.[.>.>.>.<.<.<.<.<.<.<.<.<.<.<.<.<.<.<.<.<.>.>.>.>.>.>.>.>.>.>.>.>.<.<.<.<.<.<.1.1.1.1.(.(.(.:.(.=.=.=.=.1.1.1.1.1.:.!.!.!.!.!.!.!.!.!.:.:.:.:.:.",
". . . . . . . . . . . . . . . . . . . . . . % % . . . . . . . . . . . . . . . . . . . . . . . . . . . . . . . . . . . . . . . . . . . . . . . . . . . . . . . . . . . . . . . . . . . . . . . . . . . . . . . . . . . . . . . . . . . . . . . . . . . . . . . . . . . % % . . . . . . . . . . . . . . . . . . . . . . . . . . . . . . . . . . . . . . . . . . . . . . . . . . . . . . . . . . . . . . . . . . . . . . . @ @ @ @ . . . . . . . . . . . . . . % * _ < 3 h v S '.2.<.c.c.m.f.m.m.k.m.m.m.k.k.k.m.k.t.t.k.k.k.k.k.k.k.m.m.k.w.w.w.G.G.G.G.G.G.G.G.G.G.G.N.N.W.W.N.N.N.N.G.G.G.G.G.G.H.H.H.H.H.H.H.Q.O..+!+}+}+7+7+}+}+}+!+Y.Y.Y.O.O.O.O. + +'+'+'+(+(+3+3+3+3+a+a+3+0+a+a+3+d+d+3+3+3+3+3+3+3+3+3+d+d+d+d+d+d+d+d+d+d+f+f+f+f+f+f+f+f+f+f+o+o+o+o+o+n+o+o+o+o+o+o+o+o+o+o+n+n+s+s+s+s+s+s+s+s+s+s+s+s+s+s+s+p+p+p+p+p+p+p+s+s+s+z+z+z+z+s+p+y+y+A+A+y+y+A+y+r+r+k+e+2+)+ +R.J.s.q.s.s.s.J.J.R. + + + + + +R.R.J.J.J.s.J.J.J.s.s.v.p.a.a.2.<.<.<.<.<.h.<.<.c.c.c.c.c.h.h.h.c.c.<.<.<.<.<.>.>.>.>.>.>.>.>.>.<.<.<.<.<.1.1.1.1.1.(.(.(.:.(.=.=.=.=.(.1.1.1.1.(.!.!.!.Q ;.;.!.!.!.!.!.!.!.!.",
". . . . . . . . . . . . . . . . . . . . . . . % . . . . . . . . . . . . . . . . . . . . . . . . . . . . . . . . . . . . . . . . . . . . . . . . . . . . . . . . . . . . . . . . . . . . . . . . . . . . . . . . . . . . . . . . . . . . . . . . . . . . . . . . . . . . . . . . . . . . . . . . . . . . . . . . . . . . . . . . . . . . . . . . . . . . . . . . . . . . . . . . . . . . . . . . @ @ @ . . . . . . . . . . . . . . . . . . . . . . . . . . . + ! 3 k F X ` '.2.2.<.c.c.9.k.k.k.k.k.k.k.k.m.m.m.m.f.f.f.m.f.f.f.m.m.m.m.w.w.w.w.w.G.G.G.G.G.G.G.G.G.G.G.N.N.N.N.N.N.N.N.G.G.G.G.G.H.H.H.H.H.Q.L.O.Y.*+!+<+<+0+0+<+}+!+!+Y.Y.Y.O.O.O. +Y.'+'+(+(+3+3+3+3+3+a+a+a+a+a+a+a+a+3+3+3+3+d+d+3+3+3+3+3+d+d+d+d+d+a+a+a+a+a+n+n+n+n+n+n+n+f+f+o+n+n+n+n+n+n+n+n+n+n+n+n+n+n+n+n+n+n+n+s+s+s+s+s+s+s+s+s+s+p+p+p+p+p+p+p+p+p+p+p+p+s+s+s+s+z+s+s+s+s+z+z+z+y+y+y+y+r+r+k+e+3+_+)+ +R.J.J.J.J.J.R.R. + + + +'+ + + +R.J.J.s.s.s.J.J.J.J.v.v.a.a.2.<.<.<.<.h.h.h.h.h.h.h.h.h.h.h.h.h.c.c.<.<.<.<.>.>.>.>.>.>.>.>.>.>.>.>.>.>.@.=.=.@.(.(.(.(.!.!.!.=.=.(.(.1.1.1.:.!.!.=.T T Q ;.;.;.;.;.;.;.!.;.",
". . . . . . . . . . . . . . . . . . . . . . . . . . . . . . . . . . . . . . . . . . . . . . . . . . . . . . . . . . . . . . . . . . . . . . . . . . . . . . . . . . . . . . . . . . . . . . . . . . . . . . . . . . . . . . . . . . . . . . . . . . . . . . . . . . . . . . . % . . . . . . . . . . . . . . . . . . . . . . . . . . . . . . . . . . . . . . . . . . . . . . . . . . . . . . . . @ @ @ . . . . . . . . . . . . . . . . . . . . . . . . . % - ! 2 k E X ..'.2.[.2.c.c.9.9.k.:.:.:.:.:.:.k.g.g.g.g.f.f.f.m.f.f.f.m.m.m.w.w.w.w.w.w.t.t.t.G.G.G.w.w.G.G.G.N.N.N.N.N.N.N.N.G.G.G.G.G.H.H.H.H.Q.Q.O.Y..+!+<+<+<+0+<+<+}+!+!+!+Y.Y.Y.Y.Y.Y.'+'+(+(+3+a+3+3+3+3+3+a+3+3+3+3+3+3+3+3+3+3+d+d+3+3+3+3+3+d+d+d+d+d+a+a+a+a+a+n+n+n+n+n+f+f+f+f+o+n+n+n+n+n+n+n+n+o+o+o+o+o+n+n+n+n+n+n+s+s+s+s+s+s+s+s+s+s+p+p+p+p+p+p+p+p+p+p+p+p+s+s+s+s+s+s+s+s+z+z+z+z+y+y+y+y+A+r+r+k+e+3+_+)+'+ + + +R. + + + + + +'+'+'+'+ + +R.J.s.s.s.J.J.J.J.v.p.a.a.2.<.<.<.h.h.h.h.h.h.h.h.h.h.h.h.h.h.c.<.<.<.<.>.>.>.>.` ` >.>.>.>.>.>.@.>.>.@.=.=.=.=.(.(.(.!.!.=.=.=.(.1.1.(.:.!.!.=.!.T T Q Q Q ;.;.;.;.#.;.;.",
". . . . . . . . . . . . . . . . . . . . . . . . . . . . . . . . . . . . . . . . % % . . . . . . . . . . . . . . . . . . . . . . . . . . . . . . . . . . . . . . . . . . . . . . . . . . % % % . . . . . . . . . . . . . . . . . . . . . . . . . . . . . . . . . . . . . . . . % . . . . . . . . . . % % % . . . . . . . . . . . . . . . . . . . . . . . . . . . . . . . . . . . . . . . . . . . @ @ . . . . . . . . . . . . . . . . . . . . . . . . . % ! < } k F Y {.^.[.2.[.c.1.5.:.:.:.:.:.:._._.:.(.(.(.g.g.f.f.f.f.f.f.f.m.k.k.m.m.w.w.w.w.t.t.t.w.w.w.w.w.G.G.G.G.N.N.N.N.N.G.G.G.G.G.G.G.H.H.H.Q.Q.Q.Y..+*+!+<+/+<+<+<+<+}+!+!+!+Y.Y.Y.Y.Y.'+'+(+(+3+a+3+a+3+3+3+3+3+3+3+3+3+3+3+3+3+3+d+d+d+d+3+3+3+3+d+d+d+d+d+a+a+a+n+a+n+f+f+f+f+f+f+f+f+n+n+n+n+n+n+n+o+o+o+o+o+o+o+n+n+n+n+n+n+s+s+s+s+s+s+s+s+s+s+p+p+p+p+p+p+p+p+p+p+p+p+s+s+s+s+s+s+s+s+s+z+z+z+y+A+A+A+A+A+r+r+j+k+e+2+(+'+'+'+'+'+'+'+'+'+'+'+(+(+'+'+ +R.J.J.s.s.J.J.J.J.v.p.a.a.2.<.<.<.<.h.h.h.h.h.h.h.h.h.h.h.h.c.<.<.<.<.>.>.>.>.>.` ` >.>.>.>.>.>.L L L T T =.=.=.=.=.=.!.=.=.=.=.(.(.(.=.!.!.=.=.=.T Q T Q Q M M ;.;.;.;.;.",
". . . . . . . . . . . . . . . . . . . . . . . . . . . . . . . . . . . . . . . . . . . . . . . . . . . . . . . . . . . . . . . . . . . . . . . . . . . . . . . . . . . . . . . . . . . . . . . . . . . . . . . . . . . . . . . . . . . . . . . . . . . . . . . . . . . . . . . . . . . . . . . . . . . . . . . . . . . . . . . . . . . . . . . . . . . . . . . . . . . . . . . . . . . . . . . . . . . . . . . . . . . . . . . . . . . . . . . . . % - ! 2 2 C X X *.[.[.[.5.5.5.:.:.:.:.:.:.:.:.(.(.(.(.(.(.(.g.g.f.f.f.f.f.f.f.m.k.k.m.m.w.w.w.t.t.w.w.w.w.w.w.G.G.G.M.G.N.N.N.N.N.G.G.G.G.G.H.H.H.Q.Q.Q.Y.Y..+!+<+<+/+<+<+<+/+}+!+!+!+Y.Y.Y.Y.!+!+}+}+3+3+3+a+a+a+a+a+a+a+3+3+3+3+3+3+3+3+3+d+d+d+d+3+3+3+3+d+d+d+d+d+a+a+n+n+n+n+f+f+f+f+f+f+f+f+f+o+o+n+n+n+n+o+o+o+o+o+o+p+o+o+o+o+n+o+o+p+p+p+p+p+p+p+p+p+p+p+p+p+p+p+p+p+p+p+p+p+s+s+s+s+s+s+s+s+s+s+z+z+z+y+A+A+y+A+A+r+r+r+k+e+3+(+(+(+(+(+(+(+(+'+'+(+3+(+(+'+'+ +R.J.J.J.J.J.J.J.v.a.2.[.[.<.<.<.<.<.c.c.c.h.h.h.c.c.<.<.<.<.<.<.<.<.>.>.>.>.` ` ` ` >.>.>.>.L L L L N T =.=.=.=.=.=.=.=.=.=.=.=.=.=.!.!.!.!.!.!.T Q Q Q Q ;.;.;.;.;.;.;.",
". . . . . . . . . . . . . . . . . . . . . . . . . . . . . . . . . . . . . . . . . . . . . . . . . . . . . . . . . . . . . . . . . . . . . . . . . . . . . . . . . . . . . . . . . . . . . . . . . . . . . . . . . . . . . . . . . . . . . . . . . . . . . . . . . . . . . . . . . . . . . . . . . . . . . . . . . . . . . . . . . . . . . . . . . . . . . . . . . . . . . . . . . . . . . . . . . . . . . . . . . . . . . . . . . . . . . . . % * ! ( } p F X X *.*.[.[.5.5.5.5.:.:.:.:.:.:.:.(.:.:.:.:.(.(.(.(.g.f.f.f.f.f.f.f.m.m.m.m.w.w.w.w.w.w.w.w.w.w.w.w.G.G.G.N.N.N.N.N.G.G.G.G.G.G.G.H.H.H.Q.Q.Q.Y..+!+!+<+<+<+<+<+<+<+}+!+!+!+Y.Y.!+!+}+}+}+}+3+3+3+3+3+3+a+a+3+a+3+3+3+3+3+3+3+3+3+d+d+d+d+d+d+3+d+d+d+d+d+d+a+a+n+n+n+f+f+f+f+f+f+f+f+f+f+o+n+n+n+n+n+n+o+o+o+o+o+o+o+o+o+o+n+o+o+p+p+p+p+p+p+o+o+o+p+p+p+p+p+p+p+p+p+p+p+p+s+s+s+s+s+s+s+s+s+s+s+s+z+z+z+z+z+z+s+s+u+r+n+k+d+3+3+3+2+3+3+3+(+(+(+(+3+(+(+'+'+ +R.J.J.J.J.J.J.s.p.a.2.[.%.>.>.>.<.<.<.<.<.<.<.<.<.<.<.<.<.<.<.<.>.>.>.@.@.@.Z Z Z @.>.>.>.@.L L L T N T =.=.=.=.=.=.=.=.=.=.=.=.=.=.!.!.!.!.!.!.=.Q Q Q !.!.!.;.;.!.!.!.",
". . . . . . . . . . . . . . . . . . . . . . . . . . . . . . . . . . . . . . . . . . . . . . . . . . . . . . . . . . . . . . . . . . . . . . . . . . . . . . . . . . . . . . . . . . . . . . . . . . . . . . . . . . . . . . . . . . . . . . . . . . . . . . . . . . . . . . . . . . . . . . . . . . . . . . . . . . . . . . . . . . . . . . . . . . . . . . . . . . . . . . . . . . . . . . . . . . . . . . . . . . . . . . + + . . . . . + + - , 2 2 2 C X X *.*.[.[.[.5.5.5.:.:.:.:.:.:.:.:.:.:.:.:.:.:.:.:.9.f.f.9.m.m.m.m.m.m.m.m.w.w.w.w.w.w.w.w.w.w.G.G.G.G.G.G.G.G.G.G.G.G.G.G.w.G.G.H.H.H.H.Q.Q.Z.Y.!+!+<+<+<+<+<+<+<+<+}+!+!+!+!+!+!+}+}+}+}+3+3+3+3+3+3+3+3+a+a+a+3+3+3+3+3+3+3+3+3+d+d+d+d+d+d+d+d+d+3+3+d+d+a+a+n+f+f+f+f+f+n+n+f+f+f+f+f+o+n+o+o+o+o+o+o+o+o+o+o+o+o+o+o+o+n+o+o+p+p+p+p+p+p+o+o+o+p+p+p+p+p+p+p+p+p+p+p+p+s+s+s+s+s+s+s+s+s+s+s+s+z+z+z+z+z+s+s+s+r+r+n+k+f+a+d+3+3+3+3+3+3+(+(+(+(+(+(+'+ + +R.J.J.J.J.J.J.s.p.a.[.[.%.>.>.>.>.<.<.<.<.<.<.<.<.<.<.<.<.<.>.>.>.>.@.@.@.@.Z Z Z @.>.@.@.@.L Z T T T T =.=.=.=.=.(.=.=.=.=.=.=.=.=.!.!.!.:.!.!.!.!.!.!.!.!.!.!.!.!.!.!.",
". . . . . . . . . . . . . . . . . . . . . . . . . . . . . . . . . . . . . . . . . . . . . . . . . . . . . . . . . . . . . . . . . . . . . . . . . . . . . . . . . . . . . . . . . . . . . . . . . . . . . . . . . . . . . . . . . . . . . . . . . . . . . . . . . . . . . . . . . . . . . . . . . . . . . . . . . . . . . . . . . . . . . . . . . . . . . . . . . . . . . . . . . . . . . . . . . . . . . . . . . + + + . + + + + + . . . + * , 2 k k F F X X *.*.*.[.[.5.5.5.:.:.:.:.:.:.:.:.:.:.:.:.:.:.9.9.9.9.9.9.9.9.9.9.9.m.m.m.m.w.m.w.w.w.w.w.w.w.u.u.u.w.w.G.G.E.G.G.G.G.G.G.w.w.w.u.H.H.H.P.Q.Y.Y.!+!+!+!+!+!+<+<+<+<+!+!+Y.!+!+!+!+}+}+}+}+3+3+3+3+3+3+3+3+3+3+3+3+3+3+3+3+3+3+3+3+d+d+d+d+d+d+d+d+d+d+d+d+d+a+a+n+n+n+n+n+n+n+n+n+f+f+f+f+o+o+o+o+o+o+o+o+o+o+o+o+o+o+o+o+o+n+o+o+p+p+p+p+p+p+p+p+p+p+p+p+p+p+p+p+p+s+s+p+p+s+s+s+s+s+s+s+s+s+s+s+s+s+s+s+s+s+s+s+s+u+r+k+r+s+o+n+n+k+n+a+d+3+3+(+(+(+(+'+'+ + +R.R.J.R.R.J.J.s.p.a.[.[.>.>.>.>.>.[.<.<.<.<.<.<.<.<.<.<.<.<.>.>.>.>.@.@.@.@.@.Z @.@.@.@.@.@.@.Z Z Z Z =.=.=.=.=.(.(.(.1.1.1.(.1.1.1.:.:.:.:.:.!.!.!.!.!.!.!.:.:.:.:.:.!.",
". . . . . . . . . . . . . . . . . . . . . . . . . . . . . . . . . . . . . . . . . . . . . . . . . . . . . . . . . . . . . . . . . . . . . . . . . . . . . . . . . . . . . . . . . . . . . . . . . . . . . . . . . . . . . . . . . . . . . . . . . . . . . . . . . . . . . . . . . . . . . . . . . . . . . . . . . . . . . . . . . . . . . . . . . . . . . . . . . . . . . . . . . . . . . . . . . . . . . . . + + . . . . + + + + + + . + + , _ 3 k E E Y Y X ..*.*.[.[.5.5.5.5.5.5.:.9.:.9.9.9.9.9.:.:.:.:.9.9.9.9.9.9.9.9.9.9.9.9.m.m.m.m.m.m.m.w.w.w.u.u.u.u.u.u.w.w.E.E.E.E.G.G.w.w.w.w.u.u.E.E.P.P.Y.Y.Y.!+Y.Y.Y.Y.!+!+<+!+Y.Y.Y.Y.!+!+!+!+!+}+}+3+3+3+3+3+3+3+(+(+(+3+3+3+3+3+3+3+3+3+3+d+d+d+d+d+d+d+d+d+d+d+d+d+a+a+n+n+n+n+n+a+a+n+f+f+f+f+o+o+o+o+o+o+p+p+p+p+p+o+o+o+o+o+o+o+o+o+o+p+p+p+p+p+p+p+p+p+p+p+p+p+p+p+p+p+s+s+p+p+s+s+s+s+s+s+s+s+s+s+s+s+s+s+s+s+s+s+s+s+r+r+r+r+s+s+s+s+r+n+f+n+a+3+3+3+(+(+'+'+'+ +R.R.R.R.R.R.J.s.p.a.a.2.<.<.<.<.<.2.<.<.<.<.<.<.<.<.<.<.<.<.>.>.>.>.@.@.@.@.@.@.@.@.@.@.@.@.@.@.@.@.@.=.=.1.1.(.(.(.1.1.1.1.1.1.1.1.:.5.5.:.:.:.:.:.:.:.:.:.:.:.:.:.:.:.",
". . . . . . . . . . . . . . . . . . . . . . . . . . . . . . . . . . . . . . . . . . . . . . . . . . . . . . . . . . . . . . . . . . . . . . . . . . . . . . . . . . . . . . . . . . . . . . . . . . . . . . . . . . . . . . . . . . . . . . . . . . . . . . . . . . . . . . . . . . . . . . . . . . . . . . . . . . . . . . . . . . . . . . . . . . . . . . . . . . . . . . . . . . . . . . . . . . . . . . . . . . . . . + + + + + + + + , ( 3 k k F F F X X ..*.*.[.[.5.5.5.5.:.5.9.9.9.9.9.9.9.5.5.5.5.9.9.9.9.9.9.9.9.9.c.c.9.9.9.c.c.c.i.c.m.m.m.m.u.p.p.p.u.u.u.u.u.E.E.E.E.E.E.E.E.E.E.E.E.E.P.P.X. + + +Y. +O.O.Y.Y.Y.Y. +Y.Y.Y.Y.'+'+'+'+(+}+3+3+3+3+3+3+(+(+1+1+(+(+3+3+3+3+3+3+3+3+d+d+d+d+d+d+d+d+d+d+d+d+d+a+a+a+a+a+a+a+f+f+f+f+f+f+f+o+n+o+o+o+o+p+o+o+o+o+o+o+o+n+n+o+o+o+o+o+p+p+p+p+p+p+p+p+p+p+p+p+p+p+p+p+o+p+p+p+p+s+s+s+s+s+s+s+s+s+s+s+s+s+s+s+s+s+s+s+u+s+u+s+s+s+z+s+s+s+s+n+n+n+d+3+3+(+(+'+'+'+ + + +R.R.R.R.J.s.p.a.a.a.2.2.2.<.<.<.<.<.<.<.<.<.<.<.<.<.<.<.<.>.>.>.>.>.>.>.@.>.>.@.>.>.>.>.>.>.>.>.@.1.1.1.1.1.1.1.1.1.1.1.1.1.<.<.1.9.9.5.5.5.5.5.5.5.:.:.:.:.:.:.:.:.",
". . . . . . . . . . . . . . . . . . . . . . . . . . . . . . . . . . . . . . . . . . . . . . . . . . . . . . . . . . . . . . . . . . . . . . . . . . . . . . . . . . . . . . . . . . . . . . . . . . . . . . . . . . . . . . . . . . . . . . . . . . . . . . . . . . . . . . . . . . . . . . . . . . . . . . . . . . . . . . . . . . . . . . . . . . . . . . . . . . . . . . . . . . . . . . . . . . . . . . . . . . . . + + + + + + + + * ' 3 o v E F t F ` X ..*.*.[.[.5.5.5.5.:.5.9.9.9.9.9.9.9.9.9.9.5.5.9.9.9.9.9.5.5.5.5.5.5.[.c.c.i.c.c.i.9.9.m.i.a.a.a.a.a.a.p.u.u.u.E.E.E.E.E.E.E.E.E.E.E.E.E.P.P.R.R. +O.O.O.O.O.O. +O.O.O.O. +Y.Y.'+'+!+'+}+}+3+3+3+3+(+(+1+1+1+1+(+(+3+3+3+3+3+3+3+d+d+d+d+d+d+d+d+d+d+d+d+d+a+a+a+a+a+a+a+d+f+f+f+f+f+f+o+n+o+o+o+o+o+o+o+o+o+o+o+o+n+n+o+o+n+o+o+p+p+p+p+p+p+p+p+p+p+p+p+p+p+p+p+p+p+p+p+p+s+n+s+s+s+s+s+s+s+s+s+s+s+s+s+s+s+s+s+r+s+u+u+u+z+z+z+s+s+s+o+n+f+d+3+3+(+(+(+'+'+'+ + +R.R.R.R.J.s.v.p.a.a.a.a.a.h.h.h.h.h.h.h.h.h.h.<.<.<.<.<.<.<.<.>.>.>.>.>.>.<.<.<.<.<.<.<.<.<.<.<.1.1.1.1.1.f.9.9.m.9.9.f.f.c.c.c.1.5.5.5.5.5.5.5.5.5.:.:.:.:.:.:.:.:.",
". . . . . . . . . . . . . . . . . . . . . . . . % % . . . . . . . . . . . . . . . . . . . . . . . . . . . . . . . . . . . . . . . . . . . . . . . . . . . . . . . . . . . . . . . . . . . . . . . . . . . . . . . . . . . . . . . . . . . . . . . . . . . . . . . . . . . . . . . . . . . . . . . . . . . . . . . . . . . . . . . . . . . . . . . . . . . . . . . . . . . . . . . . . . . . . . . . . . . . . . . . . . + + + + + + + = ' [ e v v v F F X ` X X ` %.*.&.5.5.:.:.:.5.9.9.9.9.9.9.9.9.9.9.5.5.5.5.5.5.5.5.5.5.5.5.5.[.[.[.[.a.b.b.i.i.i.i.a.a.a.a.a.a.a.b.l.l.l.E.E.E.E.E.E.E.E.E.E.J.J.P.P.P.R.R.O.I.I.I.I.O.O.O.O.O.R. +Y.Y.Y.'+'+!+(+}+(+(+(+(+1+(+(+'+'+(+1+(+3+3+3+3+3+3+3+d+d+d+f+f+f+d+d+d+d+d+d+d+a+d+d+d+a+a+a+d+f+f+f+f+f+f+f+o+o+o+o+n+n+n+o+o+o+o+o+o+o+n+n+n+n+o+p+p+p+p+p+p+p+p+p+p+p+p+p+p+p+p+p+p+o+o+p+o+s+n+s+s+s+s+s+s+s+s+s+s+s+s+o+n+n+s+s+u+r+u+u+A+z+z+z+s+z+s+s+o+o+f+d+3+3+(+(+'+'+'+'+ +R.R.R.J.J.s.p.p.p.p.a.a.p.p.h.h.h.h.h.h.h.h.h.h.<.<.<.<.<.<.<.<.<.<.<.<.<.<.<.c.c.c.c.c.h.h.c.c.c.c.c.f.9.m.m.m.m.m.9.f.f.c.c.c.1.5.5.5.5.5.5.5.5.5.:.:.:.:.:.:.:.:.",
". . . . . . . . . . . . . . . . . . . . . . . . . . . . . . . . . . . . . . . . . . . . . . . . . . . . . . . % . . . . . . . . . . . . . . . . . . . . . . . . . . . . . . . . . . . . . . . . . . . . . . . . . . . . . . . . . . . . . . . . . . . . . . . . . . . . . . . . . . . . . . . . . . . . . . . . . . . . . . . . . . . . . . . . . . . . . . . . . . . . . . . . . . . . . . . . . . . . . . . . . . . + + + + + = = = ' : [ g v v v S X U X X X ` ` &.&.&.5.:.:.5.:.9.9.9.9.9.9.9.9.9.9.5.5.5.5.5.5.:.5.5.[.5.[.*.*.[.[.6.6.6.6.i.6.b.b.b.b.a.a.b.b.b.b.b.b.l.l.s.s.l.l.l.l.l.l.s.s.J.J.J.J.J.J.J.J.J.J.J.J.J.J.I.O.R.R. + + +Y.'+!+'+'+(+(+'+'+'+'+'+'+'+(+1+(+(+3+3+3+3+3+3+3+d+d+f+f+f+f+d+d+d+f+f+d+a+d+d+d+a+a+a+f+f+f+f+f+f+f+f+o+o+o+f+f+o+o+n+o+o+o+o+o+o+o+o+n+o+o+p+p+p+p+p+p+p+p+p+p+p+p+p+p+p+p+p+p+o+o+o+o+s+s+s+s+s+s+s+s+s+s+s+s+s+s+o+o+n+s+s+u+r+s+u+u+z+z+z+z+z+z+s+s+o+f+d+3+3+3+(+(+'+'+ + +R.R.J.J.s.s.p.p.p.p.p.p.p.p.p.p.h.h.h.h.h.h.h.h.h.<.<.<.<.<.<.<.<.<.<.<.c.c.c.c.c.c.c.c.c.c.c.c.f.f.f.f.9.9.m.m.m.9.f.9.1.1.1.1.1.5.5.5.5.5.5.5.5.:.:.5.:.:.:.:.:.:.",
". . . . . . . . . . . . . . . . . . . . . . . . . . . . . . . . . . . . . . . . . . . . . . . . . . . . . . . % % % % . . . . . . . . . . . . . . . . . . . . . . . . . . . . . . . . . . . . . . . . . . . . . . . . . . . . . . . . . . . . . . . . . . . . . . . . . . . . . . . . . . . . . . . . . . . . . . . . . . . . . . . . . . . . . . . . . . . . . . . . . . . . . . . . . . . . . . . . . . + + + + + + + + + + = ' ' ' ' : [ e v v S S ` X X X X ` ` *.&.&.5.:.:.:.:.:.:.9.5.5.5.9.5.5.5.5.5.5.5.5.5.5.5.[.&.*.*.*.*.*.{.^.^.6.6.6.^.6.6.6.6.6.6.6.6.6.6.6.6.b.b.l.l.l.l.b.b.l.l.q.s.s.s.J.J.J.J.s.s.s.s.J.J.J.J.J.J.R.R.R. + + +'+'+'+'+'+'+'+'+'+'+'+'+'+(+1+(+(+(+(+(+3+3+3+3+d+d+f+f+f+f+f+f+f+f+f+f+a+a+a+a+a+a+a+f+f+f+f+f+f+f+f+o+o+o+f+f+o+o+o+o+o+o+o+o+o+o+o+o+o+o+p+p+p+p+p+p+p+p+p+p+p+p+p+p+p+p+p+p+p+o+o+o+s+s+s+s+s+s+s+s+s+s+s+s+s+s+o+n+s+s+s+r+r+r+r+r+s+s+z+z+z+z+s+s+n+f+d+3+3+3+(+(+'+'+ + +R.P.P.J.s.l.p.l.v.v.v.v.v.v.v.v.p.h.h.h.h.h.h.h.h.h.h.<.<.<.c.c.c.h.h.c.c.c.c.c.u.u.u.u.u.u.u.u.c.m.f.f.f.9.9.9.9.f.1.1.1.1.1.1.:.:.:.:.!.!.!.:.5.:.5.5.5.:.:.:.:.:.",
". . . . . . . . . . . . . . . . . . . . . . . . . . . . . . . . . . . . . . . . . . . . . . . . . . . . . . . % % % % . . . . . . . . . . . . . . . . . . . . . . . . . . . . . . . . . . . . . . . . . . . . . . . . . . . . . . . . . . . . . . . . . . . . . . . . . . . . . . . . . . . . . . . . . . . . . . . . . . . . . . . . . . . . . . . . . . . . . . . . . . . . . . . . . . . . . . . . . . + + + + + + + + * = ' ' : : : [ 8 v v S S ` ` ` ` ` X ` ` *.&.&.&.!.!.:.:.:.:.:.:.5.5.:.:.:.5.5.5.[.[.5.[.[.*.*.*.*.*.*.....{.{.{.^.^.^.^.^.^.{.{.{.{.{.{.^.^.{.^.6.6.b.6.6.6.6.6.6.b.b.q.q.q.q.q.q.q.q.q.q.s.s.s.J.J.J.J.R.R.R.R. + + + +'+'+!+'+'+'+'+'+'+'+'+'+(+1+(+(+(+(+(+3+3+3+d+d+d+f+f+f+f+f+f+f+f+f+a+a+a+a+a+n+n+f+f+f+f+f+f+o+o+n+n+o+o+o+o+o+o+o+o+o+o+o+o+o+o+o+o+p+p+p+p+p+p+p+p+p+p+p+p+p+o+o+p+p+p+p+p+p+o+p+s+s+s+s+s+s+s+s+s+s+s+s+s+s+o+n+s+s+s+u+u+r+r+u+s+s+s+s+z+s+s+s+n+f+d+3+3+(+(+(+'+'+ + +P.P.J.J.s.l.l.v.v.v.v.H.H.H.v.v.v.v.p.h.h.h.h.h.h.h.h.h.h.h.h.h.h.h.c.c.u.u.u.u.u.u.u.u.u.u.u.u.u.c.f.1.1.1.1.1.1.1.(.1.1.5.:.1.:.:.:.:.:.:.:.:.:.:.5.5.5.5.5.5.:.:.",
". . . . . . . . . . . . . . . . . . . . . . . . . . . . . . . . . . . . . . . . . . . . . . . . . . . . . . . % . . . . . . . . . . . . . . . . . . . . . . . . . . . . . . . . . . . . . . . . . . . . . . . . . . . . % . . . . . . . . . . . . . . . . . . . . . . . . . . . . . . . . . . . . . . . . . . . . . . . . . . . . . . . . . . . . . . . . . . . . . . . . . . . . . . . . . . . . . . . + . + + + + + + = ' ' : : : [ [ g g v S S S ` ` ` ` ` ` X X X &.!.!.!.!.!.!.!.!.!.!.!.!.!.!.!.&.&.&.&.*.*.*.*.*.*.................................Y Y Y Y Y ........{.^.^.^.{.*.*.*.{.^.^.^.6.6.b.b.b.b.a.a.q.q.q.q.s.s.s.J.J.J.R.R.O.R. + + +'+'+'+!+!+'+'+'+'+'+'+(+1+(+(+(+(+(+(+3+3+3+d+d+d+f+f+f+f+f+f+f+f+n+n+n+n+n+n+n+f+f+f+f+f+o+o+n+o+o+o+p+p+o+o+o+o+o+o+o+o+o+o+p+p+p+p+p+p+p+p+p+p+p+p+p+p+p+p+o+o+p+p+p+p+p+p+o+p+s+s+s+s+s+s+s+s+s+s+s+s+o+o+n+n+o+s+s+r+r+u+u+r+n+s+s+s+s+s+s+s+o+f+d+3+3+(+(+(+'+'+ + +P.P.J.J.s.l.p.v.H.H.H.H.H.H.H.H.v.v.v.v.v.h.h.h.h.h.h.h.h.h.u.u.h.c.u.u.u.u.u.u.H.H.u.u.u.u.u.u.u.m.c.1.1.1.1.1.(.(.(.1.1.5.5.:.:.:.:.:.:.:.:.:.:.5.9.9.9.9.5.5.:.:.",
". . . . . . . . . . . . . . . . . . . . . . . . . . . . . . . . . . . . . . . . . . . . . . . . . . . . . . . % . . . . . . . . . . . . . . . . . . . . . . . . . . . . . . . . . . . . . . . . . . . . . . . . . . . . % . . . . . . . . . . . . . . . . . . . . . . . . . . . . . . . . . . . . . . . . . . . . . . . . . . . . . . . . . . . . . . . . . . . . . . . . . . . . . . . . . . . . . . . + . + + + + + + = ' : : [ [ g g g g v S S S ` ` U U ` ` X X U U Q Q Q Q !.!.!.!.!.!.!.!.!.!.!.!.&.&.*.*.X X X X X X Y Y Y Y Y Y Y Y Y Y Y Y Y Y Y E E E E E E E E Y Y ..*.X X X X X X X Y ....{.{.{.^.^.^.6.6.6.a.q.q.q.s.s.J.J.J.J.O.O.R. + + +Y.Y.!+!+'+'+'+'+'+'+(+1+1+(+(+(+(+(+3+3+3+3+d+d+f+f+f+f+f+f+f+f+n+n+n+n+n+n+n+f+f+f+f+f+o+n+n+o+o+o+o+o+o+o+o+o+o+o+o+o+p+p+p+p+p+p+p+p+p+p+p+p+p+p+p+p+p+o+o+o+p+p+p+p+p+o+o+o+s+s+s+s+s+s+s+s+n+n+n+n+n+o+f+n+n+n+n+j+r+r+r+k+n+o+n+n+s+s+s+o+f+d+3+3+3+(+(+'+'+'+ + +P.P.J.s.s.l.v.v.H.H.H.H.H.I.I.I.I.I.H.v.v.v.v.v.v.v.v.v.v.v.u.u.u.u.u.H.H.H.H.H.H.H.u.u.u.u.u.u.u.c.1.1.1.1.1.1.(.(.(.(.1.5.5.5.5.5.5.5.5.5.5.5.5.5.9.9.9.9.5.5.:.:.",
". . . . . . . . . . . . . . . . . . . . . . . . . . . . . . . . . . . . . . . . . . . . . . . . . . . . . . . . . . . . . . . . . . . . . . . . . . . . . . . . . . . . . . . . . . . . . % % % % % . . . . . . . . . . . . . . . . . . . . . . . . . . . . . . . . . . . . . . . . . . . . . . . . . . . . . . . . . . . . . . . . . . . . . . . . . . . . . . . . . . . . . . . . . . . . . . . . . . . + + + + + + + = ' ' : [ h g g g v S S S P S ` ` ` ` ` X U U Q Q Q Q Q Q Q Q Q !.!.!.!.!.!.!.!.&.U U C C X X F E F E E E E E E E E E E E E E E E o o o k k k k E E E E E E F k k h h k E E Y Y Y ......{.{.^.^.^.6.0.0.0.n.q.s.s.J.J.J.J.O.R. +Y.Y.Y.!+'+'+'+'+'+'+(+(+1+1+1+1+1+1+(+3+3+3+d+d+d+f+f+f+f+f+f+f+n+n+n+a+f+f+f+f+f+f+f+f+o+n+o+o+o+s+s+s+m+m+m+m+o+o+o+o+m+m+s+s+p+p+p+p+p+p+p+p+s+s+s+s+s+p+p+o+o+o+p+p+n+o+o+o+o+o+p+s+s+n+n+n+o+o+n+n+o+o+o+o+n+o+o+o+r+r+k+r+r+n+k+k+n+n+n+f+f+d+3+(+(+(+'+'+'+-+X.X.R.O.I.J.s.v.v.v.H.H.Q.Q.Q.P.P.Q.O.O.I.I.I.I.I.I.I.I.I.I.I.I.I.I.H.H.H.H.v.v.v.v.u.u.u.u.u.u.u.u.c.f.1.1.1.1.1.1.1.1.1.9.9.9.1.1.:.5.5.9.9.9.9.:.5.9.9.9.9.5.5.:.:.:.",
". . . . . . . . . . . . . . . . . . . . . . . . . . . . . . . . . . . . . . . . . . . . . . . . . . . . . . . . . . . . . . . . . . . . . . . . . . . . . . . . . . . . . . . . . . . . . . . . . . . . . . . . . . . . . . . . . . . . . . . . . . . . . . . . . . . . . . . . . . . . . . . . . . . . . . . . . . . . . . . . . . . . . . . . . . . . . . . . . . . . . . . . . . . . . . . . . . . . . + + + + + + * = ' [ } h h z z z z S S ` ` S S ` ` ` ` U U U Q Q Q Q Q Q Q Q Q Q !.!.!.!.!.!.&.X U C C F F F E F E E E E E E E E E E E o o o o o k 2 2 4 4 4 2 k k k k k k p } } } } } k E E Y Y Y ............{.{.^.3.6.6.q.q.q.q.q.s.s.I.I.O.O.Y.Y.Y.!+!+!+'+'+'+'+(+1+1+1+1+1+1+(+3+3+3+d+d+d+f+f+f+f+f+f+f+n+a+a+a+f+f+f+f+f+f+f+f+o+n+n+o+o+s+s+m+m+m+m+m+o+o+o+o+m+m+s+s+p+p+p+p+p+p+p+p+s+s+s+s+s+s+p+p+p+o+p+p+n+o+o+o+o+o+o+n+n+n+n+n+o+n+n+n+o+o+o+n+n+o+o+o+k+j+n+k+j+k+k+k+f+f+n+f+d+3+3+(+(+(+'+'+'+'+X.X. +R.P.P.P.J.J.J.P.P.P.P.P.P.P.P.Q.Q.Q.Q.Q.Q.Q.Q.O.O.O.O.O.O.I.I.H.H.H.H.v.v.v.v.u.u.u.c.c.c.u.u.f.c.1.1.1.1.1.1.1.1.1.9.9.9.1.1.:.9.9.5.9.9.9.9.9.9.9.5.5.5.5.:.:.:.",
". . . . . . . . . . . . . . . . . . . . . . . . . . . . . . . . . . . . . . . . . . . . . . . . . . . . . . . . . . . . . . . . . . . . . . . . . . . . . . . . . . . . . . . . . . . . . . . . . . . . . . . . . . . . . . . . . . . . . . . . . . . . . . . . . . . . . . . . . . . . . . . . . . . . . . . . . . . . . . . . . . . . . . . . . . . . . . . . . . . . . . . . . . . . . . . . . . . + + + + + + + * = ' : [ h t C z z z z z ` ` ` ` ` ` U U Z U U U Q Q Q Q Q Q Q Q U !.!.!.!.!.&.&.*.X U F C F E E E E o k k k k k k k o o o m m o 4 4 4 4 4 2 2 2 2 2 2 2 2 2 2 2 2 < ( ( < 3 o E Y ................Y ..{.{.^.^.6.a.b.q.l.l.p.v.I.I.O.O.Y.Y.!+!+!+'+!+'+(+<+1+1+1+1+1+1+(+3+3+3+d+d+d+f+f+f+f+f+f+f+a+a+a+a+d+d+f+f+f+h+h+h+o+o+o+o+o+m+m+m+m+m+m+m+m+m+o+o+m+m+s+s+p+p+p+p+p+p+p+p+s+s+s+s+s+s+s+p+p+p+o+o+s+p+p+o+o+o+n+n+n+n+n+n+n+n+n+o+n+n+n+o+o+o+n+n+k+k+k+k+k+k+k+k+a+a+a+d+d+3+3+(+(+'+'+'+'+'+X.X.X. +X.X.X.P.P.P.P.P.P.P.P.P.P.P.P.P.P.P.Q.P.P.P.P.P.P.Q.Q.Q.Q.Q.H.H.H.H.H.u.u.u.c.c.c.m.c.c.c.m.f.1.1.1.1.1.1.1.1.1.1.9.9.9.9.1.:.5.9.5.9.9.9.9.9.9.9.5.5.9.5.5.5.5.",
". . . . . . . . . . . . . . . . . . . . . . . . . . . . . . . . . . . . . . . . . . . . . . . . . . . . . . . . . . . . . . . . . . . . . . . . . . . . . . . . . . . . . . . . . . . . . . . . . . . . . . . . . . . . . . . . . . . . . . . . . . . . . . . . . . . . . . . . . . . . . . . . . . . . . . . . . . . . . . . . . . . . . . . . . . . . . . . . . . . . . . . . . . . . . . . . . . . + + + + * , ' ' : [ g h h t F ` ` z z z ` ` ` %.%.%.&.&.&.&.&.&.&.&.!.!.!.!.!.!.!.!.!.!.!.&.&.*.X X X F F E E E E E k k o k k k k o o o 4 4 4 4 4 4 ! ! ! ! ! ! ! ! ! 2 2 2 2 2 2 < ( , ( 4 E Y ).3.3.^.^.{.....Y Y ....{.^.^.6.6.b.b.b.l.p.v.v.I.I.O.Y.Y.Y.Y.!+!+!+!+(+<+}+}+1+1+1+1+(+3+a+3+a+a+a+a+a+a+f+f+f+d+a+a+a+a+d+d+0+m+m+h+h+h+o+o+o+m+m+m+m+m+m+m+m+m+m+m+m+m+m+m+s+s+p+p+p+p+p+p+p+p+s+s+s+s+s+s+s+s+p+p+o+o+s+p+p+o+o+o+n+n+n+n+n+n+n+n+n+n+o+o+n+o+n+o+n+n+f+k+k+f+f+k+f+f+f+d+d+d+3+3+(+(+(+'+'+'+'+'+'+X. + +X.X.X.X.X.X.P.P.P.P.P.P.P.P.Q.Q.Q.Q.P.P.P.X.X.X.X.X.X.Q.Q.Q.P.P.Q.H.H.H.u.u.u.u.c.c.c.c.c.c.9.f.1.1.1.1.1.1.1.1.1.9.m.m.9.1.(.:.:.:.:.:.:.:.5.5.5.5.5.9.5.5.5.5.",
". . . . . . . . . . . . . . . . . . . . . . . . . . . . . . . . . . . . . . . . . . . . . . . . . . . . . . . . . . . . . . . . . . . . . . . . . . . . . . . . . . . . . . . . . . . . . . . . . . . . . . . . . . . . . . . . . . . . . . . . . . . . . . . . . . . . . . . . . . . . . . . . . . . . . . . . . . . . . . . . . . . . . . . . . . . . . . . . . . . . . . . . . . . . . . . . . . . . + + * = : : [ g g z z z U X ` ` t t t Z Z ` *.*.*.&.&.&.&.&.&.&.&.&.&.&.&.&.&.&.&.&.&.&.&.X X ` ` z F F F F E k k k k 4 2 2 2 2 2 2 2 4 4 4 ! ! ! ! ! ! ! ! ! ! ! ! ! ! ! ! 2 2 ! ! ! ( o Y ).0.0.0.0.0.^.{.Y Y Y Y Y ....{.^.^.^.6.b.b.p.p.v.v.I.I.O.Y.Y.Y.Y.!+!+!+}+}+}+}+}+1+1+(+3+3+3+d+a+a+a+a+a+a+a+a+a+a+d+d+d+d+0+0+m+m+h+h+h+h+o+m+m+m+m+m+m+m+m+m+m+m+m+m+m+m+m+m+s+s+p+p+p+p+p+p+p+p+s+s+s+s+s+s+s+s+s+p+o+o+s+o+o+o+o+o+n+n+n+n+n+n+o+o+o+o+o+o+o+o+o+o+o+f+f+f+f+k+k+f+f+f+d+d+d+3+3+3+(+(+(+(+(+'+'+'+'+'+'+'+'+-+-+-+-+X.X.X.P.P.P.P.P.P.P.P.P.P.P.P.X.X.X.X.X.Z.Z.Z.X.X.++P.P.Q.H.H.H.u.u.u.u.u.u.u.c.c.m.m.9.9.1.1.1.1.1.1.1.9.m.m.9.1.(.(.(.:.:.:.:.:.5.5.5.5.5.9.5.5.5.5.",
". . . . . . . . . . . . . . . . . . . . . . . . . . . . . . . . . . . . . . . . . . . . . . . . . . . . . . . . . . . . . . . . . . . . . . . . . . . . . . . . . . . . . . . . . . . . . . . . . . . . . . . . . . . . . . . . . . . . . . . . . . . . . . . . . . . . . . . . . . . . . . . . . . . . . . . . . . . . . . . . . . . . . % % % . . . . . . . . . . . . . . . . . . . . . . . . . . . + + * , ( 3 h g v z S S X X X ` ` ` z ` ` ` %.*.*.*.*.&.&.&.&.[.[.[.[.[.[.5.5.5.5.5.5.&.&.&.&.U ` ` F F F F E k k k k 2 2 2 2 2 2 2 4 4 4 _ ! ! ^ ! ! ! - - - - - - - - - - ! ! ! ! ! ! 4 G ).0.n.D.D.D.n.0.^...Y E E E Y Y ....{.{.^.6.b.a.p.p.v.I.I.O.Y.Y.Y.!+!+!+}+}+}+<+}+}+1+1+(+3+a+3+d+a+a+a+a+a+a+a+a+a+a+f+f+f+f+f+f+m+h+h+h+h+h+o+m+m+m+m+m+m+m+m+m+m+m+m+m+m+m+m+m+s+o+p+p+p+p+p+p+p+p+s+s+s+s+s+s+s+s+s+s+o+o+n+o+o+o+o+o+o+n+n+n+n+n+o+o+o+o+o+o+o+o+o+o+f+f+f+d+d+f+f+d+d+d+3+e+3+3+3+3+3+(+(+(+(+(+'+'+'+'+'+'+'+-+[+-+-+X.X.X.P.P.P.P.P.P.P.P.P.P.P.++X.X.X.X.X.X.-+-+X.X.++++P.P.Q.Q.H.H.H.H.u.u.u.u.u.c.m.m.m.9.9.9.f.9.f.9.9.9.m.9.9.(.(.(.(.(.:.:.:.:.5.5.5.5.5.5.5.5.:.:.",
". . . . . . . . . . . . . . . . . . . . . . . . . . . . . . . . . . . . . . . . . . . . . . . . . . . . . . . . . . . . . . . . . . . . . . . . . . . . . . . . . . . . . . . . . . . . . . . . . . . . . . . . . . . . . . . . . . . . . . . . . . . . . . . . . . . . . . . . . . . . . . % % . . . . . . . . . . . . . . . . . . . . . % % % . . . . . . . . . . . . . . . . . . . . . . . . . . . * , , ( 3 h v v S S S ......X ` ` ` ` S S %.*.*.%.*.*.%.%.%.[.[.[.[.[.[.[.[.[.5.5.5.5.5.5.&.&.U U ` X F F F F p h k 2 2 2 2 2 2 2 2 ! ! ! ~ ~ ^ ^ ^ - - - - - - - - - - - - - ! ! ! ! ! 4 G ).0.D.V.V.D.D.0.3.W E E k E E E Y ....*.{.6.6.a.a.p.v.v.I.O.Y.Y.Y.!+!+'+(+}+}+}+}+}+(+(+(+3+3+3+d+a+a+a+a+a+a+a+a+a+a+f+f+f+h+f+f+f+f+h+h+h+h+o+m+m+m+m+m+m+m+m+m+m+m+m+m+m+m+m+m+s+o+p+p+p+o+p+p+p+p+s+s+s+s+s+s+s+s+s+s+s+o+n+o+o+o+o+o+n+n+n+n+n+n+o+o+o+o+o+o+f+f+o+o+f+k+f+d+d+d+d+d+3+e+3+3+2+3+3+3+3+(+(+(+(+(+'+'+'+'+'+'+'+-+-+-+X.X.X.P.P.P.P.P.P.P.P.P.P.++++X.X.X.=+=+=+=+=+=+=+=+Z.Z.++++++++Z.Q.Q.Q.H.H.H.z.u.u.u.m.u.m.m.m.m.9.9.9.9.9.9.9.9.(.(.(.(.(.:.:.:.:.:.5.5.5.5.5.:.:.:.:.",
"% % % % % % % % . . . . . . . . . . . . . . . . . . . . . . . . . . . . . . . . % . . . . . . . . . . . . . . . . . . . . . . . . . . . . . . . . . . . . . . . . . . . . . . . . . . . . . . . . . . . . . . . . . . . . . . . . . . . . . . . . . . . . . . . . . . . . . . . . . . . . . . . . . . . . . . . . . . . . . . . . . . . . . . . . . . . . . . . . . . . . . . . . . . . . . . . . . . * _ _ 3 v v v S S '.'.*.{.*.*.S S S S '.'.'.*.*.%.%.*.%.%.5.[.[.[.i.i.i.i.i.i.i.i.i.[.5.5.&.&.&.U ` X F F C F p p } } 2 < 2 ! ! ! ! ! ! ! * * - - - - - - - - - - - - - - - - ! ! ! ! ! 4 G ).0.D.V.V.V.D.0.3.W E k k k k F E X ..*.{.^.6.a.a.p.p.v.I.I.O.Y.Y.Y.Y.'+'+(+1+}+<+}+(+(+3+a+d+a+a+a+a+a+a+a+a+d+a+a+a+f+f+m+h+f+f+f+f+f+h+h+h+h+m+m+m+m+m+m+m+m+m+m+m+m+m+m+m+m+m+s+o+o+o+o+o+p+p+p+p+s+s+s+s+s+s+s+s+s+s+s+s+s+o+o+o+o+o+n+n+n+n+n+n+o+o+o+o+o+f+f+f+f+f+f+k+f+d+d+d+d+e+3+3+3+2+2+3+(+(+(+(+(+(+(+'+'+'+'+'+'+'+'+-+X.X.X.X.X.P.P.P.P.P.P.P.P.P.++++++X.X.X.=+=+=+=+=+=+=+=+=+++Z.Z.Z.Z.Z.++Z.Q.Q.Q.H.H.H.z.u.u.u.m.m.m.m.m.m.m.m.m.9.9.9.(.(.(.(.(.(.:.:.:.:.:.:.:.:.:.:.:.:.:.",
". . % % . . . . . . . . . . . . . . . . . . . . . . . . . . . . . . . . . . . . % % . . . . . . . . . . . . . . . . . . . . . . . . . . . . . . . . . . . . . . . . . . . . . . . . . . . . . . % % % . . . . . . . . . . . . . . . . . . . . . . . . . . . . . . . . . . . . . . . . . . . . . . . . . . . . . . . . . . . . . . . . . . . . . . . . . . . . . . . . . . . . . . . . . . . . . . . + * 1 o v v S S S S '.'.'.'.'.'.'.'.S %.%.*.%.%.%.%.*.*.%.[.[.[.[.i.i.i.i.i.i.i.i.i.i.b.b.[.[.[.*.*.X X X F F p p f 0 } < ( _ , , , , * * > - - - - > > > > & > > & - - - & & & - ^ ^ - - ^ m G ,.j.A.D.n.0.3.).W m 4 2 k k F F X ..*.{.[.6.2.2.a.p.v.I.I.O.O.O.Y.Y.Y.!+'+1+(+1+(+(+3+a+3+d+d+d+a+a+a+a+a+a+a+a+a+a+d+f+f+f+f+f+f+f+h+h+h+h+o+m+m+m+m+m+m+m+m+m+m+m+m+m+m+m+m+m+m+m+o+o+o+o+o+p+p+p+s+s+s+s+s+s+s+s+s+p+p+o+s+o+o+o+o+o+n+n+o+o+o+n+o+o+o+o+n+f+f+f+f+f+f+f+d+d+d+d+d+3+3+3+3+(+(+(+(+(+(+(+'+'+'+'+'+'+'+'+'+'+ + + + + + +R.R.R.P.P.P.P.P.P.P.P.P.P.P.P.P.P.++++++++++++++++++++++++++Z.Z.@+@+Q.Q.Q.Q.H.H.H.H.u.u.u.u.u.m.c.f.f.f.f.f.1.(.(.(.(.(.(.(.1.:.:.:.:.:.:.:.(.(.:.:.",
". . . . . . . . . . . . . . . . . . . . . . . . . . . . . . . . . . . . . . . . . . . . . . . . . . . . . . . . . % % % % % % . . . . . . . . . . . . . . . . . . . . . . . . . . . . . . % % . . . . . . . . . . . . . . . . . . . . . . . . . . . . . . . . . . . . . . . . . . . . . . . . . . . . . . . . . . . . . . . . . . . . . . . . . . . . . . . . . . . . . . . . . . . . . . . . . . . + , 9 i E S S S S '.'.'.'.'.'.'.'.S S %.*.*.%.%.%.%.*.*.%.[.[.[.[.i.i.i.i.i.i.i.i.i.i.l.b.b.[.[.[.*.*.X X t F p f 0 } < ( ( , , , , * * > > - - - - > > > & & & & & & - - - & > - ^ ^ - > > ^ m W ,.4.0.0.3.).W G m 4 2 2 k p F F X X *.*.^.2.2.a.p.p.v.I.I.O.O.O.Y.Y.Y.'+(+1+1+(+(+3+a+a+a+a+3+d+a+a+a+a+n+a+a+a+a+f+f+f+f+f+f+f+f+m+h+h+h+o+h+m+m+m+m+m+m+m+m+m+m+m+m+m+m+m+m+m+m+o+o+o+o+o+p+p+p+s+s+s+s+s+s+s+s+s+p+p+o+s+o+o+o+o+o+n+n+o+o+o+o+o+o+f+f+n+f+f+f+f+f+f+f+f+d+d+d+3+3+3+3+(+(+(+(+(+(+'+'+'+'+'+'+'+'+'+'+ + + + + + + + +R.R.P.P.P.P.P.P.P.P.P.P.P.P.P.E.P.P.P.P.P.P.P.P.P.++++++++++++Z.@+@+Z.Q.Q.Q.Q.Q.H.H.H.H.H.u.u.u.u.c.f.f.f.f.1.(.(.(.(.(.(.(.(.:.:.:.:.:.(.(.(.(.:.:.",
". . . . . . . . . . . . . . . . . . . . . . . . . . . . . . . . . . . . . . . . . . . . . . . . . . . . . . . . . % % % % % % . . . . . . . . . . . . . . . . . . . . . . . . . . . . . . % % . . . . . . . . . . . . . . . . . . . . . . . . . . . . . . . . . . . . . . . . . . . . . . . . . . . . . % % . . . . . . . . . . . . . . . . . . . . . . . . . . . . . . . . . . . . . . . . . % + + * 1 o s R ~.'.'.'.'.'.'.'.{.'...'.S ` %.*.*.{.*.*.*.*.*.*.[.[.[.[.i.i.i.i.i.i.i.i.i.i.l.l.b.6.[.^.*...X Y z k h 3 } } < _ , , , * * * > + $ > - - ~ > > > & & & & & & > > > > > ^ ^ ^ ^ > > > ^ l A V ,.).).).W G G o k k k p F F F X X *.*.^.^.2.a.a.p.v.I.I.O.O.O. + +'+'+1+1+1+(+3+3+3+3+3+3+a+a+a+a+a+a+a+a+a+a+f+f+f+f+o+f+f+f+h+h+h+h+o+h+m+m+m+m+m+m+m+m+m+m+m+m+m+m+m+m+m+m+o+o+o+o+o+p+p+p+s+s+s+s+s+s+s+s+s+p+p+o+s+o+o+o+o+o+n+n+o+o+o+o+f+f+f+f+f+f+d+d+d+d+d+d+f+d+d+3+3+3+3+(+(+(+(+'+'+'+'+'+'+'+'+X.X.X.X.X.X.X. + + +X.P.P.R.P.P.P.P.P.P.P.P.E.E.E.E.E.E.E.E.E.E.E.E.E.E.E.G.G.M.@+@+@+@+@+++++Z.Z.Q.Q.Q.Q.Q.Q.Q.H.H.H.H.u.u.u.m.f.f.f.f.f.(.(.(.(.(.(.(.:.:.(.(.(.(.=.=.(.1.1.",
". . . . . . . . . . . . . . . . . . . . . . . . . . . . . . . . . . . . . . . . . . . . . . . . . . . . . . . . . . . % % . . . . . . . . . . . . . . . . . . . . . . . . . . . . . . . . . . . . . . . . . . . . . . . . . . . . . . . . . . . . . . . . . . . . . . . . . . . . . . . . . . . . . . % % % % . . . . . . . . . . . . . . . . . . . . . . . . . . . . . . . . . . . . . . . % & + * _ m s S ~.~.~.'.'.'.'.'.'.'.'...'.` %.%.*.{.'.{.*.*.*.*.[.[.[.[.i.i.i.i.i.i.i.i.i.i.l.l.l.b.b.[.^.{...Y Y E E k } 3 < _ , , * * * * > $ $ + > > - ~ ^ > > > & & > > > > ^ ^ ^ ^ ^ 6 l l 6 ^ > > ^ l A V V W W W W G E E E E F F F F X X *.*.{.'.2.2.a.p.p.v.I.I.I.O.R. + +'+'+'+'+(+1+(+(+1+1+(+3+3+a+a+a+a+a+a+a+a+f+f+f+f+o+o+o+o+m+m+m+m+o+m+m+m+m+m+m+m+m+m+m+m+m+m+m+m+m+m+m+m+o+o+o+o+o+p+p+p+s+s+s+s+s+s+s+s+s+p+p+o+s+o+o+o+o+o+o+n+o+o+o+f+f+f+f+f+f+f+d+d+d+d+d+d+d+d+d+3+3+3+(+(+(+(+(+'+'+'+'+'+ + + + + + + + + + +X.X.P.P.P.P.R.P.P.J.J.J.J.J.J.J.s.s.l.l.l.i.i.i.i.i.9.9.9.9.m.w.w.E.G.M.M.M.Q.Q.Q.Q.Q.Q.Q.Q.Q.Q.Q.Q.Q.H.H.H.H.w.w.m.m.f.f.f.f.(.(.(.(.(.(.!.=.=.=.=.=.=.=.(.1.1.",
". . . . . . . . % . . . . . . . % % % % % % % % . % % . . . . . . . . . . . . . . . . . . . . . . . . . . . . . . . . . . . . . . . . . . . . . . . . . . . . . . . . . . . . . . . . . . . . . . . . . . . . . . . . . . . . . . . . . . . . . . . . . . . . . . . . . . . . . . . . . . . . . . . % % % % % . . . . . . . . . . . . . . . . . . . . . . . . . . . . . . . . . . . . . % % * * _ 1 i G W ~.~.~.2.2.'.'.'.'.'.%.'...%.%.%.*.*.*.*.*.*.*.[.[.^.6.[.6.b.b.l.l.l.l.l.l.l.l.s.l.l.l.b.6.^.{...Y Y E E k 2 2 ( _ , ~ = = > ] = = ; $ $ $ ] ] ^ ^ > > > > > > > > > ^ ^ ^ 6 l A A l ^ > @ @ ^ 6 A A W W W W W Y Y E E E E F F X X *.*.{.{.2.2.a.p.p.v.I.I.I.I.O.R. +'+'+'+'+'+'+(+(+(+1+(+3+a+a+a+a+a+a+a+a+a+f+f+f+f+o+o+o+o+m+m+m+m+o+m+m+m+m+m+m+m+m+m+m+m+m+m+m+m+m+m+m+n+o+o+n+n+o+o+o+o+s+s+s+s+s+s+s+s+s+p+p+o+s+o+o+o+o+o+o+n+o+o+f+f+f+f+f+f+f+f+d+d+d+d+d+d+e+d+4+4+4+4+4+4+[+[+[+[+-+-+X.X.X. + +R.R.X.X.X. + +R.R.R.J.J.J.J.J.J.J.J.J.s.s.s.s.l.i.i.i.[.[.5.5.&.&.!.!.!.:.:.:.9.9.m.w.w.E.H.H.H.H.Q.Q.Q.Q.Q.Q.Q.Q.Q.H.H.H.H.w.w.m.m.f.f.f.f.f.(.(.(.(.(.!.=.=.=.=.=.=.=.=.(.(.",
". . . . . . . . % % . . . . . . . . . . . . . . . . % . . . . . . . . . . . . . . . . . . . . . . . . . . . . . . . . . . . . . . . . . . . . . . . . . . . . . . . . . . . . . . . . . . . . . . . . . . . . . . . . . . . . . % % % % % . . . . . . . . . . . . . . . . . . . . . . . . . . . . . . . . . . . . . . . . . . . . . . . . . . . . . . . . . . . . . . . . . . . . . . % + * ~ 9 9 i G W ~.~.|.|.2.'.'.'.'.'.%.%.*.*.%.` %.*.*.*.*.*.*.[.[.^.6.6.b.b.b.l.l.l.l.l.l.l.s.s.s.s.l.l.b.6.^.{...Y Y E E k k 1 4 _ ~ ~ ] ] ] ; ; $ ; ; $ $ ] ] ^ ^ ^ ^ > > > > > > > ^ ^ 6 l A A A l 6 > @ @ > 6 l A A G W W W W Y Y Y E E F F X X *.*.{.{.^.2.a.p.p.v.v.v.I.I.I.O.R. +'+ +'+'+'+'+(+(+1+(+3+3+a+a+a+a+a+a+a+a+f+f+f+f+f+o+o+o+m+m+m+m+o+m+m+m+m+m+m+m+m+m+m+m+m+m+m+m+m+m+m+n+o+o+o+n+o+o+o+o+s+s+s+s+s+s+s+s+s+p+p+o+s+o+o+o+o+o+o+n+f+f+f+f+f+f+f+f+f+f+f+d+d+d+e+e+e+d+8+4+4+4+4+4+[+[+-+-+-+X.X.X. +X.X.R.R.R.R.P.R.R.R.J.J.J.J.J.J.J.J.J.J.s.l.l.l.l.i.[.[.[.&.&.&.&.U Q Q Q Q Q Q !.!.!.:.5.9.9.m.m.u.u.u.H.H.Q.Q.Q.Q.Q.Q.H.H.H.G.w.w.m.m.m.f.f.f.g.(.(.(.:.(.!.=.T T T =.=.=.=.(.(.",
". . . . . . . . . . . . . . . . . . . . . . . . . . . . . . . . . . . . . . . . . . . . . . . . . . . . . . . . . . . . . . . . . . . . . . . . . . . . . . . . . . . . . . . . . . . . . . . . @ @ @ @ @ @ @ @ @ @ @ @ @ @ @ @ @ @ @ @ @ @ @ @ @ @ @ @ @ @ @ @ . . . . . . . . . . . . . . . . . . . . . . . . . . . . . . . . . . . . . . . . . . . . . . . . . . . . . . . . . . . + * ~ 9 m s s W ).~.|.|.|.2.'.'.'.'.'.%.%.*.*.%.` *.&.*.*.*.*.*.[.^.^.6.b.b.b.l.l.l.l.l.l.l.s.s.s.s.s.l.l.b.6.^.{...Y Y v o o 1 2 4 ~ ~ ] $ $ $ ; ; ; ; ; $ ] ] ] ^ ^ ^ ^ / > > > > > ^ ] 5 n V V ,.,.V A l ^ @ > 6 l m G G W W W W Y Y Y E E F X X X *.*.{.{.^.2.a.p.p.v.v.v.v.v.I.I.R. + + + + +'+'+'+(+(+(+3+a+3+a+a+a+a+a+a+n+f+f+f+f+f+o+o+o+m+m+m+m+o+m+m+m+m+m+m+m+m+m+m+m+m+m+m+m+m+m+m+n+o+o+o+o+o+o+o+o+s+s+s+s+s+s+s+s+s+p+p+o+s+o+o+o+o+o+o+n+f+f+f+f+f+f+f+f+d+f+f+d+d+d+d+d+e+d+4+4+4+4+[+[+[+-+-+-+X.X.X.X.X.P.P.P.P.P.P.P.J.J.J.J.J.J.s.s.J.J.s.s.s.s.l.l.l.i.[.[.5.&.U Q Q U D D u u u u D D B Q Q =.!.!.!.5.5.5.9.u.u.u.H.H.H.H.H.H.z.z.w.w.m.m.m.m.f.f.f.g.g.(.(.:.:.!.!.!.=.=.=.=.=.(.:.:.",
". . . . . . . . . . . . . . . . . . . . . . . . . . . . . . . . . . . . . . . . . . . . . . . . . . . . . . . . . . . . . . . . . . . . . . . . . . . . . . . . . . . . . . . . . . . . . . . . . . . @ @ @ @ @ @ @ @ @ @ @ @ @ @ @ @ @ @ @ @ @ @ @ @ @ @ @ @ @ . . . . . . . . . . . . . . . . . . . . . . . . . . . . . . . . . . . . . . . . . . . . . + . . . . . . . . . . . . . + * ~ 9 m W W ).).~.|.|.|.2.'.'.'.'.'.%.'.*.%.` ` Z &.*.*.&.*.*.*.^.6.6.b.b.b.l.l.l.l.l.l.s.s.s.s.s.s.l.l.b.6.^.{...Y Y G o o o 4 1 ] ] ] ; ; ; ; ; ; ; ; ] ] ] ] ^ ^ ^ ^ / > > > > ^ 6 6 n V ,.4.j.j.4.,.A l ^ ^ 6 6 m G G W W W W Y Y E Y E F X X X *.*.{.{.^.2.a.p.p.v.p.p.v.v.v.J.R.R. + + + + +'+'+(+(+(+3+3+a+3+a+a+a+a+a+n+f+f+f+f+f+f+f+f+h+h+h+h+o+m+m+m+m+m+m+m+m+m+m+m+m+m+m+m+m+m+n+n+o+o+o+o+o+o+o+o+s+s+s+s+s+s+s+s+s+p+p+o+s+o+o+o+o+o+f+n+f+f+f+f+f+f+f+f+d+f+f+d+d+d+d+d+d+8+4+4+[+[+[+[+-+-+-+X.X.X.X.P.P.P.P.P.J.J.J.J.J.J.J.s.s.s.s.s.s.s.s.s.s.s.l.l.b.b.[.[.*.&.U U D D D D u u c u u u u c B B B B B T T !.1.1.9.c.u.u.u.u.u.u.u.u.m.m.m.m.m.m.f.f.g.g.g.(.(.:.:.!.!.!.!.!.!.!.(.(.:.:.",
". . . . . . . . . . . . . . . . . . . . . . . . . . . . . . . . . . . . . . . . . . . . . . . . . . . . . . . . . . . . . . . . . . . . . . . . . . . . . . . . . . . . . . . . . . . . . . . @ @ @ @ @ . . @ @ @ @ @ @ @ . . . @ @ @ @ @ . . . @ @ @ @ . . . . . . . . . . . . . . . . . . . . . . . . . . . . . . . . . . . . . . . . . . . . . . . . . . + + + + + + + + + + + + + * _ 1 m A ,.~.4.~.|.|.|.~.~.'.'.'.'.'.'.%.*.&.U U U *.*.*.*.*.*.[.[.[.[.6.b.b.l.l.l.l.s.s.s.s.s.s.s.E.i.i.b.6.^.{...Y Y E G m 4 4 ^ ^ / $ ; ; ; ; ; ; ; ; / / ] ] ^ ^ ^ ^ ] ] > $ ] ] 6 A V 4.j.A.V.V.A.j.,.A l 6 6 m l A G G W W Y Y Y Y Y X Y Y X *.*.*.*.*.^.2.a.p.p.p.p.p.p.v.v.I.I.O.R.R. + + + +'+(+(+(+3+3+a+a+3+a+a+a+n+n+f+f+f+f+f+f+f+f+f+f+f+f+o+o+m+m+m+m+m+v+v+v+m+m+m+v+m+m+m+m+m+m+o+o+o+o+m+m+m+o+o+o+o+p+s+s+s+s+s+s+s+s+o+o+o+o+o+o+o+o+f+f+f+f+f+f+f+d+d+d+d+d+d+d+4+8+4+4+4+[+[+[+-+-+X.X.X.X.X.P.P.P.P.E.J.J.s.s.s.s.s.s.s.s.s.s.s.s.s.s.s.s.s.s.l.l.b.b.b.6.^.*.U U U D D D c c c c c c c 7 7 7 7 7 d u B T =.@.1.<.c.f.f.f.f.f.f.f.f.m.m.m.m.9.k.k.g.(.:.:.:.:._._.!.:.:.!.:.:.:.:.:.:.",
". . . . . . . . . . . . . . . . . . . . . . . . . . . . . . . . . . . . . . . . . . . . . . . . . . . . . . . . . . . . . . . . . . . . . . . . . . . . . . . . . . . . . . . . . . . . . . . @ @ @ @ @ . . @ @ @ @ @ @ . . . . @ @ @ @ . . . @ @ @ @ @ @ . . . . . . . . . . . . . . . . . . . . . . . . . . . . . . . . . . . . . . . . . . . . . . . . . + + + + . . + + + + + + + , 1 m G W ~.~.3.|.|.|.|.'.'.'.'.'.'.%.%.%.&.*.U U U U &.*.*.*.*.*.[.[.[.b.b.b.l.l.l.s.s.s.s.s.s.s.s.E.i.i.b.6.^.^...Y Y E G m 4 4 ^ ] / ; ; ; ; ; ; ; ; / / / / ] ^ ^ ] ] ] ] ] > ] 6 l V 4.j.V.>+c+c+>+A.4.V A l 6 m l G G W W W Y Y Y Y Y Y Y ..X *.*.*.*.*.^.2.a.p.p.p.p.p.p.v.v.I.I.O.R. + + + +'+'+1+(+(+3+3+a+a+3+a+a+a+n+n+f+f+f+f+f+f+f+f+f+f+f+f+o+o+o+o+m+m+m+v+v+v+m+m+m+m+s+s+m+s+s+s+o+o+o+o+m+m+o+o+o+o+p+p+s+s+s+s+s+s+s+s+o+o+o+o+n+o+o+o+f+f+f+f+f+f+d+d+d+d+d+d+8+4+8+4+4+[+[+-+-+-+X.X.X.P.P.P.P.J.J.J.E.E.l.l.l.l.l.l.l.l.l.l.l.l.l.l.q.q.q.q.q.q.q.b.b.b.b.6.[.*.*.U U C C D c c c c c 7 7 7 7 [ [ : 7 d B B T T @.@.1.1.1.1.1.1.1.1.9.9.m.9.9.k.k.:.:.:.:.:.:.:.:.:.:.:.:.:.:.:.:.:.5.5.",
". . . . . . . . . . . . . . . . . . . . . . . . . . . . . . . . . . . . . . . . . . . . . . . . . . . . . . . . . . . . . . . . . . . . . . . . . . . . . . . . . . . . . . . . . . . . . . . @ @ @ @ @ . . @ @ @ @ @ @ . . . @ @ $ @ @ @ @ @ @ @ @ @ @ . . . . . . @ @ . . . . . . . . . . . . . . . . . . . . . . . . . . . . . @ @ . . . . . . . . . . + + + + + . + + + + + + + , ' 1 s R ~.|.|.|.|.|.|.2.'.'.'.'.%.%.%.*.*.&.Z U U U U *.&.*.*.*.*.[.[.[.b.b.b.l.l.l.s.s.s.s.s.s.s.s.s.l.l.b.6.^.^...Y Y E G m 9 4 4 ] / $ ; ; ; ; ; { { / / / / ] ] ] / 5 6 6 ] / ] 6 A V 4.A.>+c+c+c+c+A.j.,.A l 4 l m G G W W W ....Y Y ........*.*.*.X X *.{.2.2.a.p.p.p.p.p.p.v.I.O.R. + + + + +'+'+(+(+(+3+3+a+a+3+a+a+n+f+f+f+f+f+f+f+f+f+f+f+f+f+f+o+o+o+o+n+n+n+s+v+m+m+s+s+s+s+s+s+s+s+n+o+o+o+o+m+o+o+o+o+o+o+p+s+s+s+s+s+s+s+s+o+o+o+n+n+o+o+o+o+f+f+f+f+f+d+d+d+d+d+d+4+4+[+[+[+[+[+-+-+X.X.X.P.P.J.J.s.s.s.s.l.i.i.b.b.b.b.b.6.6.6.b.b.b.b.b.a.a.q.q.q.q.q.b.a.a.6.6.^.{.*.*.X X C C f f c c c c c c 7 [ : : : [ 7 c B B B T =.=.=.!.=.1.1.1.5.9.9.9.9.9.:.:.:.:.:.:.:.:.:.:.:.:.9.9.9.9.5.5.:.:.",
". . . . . . . . . . . . . . . . . . . . . . . . . . . . . . . . . . . . . . . . . . . . . . . . . . . . . . . . . . . . . . . . . . . . . . . . . . . . . . . . . . . . . . . . . . . . . . . . @ @ @ @ . @ @ @ @ @ @ @ @ . @ @ $ $ $ $ $ $ $ @ @ @ @ @ @ @ @ @ @ @ @ @ % % % . . . . . . . . . . . . . . . . . . . . . . . . . . . . . . . . . . . . . + + + + + + . + + + + + + ' : 8 v R ~.|.|.|.|.|.2.2.2.'.%.%.%.%.%.%.&.&.Z U U U U U *.&.*.*.*.{.{.^.6.b.b.b.l.l.s.s.s.s.s.s.s.s.s.l.l.l.b.6.^.^...W Y G G m m 4 4 ] / ; ; ; ; ; { { { / { / / / / 5 5 5 6 6 ] ] ] 6 n V 4.A.V.>+c+c+>+A.4.V A 6 6 6 m G G W W ).)...........{.{.*.*.X X X *.*.^.2.a.a.p.p.p.p.p.v.I.O.R. + + +'+'+'+'+1+(+3+3+3+3+a+d+a+a+n+f+f+f+f+f+f+f+f+f+f+f+f+f+f+f+o+o+o+n+n+n+n+m+s+s+s+s+s+s+s+s+s+n+n+o+o+o+o+o+o+o+o+o+o+o+o+p+p+p+p+p+p+p+p+o+o+o+n+o+o+o+o+o+f+f+f+f+f+f+d+d+d+d+3+4+[+[+-+-+-+-+X.X.X.P.P.P.P.E.E.E.u.i.i.i.i.b.i.6.6.6.6.6.6.6.6.6.6.6.6.6.6.6.6.6.6.6.6.6.6.6.6.^.{.....Y X X C C t f t t t t c c c 7 : : : : [ 7 d d x B T T =.=.!.(.:.5.5.9.5.5.5.:.:.!.!.!.!.!.:.:.:.5.9.9.9.9.9.5.5.5.5.",
". . . . . . . . . . . . . . . . . . . . . . . . . . . . . . . . . . . . . . . . . . . . . . . . . . . . . . . . . . . . . . . . . . . . . . . . . . . % % . . . . . . . . . . . . . . . . . . . @ @ @ @ @ @ @ @ @ @ $ $ @ @ @ @ $ $ $ $ $ $ $ $ $ @ @ @ @ @ . . @ @ @ @ . . . . . . . . . . . . . . . % % % . . . . . . . . . . . . . . . . . . . . . . . + + + + + + + + + + + = : [ h S S ~.|.|.|.2.2.2.2.'.'.%.%.%.` ` Z U U U U U U U U *.&.%.%.*.'.{.^.6.b.b.b.l.q.s.s.s.s.s.s.s.s.s.s.l.l.b.6.^.^.{.).W G G m 9 4 ^ ] / ; ; ; ; ; { { { / / { / / / / 5 5 5 5 / / / 5 n A ,.j.A.V.>+V.A.j.,.V n 4 ^ 9 m m G W W ).).....{.{.{.{.{.*.*.X X X *.'.^.2.a.a.p.p.p.p.v.v.I.O.R. + + + + +'+'+'+1+3+3+3+3+a+3+a+a+a+a+a+d+d+d+d+d+d+d+d+f+f+f+f+f+f+f+f+n+n+n+n+m+n+s+s+s+s+s+s+s+o+n+n+o+p+p+p+o+o+o+o+o+o+o+o+p+p+p+p+p+p+p+o+o+o+o+n+o+o+o+n+o+o+f+f+f+f+f+f+d+d+d+3+[+[+[+-+-+-+X.X.X.P.P.P.J.J.s.s.l.l.i.i.6.[.[.^.[.^.^.^.^.^.^.^.^.^.^.^.^.^.^.^.^.^.3.3.3.6.6.^.^.{.....Y Y Y X F F F t F F F C t f j 7 [ : : : : : 7 7 d d B T T T !.!.5.5.5.5.5.:.:.:.!.=.!.!.!.!.5.5.9.9.9.9.i.i.i.5.5.5.",
". . . . . . . . . . . . . . . . % % % . . . . . . . . . . . . . . . . . . . . . . . . . . . . . . . . . . . . . . . . . . . . . . . . . . . . . . . % % % . . . . . . . . . . . . . . . . . @ @ @ @ @ @ @ @ @ @ @ @ @ $ $ $ @ @ $ $ @ @ @ @ @ @ @ @ @ @ @ . . . @ @ @ @ . . . . . . . . . . . . . . . . % % . . . . . . . . . . . @ . . . . . . . . . . . + + + + + + + + + + + = [ h z S '.2.a.a.2.2.2.2.2.%.%.%.%.` Z Z Z U Q U U Z Z U U Z &.%.%.*.'.^.^.6.6.b.b.l.q.s.s.s.s.s.s.s.s.s.s.l.l.b.6.^.{...).W G G m 9 9 ^ ~ / ; ; ; ; ; { 5 5 5 { { ; ; / / / / 5 5 5 5 5 5 n A V ,.4.j.A.j.4.,.V l b ] ~ 9 9 m G G W W Y ......{.{.{.{.*.*.*.X ` *.'.2.2.a.a.p.p.p.p.v.v.I.O.R. + + + + + +'+'+(+(+3+3+3+3+a+a+a+3+d+d+d+d+d+d+d+d+d+d+d+f+f+f+f+f+f+f+n+n+n+n+m+m+m+s+s+s+s+s+n+n+n+n+o+p+p+p+s+o+o+o+o+o+o+o+p+p+p+p+p+o+o+o+o+o+o+n+n+n+o+o+o+o+f+f+f+f+f+f+d+d+3+3+[+-+-+-+X.X.X.X.P.P.P.J.J.s.s.l.l.i.i.[.[.[.*.*.*.*.............{.{.{.{.).).......).).).3.3.3.3.).......Y Y Y Y Y E Y Y Y Y X X X t t f c 7 [ : ' : : : 7 d d B B T Q =.!.!.5.5.5.5.&.&.&.!.!.&.&.5.5.5.5.i.i.i.b.b.i.[.[.[.",
". . . . . . . . . . . . . . . . . . . . . . . . . . . . . . . . . . . . . . . . . . . . . . . . . . . . . . . . . . . . . . . . . . . . . . . . . . . % . . . . . . . . . . . . . . . . . . . @ @ @ @ @ @ $ $ $ @ @ @ @ @ @ @ @ @ @ @ @ @ @ @ @ @ @ @ @ . . . . @ @ @ @ . . . . . . . . . . . . . . . . . . . . . . . . . . . . . . . . . . . . . . . . . + + + + + . + + + = = ' h z ` '.2.2.a.2.2.2.2.2.%.%.%.` ` Z Z Z Z U U U U Z Z U U *.&.%.*.{.'.^.^.6.6.b.b.l.s.s.s.s.s.s.s.s.s.s.s.q.q.b.6.^.{...W W G G m 9 9 9 ] / ; ; ; ; ; ; { 5 5 { ; ; $ ] / / / / 5 5 5 5 5 5 n A V V 4.4.,.,.V l ] ~ ~ ~ 9 i i G G W W W Y ........{.{.*.*.*.X ` *.^.2.2.a.a.p.p.p.p.v.v.I.O.R. + + + + + + +'+'+1+3+3+3+3+3+3+3+3+3+3+3+3+d+d+d+d+d+d+d+f+f+f+f+f+f+f+n+n+n+n+m+m+m+m+m+m+n+n+n+n+n+n+o+p+p+p+s+p+o+o+n+o+o+o+o+o+o+o+o+o+o+o+o+o+o+o+n+n+o+o+o+o+f+f+f+f+f+d+d+d+3+(+[+-+-+-+X.X.P.P.P.J.J.s.s.s.s.l.l.b.[.[.*.*.X X X X X Y ................W W W W W W ).).).).).).).).Y Y Y Y Y Y Y Y Y Y Y Y Y Y X ` F z t t c 7 : : : : 7 7 d j B B Z Z =.&.&.&.&.&.&.&.&.&.&.&.&.[.[.[.[.[.[.[.i.a.2.[.[.[.",
". . . . . . . . . . . . . . . . . . . . . . . . . . . . . . . . . . . . . . . . . . . . . . . . . . . . . . . . . . . . . . . . . . . . . . . . . . . . . . . . . . . . . . . . . . . . . . . . @ . @ @ $ @ @ $ @ @ @ @ @ @ @ @ @ @ @ @ @ @ . . . . . . . . . . @ @ @ @ . . . . . . . . . . . . . . . . . . . . . . . . . . . . . @ @ @ . . . . . . . . . + + + + + . + + + = ' [ h z ` {.2.2.2.2.2.2.[.[.%.%.%.Z Z Z Z Z Z U U U U U U U U &.&.*.*.{.'.^.^.6.6.b.l.l.s.s.s.s.s.s.s.s.s.s.s.q.q.b.6.^.{...Y W s G m m 9 6 ~ / $ ; ; $ ; ; { 5 / / ; ; > $ / / / / 5 5 5 5 5 5 n n n n A r r r n b ] ~ ~ 9 i i m G G W ).)...............*.*.X X ` *.^.2.2.a.p.p.p.p.p.v.v.I.O.R. + + + + + + +'+'+1+3+3+(+3+3+3+3+3+3+3+3+3+7+7+d+d+d+d+d+f+f+f+f+f+f+f+n+n+n+n+m+m+m+m+m+m+m+m+n+n+n+n+o+o+p+o+p+p+o+o+n+o+o+o+o+o+o+o+o+o+o+o+o+o+o+o+o+n+o+o+o+o+f+f+f+f+d+d+d+3+3+(+[+-+-+-+X.X.P.P.P.J.s.s.s.s.q.l.b.6.^.*.*.X U F C F F Y Y Y Y Y Y Y Y Y G G G G G W W ).).).).).).W W W Y Y Y Y Y Y Y Y Y Y Y ..Y X X X z z t 7 7 [ : : [ 7 j j t B t Z Q =.!.&.&.*.*.%.Z Z &.&.&.&.%.[.[.[.[.[.[.[.[.[.[.[.",
". . . . . . . . . . . . . . . . . . . . . . . . . . . . . . . . . . . . % . . . . . . . . . . . . . . . . . . . . . . . . . . . . . . . . . . . . . . . . . . . . . . . . . . . . . . . . . . . . . . @ @ $ $ $ @ @ @ . @ @ @ . . . . . . . @ @ . . . . . . . . . @ @ . . . . . . . . . . . . . . . . . . . . . . . . . . . . . . . . . . . . . . . . . . + + + + + + + + = , ' 7 z ` ` %.[.5.[.5.5.5.5.&.&.&.Z Q Q T T Q Q Q U Q Q U U U U %.%.*.*.{.'.{.^.6.6.b.q.q.q.q.q.s.s.s.s.J.s.s.s.q.q.6.6.3.3.).).W R G m m 9 6 ^ ] $ + $ $ $ ; { { / ; ; $ $ $ ; ; / / / 5 5 n a a a 5 5 5 a 5 a a a a a b b i b s R R ~.).3.3.3.^.^.^.{.{.{...*.*.*.%.*.'.2.2.a.a.p.p.p.p.v.v.I.O.R. + + + + + + + +'+'+(+(+(+(+(+3+3+(+(+3+3+3+d+0+3+3+d+d+7+d+f+f+m+m+m+m+m+m+m+m+m+m+m+m+m+m+m+m+m+m+n+n+o+n+o+o+o+o+o+o+o+o+o+o+r+r+r+o+o+o+o+o+o+o+o+o+o+o+o+o+o+f+f+f+f+d+d+3+3+3+3+(+-+-+-+-+X.X.P.P.J.J.s.l.s.l.b.b.6.^.{...Y X F F F F E F Y E G G G G G G G G G G G G W V W W V W W W G G G G G G G E Y Y Y Y Y Y Y Y Y Y F z z h h 7 7 [ 7 7 j j t t t ` ` ` ` ` ` ` ` ` X X X X *.*.*.*.{.{.'.'.'.'.'.'.*.*.",
"% % % % . . . . . . . . . . . . . . . . . . . . . . . . . . . . . . . . . . . . . . . . . . . . . . . . . . . . . . . . . . . . . . . . . . . . . . . . . . . . . . . . . . . . . . . . . . . . @ @ @ @ @ @ @ @ @ @ . . @ @ @ @ . . @ @ @ . . @ . . . . . . . . @ @ @ . . . . . . . . . . . . . . . . . . . . . . . . . . . . . . @ . . . . . . . . . . . . + + + + + + * ' [ } z ` '.'.[.5.5.5.5.:.&.&.&.=.Z Q Q Q T T Q Q Q U Q U U U U ` %.%.*.*.{.'.{.^.6.6.b.b.q.q.q.q.s.s.s.s.s.s.s.s.q.q.6.6.3.3.).).).W G G m m 9 6 ^ ] + + $ $ ; ; { / ; ; $ $ $ ; ; / / / 5 5 a a a a / / / { { a a a b a b i s r s R ~.3.0.n.n.n.n.0.6.6.^.^.{.*.*.*.%.*.'.2.2.a.a.p.p.p.v.v.v.I.O.R. + + + +'+'+'+'+'+'+'+1+(+(+(+(+(+(+(+3+3+a+d+d+d+d+7+7+7+d+f+f+m+m+m+m+m+m+m+m+m+m+m+m+m+m+m+m+m+m+n+n+n+o+o+p+p+p+o+o+o+o+o+o+r+r+r+o+o+o+o+o+o+o+o+o+o+o+n+o+o+f+f+f+f+d+d+3+3+3+(+(+-+-+-+X.X.X.P.P.J.s.l.l.l.b.6.^.{.{...Y Y E E k p k k E o o o m m l l m m m m l l l A A W W W W W G A G G G G G G G v E Y Y Y Y Y Y Y Y E E v v g g g g j j g g t z z ` ` ` ` ` ` ` ` X X X X X X X X X X X X ` ` ` ` S ` ` ",
"% % % % % % . . . . . . . . . . . . . . . . . . . . . . . . . . . . . . . . . . . . . . . . . . . . . . . . . . . . . . . . . . . . . . . . . . . . . . . . . . . . . . . . . . . % % & % % . . @ @ @ @ @ @ @ @ $ @ @ @ . . . @ . . . . . . . . . . . . . % % . @ . . . . . % . % % % . . . . . . . . . . . . . . . . . . . . . @ . . . . . . . . . . . . + + + . . + * ' 3 h v ` *.2.[.5.5.5.:.!.!.!.=.Q Q B B Q Q Q B B B Q Z Z U U U U ` %.%.*.*.{.'.{.^.^.6.6.b.b.q.q.q.q.q.s.s.s.s.s.s.q.q.6.6.3.3.3.3.).).W W G G m l 6 ^ ] = $ ; ; ; / / ; ; ; $ $ ; ; ; / / 5 5 a a 5 5 5 a { { { a a a a b b s s s R ~.3.n.D.R.R.R.D.D.q.q.a.6.6.^.*.*.*.{.'.2.2.a.p.p.p.p.v.v.v.I.O.R. + + +'+'+'+'+'+'+'+'+(+1+(+(+(+(+1+(+(+3+3+a+0+d+d+7+7+7+7+d+f+m+m+m+m+m+m+m+m+m+m+m+m+m+m+m+m+m+m+n+n+n+o+p+p+p+p+o+o+o+o+p+p+r+r+p+p+p+p+p+p+p+p+p+p+o+o+n+o+o+f+f+f+f+d+3+3+3+3+(+(+-+-+X.X.X.X.P.P.J.s.l.b.b.6.^.{.....Y Y Y E E k k k k k o 4 4 4 4 4 6 6 l l l l l n l A A V V V V A l n m m m m m o E G G E G E Y Y Y Y E E v E v v g g h h h h z z z S ` ` ` ` X X X X X X X ` X X X F F t C t t t t t t t ",
". . . . . . . . . . . . . . . . . . . . . . . . . . . . . . . . . . . . . . . . . . . . . . . . . . . . . . . . . . . . . . . . . . . . . . . . . . . . . . . . . . . . . . . . % & & & & % . . @ @ @ @ @ @ @ @ @ @ @ . . . . . . . . . . . . . . . . . . . . . . . . . . . % % % % % % . . . . . . . . . . . . . . . + . . . . . . . . . . . . . . . . . + + + . + + , 1 o v z ` [.2.[.5.:.:.:.!.=.!.!.Q Q B B B B B B B B D U U U U U ` ` %.%.*.{.'.'.^.^.^.6.6.6.b.b.q.q.q.q.q.s.s.s.s.s.n.q.a.6.3.3.3.3.3.).).W W G G m m 6 9 ] / ; { / / / ; ; ; $ $ ; ; ; { / 5 5 5 5 a a 5 a a a a a a a a r r r s O ~.|.0.C.V. +~+'+ +R.J.s.q.b.b.6.^.*.*.{.^.2.a.a.p.p.p.v.v.v.I.I.O.R. + + +'+'+'+'+'+'+'+'+'+1+(+(+(+1+}+}+}+3+}+0+0+3+3+d+d+7+7+7+d+m+m+m+m+m+m+m+m+0+0+m+m+m+m+m+m+m+m+n+n+o+n+o+o+p+p+o+n+n+o+p+p+p+p+p+p+p+p+p+p+p+p+p+p+p+o+n+o+f+f+f+f+f+d+d+3+3+3+(+(+[+-+-+X.X.P.P.J.J.s.l.b.6.^.{.{...Y Y Y E E E k o o o m m 4 4 6 6 6 6 6 6 6 6 n n n n n A A A A r n b b 6 l m m m m m m m m G G G G G G v E E E v v v v v h h h v v z S Y Y Y Y Y Y Y Y ....Y Y X F F F t f 0 0 7 7 j f f f ",
". . . . . . . . . . . . . . . . . . . . . . . . . . . . . . . . . . . . . . . . . . . . . . . . . . . . . . . . . . . . . . . . . . . . . . . . . . . . . . . . . . . . . . . . % % % % % . . . . . . . . . . . . . . . . . . . . . . . . . . . . . . . . . . . . . . . . . % % % % . . . . . . . . . . . . . . . . . . . . . . . . . . . . . . . . . . . . + + + + , _ o v S S %.2.[.[.5.:.!.!.!.!.!.!.=.Q Q B B B B B B B D D C Z U ` ` ` %.'.'.'.'.2.^.^.6.6.6.6.6.b.b.l.l.l.l.q.s.s.q.q.q.n.q.a.0.0.3.3.3.3.).).W G G s m m m 9 / { / ; ; { ; ; ; $ $ ; ; ; / { { a a a a a a a a a a a a a r r r r r O ~.|.n.C.V.~+~+~+1+ +R.J.q.q.b.6.^.[.{.'.^.2.a.a.p.p.p.v.s.v.I.I.O.R. + + +'+'+'+'+'+'+'+!+'+<+}+(+(+}+}+}+(+}+}+}+}+}+0+0+0+0+0+0+0+0+0+0+m+0+0+0+0+0+0+m+m+m+m+m+m+m+m+n+n+f+o+n+n+o+o+n+o+o+n+o+p+p+p+p+p+p+p+p+p+p+p+p+p+p+o+o+f+f+f+f+f+f+d+d+3+3+3+3+(+[+-+-+X.P.P.P.J.s.q.b.b.6.^.{...Y Y Y Y E E o m o m m m 6 4 6 6 5 / ] 6 6 6 5 5 5 n n n n A A n n b b 5 6 6 6 6 9 9 9 4 m m m m m m G G E E s s v v v v v v v v v E S Y Y Y Y Y Y Y Y Y ....Y Y F F F p 0 0 } : [ 7 7 7 } } ",
". . . . . . . . . . . . . . . . . . . . . . . . . . . . . . . . . . . . . . . . . . . . . . . . . . . . . . . . . . . . . . . . . . . . . . . . . . . . . . . . . . . . . . . . . . . . . . . % % % % . . . . . . . . . . . . . . . . % % . . . . . . . . . . . . . . . . . . % . . . . . . . . . . . . . . . . . . . . . . . . . . . . . . . . . . . . . . + + + * _ 1 v S S {.2.2.c.5.5.:.!.!.!.!.!.=.!.Q Q Q B u u B B B D D D t ` ` ` S '.'.'.'.2.^.^.6.6.6.6.6.6.b.b.b.l.l.l.l.l.l.q.q.q.n.q.0.0.0.3.3.3.3.).).W W G G s m i b 9 { { { { ; ; ; ; ; / { / { { { { { { a a a a a a a a a a a r r r r r O ,.4.0.C.V.V.~+~+ + +J.s.q.b.b.6.^.*.{.{.^.2.a.a.p.p.v.v.s.v.I.I.O.R. + + +'+'+'+'+'+'+'+!+'+<+}+}+}+}+}+}+}+}+}+}+}+}+}+}+0+0+0+0+0+0+0+0+0+0+0+0+0+0+m+m+m+m+m+m+m+m+m+n+n+f+f+o+o+o+o+o+o+o+n+o+o+p+p+p+p+p+p+p+p+p+p+p+p+p+o+o+f+f+f+f+f+f+f+d+d+3+3+3+(+[+-+-+X.P.P.J.s.s.l.b.6.^.{.{...Y Y Y W E G m m m m l m 6 6 / / / / / / 5 5 5 5 5 5 n n n n n n b ] / / / ] ] ] ] ] ] ~ 9 9 9 9 m m m m m m m m m o s v E v v v E E X Y ....................Y Y F F F p 0 } < ' ' : [ [ [ [ ",
". . . . . . . . . . . . . . . . . . . . . . . . . . . . . . . . . . . . . . . . . . . . . . . . . . . . . . . . . . . . . . . . . . . . . . . . . . . . . . . . . . . . . . . . . . . . . . . % % % % . . . . . . . . . . . . % % - - ! ! ! ! ! ^ ^ ^ ^ > & % . . . . . . . . . . . . . . . . . . . . . . . . . . . . . . . . . . . . . . . . . . . . . . . + + + * 1 o S S '.2.2.a.c.5.5.:.!.!.=.=.!.=.=.=.Q Q B B B B B B B D t t ` ` ` '.'.'.'.'.^.2.^.6.6.6.6.6.6.6.b.b.b.b.l.l.l.l.q.q.n.n.n.n.0.0.0.0.0.3.3.3.).).W W G G G i i a a a { { ; { { ] { / / { { { { { { { { a a a a a a a a r r r r r s R R ~.|.0.C.R.V.R.R.D.s.q.a.6.2.^.'.*.*.{.'.2.a.a.p.p.v.v.s.v.I.I.O.R. + + +'+'+'+'+'+!+'+!+'+<+}+}+}+(+}+}+}+}+}+}+<+}+}+}+}+0+0+0+0+0+0+0+0+0+0+0+0+0+0+0+0+m+m+m+m+m+m+n+n+f+o+o+o+o+o+o+o+o+o+n+o+p+p+p+p+p+p+p+p+p+p+p+p+p+o+o+f+f+f+f+f+f+f+d+d+d+3+(+(+[+-+X.X.P.P.s.l.l.q.b.6.^.{.{...W W W G G G G m l l l l 5 5 5 5 5 { / / ] / 5 5 5 5 n n n n n 6 5 ] / / / / / / ] ] ] ] ^ ^ ~ 9 9 9 9 9 9 9 m m m o i o o k k v E F X ..*.*.*.*.*.*.*.*.....X X X F C t h 0 } [ : : : : : : ",
". . . . . . . . . . . . . . . . . . . . . . . . . . . . . . . . . . . . . . . . . . . . . . . . . . . . . . . . . . . . . . . . . . . . . . . . . . . . . . . . . . . . . . . . . . . . . . . . . . . . . . . . . . . . . % - 4 m m G G G W W W V V V V A l l 6 > & . . . . . . . . . . . . . . . . . . . . . . . . . . . . . . . . . . . . . . . . . . . + + + + _ o s R '.2.2.a.a.a.5.5.(.!.!.=.=.!.!.=.=.Q Q B B B B B B B D t t ` ` S '.'.'.'.'.^.2.^.^.6.6.^.6.6.6.6.b.b.b.l.l.l.l.q.q.n.D.D.n.n.n.n.0.0.0.3.3.3.).).).W G s s r b n 5 a { { { { { ] / / { { { { { { { { { a a a a a a a a r r r r r r R ,.~.|.0.n.C.n.n.n.q.6.^.^.'.'.*.*.*.*.'.2.a.a.p.p.v.v.s.v.I.I.O. + + + +'+'+'+'+'+!+!+'+'+<+}+}+<+(+(+<+<+<+<+<+<+}+}+}+}+0+0+0+0+0+0+0+0+0+0+0+0+0+0+0+0+0+m+m+m+m+m+n+n+o+o+o+n+o+o+o+o+o+n+n+n+p+p+p+p+p+p+p+p+p+p+p+p+o+n+f+f+f+f+f+f+f+f+d+d+d+3+(+(+[+-+X.P.E.J.s.l.l.b.6.^.{.{...Y Y W W G G G G m l l l l n 5 5 5 5 / / / / ] / 5 5 5 n n n n n n b / / / / / / / / / / ] ^ ^ ^ ~ ] ~ 9 9 9 9 9 9 m m o o o k k k E X Y *.*.*.{.{.{.*.....*.*.*.X X X C C p h h } } [ : : : : ",
". . . . . . . . . . . . . . . . . . . . . . . . . . . . . . . . . . . . . . . . . . . . . . . . . . . . . . . . . . . . . . . . . . . . . . . . . . . . . . . . . . . . . . . % . . . . . . . . . . . . . . . . . . % - ! 4 m G W ).3.3.j.j.j.j.n.A.A.j.j.4.,.V l ^ & . . . . . . . . . . . . . . . . . . . . . . . . . . . . . . . . . . . . . . . . . . . . % * 3 E Y ..2.2.a.a.a.c.9.1.1.=.=.=.=.!.!.&.=.Q Q B B B B C D t C t t ` ` S '.'.'.'.'.^.^.^.^.6.[.[.[.[.[.[.[.b.b.l.l.l.l.s.s.s.s.s.D.D.D.n.n.n.n.0.0.3.3.3.).).W O O s r r a a a ] ] ] ] ] ] { { { { { { { { { a a a a a a a a a r r r r O O R R R ~.~.~.|.^.'.{.'.{.{.*...*.*.*.'.'.2.2.a.a.p.p.v.v.v.v.I.I.O.O.Y.Y.Y.!+'+'+'+'+!+'+!+'+(+<+<+<+}+(+<+}+}+(+(+(+}+}+}+3+3+a+a+a+d+d+d+d+0+0+0+0+0+0+0+0+0+0+m+m+m+m+n+n+o+n+o+o+o+o+o+o+o+o+o+o+o+o+p+p+p+p+p+p+p+p+p+p+o+n+o+f+f+f+f+f+f+f+d+d+a+(+(+[+-+X.P.P.J.s.l.i.i.b.6.^.'...S Y Y W G G G G G l l l l l n 5 5 5 5 5 { { ; / / 5 n n n A A r A n 5 5 5 5 ] ] ] / / / 5 5 ] ] ] ] ] ~ ] ~ ] ~ 9 9 1 1 9 o o o k E F X ....*.*.*.^.{.{.{.{.{.{.*.*.X X X F C t p h h [ } [ [ [ ",
". . . . . . . . . . . . . . . . . . . . . . . . . . . . . . . . . . . . . . . . . . . . . . . . . . . . . . . . . . . . . . . . . . . . . . . . . . . . . . . . . . . . . . % % . . . . . . . . . . . . . . . . . - ! ! m G W 3.j.A.V.V.V.~+~+~+~+~+c+~+V.A.j.4.V l 6 > . . . . . . . . . . . . . . . . . . . . . . . . . . . . . . . . . . . . . . . . . . % * , 3 E Y {.6.a.a.a.c.c.5.1.1.@.=.=.=.=.!.&.=.Q Q B B B B C D t C t t ` ` ` '.'.'.'.'.^.^.^.^.^.[.[.[.6.6.[.[.b.b.l.l.l.s.s.s.s.s.J.J.D.D.D.D.n.n.n.0.0.3.^.).).).W W O s s r b b b ) ) ) ) { { { { { { { { { a b a a a a b b b b r r r O O R R R S S S S '.S S S S S '.'.'.%.%.%.'.'.2.2.a.a.p.p.v.v.v.I.I.I.O. +Y.Y.Y.!+'+'+'+'+!+!+!+'+<+}+}+<+}+<+}+}+}+(+3+3+}+}+}+3+3+a+a+a+d+d+d+d+0+0+0+0+0+0+0+0+0+0+m+m+m+n+n+n+f+o+n+n+o+o+o+o+o+o+o+o+o+p+p+p+p+p+p+p+p+p+p+p+o+n+o+f+f+f+f+f+f+f+d+3+3+(+(+-+-+X.P.P.J.s.l.i.i.6.^.^.'...S Y Y G G G G G l l l n n n n 5 5 5 5 { { { ; / / 5 n n A V V V V r n b 5 b 6 6 ] / / / / / ] ] ] ] ] ] ~ ] ~ ] ~ ~ _ 1 2 1 3 k k F F X X *.*.*.*.^.^.^.^.^.{.{.{.{.......X U t F v h h } [ } } ",
". . . . . . . . . . . . . . . . . . . . . . . . . + . . . . . . . . . . % % % % % % . . . . . . . . . . . . . . . . . . . . . . . . . . . . . . . . . . . . . . . . . . . . . % . . . . . . . . . . . . . . . . - ! 4 G W ).0.D.V.~+c+c+l+t+t+t+t+t+t+t+c+~+V.j.4.V l 6 & . . . . . . . . . . . . . . . . . . . . . . . . . . . . . . . . . . . . . . . . . + * ( k Y ..^.6.a.a.a.c.c.1.:.(.=.=.=.=.=.=.=.Q Q Q B B B B U C t C t t ` ` ` S ..'.'.'.^.^.^.^.^.[.[.[.6.6.6.i.b.b.l.l.q.s.s.s.s.J.J.J.J.D.D.D.D.D.D.n.q.6.6.3.).).).).W W R s s i 9 9 b ) ) ) ) ) ) ) ) ) ) ) b b b b b i i b i r r r O O O O R R R R S S S S z z z S S ` S %.%.%.'.'.2.2.a.p.p.p.v.v.I.I.I.O.O.Y.Y.Y.!+'+!+'+'+'+!+'+!+'+}+}+}+<+}+(+(+<+}+(+(+3+}+}+}+3+3+a+3+d+d+d+d+d+a+0+0+0+0+0+0+0+0+m+m+m+n+n+n+n+f+f+o+o+o+o+o+o+o+o+o+o+o+p+p+p+o+o+o+p+p+p+p+p+o+n+f+f+f+f+f+f+f+d+d+3+(+(+'+-+-+++P.J.s.s.i.i.i.[.^.{.{.'.S Y Y G G G A l l l n n 5 n n 5 5 5 { / { / / / 5 n A V ,.4.4.4.4.,.V r n b 6 5 / ] / / / / ] ] ] ] > > ] ] ~ ~ ~ _ _ 1 1 2 3 k k C C U X *.*.*.*.[.^.^.^.^.^.^.^.{.{.{.{...X X F F v z h h h h ",
". . . . . . . . . . . . . . . . . . . . . . % % . . . . . . . . . . . . % % % % % % % . . . . . . . . . . . . . . . . . . . . . . . . . . . . . . . . . . . . . % . . . . . . . . . . . . . . . . . . . . . . % ! m W ).0.n.V.~+c+l+t+B+B+E+E+E+E+E+E+B+t+l+~+V.j.4.V l ^ & . . . . . . . . . . . . . . . . . . . . . . . . . . . . . . . . . . . . . . . % * ! 2 k Y {.^.6.a.2.c.c.5.5.(.=.=.=.T T T T T Q B B B B B B C D t C t t Z ` ` ` '.'.'.'.'.^.^.^.^.[.6.6.6.6.6.b.b.b.b.q.q.s.s.s.J.D.J.J.J.J.J.J.J.J.D.D.q.q.b.0.3.3.).).).).W W s s i i 9 9 9 9 9 9 b b 9 9 9 9 9 i i e e e e e s s r s O O R R R R S S S S S z z z v z ` ` ` ` %.%.'.'.2.2.a.p.p.v.v.v.I.I.I.O.O.Y.Y.Y.Y.!+'+'+'+'+'+'+!+'+}+}+}+(+}+(+(+<+}+(+(+3+}+3+3+3+3+3+d+d+d+d+d+d+0+a+a+a+0+0+0+0+a+a+n+n+n+n+n+n+f+f+f+o+o+o+o+n+n+o+o+o+o+o+o+o+o+o+o+o+o+o+o+p+o+n+f+f+f+f+f+f+f+d+3+3+(+(+-+-+X.P.P.E.s.l.i.i.i.[.^.{.{.'.S Y Y E G G A A A n n n 5 5 5 5 5 { { { / 5 5 n r V V ,.4.j.j.j.j.4.,.V A n 6 6 ] / / / / / ] ] ] ] ] ] ] ~ ~ ~ ~ , _ _ 3 2 3 k p D C D U X *.*.*.[.^.^.6.6.6.6.^.^.^.^.^.{.*.X X Y Y z z C z h ",
". . . . . . . . . . . . . . . . . . . . . . . . . . . . . . . . . . . . . . . . % . . . . . . . . . . . . . . . . . . . . . . . . . . . . . . . . . . . . . . % . . . . . . . . . . . . . . . . . . . . . . - 4 G W 3.D.V.V.c+l+B+E+E+E+E+E+E+E+E+E+E+E+E+x+c+c+V.j.4.V l - . . . . . . . . . . . . . . . . . . . . . . . . . . . . . . . . . . . . . . % + - ( 2 E ..^.6.b.b.2.[.[.5.1.=.=.N N K K T T T B B B B B B B D D t C C C U ` X X *.{.{.{.{.*.*.*.{.[.^.6.6.6.6.b.b.b.b.q.q.q.s.s.s.J.J.J.J.J.J.J.J.J.D.D.s.q.q.q.6.0.6.6.^.{.).).Y E s s i i i i i i i i e e e e e e o v v v v v v v R R R R R R R R S S v S S z v v z z ` ` ` S >.'.'.'.2.2.a.p.p.v.v.I.I.I.I.O.O.Y.Y.Y.Y.Y.!+!+!+!+'+'+!+(+}+}+}+}+}+}+}+}+}+3+3+3+3+3+3+3+3+d+d+d+d+d+d+d+a+a+a+a+a+a+a+a+a+n+n+n+n+n+n+n+f+f+o+o+o+o+o+o+o+o+o+o+n+n+n+n+n+n+o+o+o+o+o+o+o+n+o+f+f+f+d+d+d+d+3+3+(+'+X.X.++P.E.E.s.l.i.i.i.[.^.^.'...S Y Y G G G A A A A n n 5 5 5 5 5 5 / { / 5 5 n V ,.4.j.A.A.V.A.A.j.4.V A n n 5 / / ; ; $ $ ] ] ] ] ~ ] ] ] ~ ~ ~ _ _ 2 3 2 k p p D D D U U &.&.*.*.^.6.6.6.6.6.6.6.6.b.6.6.[.*.{.....Y X X F F ",
". . . . . . . . . . . . . . . . . . . . . . . . . . . . . . . . . . . . . . . . . . . . . . . . . . . . . . . . . . . . . . . . . . . . . . . . . . % % % % % % . . . . . . . . . . . . . . . . . . . . % ! m G ).0.D.V.c+c+t+E+E+F+F+F+F+E+E+E+E+E+E+E+E+E+t+l+~+V.j.,.A ^ + . . . . . . . . . . . . . . . . . . . . . . . . . . . . . . . . . . . . . % - ! < k E ..^.6.b.a.2.5.5.:.=.=.=.T T K J q q B M B B B B B B D D t C C C X X X ..*.{.{.{.{.*.*.*.^.[.^.^.6.6.6.b.b.b.b.b.q.q.q.s.s.s.J.J.J.J.J.J.J.J.D.J.J.s.s.s.q.q.q.q.6.6.^.)...Y R R s E E E E E s s s o o o v v E v E E E S S Y R R R R R R R R S S S S S S S z ` ` ` ` ` '.'.'.'.'.2.a.p.p.p.v.I.I.I.I.O.O.O.Y.Y.Y.Y.Y.Y.Y.Y.Y.!+'+'+(+}+}+}+}+<+}+}+}+}+3+3+3+3+3+3+d+d+d+d+d+d+d+d+d+a+a+a+a+a+a+a+a+a+n+n+n+n+n+n+n+f+f+o+n+o+o+o+o+o+o+o+o+o+o+o+o+o+o+n+o+o+n+n+n+o+n+o+f+f+f+d+d+d+3+3+(+(+'+X.++P.E.E.E.s.l.i.i.i.6.6.^.'.'.'.W W W G G A A A A n n n 5 5 5 5 5 5 { / 5 a n V 4.j.A.V.>+>+>+A.j.4.V A n n 5 / / ; ; $ $ ] ] ] ] 6 6 6 6 ~ ~ _ _ _ 2 2 2 k k p C C D U X U &.*.*.^.6.6.b.b.b.b.b.b.b.b.b.i.6.^.{.{.{.....X X ",
". . . % % . . . . . . . . . . . . . . . . . . . . . . . . . . . . . . . . . . . . . . . . . . . . . . . . . . . . . . . . . . . . . . . . . . . . . . . . . . . . . . . . . . . . . . . . . . . . . . - 4 m ).3.D.V.9+x+B+E+E+F+F+F+F+F+F+E+E+E+E+E+E+E+E+E+B+x+c+~+A.4.V 6 & + . . . . + . . . . . . . . . . . . . . . . . . . . . . . . . . . . . . % * ! } 0 F Y {.6.b.a.a.2.5.5.!.=.;.K K K q q q q u u u B B B B B D D t C C U X X X *.{.{.{.{.^.^.^.^.^.[.^.6.6.6.6.b.b.b.b.b.b.q.q.l.s.s.s.J.J.R.R.R.R.R.J.J.J.J.J.s.s.s.s.q.q.b.6.6.^.{.).).W Y Y Y Y E E E E v E v v E Y Y Y Y Y S S *.'.'.'.'.~.~.~.~.'.~.S S S S ` ` ` ` ` S '.'.'.'.2.2.a.p.p.v.v.I.I.O.O.O.O.O.Y.Y.Y.Y.Y.Y.Y.Y.Y.Y.!+!+'+<+}+}+}+}+<+}+}+}+}+3+3+3+3+3+d+d+d+d+d+d+d+d+d+d+a+a+a+a+a+a+a+a+a+n+f+f+n+n+n+f+f+o+n+o+o+o+o+o+o+o+o+f+o+o+o+f+f+f+o+n+n+o+o+o+n+n+o+o+f+f+d+d+3+3+(+(+'+X.X.P.P.E.E.E.s.l.i.i.i.b.6.6.^.'.'.).W W G G A A l n n n n n n 5 5 5 5 5 5 5 n n V 4.j.A.>+>+>+>+V.j.4.V A n 5 5 / / / ; $ $ ] ] ] 6 6 6 6 6 9 9 _ 4 1 2 2 2 k 2 p p C C U X &.&.&.[.^.6.6.b.b.b.b.b.b.b.b.b.b.b.b.6.^.^.{.{.....",
". . % % % % . . . . . . . . . . . . . . . . . . . . . . . . . . . . . . . . . . . . . . . . . . . . . . . . . . . . . . . . . . . . . . . . . . . . . . . . . . % % . . . . % % . . . . . % % % % % - 4 m W 0.A.~+l+E+F+F+F+F+G+F+G+F+F+F+E+E+E+E+E+E+E+E+E+E+B+t+c+V.j.,.l ~ % . . . . + . . . . . . . . . . . . . . . . . . . . . . . . . . . . . . - , < } p E Y ^.6.a.a.a.a.5.5.=.=.K K J J q q q q q q u u u u B B B D t C U X X X X *.{.{.^.^.^.^.^.^.^.[.6.6.6.6.6.b.b.b.b.b.b.b.l.l.l.s.s.s.J.R.R.R.R.R.R.R.J.J.J.J.J.J.J.s.s.q.q.q.6.6.3.^.{.{.....Y Y Y Y Y Y Y Y Y Y ......{...*.*.{.'.~.|.|.|.|.|.~.~.'...'.'.'.'.'.'.'.'.'.'.'.'.2.2.2.a.p.v.I.I.O.O.O.O. +Y.Y.Y.Y.Y.Y.Y.Y.Y.Y.Y.Y.'+'+<+}+<+(+<+}+}+}+}+}+}+3+3+3+3+3+d+d+d+d+d+d+d+d+d+d+a+a+a+d+a+a+a+a+a+n+n+f+o+n+f+f+f+o+n+o+p+o+o+o+o+o+f+f+o+o+f+f+f+f+f+o+o+o+o+o+o+n+n+n+f+f+d+d+3+3+(+(+'+X.X.++P.P.E.E.s.l.i.i.i.b.b.6.^.'.'.).).W W G A A l l A n n n n n 5 5 5 / 5 5 n n V 4.j.A.A.V.>+A.A.j.4.V n n 5 5 5 5 / / $ ; $ ] ] ] 6 6 6 6 9 9 _ 4 1 2 2 2 2 2 p p D C U X &.*.*.[.^.6.6.b.b.b.b.b.b.b.q.q.l.b.b.b.6.6.^.6.^.^.",
". . . . . . . . . . . % . . . . . . . . . . . . . . . . . . . . . . . . . . . . . . . . . . . . . . . . . . . . . . . . . . . . . . . . . . . . . . . . . . . . . . . . . . . . . . . . . % % % % - ! m W 4.A.~+t+E+G+G+G+G+G+G+G+F+F+F+F+F+E+E+E+E+B+B+B+B+B+B+t+c+>+A.4.V 6 + . . . + + + + . + + . . . . . . . . . . . . . . . @ @ . . . . . . + % * ( } f C X {.^.a.a.p.a.c.:.!.;.;.M J q q q q q q q q u u u u u B D D C t U U X X ..{.{.^.^.^.^.^.6.6.6.6.6.6.6.6.6.6.6.b.6.b.b.b.b.l.l.l.s.s.J.R.R.R.R.R.R.R.R.R.R.R.R.R.R.J.J.s.s.s.l.l.q.a.6.6.^.{.*.*.*.*.*.{.{.{.{.{.^.^.^.^.^.^.^.[.2.2.2.2.|.|.|.|.2.2.2.'.'.'.'.'.%.'.'.'.'.2.2.2.a.a.p.v.I.I.O.O. + +Y.Y.Y.Y.Y.!+Y.Y.Y.Y.!+!+!+!+'+'+(+<+(+(+(+(+(+<+}+}+(+(+3+3+3+3+3+3+d+d+d+d+d+d+d+d+a+a+a+a+a+a+d+d+d+n+f+n+n+f+f+n+n+o+o+o+p+o+o+o+f+f+f+f+f+f+f+f+f+f+f+f+f+f+f+f+f+o+o+o+f+f+d+3+3+3+(+(+'+ +P.P.P.E.E.E.l.l.i.i.b.b.a.a.|.|.3.{...Y W W G G A l l l n n n 5 5 / / / 5 5 n A V ,.4.4.j.A.A.A.j.4.V V n 5 5 5 5 / / / ] ] / / ] ] ] 6 4 4 4 4 9 1 4 2 2 2 2 } p f D C U X &.*.*.[.^.6.b.b.a.b.b.b.b.l.l.l.q.b.b.b.b.b.6.6.6.6.",
". . . . . . . . . . . . . . . . . . . . . . . . . . . . . . . . . . . . . . . . . . . . . . . . . . . . . . . . . . . . . . . . . . . . . . . . . . . . . . . . . . . . . . . . . . . . % % % % - 4 m W 3.A.V.c+B+F+G+G+G+G+G+G+G+F+F+F+F+F+E+E+E+E+B+B+B+B+B+B+t+c+>+A.4.V l ~ + . . . . . + + + . . . . . . . . . . . . . . . . @ @ . . . . . . . + * < 0 C X *.[.6.b.a.a.a.[.:.!.;.;.#.J J q q q q q q q u u u u B B D D U Z U U X *.*.{.^.^.6.^.^.6.6.6.6.6.6.6.6.6.6.6.6.6.6.6.b.b.b.b.l.l.q.s.J.J.R.R.R.R.R.R.R.R. + + + + + +R.R.R.J.J.s.s.q.q.q.b.6.^.^.^.^.6.6.6.6.6.6.6.6.b.b.b.2.2.6.2.2.a.0.0.0.0.0.0.0.2.2.2.2.2.2.2.2.2.2.2.2.a.a.a.p.v.I.I.O.O. + +Y.Y.Y.Y.Y.!+!+!+!+!+!+'+'+!+!+!+'+(+(+'+'+'+'+'+'+(+<+(+(+3+3+(+(+3+3+3+3+d+d+d+d+d+d+a+a+a+a+a+a+a+d+d+n+f+f+n+f+f+n+n+o+n+o+o+o+o+f+f+f+f+f+f+f+f+f+o+o+f+f+f+f+f+f+f+f+o+f+f+d+3+3+3+(+(+'+ + +P.E.E.E.E.E.l.l.i.i.b.b.a.a.|.|.3.{...Y W W W G A A A A n n n 5 / / / 5 5 n n A V V ,.,.4.4.4.4.4.V V r n 5 5 5 5 / / ; $ $ / / / ] ] ] 6 4 6 6 9 1 4 2 2 2 2 } 0 f D C U X &.*.*.[.6.6.b.b.a.b.b.b.b.l.l.l.q.b.b.b.b.b.6.6.6.6.",
". . . . . . . . . . . . . . . . . . . . . . . . . . . . . . . . . . . . . . . . . . . . . . . . . . . . . . . . . . . . . . . . . . . . . . . . . . . . . . . . . . . . . . . . . . . . % % - - ! m W ).j.V.c+t+E+F+G+G+G+G+F+G+F+F+F+F+F+F+E+E+E+B+B+B+B+t+t+t+t+c+~+V.j.,.l 9 + + + + . . + + . . . . . . . . . . . . . . . . . @ @ . . . . . . . + , < p F X *.[.b.a.p.a.c.5.!.=.;.#.;.M J J q q q q q q u u B B B D D Q Q Z U U *.*.*.^.^.6.6.6.6.6.b.b.b.b.b.b.b.b.b.6.6.6.6.6.b.b.b.b.l.l.q.s.s.J.J.R.R.R.R.R.R. + +)+)+)+)+)+)+)+ + +R.R.J.J.J.s.s.q.q.b.b.b.q.q.q.q.q.q.q.q.q.q.l.a.a.a.p.p.p.p.p.p.p.p.p.p.a.a.a.2.2.2.a.a.a.a.a.a.p.p.p.p.v.I.I.O.O.O.Y.Y.Y.Y.Y.!+!+!+!+!+!+!+!+'+'+'+'+'+'+'+'+!+!+!+'+(+<+}+(+(+(+(+(+(+3+3+3+3+3+d+d+d+d+d+a+a+a+a+a+a+a+n+n+n+f+f+n+o+n+n+n+n+o+o+o+o+o+f+f+f+f+f+f+f+f+o+n+o+f+f+f+f+f+f+f+f+f+f+f+d+3+3+(+(+'+'+ + +P.E.E.w.i.i.l.l.i.i.b.b.a.2.|.|.3.).{.).W W W W W V V A A n n 5 5 5 5 5 5 n n n A V V V V ,.,.,.V r n n 5 5 5 5 / / / ; ; ; ; ; ; ~ ] ] 6 6 6 6 9 4 9 2 2 2 3 } p f C C U X &.*.*.[.6.6.6.b.a.b.b.b.q.l.l.l.q.q.b.b.b.b.b.b.6.6.",
". . . . . . . . . . . . . . . . . . . . . . . . . . . . . . . . . . . . . . . . . . . . . . . . . . . . . . . . . . . . . . . . . . . . . . . . . . . . . . . . . . . . . . . . . . . . . % - ! m G ).0.V.~+l+B+F+G+G+F+F+F+F+F+F+F+F+F+E+E+E+E+E+B+B+B+t+t+t+t+t+c+~+V.j.,.V l ] + + + + . + . . . . . . . . . . . . . . . . . . @ @ . . . . . + + * _ } t X *.[.i.b.p.p.c.5.:.=.=.;.;.#. .M M J I I I I I u u B B B Q Q Q Q Q U Z &.*.'.^.6.b.b.b.b.b.b.b.b.b.b.b.b.b.b.b.b.6.6.b.b.b.l.l.l.l.s.s.J.J.J.R.R.R.R.R.R. +)+)+)+)+-+-+-+-+-+-+-+-+X.X.X.R.R.J.J.s.s.s.s.J.J.J.s.s.s.s.s.s.s.s.s.s.s.s.J.J.I.I.I.I.I.v.v.p.p.p.p.p.p.p.p.p.p.v.v.v.v.v.I.I.I.O.O.O.Y.Y.Y.Y.!+!+!+!+!+!+!+!+'+'+'+'+'+'+'+'+'+'+'+(+}+}+3+3+3+3+3+3+3+3+3+3+3+3+3+3+3+d+7+d+a+a+a+a+a+a+a+n+n+f+n+n+n+n+n+n+n+o+o+n+o+o+f+f+f+f+f+f+f+f+o+o+o+n+o+f+f+f+f+f+f+f+f+f+d+3+3+(+(+'+'+'+ + +J.E.w.m.m.m.i.i.i.i.b.2.2.2.|.|.^.{.{.).).W W W W V V V A A n n 5 5 5 5 n n n n n r r A V V O O r n 5 5 5 5 5 5 5 / / / / / ; ; ; / ] ] 6 6 6 9 9 9 9 o k k k k p C C X *.*.*.*.[.^.6.6.b.b.a.b.b.q.q.l.l.l.l.l.l.l.l.l.l.b.b.b.",
". . . . . . . . . . . . . . . . . . . . . . . . . . . . . . . . . . . . . . . . . . . . . . . . . . . . . . . . . . . . . . . . . . . . . . . . . . . . . . . . . . . . . . . . . . . . . % ^ m W ).n.V.~+c+B+E+F+G+G+F+F+F+F+F+F+F+E+E+E+E+E+B+B+B+B+t+t+t+t+t+t+l+c+V.A.4.,.A 9 = + + + + + + . . . . . . . . . . . . . . . . . @ @ . . . . . + + , < h t %.[.i.p.p.p.c.c.5.=.$.=.-.;.;.#.#.#.M J J J J M M M Q Q Q Q Q Q Z Z Z &.*.*.'.^.a.a.a.a.q.q.q.q.q.q.l.l.l.l.b.b.b.b.b.b.l.l.l.l.l.s.s.J.J.J.R.R.R.R.R.R. +)+)+)+)+_+_+_+_+_+_+_+_+_+[+[+-+-+)+)+ + + + + + + + +R.R.R.R.R.R.R.R.R.R.R.R. + + + + + +R.O.I.I.I.I.I.I.J.J.J.J.I.I.I.I.I.I.I.O.O.O. +Y.Y.Y.!+'+'+!+!+!+}+}+}+}+'+'+'+'+'+'+'+'+'+'+(+<+}+3+3+3+3+3+3+3+3+3+3+3+3+3+3+3+7+7+7+7+0+0+0+0+0+0+a+a+n+n+n+n+n+n+n+n+n+f+f+o+o+f+f+f+f+f+f+f+f+o+n+o+o+o+o+f+f+f+f+f+f+f+f+f+d+3+3+(+(+'+'+ + +R.J.E.m.m.9.9.[.[.5.[.[.6.2.2.|.^.^.^.3.).).).).).4.4.4.,.V V A n n n n n n n 5 5 5 n n n r r r r n a a a a a a a 5 5 / / ; / ; = = / ] ] 6 b 9 9 9 9 m o k o E E F X X *.*.*.*.^.^.6.6.6.b.b.q.q.q.q.q.l.s.s.s.s.s.s.l.l.l.l.l.l.",
". . . . . . . . . . . . . . . . . . . . . . . . . . . . . . . . . . . . . . . . . . . . . . . . . . . . . . . . . . . . . . . . . . . . . . . . . . . . . . . . . . . . . . . . . . . . . & 4 G ).n.V.~+c+t+E+F+F+G+G+F+F+F+E+E+E+E+E+E+E+E+B+B+B+B+t+t+t+t+t+t+t+l+c+>+V.j.4.V l 9 = + + + + + + + . . . . . . . . . . . . . . . @ @ . . . . + + + , 3 h ` %.2.c.p.p.p.c.1.1.=.$.$.-.-.-.#. .#. . . .#.M M M M Q Q Q Q Q Q Z Z &.&.*.%.2.6.a.p.p.p.p.q.q.q.q.q.s.s.l.l.l.l.l.l.l.l.s.s.s.s.s.J.J.J.J.R.R.R.R.R.X.X.X.-+-+-+_+_+_+_+_+2+2+2+2+2+e+e+e+e+e+2+2+2+(+(+(+'+'+'+'+'+'+'+'+'+'+'+'+'+'+'+'+'+'+'+'+'+ + + +R.R.O.O.O.R.R.R.R.O.O.O.O.O.O.O.O. +Y.Y.Y.!+!+'+!+!+!+}+}+}+}+}+}+(+(+(+(+(+'+'+'+'+'+(+(+}+}+}+(+(+(+(+(+}+}+}+}+}+3+3+3+7+7+7+7+0+0+0+0+0+0+0+0+a+a+n+n+n+n+n+n+n+f+f+f+o+f+f+f+f+f+f+f+o+o+n+o+o+o+o+f+f+f+f+f+f+f+f+f+d+3+3+(+(+'+'+ + +R.J.E.m.9.9.5.[.[.5.5.[.^.2.2.2.6.6.6.^.3.3.3.3.j.j.j.j.j.,.,.A A n n n n n n a 5 a a a 5 n n r a a a { { { { { { a { { ; ; ; { { { { ] ] b 9 9 9 9 m m m E E E Y Y X *.*.*.^.[.6.6.6.6.b.b.q.q.q.q.q.q.s.s.s.s.s.s.s.s.s.s.s.s.s.",
". . . . . . . . . . . . . . . . . . . . . . . . . . . . . . . . . . . . . . . . . . . . . . . . . . . . . . . . . . . . . . . . . . . . . . . . . . . . . . . . . . . . . . . . . . . . . - m W 0.V.~+9+t+B+E+F+F+F+F+F+E+E+E+E+E+E+E+E+B+B+B+B+B+B+t+t+t+t+t+t+t+l+c+~+V.A.j.,.A b ~ + + . . . . + . . . . . . . . . . . . . . . @ @ @ . . . . + * 3 h z %.[.c.p.p.h.p.h.<.1.=.$.$.$.-.#.#.#.#.#.#.#.#.#.#.M M T Q Q Q Q !.=.&.&.&.&.[.[.2.a.p.p.p.v.s.s.s.s.s.s.s.s.s.s.s.s.s.s.s.s.J.J.J.J.J.J.R.R.R.R.R.R.R.X.X.X.-+-+-+_+_+_+_+2+2+2+2+e+e+k+k+k+k+k+k+k+k+d+3+3+3+3+3+3+3+1+1+1+1+3+(+(+(+(+(+(+(+3+(+(+'+'+'+'+ + + + + + + + + +Y.Y. +O.R.O.O.Y.Y.!+'+'+!+'+'+'+'+}+}+}+<+<+}+}+(+(+(+(+(+'+'+'+'+(+(+(+<+}+}+}+(+(+(+(+}+}+}+}+}+}+}+}+7+7+7+7+0+0+0+0+<+0+0+0+0+0+a+a+n+n+n+n+n+f+f+f+f+f+f+f+f+f+f+f+n+n+n+o+o+n+o+o+o+o+f+f+f+f+f+f+d+3+3+(+(+'+ + +O.I.s.u.m.9.5.5.[.5.5.5.[.^.^.2.2.2.6.6.6.3.3.3.j.j.A.A.A.j.4.,.V A n n n n n 5 a a a a 5 5 a n a a a a { { { { { { { { { { { / { { { { { a b a b b m i s G E E Y Y ..*.*.[.^.6.[.6.b.b.b.b.q.q.q.q.q.q.q.s.s.s.s.s.s.s.s.l.l.l.s.s.",
". . . . . . . . . . . . . . . . . . . . . . . . . . . . . . . . . . . . . . . . . . . . . . . . . . . . . . . . . . . . . . . . . . . . . . . . . . . . . . . . . . . . . . . . . . . . . - m ).n.V.c+l+t+E+E+E+F+F+F+E+E+E+B+E+B+B+B+B+B+B+B+B+B+t+t+t+t+t+t+t+t+l+l+c+>+V.j.4.V i ~ + . . . . . + . . . . . . . . . . . . . . . @ @ @ . . . + * _ 3 v ` '.[.a.p.h.p.h.c.<.1.=.$.$.$.-.#.#.#.M #.#.#.#.;.#.M M Q Q Q Q Q !.=.=.&.&.&.[.[.a.a.p.p.v.s.s.s.s.s.s.s.J.J.J.J.J.s.s.s.J.J.J.J.J.J.P.P.P.X.X.X.X.X.X.X.X.-+-+-+_+_+_+2+2+2+2+2+2+e+e+j+j+k+k+r+r+r+r+f+k+f+d+d+d+d+3+a+a+a+a+d+a+d+3+a+3+d+a+d+3+3+(+(+(+'+'+'+'+'+!+'+'+'+'+'+'+Y.Y. + +Y.Y.'+!+'+'+(+(+(+(+(+}+}+}+<+<+}+}+(+(+(+(+(+'+'+'+(+<+}+}+}+}+}+<+(+(+(+(+}+}+}+}+}+}+}+}+7+7+7+7+<+<+<+<+<+0+0+0+0+0+0+0+0+a+a+n+n+f+f+f+f+f+f+f+f+f+f+f+o+o+n+n+n+n+o+o+n+o+o+o+f+f+f+f+d+3+3+(+'+'+ + +O.I.s.i.9.5.5.:.[.5.5.5.[.^.'.'.'.2.6.6.6.3.3.|.0.A.A.V.A.A.j.4.V A n 5 5 5 a a a a a a a a a 5 a a a { { { { { { { { { { { { a { { { { b a b a b i i i G G Y Y Y ..{.{.^.^.6.6.[.b.b.b.b.b.q.q.q.q.q.q.q.s.s.s.s.s.s.s.l.l.l.l.l.l.",
". . . . . . . . . . . . . . . . . . . . . . . . . . . . . . . . . . . . . . . . . . . . . . . . . . . . . . . . . . . . . . . . . . . . . . . . . . . . . . . . . . . . . . . . . . . . % ! G ).A.V.c+t+B+B+E+E+E+E+E+E+E+B+B+B+B+B+B+B+B+B+B+B+t+t+t+t+t+t+t+t+t+t+l+c+~+V.A.4.,.s ~ + + . . . . . . . . . . . . . . . . . . . @ @ $ @ @ . . + ' 8 v S '.2.c.p.v.v.h.c.9.1.:.=.$.$.;.;.-. . .I  . .#.#.#.#.M M M M Q Q Q Q Z @.&.&.%.[.2.a.a.p.v.v.s.s.s.s.s.J.J.J.J.J.J.J.J.J.J.J.J.P.P.P.P.P.X.X.X.X.X.X.X.X.X.-+-+-+-+_+_+2+2+2+2+2+e+e+e+e+k+k+k+k+r+r+p+p+k+k+i+i+i+f+f+d+d+f+f+n+n+n+n+a+a+n+n+f+f+f+d+3+(+(+(+(+(+(+'+'+'+'+'+'+(+'+'+'+ + + +'+!+'+(+(+1+1+<+<+<+<+}+}+<+<+<+<+}+'+'+'+!+!+'+'+(+<+}+}+}+}+}+}+}+}+}+}+}+}+}+}+}+}+}+}+<+<+<+<+<+<+<+/+<+<+0+0+0+0+0+0+0+0+0+0+a+n+n+n+f+f+f+f+f+f+f+o+o+o+o+o+n+n+n+n+o+o+f+f+f+f+f+f+a+a+(+(+(+'+Y.O.P.s.l.l.i.5.:.:.5.[.[.[.[.'.'.'.'.2.2.2.|.|.|.|.0.j.A.A.A.j.j.4.,.O a a a a a a a a a a a a a { a a a { { { { { a a a { { { { { { { { { { b b b b i i G G Y Y W ....{.^.^.6.6.6.6.b.b.b.b.b.b.b.l.l.l.l.l.l.s.s.s.l.l.l.l.i.i.i.b.b.",
". . . . . . . . . . . . . . . . . . . . . . . . . . . . . . . . . . . . . . . . . . . . . . . . . . . . . . . . . . . . . . . . . . . . . . . . . . . . . . . . . . . . . . . . . . . . % 4 G 3.A.~+c+t+B+B+B+B+B+B+B+B+B+B+B+B+B+B+B+B+B+B+t+t+t+t+t+t+t+t+t+t+t+t+l+c+~+V.A.j.,.A 9 + + . . . . . . . . . . . . . . . . . . . @ @ $ @ @ + + * 8 o S '.'.a.p.v.u.u.u.u.m.c.1.=.=.$.;.;. . .I I  . .+.#.#.#.M M M M Q Q Q Q =.&.&.&.[.[.[.a.a.p.v.v.s.s.s.J.J.J.J.J.J.R.R.R.J.J.J.J.P.P.P.P.P.X.X.X.X.-+-+-+-+-+X.-+-+-+-+_+_+2+2+2+2+e+e+e+k+k+k+k+k+k+r+r+r+r+k+k+k+k+o+o+o+o+f+f+f+f+n+n+n+f+n+n+n+o+o+f+f+d+3+3+3+3+3+(+1+1+(+(+(+(+(+(+'+'+ +'+'+!+!+(+(+}+1+1+}+<+<+<+}+}+<+<+<+<+}+'+'+!+!+!+'+'+'+(+(+(+(+(+}+}+}+}+}+}+}+}+}+}+}+}+}+}+<+<+<+<+<+<+<+/+<+<+<+0+0+0+0+0+0+0+0+0+0+n+n+n+h+h+f+f+f+f+o+o+o+o+o+o+n+n+n+n+o+o+f+f+f+f+f+f+0+3+}+(+'+'+Y.O.J.s.l.l.5.:.:.:.5.[.[.[.[.'.'.'.'.2.2.2.|.|.|.|.|.0.j.j.j.j.4.4.,.O r a a a a a a a a a a a a a a a a { { { { { { a a { { { { { { { { { b b b b i i s s Y Y W )...{.^.^.^.6.6.6.b.b.b.b.b.l.l.l.l.l.l.l.l.l.l.l.l.l.l.l.b.i.i.i.b.b.",
". . . . . . . . . . . . . . . . . . . . . . . . . . . . . . . . . . . . . . . . . . . . . . . . . . . . . . . . . . . . . . . . . . . . . . . . . . . . . . . . . . . . . . . . . . . . - 4 W 3.D.~+l+t+B+B+B+B+B+B+B+B+B+B+B+t+t+t+t+t+t+t+t+t+t+t+t+t+t+t+t+t+t+t+l+c+c+>+V.j.,.A 9 + + . . . . + . . . . . . . . . . . . . . @ @ $ @ . + + ~ g v S '.2.a.v.u.H.H.u.c.c.c.1.1.$.$.;.;. . .I I I I +.+.+.M M M M M M Q Q Q &.=.&.&.[.[.2.a.a.p.v.v.s.J.J.J.J.J.J.J.R.R.R.R.R.P.R.R.P.X.X.P.X.X.X.X.-+)+-+-+)+)+-+-+)+-+-+_+_+2+2+2+e+e+e+e+k+k+k+k+k+k+r+r+r+r+k+k+k+r+r+p+p+p+p+p+p+p+p+p+s+s+p+p+p+o+n+o+f+f+d+d+d+3+3+3+3+3+3+(+(+(+(+(+'+'+'+'+'+!+'+(+}+}+}+}+}+}+<+}+}+}+<+<+<+}+}+!+!+'+!+!+!+!+!+!+!+!+!+!+!+!+!+!+}+}+}+}+}+}+}+}+}+}+<+<+<+<+<+<+<+/+}+}+7+7+7+7+7+7+0+0+0+0+0+m+m+m+h+h+h+h+h+h+h+m+m+m+o+o+n+n+n+n+n+o+f+f+f+f+f+d+0+0+}+}+!+Y.O.O.I.v.p.a.5.5.5.:.[.[.[.[.[.'.'.'.'.2.2.2.|.|.|.~.|.|.|.|.4.4.4.4.,.O O r r r r r r r a a r r r a a a a a a { { { a a { { { { { { { { b b b b b i s s E Y Y ....{.^.^.^.6.6.6.6.b.b.b.b.b.l.l.l.l.l.b.b.b.b.l.l.l.l.l.b.b.b.b.6.6.[.[.",
". . . . . . . . . . . . . . . . . . . . . . . . . . . . . . . . . . . . . . . . . . . . . . . . . . . . . . . . . . . . . . . . . . . . . . . . . . . . . . . . . . . . . . . . . . . . > m W j.V.~+l+t+B+B+B+t+t+t+t+t+t+t+t+t+l+t+t+t+t+t+t+t+t+t+t+t+t+t+t+t+t+t+l+l+c+~+V.j.4.V b ~ + . . . . + . . . . . . . . . . . . . . @ @ @ . . + + | e S '.2.a.v.H.H.H.H.u.c.c.f.1.(.$.;.;. . .I I I I I I +.I I M M M M T M Q Q =.&.&.%.[.[.2.a.a.p.v.v.s.J.J.J.J.J.R.R.R.R. +X.X.X.R.R.X.X.X.X.X.X.X.-+)+-+)+)+-+-+-+-+-+-+_+_+2+2+2+2+e+e+e+k+k+k+f+k+o+o+o+r+r+r+r+r+r+p+y+y+y+y+y+y+s+p+p+s+s+p+p+p+p+o+o+o+f+f+f+f+f+d+d+d+d+3+3+3+(+(+(+(+'+'+'+'+'+!+'+(+(+(+}+}+}+}+<+<+}+}+<+<+<+}+}+!+!+!+!+!+!+!+!+!+!+!+'+!+!+!+!+!+!+}+<+<+/+<+<+<+<+<+<+<+<+<+<+<+<+<+}+}+}+}+7+7+7+0+0+0+0+0+0+0+m+m+h+h+h+h+h+h+h+h+h+h+h+o+n+n+n+n+n+n+n+n+n+n+a+a+0+0+}+}+!+Y.O.I.H.v.l.a.c.5.5.5.[.[.[.[.[.'.'.2.2.2.2.2.|.~.~.~.~.~.~.~.~.4.|.4.4.~.~.O O O O O O O O O O O O O O O O r r a a a a a a { { { { { b b 9 9 b s s s R Y Y ..{.{.^.^.6.6.6.b.b.b.b.b.b.l.l.l.l.l.l.l.b.b.b.b.b.b.b.l.l.b.b.b.b.i.6.[.5.5.",
". . . % . . . . . . . . . . . . . . . . . . % % . . . . . . . . . . . . . . . . . . . . . . . . . . . . . . . . . . . . . . . . . . . . . . . . . . . . . . . . . . . . . . . . . . . . > l ).j.V.~+l+t+t+x+t+t+t+t+t+t+l+l+l+l+l+l+l+l+l+t+t+t+t+t+t+t+t+t+t+t+t+t+l+l+c+~+V.A.4.V i 9 + + + . . . . . . . . . . . . . . . . . . . . . . + = | v S 2.h.h.v.U.H.H.H.u.f.f.1.1.1.-.-.;.#. .+.I +.I I I +.I I I M M M M Q T Q =.!.&.5.[.[.2.2.a.a.p.v.s.J.J.J.J.R.R.R.R. + +X.X.X. + +X.X.X.X.X.-+-+-+-+-+[+[+[+[+[+[+[+4+2+2+2+2+e+e+e+k+k+k+k+k+o+o+r+r+r+r+p+A+A+A+A+A+A+y+y+y+y+y+y+y+y+y+y+y+p+p+p+p+o+o+o+o+o+o+f+f+f+f+f+d+3+3+(+(+(+(+'+'+'+'+'+'+'+(+(+(+}+}+}+<+<+<+}+}+<+<+<+<+!+!+!+!+!+!+!+!+!+!+!+!+!+!+!+!+!+!+*+*+*+/+/+/+/+/+/+/+/+/+/+/+<+<+<+<+}+}+}+}+}+}+7+7+0+0+0+0+0+0+0+m+m+m+m+m+m+m+m+m+h+h+h+h+n+n+n+n+n+n+n+n+n+n+a+a+0+0+<+}+!+Y.O.I.H.v.l.a.c.[.[.[.[.[.[.[.[.[.[.2.2.'.'.'.'.~.~.R R R R ~.~.~.|.|.|.|.|.|.|.|.4.4.4.4.4.4.4.4.4.4.4.4.4.4.O O r r r a a { a a a a b b b i s s R S S Y ..{.^.^.6.6.a.a.a.b.q.q.q.q.q.q.q.l.l.l.l.l.b.b.b.b.b.b.b.b.b.b.b.b.i.6.[.[.5.5.",
". . . . . . . . . . . . . . . . . . . . . . % % . . . . . . . . . . . . . . . . . . . . . . . . . . . . . . . . . . . . . . . . . . . . . . . . . . . . . . . . . . . . . . . . . . . . > l V j.V.~+l+t+t+t+t+t+t+t+t+l+l+c+c+c+c+c+l+l+l+l+l+t+t+t+t+t+t+t+t+t+t+t+l+l+l+c+>+A.j.,.A 6 > + + . . . . . . . . . . . . . . . . . . . . + + + = | v '.2.h.v.H.U.U.H.u.c.f.f.1.(./.#.#.#.+. .+.+.+.I I I +.+.I I M M M M M Q Q !.!.5.5.5.[.2.a.a.a.p.v.J.J.J.J.R.R. + + + +X.X.X.X.)+)+-+-+-+-+-+-+-+-+[+[+4+4+4+4+4+4+4+4+4+e+e+e+k+k+k+k+k+k+r+r+r+r+r+r+r+y+A+A+A+A+A+A+A+y+y+C+C+C+y+y+y+y+y+y+y+p+p+p+p+o+o+o+p+o+o+o+o+f+f+f+d+3+3+(+(+(+(+'+'+'+'+(+(+}+}+}+}+}+<+}+}+<+<+<+<+<+<+<+!+!+!+!+!+!+!+!+!+!+!+!+!+!+!+!+!+*+*+*+*+*+*+/+/+/+/+/+/+/+/+/+/+<+<+<+}+}+}+}+/+/+/+/+0+0+0+0+0+0+0+0+7+7+7+7+7+7+7+0+m+h+h+m+n+n+n+n+n+n+n+n+n+n+a+a+0+0+}+}+'+Y.O.R.J.s.l.a.i.[.[.[.[.[.[.[.[.[.[.[.'.'.'.'.'.~.S R R R R ~.~.|.|.|.|.j.j.j.j.j.C.C.A.A.A.A.A.A.A.A.A.A.A.j.j.4.,.O O r a b a a b b 9 i s s s S S S '...{.^.6.6.b.q.q.q.q.q.q.q.q.v.s.s.q.q.l.l.l.b.b.b.b.b.b.b.b.b.b.b.6.6.6.[.[.[.[.[.",
". . . . . . . . . . . . . . . . . . . . . . . . . . . . . . . . . . . . . . . . . . . . . . . . . . . . . . . . . . . . . . . . . . . . . . . . . . . . . . . . . . . . . . . . . . . . > l V j.V.~+l+t+t+t+t+t+t+t+l+l+c+c+c+c+c+c+l+l+l+l+l+l+l+t+t+l+l+l+l+t+t+t+t+t+l+c+~+V.j.,.A l ] + + + . . . . . . . . . . . . . . . . . . + + + + ' e S '.a.p.v.U.U.Q.H.u.c.f.1.(.(.;.#.+.+.+.+.+.+.+.I +.+.+.+.I I I I M M M T !.!.!.5.5.[.c.c.a.a.p.s.J.J.R.R.R.R.R. + + +X.X.-+-+-+)+)+-+)+-+-+-+-+-+[+[+4+4+4+4+4+4+4+4+4+i+i+k+k+i+i+q+q+q+q+q+r+r+r+p+y+A+A+A+y+A+A+C+C+C+y+y+C+C+C+y+y+y+y+y+y+q+p+q+o+o+o+o+o+p+o+o+o+o+f+f+f+d+3+3+(+(+(+(+(+(+(+(+}+}+}+}+}+}+<+}+}+}+<+<+<+<+<+<+!+!+!+!+!+!+!+!+!+!+!+!+!+!+!+!+!+!+*+*+*+*+*+*+*+*+/+/+/+/+/+/+/+/+/+<+<+<+<+<+/+/+/+/+/+/+/+0+0+0+0+0+0+7+7+7+7+7+7+7+0+7+7+7+0+a+a+a+n+n+n+n+n+n+n+a+a+0+}+}+'+'+ +R.R.J.s.l.l.i.b.b.6.2.[.[.[.[.[.[.[.'.'.'.'.'.~.~.R ~.~.~.~.|.|.|.0.n.n.C.A.C.C.C.C.>+>+>+>+>+>+>+>+>+>+>+A.A.j.4.4.O O r b b b b i i s s R S S '...'.{.^.6.b.b.b.q.q.q.q.q.q.q.p.p.s.s.q.q.l.l.l.l.b.b.b.b.b.b.b.b.6.6.6.6.6.6.[.[.[.[.",
". . . . . . . . . . . . . . . . . . . . . . . . . . . . . . . . . . . . . . . . . . . . . . . . . . . . . . . . . . . . . . . . . . . . . . . . . . . . . . . . . . . . . . . . . . . . > l V j.V.~+c+t+t+t+t+t+t+t+l+l+c+c+c+c+c+c+c+l+l+l+l+l+l+l+l+l+l+l+l+t+t+t+t+t+t+c+~+V.j.4.V l ~ + + + . . . . . . . . . . . . . . . . . . % . + + ' s S 2.p.v.H.Q.Q.Q.H.u.c.f.f.(._.#.+.+.+.+.+.+.+.I I +.+.+.+.I I I I M M M T !.!.:.[.[.c.c.c.a.p.v.J.J.R. +R.R.R.R. + +X.-+-+-+-+-+)+)+-+)+-+-+-+-+-+[+[+4+4+4+4+4+4+4+i+i+k+i+r+r+q+q+q+q+q+q+q+r+r+r+A+A+A+y+y+y+A+A+C+C+C+y+y+y+y+y+y+y+y+q+y+q+q+q+i+i+o+o+o+o+o+o+o+f+f+f+f+d+3+3+3+3+3+(+(+(+(+(+(+}+}+}+}+}+}+<+}+}+}+<+<+<+<+<+!+!+!+!+!+!+!+!+!+!+!+!+!+!+!+!+!+!+!+*+*+*+*+*+*+*+*+*+/+/+/+/+/+/+/+/+<+<+<+<+<+/+/+/+/+/+/+/+/+/+0+<+<+<+}+}+}+}+7+7+7+7+7+7+7+0+a+a+a+a+a+0+0+a+a+0+0+a+0+}+}+'+'+ +R.R.J.s.l.l.b.b.b.b.a.2.[.[.[.[.[.[.'.'.'.'.'.'.~.~.~.~.~.|.|.|.0.0.n.n.C.C.C.C.V.>+>+>+]+]+]+]+]+]+]+>+>+>+V.C.j.|.4.O O r i b b s s s R R S ..{.{.^.^.6.b.b.b.q.q.q.q.q.q.q.p.p.p.q.q.q.q.l.l.l.l.b.b.b.b.b.b.b.6.6.6.6.6.6.^.[.[.^.^.",
". . . . . . . . . . . . . . . . . . . . . . . . . . . . . . . . . . . . . . . . . . . . . . . . . . . . . . . . . . . . . . . . . . . . . . . . . . . . . . . . . . . . . . . . . . . . ] l ,.j.V.]+c+t+t+t+t+t+t+t+t+t+l+l+c+c+c+c+c+l+l+l+l+l+l+t+t+l+l+l+t+t+t+t+t+t+l+c+~+V.A.4.W m ~ - . . . . . . . . . . . . . . . . . . . . + + + = [ v '.2.p.H.H.Q.Q.H.H.w.f.g.(._.}. .+.+.+.+.+.+.+.I I I I +.I I I I I I M M Q !.!.:.5.9.9.c.c.l.v.v.R.R.R.R.R.R. + + + + +'+'+'+'+)+)+)+-+-+-+-+-+-+[+[+4+4+4+4+4+4+i+i+k+k+q+q+q+q+q+q+q+q+q+q+q+q+q+q+A+A+A+A+y+y+A+y+y+y+A+A+A+y+y+y+y+y+y+q+q+p+q+p+o+o+f+f+f+f+o+o+o+o+f+f+f+d+3+3+3+3+3+3+3+3+(+(+(+}+}+}+}+}+}+}+}+}+}+}+}+}+}+}+!+!+!+!+!+!+!+!+!+!+!+!+!+!+!+!+!+!+!+*+*+*+*+*+*+*+*+*+/+/+<+<+/+<+<+<+<+<+/+/+/+/+/+/+/+/+<+<+<+<+}+}+}+}+/+<+/+}+}+}+7+0+0+0+0+0+0+a+a+n+f+n+a+a+n+a+a+d+a+3+1+'+'+ + +R.P.J.s.l.l.i.i.i.a.a.2.[.[.[.[.[.2.2.2.2.2.2.2.2.2.2.2.2.2.2.2.|.0.0.0.n.n.C.C.C.C.V.>+>+>+>+>+>+]+>+>+>+V.C.j.|.|.,.O O r s s s R R R S ..{.2.^.6.6.b.b.p.p.p.p.a.a.p.p.p.p.p.p.q.q.q.q.l.l.l.l.b.b.b.b.b.b.b.b.b.6.6.6.6.6.6.6.^.^.",
". . . . . . . . . . . . . . . . . . . . . . . . . . . . . . . . . . . . . . . . . . . . . . . . . . . . . . . . . . . . . . . . . . . . . . . . . . . . . . . . . . . . . . . . . @ @ $ / n ,.j.>+c+t+t+t+B+t+B+t+t+t+t+l+l+l+l+c+l+l+l+l+l+l+l+t+t+t+t+l+l+t+t+t+t+t+t+l+c+~+V.A.4.W m ~ - . . . . . . . . . . . . . . . . . . . . . . + , 8 v '.a.v.H.Q.Q.Q.H.H.w.f.g.g._.}.#.+.+.+.+.+.+.+.I I I I +.I I I I I I M M Q !.!.:.5.5.9.c.c.l.v.I.O.R.R.R.R.R.R. + + + +'+'+'+'+'+-+-+-+_+-+-+-+[+4+4+4+4+4+i+i+k+k+k+r+r+q+q+q+q+q+q+q+q+q+q+A+A+A+A+A+A+A+A+A+y+A+A+A+A+A+A+A+A+y+y+y+y+q+p+p+q+q+q+o+o+o+o+o+o+o+o+o+o+o+o+f+f+d+d+d+d+d+d+3+3+3+3+3+(+}+}+}+(+(+}+}+}+}+}+}+}+}+}+!+!+!+!+!+!+!+!+!+!+!+!+!+!+!+!+!+!+!+!+*+*+!+!+!+!+}+}+}+}+}+}+<+/+/+/+<+<+<+<+<+<+/+/+/+/+<+<+<+<+}+<+}+}+/+<+/+}+<+}+}+7+0+0+0+0+0+a+n+n+f+f+n+n+n+n+a+d+a+3+(+(+'+'+ + +P.P.J.s.s.l.l.l.a.a.a.a.a.a.a.a.a.a.a.a.a.a.0.0.|.2.2.2.2.2.2.2.2.|.|.|.|.|.0.n.C.C.C.C.C.V.V.V.>+V.C.C.C.C.j.|.|.~.O R O R R R ~.~.'.'.'.^.2.2.b.b.b.a.p.p.p.p.a.a.a.p.l.p.p.p.q.q.q.q.l.l.l.l.l.l.b.b.b.b.b.b.b.b.b.b.b.b.6.6.6.6.",
". . . . . . . . . . . . . . . . . . . . . . . . . . . . . . . . . . . . . . . . . . . . . . . . . . . . . . . . . . . . . . . . . . . . . . . . . . . . . . . . . . . . . . . . . @ @ $ ] A 4.A.>+c+t+t+B+B+B+B+B+B+t+t+l+l+l+l+l+l+l+l+l+l+l+t+t+t+t+t+t+t+t+t+t+t+t+t+t+l+c+V.A.4.W m 9 - % . . . . . . . . . . . . . . . . . . . . + + , 8 v '.a.v.H.Q.Q.Q.H.G.w.m.g.7._.}.#.+.+.+.+.+.+.I I I I I +.I I I I I I I M M ;.!.:.5.5.9.9.c.p.v.I.O.O.R.R.R.R.R.R. + + + +-+-+'+'+-+-+)+[+[+[+[+4+4+4+4+4+i+k+k+k+r+r+r+r+q+q+q+q+q+q+q+q+A+A+A+A+A+A+A+A+A+A+A+A+A+A+A+A+A+A+A+A+y+y+q+p+q+q+q+q+q+q+q+q+p+o+o+o+p+p+p+p+o+o+f+f+f+f+d+d+d+d+d+d+d+3+3+3+3+}+}+}+}+}+}+}+}+}+}+}+}+!+!+!+!+!+!+!+!+!+!+!+!+!+!+!+!+!+!+!+!+!+!+!+!+!+}+}+}+}+}+}+}+}+}+}+/+<+<+<+<+<+<+<+<+/+/+<+}+}+}+}+<+<+<+<+/+/+}+<+<+}+7+7+0+0+0+0+0+a+n+n+n+n+n+n+n+n+a+a+a+3+(+1+(+'+'+ + +X.P.J.J.J.s.s.l.v.p.p.p.p.p.p.p.p.p.p.v.v.v.C.n.n.0.0.|.2.2.2.2.2.2.2.|.|.|.|.|.|.0.0.n.n.C.C.C.C.n.n.0.|.|.|.~.~.~.~.~.~.~.~.|.^.^.6.6.a.b.b.b.l.l.p.p.p.p.p.l.p.p.l.l.p.p.p.q.q.q.q.l.l.l.l.l.l.l.q.q.q.q.q.q.q.q.b.b.l.l.l.q.q.",
". . . . . . . . . . . . . . . . . . . . . . . . . . . . . . . . . . . . . . . . . . . . . . . . . . . . . . . . . . . . . . . . . . . . . . . . . . . . . . . . . . . . . . . . . @ $ $ 5 V 4.A.>+c+B+B+B+B+B+B+B+B+B+B+t+t+t+t+l+l+l+l+l+l+t+t+t+t+t+t+t+t+t+t+t+t+t+t+t+l+c+>+A.4.,.s 9 ^ & % . . . . . . . . . . . . . . . . . . . + + , 3 S '.a.v.H.Q.Q.Q.H.G.w.m.g.e.8.}.+.+.+.+.+.+.+.I I I I I I I I I I I I I I M ;.!.:.:.9.9.m.i.p.s.I.O.O.R.R.R.R.R.R.R. + + + +X.-+-+-+-+-+[+[+[+[+4+4+4+4+4+i+k+r+r+r+r+r+r+q+q+q+q+q+q+q+q+A+A+A+A+A+A+A+A+A+A+A+A+A+A+A+A+A+A+A+A+y+y+q+q+q+q+q+q+q+q+q+q+q+q+q+q+p+p+p+p+p+o+o+f+f+f+d+d+f+f+d+d+d+d+d+3+3+3+3+3+}+}+}+}+}+}+}+!+!+!+!+!+!+!+!+!+Y.Y.Y.Y.Y.!+!+!+!+!+!+!+!+!+!+!+!+!+}+}+}+}+}+}+}+}+}+}+}+}+}+}+}+}+}+}+}+}+}+}+}+}+}+}+/+<+<+<+<+<+<+/+/+<+<+0+0+0+0+0+0+0+a+a+a+a+a+a+a+a+a+d+3+a+3+(+(+(+'+'+'+X.X.P.P.P.J.J.J.J.J.J.J.J.J.J.J.J.I.I.I.I.I.I.I.v.v.p.p.a.a.2.2.2.2.'.'.'.'.'.~.~.~.~.|.|.|.|.|.|.|.|.|.|.|.|.~.~.~.~.~.~.|.|.6.6.b.b.b.b.b.l.l.l.l.l.l.v.p.p.l.l.l.l.p.p.p.p.l.l.l.l.l.l.l.l.l.q.q.q.q.q.q.q.q.q.q.l.l.q.s.s.s.s.",
". . . . . . . . . . . . . . . . . . . . . . . . . . . . . . . . . . . . . . . . . . . . . . . . . . . . . . . . . . . . . . . . . . . . . . . . . . . . . . . . . . . . . . . . @ $ $ ; n V 4.A.]+t+B+B+B+B+B+E+B+B+B+B+t+t+t+t+t+t+t+t+l+l+t+t+t+B+B+t+t+t+t+t+t+t+t+B+t+l+c+>+A.j.).G 9 ^ & % . . . . . . . . . . . . . . . . . . . . + _ h S '.a.v.P.P.Q.Q.H.G.w.k.k.e.8.}.}.+.+.+.+.+.+.I I I I I I I I I I I I I I M #.!.:.:.9.9.m.c.u.v.H.O.O.R.P.P.P.P.P.R.P. + + +X.X.-+-+-+-+[+[+[+4+4+4+4+4+i+i+q+q+q+q+q+q+q+r+r+r+r+r+r+A+q+A+A+A+A+A+A+A+A+A+A+A+A+A+A+A+A+y+y+y+y+y+y+p+p+p+p+p+p+p+p+p+p+p+q+q+q+p+p+p+p+p+p+o+o+f+f+f+f+f+f+f+f+f+d+d+d+d+d+3+3+3+3+}+}+}+}+!+!+,+,+,+Y.Y.Y.Y.Y.Y.Y.Y.Y.Y.!+!+!+!+!+}+!+!+!+!+!+!+!+}+}+}+}+}+}+}+}+}+}+}+}+}+}+}+}+}+}+}+}+}+}+}+}+}+}+<+/+<+<+<+<+/+<+<+<+0+0+0+0+0+0+0+0+0+0+a+a+a+a+a+d+d+d+a+d+a+3+(+(+(+(+'+'+ + + +R.R.P.R.R.R.R.R.R.R.R.R.R.R.R. + + +R.O.I.I.I.v.v.p.p.a.2.2.2.'.'.'.'.'.'.'.'.'.'.~.~.~.~.~.~.~.~.~.~.|.|.|.|.|.2.2.|.a.a.a.a.l.l.l.l.l.l.l.l.l.l.l.l.l.l.l.l.l.l.l.l.l.l.l.l.l.l.l.l.q.q.q.q.q.q.q.q.s.s.s.s.s.s.s.J.D.D.",
". . . . . . . . . . . . . . . . . . . . . . . . . . . . . . . . . . . . . . . . . . . . . . . . . . . . . . . . . . . . . . . . . . . . . . . . . . . . . . . . . . . . . . . . @ $ ; / r O j.V.c+t+B+B+E+E+B+B+B+B+B+B+B+B+B+B+t+t+t+t+t+t+t+t+B+B+B+t+t+t+t+t+t+t+t+B+B+t+c+>+A.j.).G 9 ^ & % . . . . . . . . . . . . . . . . . . . . + _ k Y 2.b.J.P.P.Q.M.G.G.w.t.k.e.8.}.}.+.+.+.+.+.+.+.I I I I I I I I I I I I I I #.;.:.:.:.9.9.m.u.v.H.O.O.R.P.P.P.P.P.P.X. + +X.X.X.-+-+-+-+[+[+[+4+4+4+4+4+i+i+i+q+q+q+q+q+q+r+r+r+r+r+r+A+A+A+A+A+A+A+A+A+A+A+A+A+A+A+A+A+A+A+A+A+y+y+y+p+p+p+p+p+p+p+p+p+p+p+p+p+p+p+p+p+p+p+o+o+o+f+f+f+f+f+f+f+f+f+f+f+d+d+d+d+3+7+7+}+}+}+}+!+!+,+,+,+,+Y.Y.Y.Y..+.+Y.Y..+*+!+!+!+!+}+}+!+!+!+!+!+!+!+}+}+}+}+}+}+}+}+}+}+}+}+}+}+}+}+}+}+}+}+}+}+}+}+}+<+<+/+/+<+/+<+<+<+<+0+0+0+0+0+0+0+0+0+0+n+n+n+n+f+d+d+d+d+3+3+3+(+(+(+(+'+'+'+ + + + + + + + + + + + + + + + + +'+'+'+ + + +R.O.O.I.v.v.p.p.a.2.2.2.2.2.'.'.'.'.'.'.'.'.'.'.'.2.2.2.2.2.2.2.2.2.2.2.a.a.a.a.l.p.l.l.l.l.l.l.l.l.l.l.l.l.l.l.l.b.b.l.l.l.l.l.l.l.l.l.l.l.q.q.q.q.q.s.s.s.s.s.J.J.J.J.J.J.R.R.",
". . . . . . . . . . . . . . . . . . . . . . . . . . . . . . . . . . . . . . . . . . . . . . . . . . . . . . . . . . . . . . . . . . . . . . . . . . . . . . . . . . . . . . . . $ ; / a r 4.j.>+c+t+B+E+E+E+B+B+B+B+B+B+B+B+B+B+B+B+t+t+t+t+B+B+B+B+B+t+t+B+t+t+t+t+t+B+B+t+c+>+A.j.).G 9 ^ % . . . . . . . . . . . . . . . . . . . . . % _ k Y ^.b.J.P.P.M.M.G.G.w.t.k.e.8.}.}.+.+.+.+.+.+.+.+.I I I I I I I I I I I I +.;.:.:.5.9.9.m.m.u.v.H.O.O.R.R.P.P.P.P.P.X. +X.X.X.X.-+-+-+-+[+[+[+4+4+4+4+4+i+i+i+i+q+q+q+q+q+q+q+r+r+r+r+A+A+A+A+A+A+A+A+A+A+A+A+A+A+A+A+A+A+A+A+A+A+y+y+p+p+p+p+p+s+p+p+p+p+p+p+p+p+p+p+p+p+o+o+o+o+f+f+f+f+f+f+f+f+f+f+f+f+d+d+d+d+7+7+}+}+}+!+!+Y.Y.Y.Y.Y.Y.Y.Y.Y..+.+Y.Y..+.+!+!+!+!+!+!+!+!+!+!+!+!+!+!+}+}+}+}+}+}+}+}+}+}+}+}+}+}+}+}+}+}+}+}+}+}+}+}+<+<+<+<+/+<+<+<+<+<+0+0+0+0+0+0+0+0+m+m+n+n+n+f+n+d+d+d+3+3+3+3+(+(+(+'+'+'+'+'+'+ + + + + + + +'+'+'+ +'+'+'+'+'+(+'+'+'+ + + + +R.O.I.v.p.p.a.2.2.2.2.2.2.2.'.'.'.'.'.'.2.2.2.2.2.2.2.2.2.2.2.2.a.a.a.a.p.p.p.l.l.l.l.i.u.E.l.l.l.l.l.i.l.b.b.b.b.b.l.l.l.l.l.l.l.l.l.q.q.q.q.s.s.s.D.J.J.J.J.J.R.R.R.R.R.",
". . . . . . . . . . . . . . . . . . . . . . . . . . . . . . . . . . . . . . . . . . . . . . . . . . . . . . . . . . . . . . . . . . . . . . . . . . . . . . . . . . . . . + + + ; / 5 r O 4.A.>+c+B+E+E+E+E+E+B+B+B+B+B+B+B+B+B+B+B+B+B+B+B+B+B+t+B+t+t+t+B+B+t+t+B+B+B+B+t+c+>+A.j.).s 9 - % . . . . . . . . . . . . . . . . . . . . . % _ k Y 2.b.J.P.P.M.M.G.G.w.x.k.g.8.}.}.+.+.+.+.+.+.+.+.I I I I +.+.+.I I I +.+.#.}.:.9.m.m.m.m.u.u.H.H.O.O.R.R.P.P.P.P.P.X. +X.X.X.-+-+-+-+-+[+[+[+4+4+4+4+4+i+i+i+i+i+q+q+q+q+r+r+r+r+q+r+r+q+A+A+A+A+A+A+A+A+A+A+A+A+A+A+A+A+A+A+A+A+y+p+p+p+s+s+s+s+s+s+p+p+p+p+p+p+p+p+p+p+p+o+o+o+o+f+f+f+f+f+f+f+d+d+d+d+f+d+d+d+7+}+}+}+}+!+!+Y.Z.Z.Z.Z.Y..+.+.+Y.Y.Y.Y.Y..+!+!+!+!+!+!+!+!+!+!+!+!+!+!+!+!+!+!+!+!+!+}+}+}+}+}+}+}+}+}+}+}+}+}+}+}+}+}+<+<+<+<+/+/+<+<+<+<+0+0+0+0+0+0+0+m+m+m+n+n+n+f+n+a+d+d+d+3+3+3+(+(+(+(+(+(+(+'+'+'+'+'+'+'+'+'+(+(+(+'+(+(+(+(+(+3+(+(+'+'+ + + + + +R.O.I.v.p.p.p.a.a.a.a.a.a.2.2.2.2.2.2.2.2.2.a.a.a.a.a.a.a.a.a.a.a.p.p.p.p.p.l.l.l.u.u.E.E.l.l.l.l.i.i.b.b.b.b.b.l.l.l.l.l.l.l.l.l.q.q.q.q.s.s.D.D.J.J.R.R.R.R.R.R.R.R.",
". . % % % . . . . . . . . . . . . . . . . . . . . . . . . . . . . . . . . . . . . . . . . . . . . . . . . . . . . . . . . . . . . . . . . . . . . . . . . % % . . . . . % > $ ] / n r V 4.A.>+c+t+B+E+E+E+F+E+E+E+E+E+E+E+E+E+E+E+B+B+B+B+B+B+B+B+B+B+B+B+B+B+B+B+B+B+B+t+l+c+>+D.0.W m 1 ! . . . . . . . . . . . . . . . . . . . . . . + , k Y ^.b.E.P.Q.Q.G.t.w.t.e.e.8.}.}.+.+.+.+.+.+.+.+.I I I I I +.+.+.+.+.+.#.#.}._.k.k.m.w.m.w.u.H.H.H.O.O.O.O.O.O.R.P.X.X.X.X.X.X.-+-+-+-+-+[+[+4+4+4+4+4+4+i+i+i+i+i+q+q+q+q+q+q+q+q+r+q+r+r+q+A+A+A+A+A+A+A+A+A+A+A+A+A+A+A+A+A+y+y+s+p+p+p+p+p+p+p+p+p+p+p+p+p+p+p+p+p+p+p+p+p+p+p+o+o+f+f+f+f+f+f+f+d+d+d+d+d+7+d+7+}+}+}+!+,+,+Y.Z.Z.Z.Z.Z..+.+Y.Y.Y.Y.Y..+.+!+!+!+!+!+!+!+!+!+!+!+!+!+*+*+*+*+!+!+!+}+}+/+/+/+/+/+/+/+}+/+/+/+}+/+/+}+}+<+<+<+<+<+<+<+/+<+<+0+0+0+0+0+0+0+m+m+h+n+n+n+n+n+d+d+3+3+3+3+3+3+3+3+(+3+3+(+(+(+(+(+3+}+}+3+3+3+3+3+3+3+3+3+3+3+d+3+3+(+'+'+'+'+'+'+'+ + +O.I.v.v.v.v.v.v.v.p.p.p.p.p.a.a.a.a.a.p.p.p.p.p.p.a.a.a.a.p.p.p.p.p.l.l.l.l.l.l.l.l.l.l.l.l.l.l.l.l.l.l.l.l.l.l.l.l.l.l.l.l.l.l.s.s.s.s.J.J.J.R.R.R.R.R.R. + + +",
". . % % % . . . . . . . . . . . . . . . . . . . . . . . . . . . . . . . . . . . . . . . . . . . . . . . . . . . . . . . . . . . . @ . . . . . . . & > ^ ^ 6 6 6 6 6 6 6 l l A A V V ,.4.A.V.c+t+B+E+F+F+F+F+F+F+F+F+E+E+F+F+E+E+E+E+B+B+B+B+B+B+B+B+B+B+t+t+B+B+B+B+B+B+t+l+c+~+D.0.W m _ * . . . . . . . . . . . . . . . . . . . . % % - _ k Y ^.b.E.P.Q.H.G.t.w.k.e.8.}.}.+.+.+.+.+.+.+.I I I I I I I I I I +.+.+.#.#.}._.k.w.w.w.w.E.H.H.Q.P.P.P.O.R.R.O.P.P.X.X.X.X.X.X.-+-+-+-+-+[+[+[+4+4+4+4+4+4+i+i+k+i+r+r+q+q+q+q+q+q+q+r+r+r+r+q+A+A+A+A+A+A+A+A+A+A+A+A+A+A+A+A+A+y+s+p+p+p+p+p+p+p+p+p+p+p+p+p+p+p+p+p+p+p+p+p+p+p+o+o+f+f+f+f+f+f+f+f+f+d+d+7+d+7+7+}+}+}+,+,+Y.Z.Q.Q.Q.Q.Q..+.+.+Y.Y..+.+.+.+!+!+!+!+!+!+!+!+!+!+!+*+*+/+}+}+/+/+}+}+}+}+/+/+/+/+/+/+/+}+/+/+/+}+/+/+}+}+<+<+<+<+<+<+<+<+/+<+<+0+0+0+0+0+0+f+f+o+n+n+n+n+n+a+d+3+3+d+d+d+3+3+3+3+3+3+3+3+3+3+3+3+7+7+7+7+d+d+d+d+d+d+d+d+f+f+f+d+3+(+(+'+'+(+'+'+'+'+ +R.R.O.O.O.O.O.I.I.I.I.I.v.v.v.p.p.p.p.p.p.p.p.p.p.p.p.p.p.p.p.p.p.l.l.l.l.l.l.l.l.l.l.l.l.l.l.l.l.l.l.l.l.l.l.l.l.l.l.l.l.l.s.s.s.s.J.J.J.J.R.R.R.R. + + + + +",
"% % % % % % . . . . . . . . . . . . . % % % % % . . . . . . . . . . . . . . . . . . . . . . . . . . . . . . . . . . . . . . . . @ @ @ @ > ^ ^ 6 6 l A A V V V ,.,.,.,.,.4.4.4.4.j.j.A.A.>+c+t+B+E+F+G+G+F+F+F+F+G+G+F+F+F+F+F+F+E+E+E+B+B+B+B+B+B+B+B+B+B+B+B+B+B+B+B+B+t+l+9+V.A.3.W m _ - . . . . . . . . . . . . . . . . . . . % % % * _ k Y ^.b.E.P.H.H.G.t.t.e.8.}.+.+.+.+.I I I I I I q q q q I I I I I I I I +.#.}._.e.k.w.w.w.G.G.H.Q.P.P.P.P.R.R.P.P.P.X.X.X.X.X.X.-+-+-+-+-+[+[+[+4+4+3+3+e+e+k+k+k+k+k+k+k+k+k+k+k+r+r+r+r+r+r+r+A+A+A+A+A+A+A+q+A+A+r+r+A+A+A+y+y+y+s+p+p+p+p+p+p+p+p+p+p+p+p+p+p+p+s+s+p+p+p+p+p+p+p+o+o+o+f+f+f+f+f+f+f+d+7+d+7+7+}+}+}+!+,+,+Z.Z.Q.Q.Q.Q.Q.L..+.+Z.Z.Z..+.+Y.!+!+!+!+!+!+!+!+!+*+*+/+}+}+}+}+}+}+}+}+}+/+/+/+/+/+/+/+/+}+/+/+/+}+/+/+}+}+<+<+/+<+<+<+<+<+<+<+/+<+0+0+0+0+d+f+f+o+n+n+n+f+a+a+3+3+3+d+d+d+d+d+d+3+3+3+3+3+3+d+d+d+f+f+f+f+f+f+f+f+f+f+f+f+f+o+o+f+f+d+3+3+3+3+3+3+3+(+'+'+'+'+'+'+ + + + + + +R.R.O.O.I.I.I.v.v.v.v.v.v.v.v.p.p.p.p.p.p.v.l.l.l.l.l.l.l.l.l.l.l.b.l.l.l.l.l.l.l.l.l.l.l.l.l.l.l.l.s.s.s.s.J.J.J.J.R.R. + + + + + + + +",
". % % % % . . . . . . . . . . . . . . % % % % % . . . . . . . . . . . . . . . . . . . . . . . . . . . . . . . . . . . . . . % & @ ^ 6 6 l A V V ,.,.4.j.j.j.A.A.A.A.A.A.A.A.V.V.>+>+>+~+c+t+B+E+F+G+G+G+G+G+G+G+G+G+G+F+F+F+F+F+F+E+E+B+B+E+E+B+B+B+B+B+B+B+B+B+B+E+B+B+t+c+~+V.j.4.V 9 * % . . . . . . . . . . . . . . . . . . % % % % - _ k Y ^.b.E.E.H.H.w.k.r.e.8.}.+.+.+.+.I I I I I I q q q q q q I I I I I I I +.+.#._.k.k.k.w.w.w.w.E.P.P.P.P.P.P.P.P.P.X.X.X.X.X.X.-+-+'+'+'+(+(+(+2+2+3+3+e+e+e+k+k+k+k+k+k+k+k+k+k+k+r+r+r+r+r+r+r+A+A+A+q+A+A+r+r+r+r+r+r+r+r+p+p+p+s+s+p+p+s+s+s+s+p+p+p+p+p+p+p+p+p+p+p+p+p+p+p+p+p+p+o+o+o+o+f+f+f+f+d+7+d+7+3+}+}+}+!+!+,+Y.Z.Q.Q.Q.Q.Q.U.L.L.L.Z.Z.Z.Z..+Y.!+!+!+!+!+!+!+!+*+*+*+/+}+}+}+}+}+}+}+/+/+/+/+/+/+/+/+/+/+7+/+/+/+}+/+/+7+}+<+<+/+<+<+<+<+<+<+<+<+/+0+0+0+0+f+f+f+o+f+f+f+f+d+d+3+3+3+3+d+d+d+d+d+d+d+d+d+d+d+f+f+f+o+o+o+o+o+o+o+o+o+f+f+f+n+p+p+p+o+f+d+3+a+a+3+3+3+3+(+(+(+1+1+1+'+'+'+'+'+'+'+ + + +R.O.I.I.I.I.I.I.v.v.v.v.p.p.p.p.v.v.l.l.l.l.l.l.b.b.b.b.b.b.l.l.l.l.l.l.l.l.l.l.l.b.b.l.l.q.s.s.s.J.J.J.J.R.R.R. + + +)+ + +'+'+",
". . . . . . . . . . . . . . . . . . . . . . . . . . . . . . . . . . . . . . . . . . . . . . . . . . . . . . . . % % & > > ^ 6 6 l A V ,.4.j.j.A.A.V.V.V.~+~+~+c+c+c+c+c+c+c+c+l+l+l+l+t+B+B+F+F+F+G+G+F+F+F+F+G+G+G+G+G+F+F+F+F+F+E+E+E+E+E+E+E+D+D+D+D+x+x+x+x+B+E+B+B+t+c+~+V.j.).G 9 * % . . . . . . . . . . . . . . . . . . % % % % - _ k Y ^.b.E.E.H.H.w.k.e.e.8.}.+.+.+.+.I I I I I I q q q q q q q I I I I I I I +.#._.e.k.k.m.w.w.w.E.E.P.P.Q.P.P.P.P.P.X.X.X.X.X.X.-+-+'+'+'+(+(+(+2+2+3+e+e+e+e+e+k+k+k+k+k+k+k+k+k+k+k+r+r+r+r+r+r+r+A+A+r+r+r+r+r+r+r+r+r+r+r+r+r+r+s+p+p+p+p+s+s+s+p+p+p+p+p+p+p+p+s+s+s+s+s+s+s+s+p+s+s+s+o+o+o+o+f+f+f+d+d+7+7+}+}+}+!+!+,+Z.Q.Q.Q.Q.Q.U.U.L.L.L.U.U.U..+.+.+*+*+*+*+*+*+*+*+*+*+*+/+}+}+}+}+}+}+/+/+/+/+/+/+/+/+/+/+/+7+0+0+/+7+/+/+7+}+<+<+<+/+<+<+<+<+<+<+<+<+<+0+0+0+f+f+f+f+f+f+d+d+d+d+d+3+d+d+d+d+d+d+d+d+f+f+f+f+f+o+o+n+o+n+o+p+p+p+o+o+o+o+o+p+p+p+p+p+p+n+f+d+a+d+a+a+a+a+3+(+(+(+3+3+(+1+(+(+1+(+'+'+ + + +O.O.I.I.I.I.I.v.v.v.v.v.p.v.v.v.v.l.l.l.l.l.b.b.b.b.b.b.b.b.l.l.l.l.l.l.l.l.l.b.b.b.b.l.q.s.s.J.J.J.J.J.R.R.R. + +)+'+1+1+~+~+",
". . . . . . . . . . . . . . . . . . . . . . . . . . . . . . . . . . . . . . . . . . . . . . . . . . . . . . . % > ^ 6 l A A V ,.,.4.j.A.V.~+~+c+c+c+l+t+t+x+B+B+B+B+B+E+E+E+E+E+E+E+B+B+E+F+F+G+G+G+G+F+F+F+F+G+G+G+G+G+G+F+F+F+F+E+E+E+E+E+E+E+D+D+D+D+x+x+x+x+B+B+B+B+t+c+~+D.j.).G 9 - . . . . . . . . . . . . . . . . . . . % % % % - _ k Y ^.b.E.E.H.H.w.k.k.e.8.8.}.+.+.+.+.+.+.+.I I q q q q q q q I I I I I I I +.#._.e.k.k.k.m.m.m.E.E.P.P.Q.P.O.O.R.X.X.X.X.X.X.-+-+-+'+'+'+(+(+(+2+2+3+e+e+e+e+e+e+e+k+k+k+k+k+k+k+k+k+k+k+r+r+r+r+r+r+r+r+r+r+r+r+r+r+r+r+r+r+r+r+r+p+p+p+p+p+p+p+s+r+r+p+p+p+p+p+p+p+p+p+p+p+p+p+p+s+s+p+s+s+s+o+o+o+o+f+f+7+7+7+}+}+}+!+Y.Y.Z.Q.Q.Q.Q.Q.U.U.L.L.L.U.U.U..+.+.+.+*+*+*+*+*+*+*+*+*+*+/+/+/+/+/+/+/+/+/+/+/+/+/+/+/+/+/+7+7+0+0+/+7+/+/+}+}+<+<+<+/+<+<+<+<+<+<+<+<+<+0+0+a+f+f+f+f+f+f+d+d+d+d+d+d+d+d+f+f+f+f+f+f+f+f+f+f+o+n+o+o+o+o+p+p+p+p+p+p+p+p+p+p+s+z+z+s+p+p+f+f+a+a+a+a+a+d+3+3+3+3+a+a+3+(+(+(+(+(+(+'+'+ + +R.O.I.I.I.I.I.v.v.v.v.v.v.v.v.v.p.l.l.l.l.b.b.b.b.b.b.b.b.b.b.b.b.b.b.b.b.b.b.b.b.b.b.l.q.s.J.J.J.J.R.R.R.R. +)+)+'+1+~+~+~+~+",
". . . . . . . . . . . . . . . . . . . . . . . . . . . . . . . . . . . . . . . . . . . . . . . . . . . . . . & ^ 6 l V ,.4.4.j.A.A.V.>+c+t+B+B+E+E+E+E+E+F+F+F+F+F+F+F+F+F+F+F+F+F+F+F+F+F+F+F+G+G+G+G+F+F+F+F+G+G+G+G+G+F+F+F+F+E+E+E+E+E+E+E+E+D+D+D+D+D+D+x+x+B+B+B+B+t+c+V.D.3.W m ^ % . . . . . . . . . . . . . . . . . . . . % % % * , k Y ^.b.E.P.H.H.w.k.m.k.k.8.8.}.+.+.+.+.+.+.+.I I I I I I I I I +.+.+.+.+.+.}.}.8.k.k.k.k.9.m.m.E.E.E.H.H.O.O.O.O. + + +X.X.'+'+'+'+'+'+'+(+(+(+3+2+3+3+e+e+e+e+e+e+e+k+k+k+k+k+k+k+k+k+k+k+r+r+r+r+r+r+r+r+r+r+r+r+r+r+r+r+r+r+r+r+p+p+p+p+p+p+p+p+r+r+r+s+s+s+p+p+p+p+p+p+s+s+s+s+z+s+p+p+s+s+s+o+o+o+f+f+7+7+}+}+}+!+!+Y.Z.Z.Q.Q.Q.Q.U.U.U.L.L.L.L.L..+.+.+.+.+*+*+*+*+*+*+*+*+*+*+/+/+/+/+/+/+/+7+7+7+7+7+/+/+/+7+7+7+7+0+0+0+7+/+/+}+}+<+<+<+<+<+<+<+<+}+}+}+}+}+3+a+d+d+f+f+f+f+f+f+f+f+f+f+f+f+f+f+f+f+f+f+f+f+f+f+f+n+o+p+o+o+p+p+p+p+s+s+s+z+z+y+y+y+y+z+z+s+p+o+f+n+n+n+n+n+a+a+3+a+a+3+3+3+3+3+3+3+(+(+'+'+'+ + +R.O.I.I.I.v.v.v.v.v.v.v.v.v.p.p.l.l.b.b.b.b.b.b.b.b.b.b.b.b.b.b.b.b.b.b.b.b.b.b.b.b.l.s.s.J.J.J.R.R.R.R. + +)+'+1+~+~+~+~+~+",
". . . . . . . . . . . . . . . . . . . . . . . . . . . . . . . . . . . . . . . . . . . . . . . . . . . . . % ^ 6 V ,.4.j.A.V.V.~+c+c+B+E+F+G+G+G+G+G+G+G+G+G+G+G+G+G+G+G+G+G+G+G+G+G+F+F+F+G+G+G+G+G+F+F+F+F+F+F+G+G+F+F+F+F+F+F+E+E+B+E+E+E+E+E+D+D+D+D+D+D+D+D+B+B+B+B+t+c+V.n.3.W m - . . . . . . . . . . . . . . . . . . . . . % % . + , k Y ^.b.E.P.H.H.w.k.m.t.r.e.8.8.}.+.+.+.+.+.+.+.+.I +.+.+.+.+.+.+.+.}.}.}.}.8.e.k.k.m.9.9.m.m.m.E.E.H.H.H.O.O.O.O. + + + + +'+'+'+'+'+'+'+(+(+(+(+2+2+3+e+e+e+e+e+e+e+k+e+e+e+e+e+k+k+k+k+k+k+r+r+r+r+r+r+r+r+r+r+r+r+r+r+r+r+r+r+r+p+p+p+p+p+p+p+p+p+p+r+r+p+s+s+s+p+p+p+s+z+z+z+z+v+v+v+w+v+v+v+m+o+o+f+7+7+7+}+}+!+!+Y.Y.Z.Z.Q.Q.Q.Q.U.U.H.L.L.L.L.L..+.+.+.+.+*+*+*+*+*+*+*+*+*+/+/+/+/+/+/+/+/+7+7+7+7+7+7+7+7+7+7+7+7+0+7+0+7+/+/+}+}+<+<+<+/+<+<+<+}+}+}+3+3+(+3+3+a+d+d+f+f+f+f+f+f+f+f+f+f+f+f+f+f+f+f+f+f+f+f+o+n+p+p+p+p+p+p+p+s+y+y+y+y+z+z+z+y+z+z+y+z+z+p+o+o+n+n+n+n+n+a+3+a+a+3+3+a+3+3+3+3+3+(+1+'+'+'+ + +R.O.I.I.I.v.v.v.v.v.v.v.p.p.p.p.l.b.b.b.b.b.b.b.b.b.b.b.b.b.b.b.b.b.b.b.b.b.b.b.b.a.p.v.s.J.J.R.R.R. + + +)+)+1+1+~+~+~+~+~+",
". . . . . . . . . . . . . . . . . . . . . . . . . . . . . . . . . . . . . . . . . . . . . . . . . . . % > 6 A V 4.j.V.V.~+c+t+t+E+E+F+G+G+G+G+G+G+G+G+G+G+G+G+G+G+G+G+G+G+G+G+G+G+G+F+F+F+G+G+G+G+F+F+F+F+F+F+F+G+G+F+F+F+F+E+E+B+E+B+B+B+E+E+E+D+D+D+D+D+D+D+D+D+D+x+x+l+c+V.j.).G 4 % . . . . . . . . . . . . . . . . . . . . . . . . + , k Y ^.l.J.P.H.G.G.G.w.w.t.e.e.8.}.}.}.+.+.+.}.}.}.}.#.#.#.}.}.}.8.8.8.8.8.8.k.k.k.k.k.9.9.m.m.m.E.E.E.P.P.P.R. + + + + + +'+'+'+'+'+'+'+'+'+'+(+(+(+3+3+2+3+d+d+e+e+e+e+e+e+e+e+e+e+e+k+k+k+k+k+k+k+r+r+r+r+r+r+r+r+q+q+r+r+r+r+r+r+p+p+r+r+r+r+p+p+r+r+r+p+p+p+p+p+p+p+p+s+z+z+z+v+s+s+s+p+v+v+m+m+m+h+m+0+0+}+}+}+!+Y.Y.Y.Y.Y.O.L.Q.U.H.H.H.I.L.L.L.L..+.+.+.+*+*+*+*+*+*+*+*+*+*+/+/+/+/+/+/+/+/+/+/+/+7+7+7+7+7+/+7+7+7+0+0+0+0+/+/+}+}+}+<+}+}+/+<+<+<+}+}+3+3+3+3+3+d+d+f+f+f+f+f+f+f+f+f+f+f+f+f+f+f+f+f+o+o+o+o+o+p+p+p+p+p+p+p+z+y+z+z+y+y+C+C+C+C+C+z+y+y+z+p+p+p+n+n+n+n+n+a+a+d+3+a+3+3+3+3+(+(+(+(+'+'+'+ + + +O.O.I.I.I.v.v.v.v.v.p.p.p.p.p.p.a.a.a.b.a.a.a.a.b.b.b.b.b.b.b.b.b.b.b.b.b.b.b.l.l.l.l.s.s.J.J.J.R.R. + +)+)+1+1+1+1+9+~+~+~+",
". . . . . . . . . . . . . . . . . . . . . . . . . . . . . . . . . . . % % % . . . . . . . . . . . % > ^ l A ,.4.A.V.c+l+x+E+F+F+G+G+G+G+G+G+G+G+G+G+G+G+G+G+G+G+G+G+G+G+G+G+G+G+G+G+G+F+F+G+G+G+F+F+E+F+F+F+F+F+F+F+F+F+E+E+E+B+B+B+B+B+B+B+E+E+D+D+D+D+D+D+D+D+D+D+x+x+l+c+V.j.).G 4 % . . . . . . . . . . . . . . . . . . . . . . . . + , k Y ^.l.J.P.Q.G.G.G.w.w.t.t.e.8.8.8.}.}.}.}.}.}.}.}.}.}.}.}.}.8.8.8.8.8.8.8.k.k.k.k.k.m.m.m.m.w.E.E.P.P.P.P.R. + + + + + +'+'+'+'+'+'+'+'+'+'+(+(+(+(+2+2+3+d+e+e+e+e+e+e+e+e+e+e+e+e+e+k+k+k+k+k+k+r+r+r+r+r+r+r+r+q+r+r+r+r+r+r+r+r+r+r+r+r+r+p+p+r+r+r+r+p+s+p+p+p+p+p+s+s+z+z+v+z+z+s+s+v+v+v+m+m+h+m+7+7+}+}+!+!+Y.Y.Y.Y.O.L.L.U.U.H.H.I.I.L.L.L.L..+.+.+*+*+*+*+*+*+*+*+*+*+/+/+/+/+/+/+/+/+/+/+/+/+7+7+7+7+7+7+7+7+7+0+0+0+/+/+/+/+}+}+}+}+}+<+<+<+<+<+}+3+3+3+3+3+d+d+f+f+f+f+f+f+f+f+f+f+f+f+f+f+f+f+o+o+o+n+o+o+p+p+p+p+p+p+p+z+y+z+C+C+C+C+C+C+C+C+y+y+y+z+p+p+p+n+n+n+n+a+3+a+3+3+3+(+(+1+1+(+(+'+'+'+'+ + + + +O.O.I.I.I.v.v.v.v.v.p.p.v.p.p.p.a.a.a.b.a.a.a.a.b.b.b.b.b.b.b.b.b.b.b.b.b.b.b.l.l.l.s.s.J.J.J.R.R.R. + +)+)+1+1+1+a+9+9+9+9+",
". . . . . . . . . . . . . . . . . . . . . . . . . . . . . . . . . . . % & & . . . . . . . . . . % ^ 6 A V 4.j.A.~+c+t+E+F+G+G+G+G+G+G+G+G+G+G+G+G+G+G+G+G+G+G+G+G+G+G+G+G+G+G+G+G+G+G+F+F+F+F+F+F+D+D+E+F+F+F+F+F+F+F+F+E+E+E+B+B+B+B+B+B+B+E+E+D+D+D+D+D+D+D+D+D+D+x+x+l+~+V.j.).G 4 % . . . . . . . . . . . . . . . . . . . . . . . . + , k Y ^.s.J.P.P.G.G.G.w.w.t.t.r.8.8.8.}.}.}.8.8.8._._.7.}.}.}.}.8.8.8.8.8.8.8.k.k.k.k.k.m.m.m.m.w.E.E.P.P.P.P.R. + + + + +'+'+'+'+'+'+(+(+(+'+'+'+'+_+_+_+2+e+d+e+e+e+e+e+e+e+e+e+e+e+e+e+k+k+k+k+k+k+r+r+r+r+r+r+r+r+r+r+r+r+r+r+r+r+r+r+r+r+r+r+r+r+r+r+p+r+s+p+p+p+p+p+p+s+s+z+z+v+z+z+s+s+v+w+v+v+m+h+0+0+}+}+!+!+Y.Y.Y.Y.O.O.L.L.U.H.H.H.I.I.L.L.L.L..+.+*+*+*+*+*+*+*+*+*+*+*+*+*+/+/+/+/+/+/+/+/+/+/+/+/+/+7+7+7+7+/+/+/+/+/+/+/+/+/+}+}+}+}+}+<+<+<+<+<+}+}+3+3+3+d+d+d+f+f+f+f+f+o+o+o+o+o+o+n+n+n+o+o+n+n+n+o+p+p+p+p+p+p+p+p+p+s+y+z+z+C+C+C+C+C+C+C+C+z+y+z+p+p+p+n+n+n+n+d+3+3+3+(+1+1+1+'+'+'+'+'+'+ + + + + +R.O.O.I.I.I.v.v.v.v.v.p.v.v.p.p.p.a.a.a.b.a.a.a.a.b.b.b.b.b.b.b.b.b.b.b.b.b.b.l.l.l.l.s.s.J.J.J.R.R.R. +)+)+1+1+1+1+9+9+9+9+9+",
". . . . . . . . . . . . . . . . . . . . . . . . . . . . . . . . . . . . % % . . . . . . . . . & ^ l V ,.j.A.V.~+c+t+E+F+G+G+G+G+G+G+G+G+G+G+G+G+G+G+G+G+G+G+G+G+G+G+G+G+G+G+G+G+G+G+G+F+F+F+F+F+F+D+D+D+D+F+F+F+F+F+F+E+E+D+D+x+x+x+x+x+x+x+D+D+D+D+D+D+D+D+D+D+D+D+x+x+l+~+V.n.).G 4 % . . . . . . . . . . . . . . . . . . . . . . . . + , k Y ^.s.J.P.P.G.G.G.w.G.w.t.r.e.8.8.8.8.8.8.8.}.7.7.8.}.}.}.}.8.8.8.8.8.8.8.8.e.k.k.k.9.9.m.m.w.E.E.P.P.P.P.R.R. + + + +'+'+'+'+'+(+(+(+(+(+'+)+)+)+(+_+2+2+e+e+e+e+e+e+e+e+e+e+e+e+e+e+k+k+k+k+k+k+k+k+r+r+r+r+r+r+r+r+r+r+r+r+r+r+r+r+r+r+r+r+r+r+r+r+r+r+p+p+p+p+p+p+p+s+s+s+s+v+s+s+p+p+v+v+m+m+m+m+0+7+}+}+!+!+Y.Y.Y.O.O.L.L.L.U.U.H.I.I.L.L.L.L..+.+*+*+*+*+*+*+*+*+*+*+*+*+*+*+*+/+/+/+/+/+/+/+/+/+/+/+/+/+/+/+/+/+/+/+/+/+/+/+/+/+/+<+}+}+}+}+}+}+}+}+}+}+7+3+3+d+7+d+f+f+f+f+o+o+n+n+n+n+n+o+o+o+o+o+o+o+o+p+p+p+o+o+o+p+p+p+p+p+s+z+y+y+y+z+z+C+C+C+C+z+z+y+p+p+p+n+n+n+n+a+a+3+3+(+(+(+(+'+'+'+'+'+ + + + + + +R.O.O.I.I.I.v.v.v.v.v.p.v.p.p.p.p.a.a.a.b.a.a.a.a.b.b.b.b.b.b.b.b.b.b.b.b.b.b.l.l.l.l.s.s.J.J.J.R.R. + +)+'+1+1+1+1+9+9+9+9+9+",
". . . . . . . . . . . . . . . . . . . . . . . . . . . . . . . . . . . . . . . . . . . . % > ^ l A ,.j.A.V.~+c+l+B+E+F+G+G+G+G+G+G+G+G+G+G+G+G+G+G+G+G+G+G+G+G+G+G+G+G+G+G+G+G+G+G+F+F+F+F+F+F+F+D+D+D+D+D+D+F+F+F+F+F+E+D+x+x+x+x+x+x+x+x+x+D+D+D+D+D+D+D+D+D+D+D+D+D+x+l+~+V.n.).G 4 % . . . . . . . . . . . . . . . . . . . . . . . . + , k Y 6.l.J.P.Q.G.G.G.G.G.G.t.t.r.e.e.8.8.8.8.8.8.8.8.8.8.8.8.8.8.8.8.8.8.8.8.8.e.k.k.k.m.m.m.m.w.E.E.P.P.P.P. + + + + + +'+'+'+'+'+'+(+(+(+(+(+_+_+_+_+_+2+2+e+e+e+e+e+e+e+e+e+e+e+e+e+e+k+k+k+k+k+k+k+k+k+r+r+r+r+r+r+r+r+r+r+r+r+r+r+r+r+r+r+r+r+r+r+r+r+r+r+p+p+p+p+p+p+p+y+y+y+y+s+p+s+s+v+m+m+h+h+m+0+7+}+}+!+Y.Y.Y.Y.O.O.L.L.L.U.L.I.I.I.I.L.L..+.+.+*+*+*+*+*+*+*+*+*+*+*+*+*+*+*+/+/+/+/+/+/+/+/+/+/+/+/+/+/+/+/+/+/+/+/+/+/+/+/+/+/+<+}+}+}+}+}+}+}+}+}+7+7+3+3+7+d+f+f+f+f+o+n+o+o+o+o+o+o+o+o+s+s+s+s+s+s+s+s+s+p+p+p+p+p+p+p+p+p+z+z+z+z+y+z+z+C+C+C+z+z+y+p+p+p+s+s+s+n+a+d+3+3+3+3+(+1+'+'+'+'+'+'+ + + + + +R.O.O.O.I.I.v.v.v.v.p.p.p.p.p.p.p.a.a.a.b.a.a.a.a.b.b.b.b.b.b.b.b.b.b.b.b.b.b.l.l.l.l.s.s.J.J.J.R.R. + +)+)+)+1+1+1+9+9+9+9+9+",
". . . . . . . . . . . . . . . . . . . . . . . . . . . . . . . . . . . . . . . . . % & > 6 l V ,.4.A.V.~+c+t+B+E+E+F+G+G+G+G+G+G+G+G+G+G+G+F+F+F+F+F+G+G+G+G+G+G+G+G+G+G+G+G+F+F+F+F+F+F+D+D+D+D+D+D+D+D+D+D+D+D+D+D+D+D+x+x+x+x+l+l+l+l+l+x+x+x+D+D+D+D+D+F+F+D+D+D+D+x+l+~+V.n.3.G 4 - . . . . . . . . . . . . . . . . . . . % . . % . + , k Y 6.l.J.P.P.G.G.G.G.G.G.t.t.r.r.e.e.e.e.e.e.8.8.e.e.8.8.8.8.8.8.8.8.8.8.8.e.k.k.k.w.w.w.w.w.E.E.E.P.P.P.X. + + +'+ +'+'+'+'+'+'+'+'+'+'+_+_+(+(+(+_+_+2+2+2+e+e+e+e+e+e+e+e+e+e+e+e+e+e+k+k+k+k+k+k+k+k+k+k+k+k+k+r+k+r+r+r+r+r+r+r+r+r+r+r+r+r+r+r+r+r+r+r+p+p+p+p+p+p+p+p+p+p+p+p+p+s+s+m+m+h+h+m+0+7+}+}+}+!+Y.Y.Y.L.L.L.L.L.L.I.I.I.I.I.I.L.L..+.+.+*+*+*+*+*+*+*+*+*+*+*+*+*+*+*+*+*+*+/+/+/+/+/+/+/+/+/+/+/+/+/+/+/+/+/+/+/+/+/+/+<+/+/+/+}+}+}+}+}+}+}+}+7+3+3+d+d+f+f+f+o+n+o+p+p+p+p+p+p+v+v+v+v+v+v+v+v+w+w+s+s+p+p+p+p+p+p+s+z+y+y+y+y+z+z+y+C+C+y+z+z+y+z+p+p+s+s+s+s+n+a+d+3+a+3+3+3+(+(+'+'+'+'+'+ + + + + + +O.O.O.I.v.v.v.v.p.p.p.p.p.p.p.p.a.a.b.a.a.a.a.b.b.b.b.b.b.b.b.b.b.b.b.b.l.l.l.l.s.J.J.J.J.R.R.R. + +)+)+)+1+1+1+b+9+9+9+9+",
". . . . . . . . . . . . . . . . . . . . . . . . . . . . . . . . . . . . . . . . . & ^ 6 A ,.4.A.V.~+l+t+B+E+F+F+F+G+G+G+G+G+G+G+G+G+G+G+G+G+F+F+F+F+G+G+G+G+G+G+G+F+F+F+F+F+F+F+F+F+D+D+D+D+D+D+D+D+D+D+D+D+D+D+D+D+D+x+x+x+l+l+l+l+9+9+9+l+l+x+x+x+D+D+D+F+F+D+D+D+D+x+l+9+V.D.0.W m 4 - % . . . . . . . . . . . . . . . . . % % . % . * _ k Y 6.s.P.P.P.H.H.H.G.w.w.t.t.r.r.r.r.e.e.e.e.8.8.e.8.8.8.8.8.8.8.8.e.e.e.e.k.k.k.t.w.w.w.w.w.E.E.E.P.P.X.X. +'+'+'+'+'+'+'+'+'+'+'+'+'+'+)+)+_+(+_+_+_+_+2+2+e+e+e+2+2+2+2+2+2+2+2+e+e+e+e+e+k+k+k+k+k+k+k+k+k+k+k+k+k+k+k+k+k+k+k+j+k+k+k+k+r+r+r+k+k+k+r+o+r+p+p+p+p+p+p+p+p+p+p+s+s+s+o+m+m+m+h+m+0+7+}+}+!+Y.Y.O.O.L.L.I.I.I.I.v.v.v.I.I.y.y.L..+.+.+.+*+*+*+*+*+*+*+*+*+*+*+*+*+*+*+*+*+*+*+/+/+/+/+/+/+/+/+/+/+/+/+/+/+/+/+/+/+/+/+/+*+*+*+*+!+!+!+}+}+}+}+}+3+3+3+7+f+f+f+o+o+o+p+p+p+p+p+p+v+v+v+w+v+v+v+v+v+v+v+p+p+p+p+p+p+s+z+y+z+z+y+y+z+y+y+y+y+z+z+z+z+z+z+z+s+s+s+s+n+n+a+a+a+a+a+3+3+3+1+(+(+'+'+'+'+'+ + +Y.Y.O.O.I.I.I.I.v.v.v.p.v.p.p.p.p.p.a.l.a.a.a.a.b.b.b.b.b.b.b.b.b.b.b.b.l.l.l.l.s.s.J.J.R.R. + + + +)+)+)+)+1+~+~+9+9+9+9+9+",
". . . . . . . . . . . . . . . . . . . . . . . . . . . . . . . . . . . . . . . . > 6 l V ,.j.V.~+c+t+E+F+F+G+G+G+G+G+G+G+G+G+G+G+G+G+G+G+G+G+G+G+G+G+F+F+F+F+F+F+F+F+F+F+F+F+F+F+F+D+D+D+D+D+D+D+D+D+D+D+D+x+x+x+x+x+x+x+l+l+l+9+9+9+9+9+9+9+l+l+x+x+D+D+D+F+D+D+D+D+D+x+x+9+~+D.n.).W m ! & . . . . . . . . . . . . . . . . % % % . % % * ( k ..6.s.P.++++Q.H.H.G.w.w.t.t.t.r.r.r.r.e.e.e.8.8.8.8.8.8.8.8.8.8.8.e.e.k.k.k.t.t.N.G.G.G.G.G.E.E.P.P.P.X.X. + +'+'+'+'+'+'+'+'+'+'+'+'+'+)+)+_+_+_+_+_+_+2+2+e+e+e+2+2+2+2+2+2+2+2+2+2+e+e+e+e+k+k+e+k+k+k+k+k+k+k+k+k+k+k+k+k+k+k+j+j+k+k+k+k+k+k+k+k+k+k+k+o+o+o+o+p+p+p+p+p+p+p+s+o+o+o+m+m+m+m+h+0+7+}+}+!+Y.Y.O.L.I.I.I.I.I.v.v.v.v.y.y.y.y.L.L..+.+.+.+*+*+*+*+*+*+*+*+*+*+*+*+*+*+*+*+*+*+*+*+/+/+/+/+/+/+/+/+/+/+/+/+/+/+/+/+/+*+*+*+*+*+*+!+!+!+!+!+}+}+3+}+7+0+0+0+m+h+h+n+o+p+p+p+p+p+p+v+w+v+v+v+v+v+v+v+v+v+s+p+p+p+s+p+s+y+y+z+y+y+C+z+z+z+z+z+z+z+z+z+y+y+y+z+z+z+s+s+n+n+n+n+a+a+d+d+a+3+(+(+(+(+'+'+'+'+'+!+Y.O.O.I.I.I.I.I.v.v.v.v.v.v.v.v.p.p.l.a.a.a.a.b.b.b.b.b.b.b.b.b.b.b.b.l.l.l.l.s.s.J.J.R.R. + +)+)+'+'+1+1+1+1+b+9+9+9+c+c+",
". . . . . . . . . . . . . . . . . . . . . . . . . . . . . . . . . . . . % % % > 6 l V 4.j.V.~+l+B+F+G+G+G+G+G+G+G+G+G+G+G+G+G+G+G+G+G+G+G+G+G+G+G+G+F+F+F+F+F+F+F+F+F+F+F+F+F+F+D+D+D+D+D+D+D+D+D+D+C+D+z+z+x+x+z+z+s+u+n+l+9+9+9+9+9+9+9+9+9+9+l+x+x+D+D+D+D+D+D+D+D+D+x+9+~+V.D.0.).G 4 - % . . . . . . . . . . . . . . . . . % % - % - 2 k ..6.s.X.++++Q.M.G.w.w.t.t.t.t.t.r.r.r.e.e.8.8.8.8.8.}.}.}.8.}.8.8.8.e.k.k.w.w.G.G.N.N.G.G.E.E.P.P.P.P.X.X.-+'+'+'+'+'+'+'+'+'+'+'+'+'+'+'+'+'+(+(+_+_+_+2+2+2+2+2+e+e+e+e+e+e+e+2+e+2+2+e+e+e+e+e+e+e+k+k+k+k+k+j+k+k+k+k+k+k+k+k+k+k+k+k+k+k+k+k+k+k+k+k+k+f+f+f+o+o+o+o+o+p+p+m+p+p+o+h+h+h+o+h+h+7+7+}+!+Y.Y.O.I.I.I.v.v.v.v.v.y.y.y.y.I.I.I.L.L.L..+.+.+*+*+*+*+*+*+*+*+*+*+*+*+*+*+*+*+*+*+*+*+*+*+*+*+*+*+*+*+*+*+*+*+*+*+*+*+*+*+*+*+*+*+*+*+*+!+!+!+!+}+}+(+3+3+7+d+f+f+o+n+o+s+s+s+s+v+v+v+v+v+v+v+v+v+v+v+s+s+s+s+z+z+z+s+z+y+z+z+y+C+C+y+y+y+y+y+y+y+y+z+z+y+y+y+y+y+y+s+s+n+n+n+n+n+n+a+a+a+3+3+(+(+1+(+(+'+'+'+'+ + +O.O.O.O.O.I.v.v.v.v.v.v.v.l.p.p.l.l.b.b.b.b.b.b.b.b.b.b.b.b.b.b.l.l.l.l.l.s.J.P.R. + +)+)+'+'+1+1+1+1+1+1+9+9+9+9+9+",
". . . . . . . . . . . . . . . . . . . . . . . . . . . . . . . . . . . . . & ^ l A V 4.j.V.~+c+B+E+F+G+G+G+G+G+G+G+G+G+G+G+G+G+G+G+G+G+G+G+G+G+G+G+G+F+F+F+F+F+F+F+F+F+D+D+D+D+D+D+D+D+D+D+D+D+D+C+C+z+z+z+z+z+u+s+u+s+n+j+j+9+9+9+9+~+~+~+~+1+9+9+l+z+D+D+D+D+D+D+D+D+D+x+l+b+~+R.q.3.W 4 ! % . . . . . . . . . . . . . . . . . . . % % - < k ..6.s. +X.++Z.M.M.G.G.w.t.t.t.t.r.r.r.r.e.8.8.8.8.}.}.}.}.8.}.}.8.8.e.k.k.w.w.w.w.G.G.G.G.E.E.E.P.P.++X.X.X.-+-+'+'+'+'+'+'+'+'+'+_+_+(+)+)+)+)+_+_+_+_+_+2+2+2+2+2+2+2+e+e+e+e+e+2+2+2+2+e+e+e+e+e+e+e+e+k+k+k+a+k+k+k+k+k+k+e+e+e+e+e+e+e+k+k+k+e+e+k+k+f+f+o+o+o+o+o+o+o+o+o+o+o+o+h+h+h+h+h+h+h+7+7+}+!+Y.O.O.I.v.v.v.v.v.v.v.y.y.y.y.y.I.L.L.L.L..+.+.+*+*+*+*+*+*+*+*+*+*+*+*+*+*+*+*+*+*+*+&+&+&+*+*+*+*+*+*+*+*+*+*+*+*+*+*+*+*+*+*+*+*+*+*+*+!+!+!+!+}+}+3+3+3+7+d+f+f+o+o+p+s+p+p+s+v+v+v+v+v+v+v+v+v+v+v+z+z+z+z+y+y+y+y+y+z+z+C+C+C+C+y+y+y+y+y+y+y+y+z+z+z+z+y+y+y+y+s+s+s+s+s+n+n+n+n+a+a+a+3+3+3+3+3+(+(+(+'+'+ + +O.O.O.O.O.I.I.v.v.v.v.v.v.s.v.p.l.l.l.l.l.l.l.b.b.b.l.l.l.l.l.l.l.l.l.s.s.J.P.P. + + +)+'+'+)+(+1+1+1+1+1+9+9+9+9+9+",
". . . . . . . . . . . . . . . . . . . . . . . . . . . . . . . . . . . . > 6 A V 4.j.A.V.~+c+B+E+F+G+G+G+G+G+G+G+G+G+G+G+G+G+G+G+G+G+G+G+G+G+G+G+G+F+F+F+F+F+E+E+D+D+D+D+D+D+D+D+D+D+D+C+C+D+C+C+C+z+z+z+z+z+s+s+u+u+n+j+b+b+b+b+9+9+~+~+~+~+~+1+9+l+s+x+C+D+D+D+D+D+D+D+x+x+j+b+V.D.3.W o ! % . . . . . . . . . . . . . . . . . . . % % - ! k Y 6.s. +X.=+++Q.M.G.G.G.t.t.t.t.t.t.r.r.e.e.8.8.8.}.}.}.}.}.}.}.}.8.e.k.k.w.w.w.w.w.w.w.w.E.E.E.E.P.++++X.-+X.-+-+-+-+-+'+)+)+)+_+_+_+_+_+)+)+)+[+_+_+_+_+_+2+2+2+2+2+2+2+2+2+2+2+2+2+2+2+2+e+e+e+e+e+e+e+e+e+e+a+e+e+e+e+e+e+e+e+e+e+e+e+e+e+k+k+e+e+k+k+f+k+k+o+o+f+f+o+o+o+o+o+o+h+h+h+h+h+h+h+7+7+}+}+Y.Y.O.I.v.v.v.h.h.v.v.v.y.y.y.y.y.y.L.L.L.L..+.+.+*+*+*+/+/+/+/+/+/+*+*+*+*+*+*+*+*+*+*+&+&+&+*+*+*+*+.+.+*+*+*+*+*+*+*+*+*+*+*+*+*+*+*+*+*+!+!+!+!+}+}+3+3+d+7+d+f+f+o+o+p+p+s+z+v+v+v+v+v+v+v+v+v+v+v+v+z+z+z+z+z+z+z+z+z+y+C+C+C+C+C+y+y+y+y+y+y+y+y+C+y+z+z+z+y+y+y+z+s+s+s+s+s+s+n+n+n+n+a+a+d+a+a+3+3+3+(+(+'+ + +Y. + +O.O.I.I.v.v.v.v.v.v.s.s.s.l.l.l.l.l.l.l.l.l.l.l.l.l.l.l.l.l.s.s.s.J.J.P.P. + +)+)+)+)+_+(+_+_+1+b+1+a+9+9+9+9+",
". . . . . . . . . . . . . . . . . . . . . . . . . . . . . . . . . . . % ^ l ,.j.A.V.~+c+t+B+E+F+G+G+G+G+G+G+G+G+G+G+G+G+G+G+G+G+G+G+G+G+G+G+G+F+F+F+F+F+D+D+D+D+D+D+D+D+D+D+D+D+D+D+C+z+z+z+z+z+z+z+z+z+A+u+r+u+u+j+j+a+b+b+1+b+b+1+1+1+~+~+~+1+9+9+s+x+x+D+D+D+D+D+D+D+D+C+u+j+)+R.q.).G ! - . . . . . . . . . . . . . . . . . . . % % - ! k Y ^.q.P.X.++Z.Q.Q.M.G.G.G.t.t.t.t.t.r.r.r.e.8.8.8.}.}.}.}.}.}.8.8.8.e.k.k.w.w.w.w.w.w.w.w.E.E.E.E.P.P.P.X.X.-+=+-+-+)+)+)+)+)+_+_+_+_+_+_+_+)+)+-+_+)+)+_+_+_+_+_+2+2+2+2+2+2+2+2+2+2+2+2+2+e+e+e+e+e+e+e+e+e+e+a+e+e+e+e+e+e+e+e+e+e+e+e+e+e+e+e+e+e+e+k+f+k+k+k+i+f+f+f+f+f+f+f+h+h+h+h+h+h+h+h+7+3+}+!+Y.O.I.I.v.v.h.h.h.v.v.v.y.y.y.y.y.y.L.L.L.L..+.+.+*+*+*+/+/+/+/+/+/+/+/+*+*+*+*+*+*+*+*+*+&+&+*+*+*+*+*+*+*+*+*+*+*+*+*+*+*+*+*+*+*+*+*+!+!+!+Y.!+!+}+}+3+3+d+d+f+f+o+o+p+p+p+y+y+v+v+v+v+v+v+v+v+v+v+v+v+z+z+z+z+z+z+z+z+z+y+C+C+C+C+C+C+C+C+C+C+C+C+C+C+C+C+z+z+y+y+y+y+y+s+s+p+p+p+p+o+o+f+f+f+d+d+d+d+3+3+3+(+(+'+ + + + + +R.J.J.J.J.I.v.v.v.s.s.s.s.l.l.l.l.l.l.l.l.l.l.l.l.s.s.s.s.s.J.J.P.P.X.X. + +)+)+)+_+_+_+_+2+2+b+a+a+a+a+9+9+",
". . . . . . . . . . . . . . . . . . . . . . . . . . . . . . . . . . % > l V j.A.~+c+t+B+E+F+G+G+G+G+G+G+G+G+G+G+G+G+G+G+F+G+G+G+G+G+G+G+G+F+F+F+F+D+F+D+D+D+D+D+D+D+D+D+D+D+C+C+C+C+C+z+z+z+z+z+z+z+A+A+u+u+r+j+j+a+b+b+1+1+1+1+1+1+1+1+)+'+'+1+~+a+n+n+u+s+z+x+x+D+D+D+D+D+z+u+b+)+s.3.G 4 - . . . . . . . . . . . . . . . . . . . % . % - 2 Y {.q.J.++++++Q.Q.M.M.G.G.G.t.t.t.t.r.r.r.e.8.8.8.}.}.}.}.8.8.8.8.8.e.k.k.w.w.w.E.E.E.E.E.E.E.E.E.P.P.P.++++-+=+=+-+-+)+-+)+)+_+_+)+)+)+_+_+_+_+-+)+)+)+_+_+_+_+_+2+2+2+2+2+2+2+2+2+2+2+2+2+e+e+e+e+e+e+e+e+e+e+a+e+e+e+e+e+e+e+e+e+e+e+e+e+e+e+e+e+e+e+k+i+i+i+i+i+f+f+f+f+f+f+f+h+h+h+h+h+h+h+h+8+6+}+!+Y.O.I.I.v.v.h.h.h.v.v.v.v.y.v.I.I.y.L.L.L.L..+.+.+*+*+*+/+/+/+/+/+/+/+/+/+/+/+/+*+*+*+*+/+*+&+*+*+*+*+*+*+*+*+.+*+*+*+*+*+*+*+*+*+*+*+*+!+!+!+Y.!+}+}+3+3+d+d+f+f+o+o+o+p+p+p+y+y+y+y+y+y+y+y+y+y+y+y+y+v+z+z+z+z+z+z+z+z+z+z+C+C+C+C+C+C+C+C+C+C+C+C+C+C+C+C+z+z+y+y+y+y+y+z+s+s+p+p+p+o+o+o+f+f+f+d+d+d+3+3+3+3+(+'+'+'+'+'+ + +R.R.R.J.J.J.J.J.J.s.s.s.s.s.l.l.l.l.l.l.l.l.l.s.s.s.J.J.J.J.P.P.X.X.X.X.-+)+)+)+_+_+_+2+2+b+e+a+a+a+a+9+9+",
". . . . . . . . . . . . . . . % . . . . . . . . . . . . . . . . . % > 6 A 4.A.~+l+B+E+F+G+G+G+G+G+G+G+G+G+G+G+G+G+G+G+F+F+F+G+G+G+G+G+G+F+F+D+F+D+D+D+D+D+D+D+D+D+D+C+C+C+C+C+C+C+C+z+z+z+A+z+z+A+A+u+u+r+r+k+k+e+3+b+_+_+1+1+1+1+)+)+1+'+)+ +'+~+a+9+n+n+x+u+x+x+x+D+D+D+D+C+u+j+~+R.3.W 4 ! . . . . . . . . . . . . . . . . . . . . . . - 2 E {.b.J.P.P.P.Q.Q.M.M.M.N.G.t.t.t.t.r.r.r.e.8.8.8.}.}.}.8.8.8.8.e.k.k.k.w.w.E.G.E.G.E.E.E.E.E.P.P.P.P.++X.++X.-+-+-+-+-+-+)+)+)+)+)+)+)+)+)+)+)+-+)+)+)+_+_+_+_+_+2+2+2+2+2+2+2+2+2+2+2+e+e+e+e+e+e+e+e+e+e+e+e+a+e+e+e+e+e+e+e+e+e+e+e+e+e+e+e+e+e+e+e+4+e+e+e+e+i+f+f+f+i+i+i+i+i+i+6+6+h+h+h+7+8+8+:+,+,+O.O.I.v.v.v.h.h.v.v.v.v.v.v.I.y.y.y.L.L.L..+.+.+*+*+*+*+/+/+/+/+/+/+/+/+/+/+*+*+*+*+/+/+*+&+*+*+*+*+*+*+*+.+.+.+.+.+.+.+.+.+.+.+.+.+.+Y.Y.,+,+,+,+(+3+3+d+f+f+o+i+q+p+p+p+p+p+p+y+w+w+y+y+y+y+y+y+y+y+v+z+z+z+z+z+z+z+z+z+y+C+C+C+C+C+C+C+C+C+C+C+C+C+C+C+y+z+z+y+y+y+z+z+z+s+p+p+p+p+p+p+o+o+f+f+d+d+d+d+d+d+3+3+(+(+'+'+'+'+'+ + + +R.R.R.J.J.J.J.J.J.s.s.s.s.s.s.s.s.s.s.s.J.J.J.J.J.P.P.P.X.X.X.X.-+-+-+)+)+_+_+_+2+2+2+b+b+a+a+b+a+a+",
". . . . . . . . . . . . . . % % % % % % . . . . . . . . . . . & > ^ 6 A ,.j.V.c+E+F+G+G+G+G+G+G+G+G+G+G+G+G+G+G+G+G+F+F+F+F+F+F+G+F+F+F+D+D+D+D+D+D+D+D+D+D+D+D+C+C+C+C+C+C+C+C+C+z+z+z+A+z+A+A+z+z+s+s+s+n+f+a+d+2+_+(+1+)+)+)+1+)+)+'+ + + +1+1+1+a+a+n+u+s+u+z+x+x+D+D+D+D+z+u+b+V.0.).G ! % . . . . . . . . . . . . . . . . . . . . . + ( E ..6.v.J.P.P.Q.Q.M.M.M.N.N.G.t.t.t.r.r.r.e.8.8.8.8.}.}.8.e.e.k.k.k.k.k.w.w.G.@+@+P.P.P.P.P.P.P.P.X.X.X.X.-+-+-+'+-+-+-+-+)+)+)+)+)+)+)+)+)+)+)+-+)+)+)+_+_+_+_+_+_+_+_+_+_+2+2+2+2+2+e+e+e+e+e+e+e+e+e+e+e+e+e+a+e+e+e+e+e+e+e+e+e+e+e+e+e+e+e+e+e+e+4+4+e+e+4+4+i+f+f+i+i+i+i+i+i+6+6+6+6+h+7+6+8+8+[+-+Y.Q.O.I.v.v.v.h.v.v.v.v.v.v.v.I.y.y.y.L.L..+.+.+.+*+&+*+*+/+/+/+/+/+/+/+/+/+/+/+/+/+/+/+/+/+/+*+*+*+*+*+*+*+.+.+.+.+.+.+.+.+.+.+.+.+.+.+.+.+Z.Z.,+,+(+3+d+d+f+f+o+q+q+p+p+p+p+p+p+p+w+w+y+y+y+y+y+y+y+y+v+z+z+z+z+z+z+z+z+z+y+C+C+C+C+C+C+C+C+C+C+C+C+C+z+z+z+z+z+z+z+z+z+z+z+s+p+p+p+p+p+p+p+o+o+f+f+d+d+d+d+d+d+d+3+(+(+(+(+(+'+'+ + + + +R.R.R.P.J.J.J.J.s.s.s.s.s.s.s.s.s.J.J.J.J.P.P.P.X.X.X.X.X.X.-+-+-+-+_+_+_+_+2+2+2+e+b+b+a+j+a+a+",
". . . . . . . . . . . . . . % % % % % % . . . . . . . . . . > ^ l A V ,.j.V.c+B+F+G+G+G+G+G+G+G+G+G+G+G+G+G+G+G+G+G+F+F+F+D+F+F+F+F+D+D+D+D+D+D+D+D+D+D+D+D+D+C+C+C+C+C+C+C+A+A+z+z+z+z+A+A+y+y+s+s+s+s+n+f+d+3+2+_+(+)+)+)+)+)+)+'+)+ + + + +'+1+1+a+a+a+j+u+x+x+u+x+z+D+D+D+D+x+b+V.n.).W 4 - % % . . . . . . . . . . . . . . . . . . . + _ k ..6.p.s.E.H.Q.Q.M.`.`.`.N.G.t.t.t.r.r.r.e.8.8.8.8.8.8.8.k.k.k.k.k.k.w.w.w.@+@+++++++++++++++++++X.X.X.-+-+'+-+-+-+-+-+(+_+_+)+)+)+)+)+)+)+_+)+-+_+_+_+_+_+_+_+_+_+_+_+_+_+2+2+2+2+2+e+e+e+2+e+e+e+e+e+e+e+2+e+a+e+e+e+e+e+e+e+e+e+e+e+e+e+e+e+e+k+k+4+4+e+e+4+4+f+f+f+i+i+i+i+i+i+6+6+6+6+6+6+6+8+8+[+-+Y.Q.I.I.v.v.v.v.v.v.v.v.v.v.v.I.y.y.y.L.L..+.+.+.+*+&+*+*+/+/+/+/+/+/+/+/+/+/+/+/+/+/+/+/+/+/+/+/+/+/+/+/+*+*+.+.+.+.+.+.+.+.+.+.+.+.+.+Z.Z.Z.Z.Y.,+[+3+d+d+f+i+o+q+q+p+p+p+p+q+p+w+w+w+p+p+y+y+y+y+y+y+v+z+z+z+z+z+z+z+z+z+z+C+C+C+C+y+C+C+C+C+C+C+C+C+z+z+z+z+z+z+z+z+y+y+y+y+p+p+p+p+p+p+p+p+o+f+f+d+d+d+d+f+f+d+3+3+3+(+(+(+(+'+'+'+ + + + +R.P.P.J.J.J.J.s.s.s.s.J.s.J.J.J.J.P.P.P.P.P.X.X.X.X.X.X.-+-+-+-+_+_+(+(+2+2+2+2+b+b+a+j+a+a+",
". . . . . . . . . . . . . . % % & & & % . . . . . . . . . . > l A ,.j.A.V.c+t+E+G+G+G+G+G+G+G+G+F+G+G+G+G+G+G+G+G+F+F+F+D+D+D+D+D+D+D+D+D+D+x+z+z+z+z+z+C+C+C+C+A+A+A+A+A+A+A+A+A+A+A+A+A+y+p+r+r+u+r+j+k+e+e+2+2+_+(+)+'+)+)+)+'+ + + + +R. + +1+1+1+a+9+l+l+s+u+u+u+z+C+C+C+C+x+l+~+D.0.).G 4 ! - - % . . . . . . . . . . . . . . . . . + _ k Y ^.p.v.v.H.H.P.Z.`.`.`.M.N.G.t.t.t.t.r.k.e.8.8.8.8.8.k.k.k.k.k.w.w.w.E.@+@+++++++++++++X.X.X.X.X.-+-+-+-+-+-+-+-+-+)+)+)+_+1+1+1+_+_+_+)+)+)+)+_+_+_+_+_+)+)+)+)+_+_+_+_+2+2+2+2+2+2+2+2+2+2+e+2+2+2+2+2+e+e+e+e+e+e+e+e+e+e+e+k+e+e+e+4+4+4+4+e+e+k+4+4+e+e+4+i+i+i+i+i+i+i+i+i+i+i+8+6+6+6+6+^+:+,+,+Z.Q.H.H.v.v.v.v.v.v.y.y.z.v.v.z.z.z.L.L.K.K.K..+.+&+&+*+*+*+/+/+/+/+/+/+/+/+/+/+/+/+/+/+/+/+/+/+/+/+/+/+/+*+*+*+.+.+.+.+.+.+.+U.U.Z.Z.Z.Z.Z.Z.Z.,+,+[+[+8+8+i+i+i+q+q+q+q+q+q+q+q+q+p+w+w+w+w+w+w+y+y+y+v+v+v+v+z+z+z+z+y+y+y+y+C+C+C+C+y+y+y+C+C+C+C+C+C+C+z+z+z+v+v+v+v+v+v+v+v+v+v+v+s+s+s+s+p+n+f+f+f+f+f+f+o+f+f+d+3+3+3+3+3+(+'+'+ + + + +R.P.P.P.J.J.J.J.J.J.J.J.J.J.J.P.P.P.P.P.P.P.X.X.X.X.X.-+)+)+)+)+_+_+_+_+2+2+2+2+2+e+b+a+j+j+",
". . . . . . . . . . . . . . % % & & % . . . . . . . . . % & 6 A ,.j.A.V.c+t+E+F+G+G+G+G+G+G+G+F+F+F+G+G+F+G+G+G+G+F+F+F+D+D+D+D+D+D+D+D+C+D+z+z+z+z+z+z+z+z+A+A+A+A+A+A+A+A+A+A+A+A+A+A+y+p+p+r+s+s+s+n+f+a+3+3+2+_+)+'+)+)+)+ + + + + + +R. + +'+1+1+1+a+9+l+n+j+j+u+u+z+C+C+C+x+l+~+V.n.3.W G 4 ! - % . . . . . . . . . . . . . . . . . + _ o Y {.a.p.v.H.H.++Z.`.`.`.`.N.G.G.t.t.t.t.r.r.k.e.k.k.k.r.r.k.t.w.w.w.w.G.@+@+++++++++++++X.X.X.X.-+-+-+-+[+[+[+[+(+-+'+)+_+_+1+1+1+_+_+_+_+)+)+)+)+_+_+_+)+)+)+)+)+)+_+_+_+_+2+2+2+2+2+2+2+2+2+2+2+2+2+2+2+2+e+e+e+e+e+e+e+e+e+e+e+e+e+e+4+4+4+4+e+e+4+4+4+e+4+4+i+i+i+i+i+i+i+i+i+i+i+6+6+6+6+6+6+:+,+,+Z.Q.H.H.v.v.v.v.v.v.v.y.z.z.z.z.z.T.L.L.K.K.K..+.+&+&+*+/+/+/+/+/+/+/+/+/+/+/+/+/+/+/+/+/+/+/+/+/+/+/+/+/+/+*+*+.+.+.+.+.+.+.+U.U.Z.Z.Z.Z.Z.Z.Z.,+,+[+[+8+8+i+i+i+i+q+q+q+q+p+p+p+p+w+w+w+w+w+w+w+w+y+y+v+v+v+v+z+z+z+z+y+y+z+z+z+z+z+z+y+y+y+y+C+C+C+C+C+C+C+z+z+z+v+v+s+s+s+s+s+s+s+s+s+s+s+p+p+p+n+f+f+f+f+o+o+o+f+f+d+d+d+3+3+(+'+'+ + + + +R.P.P.P.P.J.J.J.J.J.J.J.J.J.P.P.P.P.P.P.P.X.X.X.X.X.X.X.)+)+)+)+_+_+_+_+_+2+2+2+2+e+b+b+j+j+",
"% . . . . . . . . . . . . . % % & & % . . . . . . . . % > ^ A V j.A.~+c+t+E+F+G+G+G+G+G+G+F+F+F+F+F+F+F+F+F+F+F+F+F+F+E+D+D+D+D+D+D+D+D+x+z+z+z+z+z+z+z+A+A+A+A+A+A+A+A+A+A+A+A+A+A+A+y+p+p+r+r+s+s+n+n+f+d+3+3+(+(+'+'+'+ + + + + + + +R.R. + + +'+1+1+a+a+a+b+j+j+j+u+u+x+z+z+x+l+9+V.D.0.).W o ! - % . . . . . . . . . . . . . . . . . + , 3 E ..2.a.v.u.H.++Z.Z.Z.`.M.N.G.G.t.t.t.t.t.r.r.r.r.r.r.r.t.t.w.w.G.E.G.@+@+++++=+=+=+=+-+X.X.X.-+-+-+-+[+[+[+[+(+(+(+(+)+_+_+1+1+1+_+_+_+_+)+)+)+)+)+)+)+)+)+)+)+)+)+_+_+_+_+_+2+2+2+2+2+2+2+2+2+2+2+2+2+2+2+2+e+e+e+e+e+e+e+e+e+e+e+e+e+4+4+4+4+e+4+4+4+4+4+4+i+i+i+i+i+i+i+i+i+i+i+i+6+6+6+6+6+6+:+,+,+Z.Q.H.H.v.v.v.v.v.v.v.y.z.z.z.z.z.z.T.L.K.K.K..+.+&+&+&+/+/+/+/+/+/+/+/+/+/+/+/+/+/+/+/+/+/+/+/+/+/+/+/+/+/+*+*+*+.+.+.+.+.+U.U.U.U.Z.Z.Z.Z.Z.Z.,+,+[+[+8+8+8+i+i+i+q+q+q+p+y+y+y+w+w+w+w+w+w+w+w+w+w+y+v+v+v+v+z+z+z+z+y+y+y+z+z+z+z+z+y+z+z+z+y+C+C+y+C+C+C+y+z+z+z+z+s+s+s+s+s+s+s+s+z+s+s+p+p+p+p+o+f+f+f+f+f+o+f+f+f+d+d+3+3+(+'+'+ + + + +R.R.P.P.P.P.P.P.J.J.J.J.J.P.P.P.P.X.X.X.X.X.X.X.X.X.X.-+)+)+)+)+_+_+_+_+_+2+2+2+e+e+b+b+j+j+",
"% % % . . . . . . . . . . . . % & & & % % . . . . . % ^ l A ,.j.V.~+c+t+E+F+G+G+G+G+G+G+F+F+F+F+F+F+F+F+F+F+F+F+F+F+E+D+D+D+D+D+C+D+D+z+z+z+z+z+z+z+A+A+A+A+A+A+A+A+A+A+A+A+A+A+A+A+A+y+p+p+r+r+r+r+o+o+f+d+3+2+(+(+'+'+'+-+X.X.X. + + +R.R. + + +'+1+1+a+a+a+a+b+b+j+j+u+u+z+z+u+j+b+~+R.n.3.W G 4 - . . . . . . . . . . . . . . . . . . + * ( k S '.a.p.u.H.P.Z.Z.`.M.M.N.G.G.G.t.G.t.t.t.t.t.r.t.t.t.t.G.G.G.G.G.G.P.++++=+=+=+=+-+-+-+-+-+-+[+[+[+[+[+(+(+(+(+(+(+(+(+(+1+1+1+(+(+(+_+_+)+)+)+)+)+)+)+)+)+)+)+)+_+_+_+_+_+2+2+2+2+2+2+2+2+2+2+2+2+2+2+2+2+e+e+e+e+e+2+e+2+2+2+2+2+2+4+4+4+4+4+4+4+4+4+4+4+i+i+i+i+i+i+i+i+i+i+6+6+6+6+6+6+6+:+:+,+,+Z.Q.Q.H.v.v.v.v.v.v.v.y.z.z.z.z.z.z.y.K.K.T.T..+.+&+&+&+/+/+/+/+/+/+/+/+/+/+/+/+/+/+/+/+/+/+/+/+/+/+/+/+/+/+*+*+*+.+.+.+.+.+U.U.U.U.Z.Z.Q.Z.Z.Z.Z.,+[+[+[+8+8+8+i+i+q+q+p+y+y+y+w+w+w+w+w+w+w+w+w+w+w+w+v+v+v+v+z+z+z+z+y+y+y+y+z+z+z+z+z+z+z+z+z+z+z+z+z+z+z+z+z+z+z+s+s+s+s+s+s+s+s+s+s+s+s+p+p+p+o+o+f+f+f+f+f+f+f+f+f+d+d+3+3+(+'+'+'+ + + + +R.R.R.P.P.P.P.P.P.P.P.P.P.P.X.X.X.X.X.X.X.X.X.X.X.-+-+)+)+)+)+_+_+_+_+2+2+2+2+2+e+b+b+j+j+",
". . . . . . . . . . . . . . . . % & & > & % . . . . > 6 V 4.A.V.c+t+E+E+F+F+G+G+G+G+G+F+F+F+F+F+F+F+F+F+F+F+E+E+E+E+E+D+D+D+D+D+x+z+z+z+z+z+z+z+A+A+A+A+A+A+A+A+A+A+A+A+A+A+A+A+A+A+y+y+y+p+r+r+r+r+r+o+f+d+e+2+(+(+'+'+'+ +X.X. + + + + + + + + +'+'+(+_+b+b+b+2+b+b+j+j+u+u+z+z+u+j+b+V.D.0.).G 4 ! % . . . . . . . . . . . . . . . . . . + * 3 v S 2.a.p.u.P.++Z.Q.M.M.G.G.G.G.G.G.G.G.G.t.t.t.t.G.G.N.N.M.N.M.G.G.P.++++=+=+[+[+[+[+[+[+[+[+[+8+4+4+3+3+2+2+(+(+(+(+(+_+1+1+1+_+_+(+_+_+)+)+)+)+)+)+)+)+)+)+)+)+)+_+_+_+2+2+2+2+2+2+2+2+2+2+2+2+2+2+2+2+2+2+2+2+2+2+2+2+2+2+2+2+2+2+4+4+4+4+4+4+4+4+4+4+4+4+i+i+i+i+i+i+i+i+6+6+6+6+7+7+6+6+:+:+,+,+Z.Q.Q.H.H.v.v.v.v.v.v.y.z.z.z.z.z.z.T.T.T.T.T.T.T.&+&+&+&+&+/+/+/+&+/+/+&+&+/+/+/+/+/+/+/+/+/+/+/+/+/+/+&+&+&+&+&+U.T.T.U.U.U.U.U.U.U.U.Q.Q.Q.Q.Z.,+[+[+[+8+8+8+i+i+q+q+p+y+y+w+w+w+w+w+w+w+w+w+w+w+w+w+v+v+v+v+z+z+z+z+y+y+y+z+z+z+z+z+z+z+z+z+z+z+z+z+z+z+z+z+z+z+s+s+s+s+s+s+s+s+s+s+s+s+s+p+p+p+o+o+f+f+f+f+f+f+f+f+d+d+d+3+3+(+'+'+'+ + + + + + +X.R.R.R.R.R.R.R.R.P.P.X.X.X.X.X.X.X.X.X.X.X.-+-+-+-+-+-+_+_+_+_+_+2+2+2+2+2+e+b+a+j+j+",
". . . . . . . . . . . . . . . . % & > > & % . . . % ^ A ,.A.>+c+B+E+G+G+G+G+G+G+G+G+G+F+F+F+F+F+F+F+F+F+F+E+E+E+E+E+D+D+D+x+D+D+z+z+z+z+z+z+z+z+A+A+A+A+A+A+A+A+A+A+A+A+A+A+A+A+A+y+y+y+p+r+r+r+p+p+o+o+f+d+3+3+(+'+'+'+X.X.X.X.X.X. +X.X.X. + +'+'+'+'+(+(+(+_+_+_+2+e+j+j+u+z+A+u+u+j+1+R.n.).W o ! % . . . . . . . . . . . . . . . + + . + + , [ v '.2.a.u.H.Z.Q.Q.M.M.G.G.G.G.G.G.G.t.G.G.G.G.N.N.N.N.@+@+@+P.M.E.P.++++=+[+[+[+[+[+[+[+[+3+8+e+e+d+d+d+3+e+3+3+3+2+3+3+a+b+b+2+2+2+_+_+_+_+)+)+)+)+)+)+)+)+)+)+)+_+_+_+_+2+2+2+2+2+2+2+2+2+2+2+2+2+2+2+2+2+2+2+2+2+2+2+2+2+2+2+2+2+4+4+4+4+4+4+4+4+4+4+4+4+8+8+i+i+i+i+i+i+6+6+6+6+6+6+6+:+:+:+,+,+Z.Q.Q.H.H.u.u.v.v.v.v.v.z.z.z.z.z.z.T.T.T.T.T.T.T.&+&+&+&+&+&+/+/+&+/+/+/+/+/+&+/+/+/+/+/+/+/+/+/+/+/+*+&+&+&+&+T.T.T.T.T.U.U.U.U.U.U.U.H.H.Q.Q.Z.,+-+[+[+8+8+8+i+i+q+q+p+y+w+w+w+w+w+w+w+w+w+w+w+w+y+y+v+v+v+v+z+z+z+z+z+y+z+z+z+z+z+z+z+z+s+s+s+z+z+z+z+z+s+s+s+s+s+s+s+s+s+s+s+s+s+s+s+s+s+p+p+p+o+o+f+f+f+f+f+f+f+d+d+d+d+3+3+(+'+'+'+'+ + + + +X.X. + + +R.R.R.R.R.P.X.X.X.X.X.X.X.X.X.-+-+-+-+-+-+-+-+_+_+2+2+2+2+2+2+e+e+2+e+b+b+j+j+",
". . . . . . . . . . . . . . . . % & > & % . . . % ^ A ,.j.V.c+t+E+G+G+G+G+G+G+G+G+G+G+G+G+F+F+G+F+F+F+F+F+E+E+E+E+D+D+D+x+x+D+D+z+z+z+z+z+z+A+z+A+A+A+A+A+A+A+A+A+A+A+A+A+A+A+A+A+p+p+r+p+p+r+r+o+o+o+o+f+d+3+3+(+'+'+X.X.X.X.X.X.X.P.P.P.X. + + +'+'+'+)+)+)+_+_+_+2+2+e+k+u+u+u+u+u+j+b+)+D.3.).G 4 ! . . . . . . . . . . . . . + + . . . + + = [ v S 2.a.u.H.Q.Q.Q.M.M.M.N.N.G.G.G.G.G.G.G.G.N.N.N.N.@+@+@+@+P.P.P.P.++=+[+[+8+8+8+[+[+[+3+d+i+i+i+d+d+d+d+d+d+3+3+3+3+3+a+a+a+2+2+2+2+2+_+_+_+_+)+)+)+)+)+)+)+)+)+)+_+_+_+_+4+2+2+2+2+2+2+2+2+2+2+2+2+2+2+2+2+2+2+2+2+2+2+4+2+2+2+2+4+4+4+4+4+4+4+4+4+4+4+4+8+8+8+8+i+i+8+8+6+6+6+6+6+6+6+:+:+:+,+,+Z.Q.Q.H.H.u.u.v.v.H.H.H.z.z.z.z.z.z.T.T.T.T.T.T.T.T.&+&+&+&+&+&+/+*+&+&+&+&+&+&+*+/+/+&+/+/+/+/+/+/+*+*+*+&+T.T.T.T.T.T.T.T.U.U.U.U.U.U.U.U.Q.Q.Z.,+-+,+[+8+8+i+i+i+q+q+q+w+w+w+w+w+w+w+w+w+w+w+w+w+w+w+v+v+v+v+p+p+p+p+p+s+s+s+s+s+s+z+s+s+s+s+s+s+s+s+s+s+s+s+s+s+s+s+s+s+s+s+s+s+s+s+s+s+s+p+p+p+o+o+f+f+f+f+f+f+f+d+d+d+d+d+3+(+'+'+'+'+ + + +X.X.X. + + +R.R.R.R.R.X.X.X.X.X.X.X.-+-+-+-+-+-+-+-+-+_+_+_+2+2+2+2+2+e+e+e+e+e+e+b+b+j+j+",
". . . . . . . . . . . . . . . . . % & % . . % & ^ l ,.j.A.V.c+E+F+G+G+G+G+G+G+G+G+F+G+G+G+G+G+G+F+F+F+F+F+E+E+E+E+D+D+D+x+D+D+D+z+z+z+z+z+A+A+z+z+z+A+A+A+A+A+A+A+A+A+A+A+A+q+r+r+r+r+p+p+p+r+r+o+o+o+f+f+d+3+(+'+'+'+X.X.X.X.++X.P.P.P.P.P. + + + +'+'+)+)+)+)+_+_+2+2+e+e+j+u+u+u+u+u+b+)+R.0.).W m 4 - . . . . . . . . . . . . + . . . . + + = : g P '.2.a.u.Q.Q.Q.M.`.`.`.M.M.M.N.G.G.N.N.N.N.N.N.N.@+@+@+@+Z.P.P.++=+[+[+[+8+8+8+3+3+3+d+f+f+k+f+f+d+f+f+d+d+d+3+3+3+3+a+a+a+2+2+2+2+2+2+_+_+_+_+)+)+)+)+)+)+)+)+)+_+_+_+_+4+_+2+_+_+_+_+2+2+2+2+2+2+2+2+2+2+2+2+2+2+2+4+4+2+2+2+2+4+4+4+4+4+4+4+4+4+4+4+4+8+8+8+8+8+8+8+8+6+6+6+6+6+6+:+:+:+,+,+,+Z.Q.Q.H.H.H.u.H.H.H.H.H.H.H.z.z.z.z.T.T.T.T.T.T.T.T.T.T.T.&+&+&+&+&+&+&+*+*+*+*+*+*+*+*+/+/+/+/+*+*+*+*+&+T.T.T.T.T.T.T.T.T.U.U.U.U.U.U.Q.Q.Z.Z.,+,+-+,+[+8+8+i+i+q+q+q+w+w+w+w+w+w+w+w+w+w+w+w+w+w+w+w+v+v+w+v+s+s+s+s+s+s+s+s+s+s+s+s+s+s+s+s+s+s+s+s+s+s+s+s+s+s+s+s+s+s+s+s+s+s+s+s+s+s+s+p+p+p+o+o+f+f+f+f+f+f+f+f+d+d+d+d+3+(+'+'+'+'+ + + +X.X.X. + +R.R.R.R.R.R.X.X.X.X.X.X.-+-+-+-+-+-+-+-+-+-+_+_+_+2+2+2+2+2+e+e+e+e+e+e+j+j+j+j+",
". . . . . . . . . . . . . . . . . . . . . . & 6 A V j.A.V.c+t+E+F+G+G+G+G+F+F+F+F+F+G+G+G+G+G+F+F+F+F+F+F+F+E+E+D+D+D+D+D+D+D+z+z+z+z+z+z+z+z+z+A+A+A+A+A+A+A+A+A+A+A+A+q+q+q+q+p+p+p+p+p+p+o+o+o+f+f+f+d+3+(+(+-+-+X.X.X.X.X.++P.P.P.P.P.P.P.X.X.X.X.X.'+'+'+'+(+_+2+2+e+e+k+k+r+r+r+u+j+1+ +D.0.).E m 4 & + . . . + + . . . . . . . . . + + + , < h z ` [.c.E.Q.Q.++Z.Z.Z.@+`.@+@+@+@+@+@+@+`.@+@+@+@+++=+++++++++++=+-+[+[+8+8+8+8+d+3+d+i+f+o+o+f+f+f+f+f+f+n+f+d+d+3+3+3+3+a+3+3+e+2+2+2+2+_+_+_+_+_+)+)+)+-+)+)+)+)+)+_+_+_+_+_+_+_+_+_+_+2+2+2+_+_+_+2+2+2+2+2+2+2+2+2+2+2+2+2+2+2+2+2+2+2+4+4+4+4+4+4+4+8+8+8+8+8+8+8+8+6+6+6+6+6+6+:+:+,+,+,+,+Z.Z.Q.H.H.H.H.H.H.H.H.U.T.T.z.z.z.z.z.z.y.y.y.y.z.T.T.T.T.&+&+&+&+&+&+&+&+&+&+&+&+&+&+&+&+&+&+&+&+&+&+&+T.T.T.T.T.T.T.z.T.T.U.U.U.U.U.U.U.Z.,+,+,+=+,+,+:+6+6+6+h+h+h+h+w+w+w+w+w+w+w+w+w+w+w+w+w+w+v+v+p+p+p+s+s+s+s+s+s+s+s+s+s+s+s+s+s+n+o+o+o+o+s+s+s+s+s+s+s+s+s+s+s+s+s+s+s+s+s+s+s+s+s+s+p+p+o+o+f+f+k+k+k+k+k+f+d+d+d+e+3+(+'+'+'+)+ + + +R.R. +R.R. + + + + + +X.X.X.X.-+-+-+-+)+)+-+-+-+-+-+[+_+_+2+2+e+e+e+e+e+e+k+k+k+j+j+j+a+a+",
". . . . . . . . . . . . . . . . . . . . . & ^ A ,.j.A.V.c+t+E+F+G+G+G+G+G+F+F+F+F+F+F+F+G+G+F+F+F+F+F+F+F+E+E+E+D+D+D+D+D+D+D+z+z+z+z+z+z+z+z+z+A+A+A+A+A+A+q+A+q+q+q+q+q+q+q+q+p+p+p+o+o+o+f+f+f+f+f+d+d+3+(+[+[+-+-+X.X.X.X.++P.P.P.P.P.P.P.X.++X.X.X.X.X.'+'+-+-+_+2+2+e+k+k+r+r+r+k+j+b+)+R.n.3.W G m , + + + + + + . . . . . . . . . + + + * ' [ g ` %.[.u.H.Q.++$+$+$+{+%+%+%+%+%+%+%+%+%+%+%+%+=+=+=+=+=+=+=+-+[+[+8+8+i+i+i+i+f+d+f+f+o+o+o+o+f+f+f+f+f+f+n+d+d+d+3+3+3+a+3+3+2+2+2+2+2+_+_+_+_+_+)+)+)+-+)+)+)+)+)+)+)+_+_+_+_+_+_+_+_+_+_+_+_+_+_+2+2+2+2+2+2+2+2+2+2+2+2+2+2+2+2+2+2+2+4+4+4+4+4+4+4+8+8+8+8+8+8+8+8+8+6+6+:+:+:+:+,+,+,+,+,+Z.Q.Q.H.H.H.H.H.H.H.U.U.T.T.z.z.z.z.z.z.z.z.z.z.z.z.z.T.T.T.&+&+&+&+&+&+&+&+&+&+&+&+&+&+&+&+&+&+&+&+T.T.T.T.T.T.T.T.T.T.T.T.T.U.U.U.&+&+&+,+,+,+,+-+,+:+:+6+6+6+h+h+h+h+w+w+w+w+w+w+w+w+w+w+w+w+w+w+w+p+p+p+p+p+p+p+p+p+s+s+s+s+s+s+s+r+r+j+n+j+j+j+r+r+s+s+s+s+s+s+s+s+s+s+s+s+s+s+s+s+s+s+s+s+r+r+r+o+f+f+f+f+f+f+k+f+d+d+3+3+3+(+'+'+'+)+)+ + + + + + + + + +)+)+)+)+ + +)+)+)+)+)+)+)+)+-+-+-+-+[+[+2+2+2+2+2+2+2+2+e+e+e+e+e+j+j+a+n+n+",
". . . . . . . . . . . . . . . . . . . . . ^ l V j.A.~+c+t+E+F+G+G+G+G+G+G+G+G+G+G+G+G+G+G+F+F+F+F+F+F+E+E+E+E+B+D+D+D+D+D+D+D+x+z+z+z+z+z+z+z+z+A+A+A+A+r+r+q+q+q+q+q+q+q+q+q+q+p+o+o+o+o+o+f+f+7+7+7+7+7+}+:+!+,+-+X.Z.Z.++++P.P.P.P.P.P.P.P.X.X.X.X.X.X.X.X.X.-+-+-+[+4+4+4+i+q+k+k+k+k+b+1+R.D.0.).W m _ + + + + + + . . . . . . . . . . + + * ' : 7 z Z [.a.u.H.Z.$+|+^+^+{+{+{+{+{+{+{+{+{+{+{+{+|+|+|+|+|+:+:+[+8+8+i+i+q+i+i+i+f+f+f+f+o+o+o+o+o+o+f+f+f+n+n+d+d+d+3+3+3+1+3+3+2+2+2+2+2+_+_+_+_+)+)+)+)+-+)+)+)+)+)+)+)+)+)+)+)+)+)+_+(+_+_+(+(+(+_+(+3+3+3+3+3+2+2+2+2+2+2+2+2+2+2+2+2+2+4+4+4+4+4+4+4+[+[+|+5+8+8+8+8+8+^+:+:+:+:+,+$+$+$+$+,+Z.Z.Q.Q.H.H.H.H.U.U.U.U.T.T.T.z.z.z.z.z.z.z.o.z.z.z.z.z.z.T.T.T.T.T.T.T.T.T.T.T.T.T.T.T.&+&+&+&+&+T.T.T.T.T.T.T.T.T.T.U.T.T.U.U.U.&+$+&+$+$+$+$+$+=+^+|+[+8+8+6+6+h+h+h+h+h+h+w+w+h+h+h+h+h+h+h+q+q+i+o+o+o+o+o+o+o+o+o+s+s+r+r+r+r+r+r+k+k+k+k+k+k+k+r+r+r+r+r+r+r+r+r+r+r+r+r+u+u+r+r+r+r+r+r+r+r+r+k+k+k+k+k+k+k+k+k+d+d+e+2+(+(+'+'+)+)+)+)+ + + + +)+)+)+)+)+)+)+)+)+)+)+)+)+)+)+)+)+)+-+-+[+[+[+4+4+4+2+2+2+2+2+2+e+e+e+e+e+b+j+a+n+n+",
". . . . . . . . . . . . . . . . . . . . & 6 V 4.A.>+c+t+B+F+G+G+G+G+G+G+G+G+G+G+G+G+G+G+G+F+F+F+F+F+E+E+E+B+E+E+D+D+D+D+D+D+x+x+z+z+z+z+z+z+z+z+A+A+A+p+r+q+q+q+i+i+i+i+q+i+i+i+q+i+i+i+i+i+i+i+6+6+6+6+:+:+,+,+,+,+,+Z.Z.++P.P.P.P.P.P.P.P.P.P.++++P.Q.P.X.X.X.-+-+-+[+4+4+4+i+k+k+k+k+k+e+2+)+R.q.3.W G _ + + + + + + + + + . + . . . . . + + + = ' [ j Z %.[.u.H.Z.$+:+5+5+5+{+{+{+5+5+5+{+{+{+{+{+5+5+5+5+8+6+6+6+8+6+i+q+q+q+q+i+o+o+f+f+o+o+o+o+o+f+f+f+f+n+a+a+d+3+3+3+3+1+(+(+3+2+2+_+_+_+_+_+)+)+)+)+)+-+)+)+)+)+)+)+)+'+)+)+)+)+)+)+)+_+_+(+(+(+(+(+(+3+3+3+3+2+2+2+2+2+2+2+2+2+2+2+2+2+4+4+4+4+4+4+4+|+|+|+5+5+5+5+5+5+5+^+^+^+^+^+$+=+=+$+,+,+Z.Z.Q.U.U.H.U.U.U.T.T.T.T.T.T.T.z.z.z.z.z.z.z.z.z.z.z.B.B.z.T.T.T.T.T.T.T.T.T.T.T.T.T.T.T.T.T.T.T.T.T.T.T.T.U.U.U.U.U.U.U.U.U.#+$+$+$+$+$+$+$+=+=+|+|+|+5+5+g+i+h+h+h+h+h+h+w+h+h+h+h+h+i+i+i+i+i+i+i+f+o+o+o+o+o+o+o+n+j+k+k+k+r+r+k+k+k+k+k+k+k+r+r+r+r+r+r+r+r+r+r+r+r+r+r+u+u+r+r+r+r+r+r+r+r+r+k+k+k+k+k+k+k+k+k+e+e+2+2+_+_+'+)+)+)+)+)+)+)+)+)+)+)+)+)+)+)+)+)+)+)+)+)+)+)+)+)+_+_+_+[+[+4+4+4+4+4+4+2+2+2+2+2+2+2+e+e+e+b+b+a+a+a+",
". . . . . . . . . . . . . . . . . . . % ^ A ,.j.V.c+t+B+F+G+G+G+G+G+G+G+G+G+G+G+G+G+G+G+F+F+F+F+F+F+E+E+B+B+E+E+D+D+D+D+x+x+x+z+z+z+z+z+z+z+z+z+A+r+r+r+r+i+i+i+i+i+i+i+i+i+i+i+i+i+i+i+i+h+8+8+6+6+6+6+:+:+,+,+,+,+Z.Z.Z.Z.Q.Q.P.Q.H.H.Q.P.P.P.P.Q.Q.Q.Q.Q.Z.X.++=+=+[+[+4+4+4+i+i+k+k+k+k+2+)+R.D.0.).G 1 * + . + + + + + + + . . . . . . + + + + = ' [ t ` [.p.H.Z.[+[+5+5+5+5+5+5+5+5+5+5+5+5+5+5+5+5+5+8+8+8+8+8+6+h+h+w+w+q+q+q+o+o+o+o+o+o+o+o+f+f+f+f+n+n+a+a+a+3+3+3+3+1+(+(+(+(+_+_+_+_+)+)+)+)+)+)+)+-+)+)+)+)+)+)+)+)+)+)+)+)+)+)+)+)+_+(+(+(+(+(+(+(+(+(+(+(+3+3+3+2+2+2+2+2+2+2+2+2+4+4+4+4+4+4+4+|+|+|+5+5+5+5+5+5+5+5+|+^+^+^+^+=+=+$+,+,+,+Y.Z.Q.U.U.U.U.T.T.T.T.T.T.T.T.T.y.y.z.z.z.z.z.z.z.z.B.B.z.z.z.T.T.T.T.T.T.T.T.T.T.T.T.T.T.T.T.T.T.T.T.T.T.U.U.U.U.U.U.U.U.#+$+$+^+^+$+$+$+$+$+|+|+|+|+5+5+g+i+h+h+h+h+h+h+h+h+h+h+h+g+g+i+i+i+i+i+i+i+i+i+o+o+o+o+k+k+k+k+k+k+k+k+k+k+k+k+k+k+r+r+r+r+r+r+r+r+r+r+r+r+r+r+r+r+r+r+r+r+r+r+r+r+r+r+k+k+k+k+k+k+k+k+k+e+e+2+2+_+_+'+)+)+)+)+)+)+)+)+)+)+)+)+)+)+)+)+)+)+)+)+)+)+)+)+_+_+_+[+4+4+4+4+4+[+4+4+4+_+2+2+2+2+2+2+e+e+b+b+a+a+a+",
". . . . . . . . . . . . . . . . . . . % 6 V 4.A.>+c+B+E+F+G+G+G+G+G+G+G+G+G+G+F+G+F+F+F+F+F+F+F+F+F+E+B+B+E+E+E+D+D+D+x+x+z+z+u+s+s+s+u+u+u+u+u+r+r+o+o+i+i+i+i+i+i+i+i+i+i+i+i+i+i+i+h+h+6+6+6+8+6+6+:+:+:+,+,+,+Z.Z.Z.Z.Q.Q.Q.Q.Q.H.H.H.Q.Q.Q.Q.Q.Q.Q.Q.Q.Q.++++Z.=+[+[+[+4+4+e+4+f+o+o+n+a+1+R.D.0.).G 1 * + + . + + + + + + % . . . . . + + + + = ' : j ` %.c.v.Z.[+8+8+g+g+5+5+5+g+g+5+5+5+5+5+5+5+5+8+8+i+8+8+8+i+i+i+h+w+q+q+i+o+o+o+f+f+o+o+o+f+f+n+n+n+f+n+a+a+d+3+3+3+1+3+(+(+(+(+(+_+)+)+)+)+)+)+)+)+)+)+)+)+)+)+)+)+)+)+)+)+)+)+)+)+)+_+_+(+(+(+(+(+(+(+(+(+(+3+2+2+2+2+2+2+2+2+2+2+2+4+4+4+4+4+4+4+|+|+|+5+8+8+8+8+8+8+8+[+^+^+^+^+[+|+^+,+,+,+,+Z.Z.Q.U.U.U.U.T.T.T.T.T.T.T.T.y.y.z.z.z.z.z.z.z.z.z.z.z.z.z.T.T.T.T.T.T.T.T.T.T.T.T.T.T.T.T.T.T.&+&+&+&+&+&+&+&+#+&+&+&+&+&+,+,+,+,+,+$+,+^+[+:+^+[+8+8+6+h+h+h+h+h+h+h+h+h+h+h+h+i+i+i+i+i+i+i+i+i+i+i+k+k+f+k+k+k+k+k+k+k+k+k+k+e+k+k+k+k+r+r+r+r+r+r+r+r+r+r+r+r+r+r+r+r+r+r+r+r+r+r+r+r+r+r+r+k+k+k+k+k+k+k+k+e+e+e+2+2+_+)+)+)+)+)+)+)+)+)+)+)+)+)+)+)+)+)+)+)+)+)+)+_+_+_+_+_+_+4+4+4+4+4+4+4+4+4+4+4+_+2+2+2+2+2+2+2+b+b+b+a+a+",
". . . . . . . . . . . . . . . . . . & ^ l ,.j.V.c+t+E+F+G+G+G+G+G+G+G+G+G+F+F+F+F+F+F+F+F+F+F+F+F+E+B+B+B+B+B+B+x+x+x+x+x+x+u+u+u+u+u+u+u+u+j+j+k+k+f+i+i+i+i+i+i+i+i+i+i+i+i+i+i+i+h+h+6+6+6+6+:+:+:+:+:+,+,+,+Z.Z.Z.Z.Z.Q.Q.Q.M.M.M.H.H.H.H.Q.H.Q.Q.U.U.Q.Q.Q.Q.Z.++-+[+[+[+8+d+d+f+f+o+f+1+'+R.D.0.).E 1 * + . . . + + + + & - % . . . . . + + + * = : 7 t %.[.v.X.[+8+8+i+g+g+5+g+g+g+g+g+g+5+g+g+g+g+8+i+i+i+i+i+i+i+i+i+i+i+i+i+f+f+f+f+f+f+o+o+f+f+n+n+n+n+n+n+a+a+d+3+3+a+3+3+3+(+(+(+(+(+(+'+'+'+'+'+'+-+)+)+)+)+'+'+'+)+)+)+)+)+)+)+)+)+_+'+'+'+(+(+(+(+(+(+(+(+(+2+2+3+3+2+2+2+3+2+2+2+4+4+4+4+4+4+4+4+4+8+8+8+8+8+8+8+8+8+8+8+8+8+8+8+[+:+:+:+,+,+,+Z.Q.Q.U.U.U.U.U.T.T.T.T.T.T.y.y.z.z.z.z.z.z.z.z.z.z.z.z.z.z.T.T.T.T.T.T.T.T.T.T.T.T.T.T.T.T.T.&+&+&+&+&+&+&+&+&+&+&+&+&+,+,+,+,+,+,+,+,+,+[+:+:+:+6+8+6+6+6+6+6+6+h+h+h+h+h+h+h+i+i+i+i+i+i+i+i+i+i+i+f+f+f+k+k+k+k+k+k+k+k+k+k+k+k+k+k+k+k+r+r+r+r+r+r+r+r+r+r+r+r+r+r+r+r+r+r+r+r+r+r+r+r+k+k+k+k+k+k+k+k+k+k+e+e+e+2+2+_+_+)+)+)+)+)+)+_+_+_+_+_+_+_+_+_+_+)+)+_+_+_+_+_+_+2+2+_+4+4+4+4+4+[+4+4+4+4+4+4+_+2+2+2+2+2+2+b+b+b+a+a+",
". . . . . . . . . . . . . . . . . . > 6 V 4.A.~+l+B+F+G+G+G+G+G+G+G+G+G+G+F+F+F+F+F+F+F+F+F+F+F+E+E+B+B+t+B+B+x+x+u+x+x+j+j+j+j+j+j+j+j+j+j+j+j+k+k+k+e+4+i+i+i+i+i+i+i+i+6+6+6+i+6+6+6+6+6+:+:+:+:+,+,+,+&+&+U.Z.Z.Q.Q.Q.Q.Q.Q.M.M.M.G.H.H.H.H.H.Q.U.U.U.Q.Q.Q.Q.Q.Z.-+[+[+[+8+d+d+f+f+n+a+1+ +R.D.3.).s 9 * + . . + . + + - - & % . . . . . + + + + = ' [ t ` [.p.X.[+8+8+i+8+g+g+g+g+g+g+g+g+g+g+g+g+g+i+i+i+i+i+i+i+i+i+i+i+i+i+i+f+f+f+f+f+f+f+o+f+n+n+n+n+n+a+n+a+a+a+d+3+a+3+3+3+(+(+(+(+(+(+'+'+'+'+'+'+-+)+)+)+)+'+'+'+)+)+)+)+)+)+)+)+)+)+'+'+'+'+'+(+(+(+(+(+(+(+(+3+3+3+2+2+2+3+2+2+2+4+4+4+4+4+4+4+4+4+4+8+8+8+8+8+8+8+8+8+8+8+8+8+8+8+:+:+:+:+,+,+Z.Z.Q.U.U.U.U.U.T.T.T.T.T.T.y.y.z.z.z.z.z.z.z.z.z.z.z.z.z.z.z.z.z.T.T.T.T.T.T.T.T.T.T.T.T.T.T.T.&+&+&+&+&+,+&+,+&+&+&+&+,+,+,+,+,+,+,+,+,+[+:+:+:+6+6+6+6+6+6+6+6+6+h+h+h+h+h+h+h+h+i+i+i+i+i+i+i+i+i+f+f+f+k+k+k+k+k+e+k+k+k+k+k+k+k+k+k+k+k+k+r+r+r+r+r+r+r+r+u+u+u+u+u+u+r+r+r+r+r+r+k+k+k+k+k+k+k+k+k+k+k+k+e+e+e+2+2+_+_+_+_+_+_+_+_+_+_+_+_+_+_+_+_+_+1+1+)+_+_+_+_+_+2+2+2+2+4+4+4+4+4+[+4+4+4+4+4+4+2+2+2+2+2+e+e+b+b+a+a+a+",
". . . . . . . . . . . . . . . . $ $ 6 A ,.j.>+c+t+F+G+G+G+G+G+G+G+G+G+F+F+F+F+F+E+E+E+E+E+E+E+E+B+B+t+t+t+x+x+x+x+x+j+j+j+b+b+b+a+a+a+a+b+a+3+3+e+d+e+4+8+4+5+5+5+5+5+5+5+5+5+5+5+5+5+5+^+^+^+^+^+^+$+$+$+Z.Z.Z.Q.Q.Q.Q.M.M.M.M.M.M.M.M.G.B.B.B.M.M.M.S.S.S.M.M.Q.Q.Z.$+|+[+[+[+3+d+f+f+n+a+<+!+O.C.|.~.v 3 , + . . + + + + & & % % . . . . . + + + + + ' : h z '.a.R.[+8+8+g+g+g+g+g+g+g+g+g+g+g+g+g+g+g+i+i+i+i+i+i+i+i+i+i+h+i+i+i+h+f+f+f+f+f+f+f+f+f+f+f+f+f+f+f+n+a+a+a+d+a+a+3+3+3+3+(+(+(+(+(+'+'+'+'+)+)+)+)+)+)+)+)+)+)+)+)+)+)+'+'+)+)+_+_+_+'+'+'+'+(+(+(+(+(+(+(+(+_+2+2+2+2+2+4+4+3+3+4+4+4+4+8+8+8+8+8+8+8+8+8+8+8+8+8+8+8+8+8+8+8+8+[+:+:+,+,+,+Z.U.U.U.U.T.T.T.T.T.T.T.T.T.y.y.z.z.z.z.z.z.z.z.o.z.z.z.z.z.z.z.z.z.z.z.T.T.T.T.T.T.T.T.T.T.T.T.&+&+&+&+,+,+,+,+&+,+&+,+,+,+,+,+,+,+,+,+,+,+:+:+:+:+6+6+6+6+6+6+6+6+h+h+h+h+i+i+h+i+i+i+g+i+i+i+i+i+i+i+f+k+k+e+e+e+e+e+e+e+k+k+k+k+k+k+k+r+r+r+r+r+r+r+r+r+r+r+r+r+r+r+r+r+r+r+r+r+r+r+k+k+k+k+k+k+k+k+k+k+e+e+e+e+e+e+2+2+2+2+_+_+_+_+_+_+_+_+_+_+_+_+_+_+_+_+_+_+_+_+_+_+2+2+2+2+2+4+4+4+4+_+2+2+2+2+4+4+4+4+2+2+2+e+b+a+a+a+a+a+",
". . . . . . . . . . . . . . . % $ 6 l V j.A.c+t+B+F+G+G+G+G+G+G+G+G+G+G+F+F+F+E+E+E+E+B+B+B+B+B+B+t+t+l+l+l+l+l+l+l+j+j+b+b+b+b+a+a+a+a+b+a+2+2+2+3+4+4+4+5+5+5+5+5+5+5+5+5+^+^+^+^+^+^+^+^+^+^+^+$+$+$+Z.Z.U.U.Z.Z.Q.M.M.M.M.M.M.M.M.M.M.B.B.B.M.M.M.S.S.S.M.M.Q.Q.Z.$+^+|+|+[+3+d+d+f+a+a+<+1+O.C.0.).E 3 , * . . + + + + & % % . . . . . . + + + + + = ' [ z ..a.P.-+[+8+8+g+g+g+g+g+g+g+g+g+g+g+g+g+g+i+i+i+i+i+i+i+i+i+i+h+i+i+i+i+f+f+f+f+f+f+f+f+f+f+f+f+f+f+f+f+n+n+a+a+a+d+3+3+3+3+3+(+(+(+(+'+'+'+'+'+)+)+)+)+)+)+)+)+)+)+)+)+'+'+'+)+_+(+(+(+'+'+(+(+(+'+(+(+(+(+(+3+3+3+2+3+3+3+4+4+2+2+4+4+4+4+8+8+8+8+8+8+8+8+8+8+8+8+8+8+8+8+8+8+[+[+[+:+:+:+,+,+Z.U.U.U.U.T.T.T.T.T.T.T.T.y.y.y.z.z.z.z.z.z.z.z.o.o.o.z.z.z.z.z.z.z.z.z.z.T.T.T.T.T.T.T.T.T.T.T.T.&+&+,+,+:+:+:+,+,+,+,+,+,+,+,+,+,+,+,+,+:+:+:+:+6+6+8+6+6+6+6+6+6+h+h+h+i+h+6+7+6+6+i+i+i+8+8+8+8+8+4+f+f+f+a+k+k+k+e+e+e+e+k+e+k+k+k+k+k+r+r+r+r+r+r+r+r+r+r+r+r+r+r+r+r+r+r+k+r+r+k+k+k+k+k+k+k+k+k+k+k+e+e+e+e+e+e+2+2+2+2+2+2+_+_+_+_+_+_+_+_+_+2+2+2+_+_+_+_+_+_+_+_+2+2+2+2+2+2+4+4+4+2+2+2+2+2+4+4+4+4+e+e+e+e+b+b+a+a+9+9+",
". . . . . . . . . . . . . . . % ] 6 V 4.A.>+c+B+F+G+G+G+G+G+G+G+G+G+G+F+F+F+F+E+B+B+B+B+B+B+B+t+t+t+l+c+c+l+l+l+9+j+b+b+b+b+b+b+1+b+b+b+2+b+2+2+2+2+4+4+[+[+|+|+|+|+|+|+^+^+^+^+^+^+^+^+^+$+$+$+^+$+$+$+Z.Z.Z.Z.Z.`.`.M.M.M.M.M.M.M.M.M.G.G.G.G.M.M.M.U.U.S.S.M.Z.Z.$+$+$+$+:+|+8+8+d+d+7+a+<+<+ +C.0.'.E 3 _ * . + + + + + * % . . . . . . . + + + + + + = [ z S 2.J. +[+8+8+g+g+g+g+g+g+g+g+g+g+g+g+g+g+i+i+i+i+i+i+i+i+i+i+i+i+i+i+i+i+o+f+f+f+f+f+f+f+f+f+f+f+f+f+f+f+f+f+f+d+d+3+3+3+3+3+3+(+(+(+(+(+'+'+'+'+'+)+)+'+)+)+)+)+)+'+'+'+'+'+'+)+'+(+(+'+'+(+(+'+'+'+(+(+(+(+3+(+3+2+2+2+2+4+4+3+3+3+4+4+8+8+8+[+8+8+8+8+8+8+8+8+8+8+8+8+8+[+:+[+[+,+,+:+:+,+,+,+U.U.U.U.T.U.T.T.T.T.T.T.y.y.y.o.o.o.o.o.o.o.o.o.o.o.o.o.o.o.o.o.o.o.o.y.y.y.y.T.T.T.T.T.T.T.T.T.&+&+&+,+:+/+/+:+:+,+,+,+,+&+&+,+,+,+:+:+:+:+:+:+6+6+6+6+6+6+7+7+6+h+h+h+h+6+6+7+6+6+8+8+8+8+8+8+8+d+d+d+d+d+a+k+k+k+e+e+e+e+e+e+e+k+k+k+k+r+r+r+r+r+k+k+k+r+r+r+r+r+r+r+r+k+k+k+k+k+k+k+k+e+e+e+e+e+e+e+e+e+e+2+2+2+2+2+2+2+2+2+2+_+_+_+_+_+_+_+_+2+2+2+2+2+_+_+_+_+_+_+_+2+2+b+2+2+2+2+2+2+2+2+2+2+2+2+2+4+4+e+e+e+e+b+b+a+a+9+9+",
"% . . . . . . . . . . . . % & > ] l ,.j.A.]+t+E+F+G+G+G+G+G+G+G+G+G+G+F+F+F+E+B+B+B+B+B+B+t+t+t+t+l+l+c+9+9+9+9+b+j+b+b+b+b+b+b+b+b+b+b+b+b+2+2+2+2+(+[+[+[+[+|+|+|+|+^+^+^+^+$+%+%+%+%+%+%+%+%+$+$+$+Z.Z.Z.Z.Z.Q.Q.M.M.M.M.G.G.G.G.G.G.G.G.G.G.G.M.M.M.S.S.S.S.Z.Z.%+%+{+$+$+:+:+:+8+3+7+3+}+<+Y.D.n.3.Y k ( + + + + + + * * + . . . . . . . + + + + + + + : v S 2.J. +[+8+8+8+g+g+g+g+g+g+g+g+g+g+g+g+g+i+i+i+i+i+i+i+i+i+i+i+i+i+i+i+i+i+i+i+f+f+f+f+f+i+i+i+i+i+f+f+f+f+f+f+d+d+d+3+3+3+3+3+(+(+(+(+(+(+'+'+'+'+'+'+)+)+)+)+)+'+'+'+'+'+'+'+'+'+'+'+'+'+'+(+'+'+'+'+'+(+(+(+(+(+(+3+3+3+4+4+(+(+(+3+[+8+8+8+[+[+8+8+8+8+8+3+3+8+8+3+3+8+(+[+[+,+,+!+:+}+!+*+,+U.U.U.U.T.T.T.K.K.K.K.T.y.y.y.o.o.o.o.o.o.o.o.o.o.o.o.o.o.o.o.o.o.o.o.y.y.y.T.T.L.L.L.L.L.L..+.+.+*+*+/+/+/+/+/+/+/+*+*+*+*+*+}+}+}+}+}+}+}+}+7+7+7+7+7+7+7+7+7+7+h+h+h+7+7+7+7+7+8+8+8+8+8+8+8+d+d+d+d+d+d+d+n+n+f+n+e+e+e+e+e+k+k+k+k+k+k+k+r+j+n+k+k+k+k+k+k+k+k+k+k+k+k+k+n+j+n+k+k+e+e+e+e+e+e+e+e+e+e+e+2+2+2+2+_+_+_+_+_+_+_+_+_+_+_+_+_+_+2+2+2+2+2+_+_+_+_+_+_+_+2+2+2+2+2+2+2+2+2+2+2+2+2+2+2+2+2+2+2+2+2+e+b+b+b+b+a+a+",
"% . . . . . . . . . . + + $ ] ] 6 V 4.A.>+c+B+F+G+G+G+G+G+G+G+G+G+G+F+F+F+E+B+B+B+B+B+B+B+t+t+t+t+l+l+c+9+9+9+b+j+j+j+j+j+b+b+b+e+b+b+b+b+b+2+2+3+2+3+[+[+[+[+|+|+|+|+|+^+^+$+$+%+%+%+%+`.`.`.`.`.`.`.`.`.M.M.M.M.M.M.M.G.G.G.G.G.G.G.G.G.G.G.G.G.M.M.S.S.S.S.M.`.`.%+%+%+%+$+$+:+:+:+8+3+3+}+'+ +R.q.6.Y k ( * + + + + * * * + + . . . . . . . + + + + + + ( v '.6.J. +[+8+8+i+g+g+g+g+g+g+g+g+g+g+g+g+g+i+i+i+i+i+i+i+i+i+i+i+i+i+i+i+i+i+i+i+i+i+i+i+i+i+i+i+i+i+i+i+i+f+f+f+d+d+d+d+d+3+3+(+(+(+(+(+(+'+'+'+'+'+'+'+'+'+)+)+)+'+'+'+'+'+'+'+'+'+'+'+'+'+(+(+(+(+(+'+'+'+'+(+(+(+(+(+(+(+[+[+(+(+(+(+(+(+3+3+(+3+3+3+3+3+3+3+3+3+3+3+3+(+}+}+}+!+!+!+!+*+*+*+,+U.U.U.U.T.T.T.K.K.K.T.y.y.y.y.y.o.o.o.o.o.o.o.o.o.o.o.o.o.o.o.o.o.o.y.y.y.L.y.K.K.K.K.L.L.L..+.+.+*+*+/+/+/+/+/+/+/+/+/+/+/+*+/+}+}+}+}+}+}+}+7+7+7+7+7+7+7+7+7+7+7+7+7+7+7+7+7+7+7+8+8+8+d+3+d+d+d+d+d+d+d+d+d+f+n+n+f+a+a+a+a+a+f+n+n+n+n+n+n+n+f+n+n+f+f+n+n+n+n+n+n+n+n+o+n+n+n+k+k+e+e+2+e+e+e+e+e+e+2+2+2+2+_+_+_+_+_+_+_+_+_+_+_+_+_+_+_+_+2+2+2+2+_+_+_+_+_+_+_+_+2+2+2+2+2+2+2+2+2+2+2+2+2+2+2+2+2+2+2+2+2+2+2+a+a+a+a+a+",
"% . . . . . . . . . . + + $ ] 6 l V j.A.>+t+E+F+G+G+G+G+G+G+F+F+F+F+F+F+E+E+B+B+B+B+B+B+B+t+t+t+t+l+l+c+l+l+j+j+j+j+j+j+j+j+b+b+b+b+j+j+j+a+d+e+3+3+3+8+[+[+[+[+|+|+|+|+|+=+=+$+`.`.`.`.`.`.`.`.M.N.N.N.M.M.M.M.M.M.M.N.G.G.G.G.G.G.G.G.G.G.G.G.G.G.M.M.`.`.`.M.`.`.%+;+%+%+%+$+$+^+:+[+8+3+(+'+ +R.q.6.Y k < - + + + % - , * * + . + . . . . . + + + + + + ( o ..6.J. +(+8+i+i+8+g+g+g+g+g+g+8+g+g+g+g+g+i+i+i+i+i+i+i+i+i+g+g+i+i+i+i+i+i+i+i+i+i+i+i+i+i+i+i+i+i+i+i+f+i+i+i+d+d+d+d+d+3+3+(+(+(+(+(+(+'+'+'+'+'+'+'+'+'+ + +'+'+'+'+'+'+'+'+'+'+'+'+'+(+(+(+(+(+(+(+'+'+'+'+(+(+(+(+(+(+[+[+[+(+(+(+(+(+(+(+(+(+3+(+(+(+(+(+(+(+(+(+(+(+(+}+}+!+!+!+!+*+*+*+.+.+.+.+.+.+.+.+K.K.K.y.y.y.y.y.y.y.o.o.o.y.y.y.o.o.o.o.o.o.o.o.o.o.y.y.y.y.L.L.K.K.K.K.L.L..+.+.+.+*+*+/+/+/+/+/+/+/+/+/+/+/+*+*+}+}+}+}+}+}+}+}+7+7+7+7+7+7+7+7+7+7+7+7+7+7+7+7+7+7+d+d+d+3+3+d+d+d+d+d+d+d+d+a+a+a+a+a+d+d+d+d+f+f+o+o+o+o+o+f+f+d+d+d+f+d+d+n+n+f+f+f+o+o+o+n+n+n+n+k+e+e+e+e+e+e+e+e+e+2+2+2+2+_+_+_+_+_+_+_+_+_+_+_+_+_+_+_+_+2+2+2+_+_+_+)+_+_+_+_+_+2+2+2+2+2+2+2+2+2+2+2+2+2+2+2+2+2+2+2+2+2+2+2+b+b+b+a+a+",
". . . . . . . . . . . + $ ] 6 6 A ,.A.>+c+B+E+G+G+G+F+F+F+F+F+F+F+F+F+E+E+B+B+B+B+t+t+t+t+t+t+t+t+t+l+l+l+l+j+l+j+j+u+u+k+k+j+j+k+k+k+k+k+k+a+a+d+d+3+3+8+[+[+[+|+|+|+|+|+=+++++@+@+@+@+`.`.`.`.N.N.N.N.N.N.N.N.N.N.N.N.G.G.t.t.t.t.t.t.t.t.t.t.G.N.M.`.`.`.`.`.`.`.W.W.;+%+%+%+$+=+$+|+[+[+[+(+ +R.q.6.Y k < - + + . % - - * * + + + . . + . . . + + + + + _ s ..6.J. +(+d+i+i+8+g+g+g+g+g+g+i+g+g+g+g+g+i+i+i+i+i+i+i+g+i+g+g+i+i+i+i+i+i+i+i+i+i+i+i+i+i+i+i+i+i+i+i+i+i+i+i+d+d+d+d+d+3+3+(+(+(+(+(+(+'+'+'+'+'+'+'+'+'+'+'+'+'+'+'+'+'+'+'+'+'+'+'+'+'+(+(+(+(+(+'+'+'+'+'+(+(+(+(+(+(+[+[+[+'+'+(+(+(+(+(+(+(+(+(+(+(+(+(+(+(+(+(+(+(+(+}+!+!+Y.*+*+*+*+*+.+.+.+.+.+.+.+.+K.K.K.y.y.y.y.y.y.y.o.o.y.y.y.y.F.F.o.o.o.o.y.y.y.y.y.y.y.y.y.L.K.K.K.K.L.L..+.+.+.+*+*+/+/+/+/+/+/+*+*+*+*+*+*+*+/+<+}+}+}+}+}+}+}+7+7+7+7+7+7+7+7+7+7+7+7+7+7+0+7+7+d+d+d+d+d+d+d+d+d+7+d+d+d+a+a+a+a+a+a+a+a+d+f+f+f+f+o+o+o+f+n+a+a+a+n+a+a+f+f+n+n+f+f+f+f+f+f+f+f+k+f+d+d+e+e+e+e+e+2+2+2+2+2+_+_+_+_+_+_+2+_+_+_+_+_+_+_+_+_+_+_+_+_+_+_+_+_+_+_+_+_+2+2+2+2+2+b+b+2+2+2+b+b+2+2+2+2+2+2+2+2+2+2+2+b+b+b+a+a+",
". . . . . . . . . . . $ $ ] 6 l V 4.A.>+t+E+F+G+G+G+F+F+F+F+F+F+F+F+E+E+B+B+B+B+B+t+t+t+t+B+t+t+t+t+t+l+x+x+u+u+u+u+u+u+r+r+j+j+k+k+r+r+r+j+j+j+d+d+d+8+8+[+[+[+|+|+|+|+=+=+@+@+Z.Z.Z.`.`.`.M.M.N.N.N.N.N.N.N.N.N.N.G.G.N.G.t.t.t.t.t.t.t.N.N.N.G.N.N.W.`.W.W.W.`.W.W.W.;+%+%+@+Z.++=+=+[+[+[+-+'+R.s.6...k < - + + . . & - - * + + + . . + . . + + + + + * 1 G ..a.J.'+(+d+8+8+i+g+g+g+g+g+g+i+g+g+g+g+g+i+i+i+i+i+i+i+g+i+g+i+i+i+i+i+i+i+i+i+i+i+i+i+i+i+i+i+i+i+i+i+i+i+i+i+d+d+d+d+d+d+3+3+(+(+(+(+(+'+'+'+'+'+'+'+'+'+'+'+'+'+'+'+'+'+'+'+'+'+'+'+'+'+'+'+'+'+'+'+'+'+'+'+'+'+(+(+(+'+[+-+-+'+'+'+'+'+(+(+(+(+(+(+'+(+(+'+(+(+(+(+'+'+'+!+!+Y.Y..+*+*+*+*+.+.+.+.+.+.+.+.+K.K.K.K.y.y.y.y.y.y.y.y.y.y.y.y.F.F.F.F.y.y.y.y.y.y.y.y.y.y.y.L.K.K.K.K.L.L..+.+.+.+*+*+*+/+/+/+/+*+*+*+*+*+*+*+*+/+<+}+}+}+}+}+}+}+}+7+7+7+7+7+7+7+7+7+7+7+7+7+0+0+7+d+d+d+d+d+d+d+d+7+7+7+d+d+a+a+a+a+a+a+a+a+a+a+a+n+n+n+n+n+f+n+n+n+n+f+n+a+a+a+a+a+a+a+a+n+n+f+f+f+f+f+f+f+d+d+3+3+e+3+2+2+2+2+2+2+2+2+2+2+2+2+_+_+_+_+_+_+_+_+_+_+_+_+_+_+_+_+_+_+_+_+2+2+2+_+2+b+b+b+b+2+b+b+b+2+2+2+2+2+2+2+2+2+2+2+1+1+a+a+",
". . . . . . . . . . . + ] 6 6 A ,.j.V.c+B+F+F+F+G+F+F+E+E+E+E+E+E+E+B+B+B+B+B+B+t+t+t+t+t+B+B+t+x+x+x+x+x+x+x+x+u+x+u+u+u+r+r+r+r+r+r+r+r+r+r+k+f+f+d+d+8+8+5+[+5+|+[+|+|+=+++++`.`.`.`.`.M.M.M.M.M.M.M.M.M.M.M.M.M.M.G.G.G.G.G.G.G.G.G.G.G.G.G.M.M.`.`.`.%+`.`.`.`.`.`.`.@+@+@+Z.++Z.=+=+[+[+(+'+R.s.6...k ( * . . . % * - - * + + + . + + + + + + + + + * < E ..0.D.'+(+3+3+d+i+i+i+g+g+g+g+g+i+i+i+i+i+i+i+i+i+i+i+i+i+i+i+i+i+i+i+i+i+i+i+i+i+i+i+i+i+i+i+i+i+i+i+i+i+i+i+i+f+f+f+d+d+8+3+8+(+(+(+(+(+(+'+'+'+'+'+'+'+'+'+'+'+'+'+'+'+'+'+'+'+'+'+'+'+'+'+'+'+'+'+'+'+'+'+'+'+'+'+'+'+'+'+'+'+'+'+'+-+-+[+[+(+'+'+'+'+'+'+(+'+'+'+'+!+!+!+!+Y.Y.Y.Y..+*+*+*+.+.+.+.+.+.+.+K.K.K.K.K.y.F.F.F.F.F.F.F.y.y.y.y.y.y.y.y.y.y.y.y.y.y.y.y.F.F.K.K.K.K.K.K.K.K.K.K..+.+*+*+*+*+/+/+*+*+*+*+*+*+*+*+*+/+/+/+}+}+}+}+}+}+}+}+}+<+0+0+7+7+7+7+0+0+0+0+0+0+0+a+a+a+a+a+3+3+3+d+0+0+0+0+0+0+0+a+a+a+a+a+a+a+a+a+a+a+a+a+a+a+a+a+a+a+a+a+a+n+n+f+d+d+f+d+n+n+f+f+f+n+a+a+e+d+3+e+e+2+2+_+2+2+2+2+2+_+2+2+2+2+2+2+2+2+2+_+2+2+2+2+_+_+_+_+_+_+_+_+_+_+_+_+2+2+2+2+2+2+2+2+e+e+e+e+e+e+2+2+2+2+2+2+b+2+2+b+a+a+",
". . . . . . . . . . . + ] 6 l V 4.A.>+l+E+F+G+G+G+G+F+F+E+E+E+E+E+E+B+B+B+B+B+B+B+t+t+t+B+B+B+B+x+x+x+x+x+x+x+x+u+z+z+z+z+A+A+A+r+r+r+r+r+r+k+k+f+f+f+d+8+8+8+5+|+|+|+|+=+=+Z.`.`.`.`.`.`.`.M.M.M.M.M.M.M.M.M.M.G.G.G.G.G.G.w.w.G.G.G.G.G.G.M.M.M.M.`.`.%+%+%+`.`.`.`.`.%+`.@+@+Z.Z.++++=+-+[+(+'+ +s.b...E < * % . . + + % % + + + + + . . . . + + + + + * < E ..0.D. +(+3+3+3+i+i+i+g+g+i+g+g+i+i+i+i+i+i+q+q+i+i+i+i+i+i+i+i+i+i+i+q+i+i+i+i+q+i+q+q+q+i+i+i+i+i+i+i+i+i+i+i+f+f+f+d+d+8+3+8+3+3+3+(+(+(+(+1+'+'+'+'+'+'+'+'+'+'+'+'+'+'+'+'+'+'+'+'+'+'+'+'+'+'+'+'+'+'+'+'+'+'+'+'+'+'+'+'+'+'+'+'+-+-+-+-+'+'+'+'+'+'+'+'+'+'+'+'+'+'+!+Y.Y.O.O.O.Y..+.+.+.+.+.+.+.+.+L.K.y.y.y.y.y.y.y.y.F.F.F.F.F.F.y.F.y.y.y.y.y.y.y.y.y.y.y.y.F.F.K.K.K.K.K.K.K.K.K.K..+.+.+.+*+*+*+*+*+*+*+*+*+*+*+*+*+/+/+/+}+}+}+}+}+}+}+}+7+7+7+7+7+7+7+7+0+0+0+0+0+0+0+0+3+a+a+a+3+a+a+a+a+0+0+0+0+0+0+0+0+a+0+0+0+a+a+a+a+a+a+a+a+a+a+a+a+a+a+a+n+f+f+f+d+d+f+f+f+d+d+a+a+a+a+a+d+3+2+2+2+2+_+_+_+2+2+2+2+2+2+2+2+2+2+2+e+e+e+2+2+2+2+2+2+2+2+2+2+2+2+2+_+_+2+2+2+2+2+2+2+2+2+e+e+e+e+e+e+e+e+2+e+e+e+2+b+b+b+b+a+a+",
". . . . . . . . . . . % > 6 l V 4.A.>+t+F+F+G+G+G+G+F+F+E+E+E+E+E+E+B+B+B+B+B+B+B+B+B+B+B+B+B+B+x+x+x+x+x+x+x+x+u+u+z+z+z+A+A+A+A+r+r+r+r+r+r+o+o+f+i+i+i+8+8+5+5+|+|+|+=+$+Z.`.`.`.`.`.`.`.`.`.M.M.M.M.M.M.M.M.M.B.B.B.B.B.x.x.B.B.B.B.B.M.M.M.M.`.Z.$+$+$+$+Z.`.`.Z.Z.$+$+Z.Z.Z.Z.Z.=+=+-+[+(+'+ +J.q.{.E 3 , & % . . + + + + + + + + + + + . . + + + + * 3 E ..0.D. +(+3+3+3+i+i+i+i+g+i+i+i+q+q+q+q+q+q+q+q+i+i+i+i+q+q+q+q+i+i+q+q+q+q+q+q+q+q+q+q+q+q+h+h+i+i+i+i+i+i+i+i+i+i+f+d+d+8+8+3+(+(+(+(+(+(+(+1+'+'+'+(+(+'+'+'+'+'+'+'+'+'+'+'+'+'+'+'+'+'+'+'+'+'+'+'+'+'+'+'+'+'+'+'+'+'+ + +X.X.-+-+-+-+-+-+-+-+-+-+-+-+-+-+-+-+'+'+'+'+Y.Y.Y.O.O.O.O..+.+.+.+.+.+.+L.L.L.L.K.y.y.y.y.y.y.y.F.F.F.F.F.F.y.F.y.y.y.y.y.y.y.y.y.y.y.y.F.F.K.K.K.K.K.K.K.K.K.K..+.+.+*+*+*+*+*+*+*+*+*+*+*+*+*+/+/+/+/+}+}+}+}+}+}+}+}+}+7+7+7+7+7+7+7+0+0+0+0+0+0+0+0+a+a+3+3+a+a+3+a+a+0+0+0+0+0+0+0+0+0+0+0+0+0+a+a+a+a+a+a+a+a+a+a+a+a+a+a+f+f+f+d+d+d+f+f+n+d+d+a+a+n+n+e+d+d+e+2+2+_+_+_+2+2+2+2+2+2+2+2+2+2+2+2+e+e+e+e+2+e+e+e+e+e+e+2+2+2+2+2+_+_+_+2+2+2+2+2+2+2+e+e+e+e+e+e+e+2+2+e+e+e+e+e+e+b+b+a+b+b+",
". . . . . . . . . . . % > 6 l V 4.A.~+t+F+G+G+G+G+F+F+E+E+E+E+F+E+E+B+B+B+B+B+B+B+B+B+B+B+B+B+B+x+x+x+x+x+x+x+x+u+u+u+u+u+r+r+r+r+r+r+r+r+r+o+o+o+o+o+f+i+i+8+8+5+5+|+|+$+$+Z.`.Z.`.Z.Z.Z.`.S.S.M.M.M.M.M.M.M.M.H.H.H.H.B.B.B.B.H.H.H.H.H.H.H.H.U.U.Z.$+$+$+$+Z.Z.Z.Z.Z.$+$+Z.Z.Z.Z.++=+=+[+[+(+'+ +R.q.^.Y o ! - . . . + + + + + + + + + + + + . + . + + * 2 E {.0.R. +3+d+d+d+f+i+q+i+g+g+q+i+q+q+q+q+q+q+q+q+q+q+q+q+q+q+q+q+i+q+q+q+q+q+q+q+q+q+q+q+i+h+h+h+h+i+i+i+i+i+i+i+f+f+f+d+d+d+3+3+3+3+3+(+(+(+'+1+'+'+'+'+'+'+'+'+'+'+'+'+'+'+'+'+'+'+'+'+'+'+'+'+'+'+'+'+'+'+'+'+'+'+'+'+'+X.X.X.X.X.-+-+-+-+-+-+-+-+-+-+-+-+-+-+-+-+-+-+X. +Y.Y.Y.Y.Y.Y.Y..+.+.+.+.+.+L.L.L.K.K.y.y.y.y.y.y.y.y.F.F.F.F.F.F.y.F.y.y.y.y.y.y.y.y.y.y.y.y.F.F.K.K.K.K.K.K.K.K.K.K..+.+*+*+*+*+*+*+*+*+*+*+*+*+*+*+*+/+/+}+}+}+}+}+}+}+}+}+}+}+7+7+7+7+7+7+0+0+0+<+0+0+0+0+0+d+3+3+3+d+d+3+a+0+0+0+0+0+0+0+0+0+0+0+0+0+0+a+a+a+a+a+a+a+a+a+a+a+a+a+f+f+n+d+d+d+d+n+f+a+d+d+a+k+k+k+e+e+e+2+2+_+2+2+2+2+2+2+2+2+2+2+2+2+2+2+2+2+e+e+e+e+e+e+e+e+e+e+2+2+2+2+2+2+2+2+2+2+2+2+2+2+2+e+e+e+e+e+2+2+2+2+e+e+e+e+e+b+b+b+a+a+",
". . . . . . . . . . . % ^ 6 A ,.j.V.c+B+F+G+G+G+G+F+F+E+E+F+F+F+F+E+E+B+B+B+B+B+B+B+B+B+B+B+B+B+x+x+x+x+x+x+x+x+x+u+u+u+u+r+r+r+r+r+r+r+r+r+r+o+o+o+o+o+i+i+8+8+5+5+|+|+$+$+Z.`.Z.Z.U.Z.Z.Z.Z.`.Q.M.M.M.M.M.M.B.H.H.H.B.B.B.B.B.B.H.H.H.H.H.H.U.U.U.Z.Z.$+$+Z.Z.Z.Z.Z.$+$+$+Z.Z.Z.Z.=+=+=+[+[+(+(+'+R.q.6.Y o 2 - % . + + + + + . . . . . . . . . + + + + * 2 E ).0.R.'+3+d+d+f+f+i+q+q+q+q+q+q+q+q+q+q+q+q+q+q+q+q+q+q+q+q+q+q+q+q+q+q+q+q+q+q+q+q+q+q+q+h+h+h+h+h+i+h+i+i+i+i+f+f+f+f+d+d+d+3+3+3+3+3+3+(+(+1+(+'+'+'+'+'+'+'+'+'+'+'+'+'+'+'+'+'+'+'+'+'+'+'+'+'+'+'+'+'+'+'+'+'+'+'+'+-+X.X.-+-+-+)+-+-+-+-+-+-+-+-+-+-+-+-+-+-+-+-+X.X.Y.O.O.Y.Y.Y.Y..+.+.+.+.+L.L.L.L.L.y.y.y.y.y.y.y.y.y.F.F.F.F.F.F.y.y.y.y.y.y.y.y.y.y.y.y.y.y.F.F.K.K.K.K.K.K.K.K.K.K..+.+*+*+*+*+*+*+*+*+*+*+*+*+*+*+*+/+/+/+}+}+}+}+}+}+}+}+}+7+7+7+7+7+7+7+0+<+<+<+<+0+0+0+0+0+0+3+a+a+a+a+a+0+0+0+0+0+0+0+0+0+0+0+0+0+0+a+a+a+a+a+a+a+a+a+a+a+a+a+f+f+n+d+d+d+d+f+f+a+d+3+e+e+e+e+e+e+e+2+2+_+2+2+2+2+2+2+2+2+2+2+2+2+2+2+2+2+2+2+e+e+e+k+k+e+e+e+e+e+e+2+2+2+2+2+2+2+2+2+2+e+e+e+e+e+e+e+e+2+2+2+e+e+e+2+b+b+b+a+a+a+",
". . . . . . . . . . . & ^ l A ,.j.V.c+B+F+G+G+G+G+F+F+E+E+F+F+F+F+E+E+B+B+B+B+B+B+B+B+B+B+B+B+B+x+x+x+x+x+x+x+x+x+x+u+u+u+r+r+r+r+r+r+r+r+p+r+r+p+o+o+o+i+i+8+8+8+8+[+|+=+$+Z.`.Z.Z.Z.Z.Z.Z.Z.Z.Q.M.M.M.M.M.B.B.H.H.H.H.B.B.B.B.H.H.H.H.H.H.U.U.U.U.Z.Z.Z.$+Z.Z.Z.Z.Z.$+$+$+$+Z.Z.Z.$+=+=+[+[+(+(+'+R.s.6...E 2 ! & . . + . + + . + + + + + + + . + + + + * 2 E ).0.R.1+3+f+f+f+o+o+q+q+q+q+q+q+q+q+q+q+q+q+q+q+q+q+q+q+q+q+q+q+q+q+q+q+q+q+i+i+q+q+q+q+q+w+h+h+h+h+h+h+i+i+i+i+f+f+f+f+d+d+d+d+3+d+d+3+3+3+(+1+(+(+(+'+'+'+'+'+'+'+'+'+'+'+'+'+'+'+'+'+'+'+'+'+'+'+'+'+'+'+'+'+'+'+'+'+'+'+-+-+)+)+)+)+-+-+-+-+-+-+-+-+-+-+-+-+-+-+-+X.X. +Y.Y.Y.Y.Y.Y.Y.O.L.L.L.L.L.L.L.L.L.y.y.y.y.y.y.y.y.y.F.F.F.F.F.F.F.y.y.y.y.y.y.y.y.y.y.y.y.y.F.F.F.K.K.K.K.K.K.K.K.K..+.+.+.+*+*+*+*+*+*+*+*+*+*+*+*+*+*+/+/+}+}+}+}+7+7+7+7+7+7+7+7+7+7+7+7+0+<+<+<+<+0+0+0+0+0+0+0+3+3+3+3+a+0+0+0+0+0+0+0+0+0+0+0+0+0+0+a+a+a+a+a+a+a+a+a+a+a+a+a+f+n+n+f+d+d+d+f+f+n+a+e+e+k+e+e+e+e+e+2+2+2+2+2+_+_+_+2+2+2+2+2+2+2+2+2+2+2+2+2+e+e+k+k+k+k+k+k+e+e+e+e+e+e+e+e+e+e+e+e+e+e+e+e+e+e+e+e+e+e+e+e+e+e+e+2+b+b+b+a+a+a+",
". . . . . . . . . . . > 6 A V ,.j.V.c+B+G+G+G+G+F+F+E+E+E+E+F+F+F+E+E+B+B+B+B+B+B+B+B+B+B+B+B+B+x+x+x+x+x+x+x+x+x+s+u+u+u+r+r+r+r+r+r+r+r+p+r+p+p+o+o+o+i+i+8+8+8+8+[+[+|+$+$+$+Z.Z.Z.Z.`.`.M.M.M.M.M.M.M.B.B.B.H.H.H.B.B.B.H.H.H.H.H.H.H.U.U.U.U.U.Z.Z.Z.Z.Z.Z.Z.Z.$+$+$+$+$+$+Z.Z.$+=+=+[+[+(+(+'+ +J.b.).G o ! - . + + % + + + + . + + + + + . . . + + - 2 E ).0.R.1+a+n+f+f+f+o+q+q+q+q+q+q+q+q+q+q+q+q+q+q+q+q+q+q+q+q+q+q+q+q+q+q+q+q+i+i+q+q+q+q+q+q+h+h+h+h+i+h+i+i+i+i+f+f+f+f+d+d+d+d+3+3+d+d+3+3+3+a+(+(+(+'+'+'+'+'+'+'+'+'+'+'+ + + + +'+'+'+'+'+'+'+'+'+'+'+'+'+'+'+'+'+'+'+'+'+'+'+'+'+'+-+-+-+-+-+-+-+-+-+-+-+-+-+-+X. + + +Y.Y.Y.Y.Y.Y.O.L.L.L.L.L.L.L.L.L.I.y.y.y.y.y.y.y.y.y.F.F.F.F.F.F.F.y.y.y.y.y.y.y.y.y.y.y.y.F.F.F.F.F.F.F.K.K.K.K.K.K.L.L..+.+.+*+*+*+.+.+.+*+*+*+*+*+*+*+/+/+/+<+/+}+}+}+}+}+}+}+7+7+7+7+7+7+0+0+0+<+0+0+0+0+0+0+0+}+3+3+3+3+a+0+0+0+0+0+0+0+0+0+0+0+0+0+0+a+a+a+a+a+a+a+a+a+a+a+a+a+n+a+a+f+d+d+d+d+n+a+a+e+e+e+e+e+e+e+2+2+2+2+2+_+_+_+_+_+_+_+_+_+_+2+2+2+2+2+2+2+e+e+k+k+k+k+k+k+k+k+k+e+e+e+e+e+e+e+e+e+e+e+e+e+e+e+e+e+e+e+e+e+e+e+e+e+b+e+e+b+a+a+",
". . . . . . . . . . % > l A V 4.j.V.c+B+F+G+G+F+F+E+B+B+B+E+F+F+E+E+E+B+B+B+B+B+B+B+B+B+B+B+B+B+x+x+x+x+x+x+x+x+x+x+s+s+u+u+r+r+r+r+r+r+p+p+r+p+p+o+o+o+i+i+8+8+8+8+8+[+[+|+^+$+$+$+$+Z.Z.M.M.M.M.M.M.B.B.B.B.x.x.x.x.x.B.B.B.B.H.H.H.H.U.U.U.U.S.Z.Z.Z.Z.Z.Z.`.Z.Z.$+$+$+$+$+$+Z.Z.Z.++=+=+[+(+(+'+ +J.q.3.Y o ! - % % - - * * + + + . + + + + + . . + + - 2 E ).n.R.)+a+f+f+f+f+o+i+q+q+q+q+q+q+q+q+q+q+q+q+q+q+q+q+q+q+q+q+q+q+q+q+q+q+q+q+q+q+q+q+q+q+q+h+h+h+h+i+i+i+i+i+i+f+f+f+f+d+d+d+d+3+d+d+d+d+a+a+a+3+(+(+(+(+(+'+'+'+'+'+'+ + + + + + + + + +'+'+'+'+'+'+'+'+'+'+'+'+'+'+'+'+'+'+'+'+'+'+-+-+-+-+-+-+-+-+-+-+-+-+-+X. +X. + +Y.Y.Y.Y.Y.O.L.L.L.L.L.L.L.L.L.L.L.K.F.y.y.y.y.y.y.F.F.F.F.F.F.F.F.F.y.y.y.y.y.y.y.y.y.y.y.y.F.F.F.F.F.F.F.y.y.y.K.K.K.L.L.L.L..+.+.+.+.+.+.+.+*+*+*+*+*+*+*+*+*+/+<+<+}+}+}+}+}+<+<+<+7+7+7+7+<+0+0+0+0+0+0+<+<+}+}+}+(+}+}+3+a+0+0+0+0+0+0+a+3+d+0+a+0+0+0+d+d+a+a+a+a+a+a+a+a+a+a+a+a+a+a+d+d+3+3+d+3+3+d+d+d+d+e+e+2+2+2+2+2+_+_+_+_+_+)+)+)+)+)+)+)+_+_+_+_+_+_+_+2+2+e+e+e+e+e+e+k+e+e+e+e+e+e+e+e+e+e+e+e+e+e+e+e+e+e+e+e+e+e+e+e+e+e+e+b+b+b+a+9+9+",
". . . . . . . . . . . ^ l A V 4.j.V.c+B+F+G+G+F+E+E+B+B+B+E+E+E+E+E+B+B+B+B+B+t+B+B+B+B+B+B+t+t+x+x+x+x+x+x+x+x+x+x+s+u+u+r+r+r+r+r+r+r+s+s+s+s+s+p+n+o+f+i+8+8+8+8+8+8+[+[+:+^+$+$+$+Z.Z.Q.Q.M.Q.Q.H.H.G.G.w.w.x.x.x.w.x.H.H.H.B.B.B.M.M.M.M.M.S.Q.Z.Z.Z.`.`.`.`.`.$+$+$+$+$+Z.Z.Z.Z.Z.X.-+-+[+(+'+ +J.q.^.Y o 2 - & * * * , * * + + . + . . + + + + . + * 2 E ).n.R.1+a+f+f+k+i+i+i+i+q+q+q+q+q+q+q+q+q+q+q+q+q+q+q+q+q+q+q+q+q+q+q+q+q+q+q+q+q+q+q+q+q+w+w+w+h+h+h+f+h+f+f+f+f+f+f+d+d+d+d+3+3+d+d+d+d+a+3+3+(+(+(+(+'+'+'+'+'+'+'+'+ + + + + + + + + +Y.Y.'+'+'+'+'+'+'+'+'+'+'+'+'+'+'+'+'+-+'+'+'+-+-+-+-+-+-+-+-+-+X.X.X.X.X.X. + +Y.Y.Y.Y.Y.O.L.L.L.L.L.L.L.I.I.I.I.I.I.I.I.y.y.y.y.y.F.F.F.F.F.F.F.F.y.F.F.y.y.y.y.y.y.y.F.F.F.F.F.F.F.F.F.y.K.K.K.K.K.L.L.L.L..+.+.+.+Y.Y..+.+.+*+*+*+*+*+*+*+*+*+<+<+}+}+}+}+}+}+}+}+}+}+}+}+<+<+<+}+0+<+<+<+<+}+}+}+(+(+3+3+3+3+3+3+0+3+3+a+a+3+d+d+d+d+a+a+a+a+a+a+a+a+a+a+a+a+a+a+a+a+d+d+3+3+3+2+3+3+3+3+2+2+2+2+2+2+_+_+_+_+_+)+)+)+)+)+)+)+)+-+)+)+)+)+)+)+)+)+_+_+2+2+2+2+2+e+e+e+e+e+e+e+e+e+e+e+2+2+2+e+e+e+e+e+e+e+e+e+e+e+2+2+2+e+b+a+9+9+9+9+",
". . . . . . . . . . . ^ l A V 4.j.V.c+t+F+G+G+F+F+E+B+B+B+E+E+E+E+B+B+B+B+B+B+B+B+B+B+B+B+t+t+t+x+x+x+x+x+x+x+x+x+x+s+s+s+u+r+r+r+r+r+p+s+s+s+s+s+o+o+o+f+i+i+8+8+8+8+8+8+8+:+:+:+$+$+Z.Z.Q.Q.Q.Q.Q.Q.H.H.G.w.w.m.m.m.w.w.G.H.H.G.M.M.M.M.M.M.M.M.Q.Z.Z.Z.`.`.`.`.`.$+$+$+$+Z.Z.Z.Z.Z.++X.-+-+[+(+'+ +J.q.^.Y k ! - % % + * * * + + + . + + . . + + + . + , 2 E ).n.R.1+a+k+f+f+f+i+i+i+i+i+q+q+q+q+q+q+q+q+q+q+q+q+q+q+q+q+q+q+q+q+q+q+q+q+q+q+q+q+q+q+q+w+w+w+h+h+h+f+h+f+f+f+f+f+f+d+d+d+3+3+3+3+3+3+3+3+3+3+(+(+(+(+'+'+'+'+'+'+'+'+ + + + + + + + + +Y.Y.'+ + + +'+'+'+'+'+'+'+'+'+'+'+'+'+'+'+'+'+-+-+-+-+-+-+-+-+-+X.X.X.X.X. + + +Y.Y.Y.Y.Y.O.L.L.L.L.L.I.I.I.I.I.I.I.I.I.y.y.y.y.y.y.y.F.F.F.F.F.F.y.y.F.F.y.y.y.y.y.y.y.y.F.F.F.F.F.F.F.y.y.y.K.K.K.K.L.L.L.L..+.+.+.+Y.Y.Y..+.+.+*+*+*+*+*+*+*+*+<+<+}+}+<+}+}+}+}+}+}+}+}+}+<+<+<+<+<+<+<+<+<+}+}+}+3+3+3+3+3+3+3+3+3+3+3+3+a+a+3+d+a+a+3+3+3+d+a+a+a+a+a+a+a+a+a+a+a+3+a+3+3+3+3+2+3+3+3+3+2+2+2+2+_+_+_+)+)+)+)+)+)+)+)+)+)+)+)+-+)+)+)+)+)+)+)+)+)+_+_+_+_+_+2+2+2+2+2+2+2+2+2+2+2+2+2+2+2+2+2+2+2+2+2+2+e+e+e+e+e+e+b+b+b+a+9+9+9+9+",
". . . . . . . . . . % ^ l A V ,.j.V.c+t+E+F+G+G+F+E+B+B+B+E+E+E+E+B+B+B+B+B+x+x+x+x+B+B+B+t+t+t+x+x+x+x+x+x+x+x+x+x+s+s+s+s+r+r+r+r+r+p+s+s+s+s+s+o+o+o+f+f+i+8+8+8+8+8+8+8+6+:+:+$+$+Z.Z.Q.Q.Q.Q.Q.Q.Q.H.G.w.w.m.m.m.w.G.G.H.H.M.M.M.M.M.M.M.M.M.Z.Z.`.`.`.`.`.`.`.$+$+$+$+Z.Z.++Z.Z.++X.-+-+[+'+'+)+R.s.3.Y k ! & . % + + + + + + + + + + . . + + + . + , 2 E 3.n.R.1+a+k+k+k+e+i+i+i+i+i+q+q+q+q+q+q+q+q+q+q+q+q+q+q+q+q+q+q+q+q+q+q+q+q+q+q+q+q+q+q+q+q+w+h+h+h+i+f+f+f+f+f+f+f+f+d+d+d+3+3+3+3+3+3+3+3+3+3+(+(+1+(+(+'+'+'+'+'+'+'+'+ + + + + + + + +Y.Y.Y. + + + +'+'+'+'+'+'+'+'+'+'+'+'+'+'+'+'+-+-+-+-+-+-+-+-+-+X.X.X.X.X. + + +Y.Y.Y.Y.Y.O.O.L.L.L.I.I.I.I.I.I.I.I.v.v.v.y.y.y.y.y.y.y.y.y.F.y.F.y.y.y.y.y.y.y.y.y.y.y.y.y.y.y.y.y.y.y.y.y.y.y.K.K.K.L.L.L.L.L..+Y.Y.Y.Y.Y.Y..+.+*+*+.+*+*+*+*+!+<+<+}+}+}+}+}+}+}+}+}+}+}+}+<+<+<+<+<+<+<+<+<+}+}+}+3+3+3+3+3+3+3+3+3+3+3+3+3+a+a+3+a+a+3+3+3+d+a+a+a+a+a+a+a+a+a+a+d+3+a+3+3+3+3+2+(+(+(+(+_+_+_+(+_+)+)+)+)+)+)+)+)+)+)+)+)+)+)+-+)+)+)+)+)+)+)+)+)+)+)+)+_+_+_+_+2+_+_+_+_+_+_+_+_+_+_+_+_+_+_+_+2+_+2+2+2+2+2+2+2+2+a+a+a+a+9+9+9+9+",
". . . . . . . . . . % ^ 6 l V ,.j.V.~+t+E+G+G+G+F+E+E+B+E+E+E+E+B+B+B+B+B+x+x+x+x+x+x+B+B+t+t+t+x+x+x+x+x+x+x+x+x+x+s+s+s+s+r+r+r+p+p+p+s+s+s+s+n+o+o+f+f+f+f+8+d+8+8+8+8+8+8+6+:+,+$+Z.Z.Q.Q.Q.Q.Q.Q.Q.Q.H.u.w.m.m.m.w.H.H.H.H.M.M.M.M.M.M.M.M.`.`.`.`.`.`.`.Z.`.%+$+$+$+$+$+Z.++Z.++=+X.-+-+[+(+(+)+ +s.6...E 2 ! - - % + + + + + . . + + + + + + + . + * 2 E ).n.R.1+j+k+k+k+k+k+i+i+i+q+q+q+q+q+q+q+q+q+q+q+q+q+q+q+q+q+q+q+q+q+q+q+q+q+q+q+q+q+q+q+q+q+q+h+i+i+i+f+f+f+f+f+f+f+f+f+d+d+d+3+3+3+3+3+3+3+3+3+(+(+(+(+(+(+(+(+(+'+'+'+'+'+'+'+'+'+ + + +Y.Y.Y.Y.Y. + +'+'+'+'+'+'+'+'+'+'+'+'+'+'+'+'+-+-+-+-+-+-+-+-+X.X.X.X.X.X. + + +O.Y.Y.Y.O.O.O.L.L.L.I.I.I.I.I.I.I.v.v.v.v.v.y.y.y.y.y.y.y.y.y.y.y.y.y.y.y.y.y.y.y.y.y.y.y.y.y.y.y.y.y.y.y.y.y.y.y.K.y.y.L.L.L.L.O.Y.Y.Y.Y.Y.Y.Y..+*+!+.+.+*+*+!+!+!+!+}+}+}+}+}+}+}+}+}+}+}+}+<+<+<+<+<+<+<+<+<+}+}+}+3+3+3+3+3+3+3+(+(+3+3+3+3+3+a+a+a+3+d+d+d+d+a+a+a+a+a+a+a+a+a+a+a+a+d+3+3+3+3+2+(+(+(+(+_+_+(+(+)+)+)+)+)+)+)+)+)+)+)+)+)+)+)+-+)+)+)+)+)+)+)+)+)+)+)+)+)+_+_+_+_+_+_+_+_+_+_+_+_+_+_+1+1+_+1+1+_+_+_+_+_+2+_+_+1+b+b+b+1+a+9+9+9+9+",
". . . . . . . . . . . > 6 l V ,.j.V.~+t+E+F+G+G+F+E+E+E+E+E+E+E+B+B+B+B+x+x+x+x+x+x+x+x+t+t+t+t+x+x+l+l+x+x+x+x+l+l+s+s+s+o+o+o+p+o+o+o+n+n+s+s+o+o+f+f+f+f+d+d+f+f+d+3+8+8+8+8+:+,+$+Z.Z.Q.Q.Q.Q.Q.Q.Q.Q.H.H.u.w.w.w.u.H.H.H.H.M.M.M.M.M.M.M.M.`.`.`.`.`.`.`.Z.`.%+$+$+$+$+$+++++++++=+X.-+-+[+(+(+_+)+R.q.^.Y E p 2 2 ( , * + + . . + . + . + + . + . + * 2 E ).q.R.1+b+k+k+k+r+r+q+i+i+q+q+q+q+q+q+q+q+q+q+q+q+q+q+q+q+q+q+q+q+q+q+q+q+q+q+q+q+q+q+q+q+q+q+q+i+i+i+f+f+f+f+f+f+f+f+f+d+d+d+d+3+3+3+3+3+3+a+a+3+3+(+}+3+3+}+(+(+(+(+'+'+'+'+'+'+'+'+ + +Y.Y.Y.Y.Y.Y.'+'+'+'+'+'+'+'+'+'+'+'+'+'+'+!+!+-+-+,+,+-+-+-+-+X.X.X.X.X.X. +R.O.O.O.O.O.O.O.O.O.L.L.L.I.I.I.I.I.I.I.v.v.v.v.v.y.y.y.y.y.y.y.y.y.y.y.y.y.y.y.y.y.y.y.y.y.y.y.y.y.y.y.y.y.y.y.y.y.y.y.y.I.I.I.L.L.L.O.O.O.Y.Y.Y.Y.Y.Y.!+*+*+!+!+!+*+!+!+!+!+}+}+}+}+}+}+}+}+}+}+<+<+<+<+<+<+<+<+<+}+}+}+(+(+(+(+(+(+(+(+}+}+(+3+3+3+a+a+a+3+d+d+d+3+3+d+d+a+a+a+a+a+a+a+a+a+a+d+3+3+3+_+(+'+'+'+(+(+(+_+)+)+)+)+)+)+)+)+_+_+_+)+_+_+_+-+_+)+)+)+)+)+)+)+)+)+)+)+)+)+)+)+)+)+)+)+)+)+)+)+)+)+)+)+)+)+)+)+)+)+)+1+1+1+1+1+1+1+1+1+1+1+9+9+9+9+",
". . . . . . . . . . . & 6 l V ,.j.V.~+t+E+F+G+G+F+F+E+E+E+E+D+D+E+B+B+x+x+x+x+x+x+x+x+x+x+t+t+t+x+l+l+l+l+x+l+l+l+l+n+n+n+o+o+o+o+o+o+o+n+n+n+n+n+o+f+f+f+d+d+d+f+f+d+3+3+3+8+8+:+,+,+Z.Z.Q.Q.Q.Q.Q.Q.Q.Q.H.H.u.w.w.G.G.H.H.H.H.M.M.M.M.M.`.`.`.`.`.`.`.`.`.`.`.@+@+$+$+=+=+++++++Z.++++X.-+-+-+(+(+_+)+ +J.q.6.*.Y E E k 2 ! + . . . . + . + + + . + + + * 2 E ^.n.R.)+b+k+k+k+r+r+q+q+q+q+q+q+q+q+q+q+q+q+q+q+q+q+q+q+q+q+q+q+q+q+q+q+q+q+q+q+q+q+q+q+q+q+q+i+i+i+i+f+f+f+f+f+f+f+f+f+f+d+d+d+a+a+3+3+3+a+a+a+3+3+3+3+3+3+3+3+(+(+(+(+'+'+'+'+'+'+'+'+'+Y.Y.Y.Y.Y.Y.Y.'+'+'+'+'+'+'+'+'+'+'+'+!+Y.Y.Y.,+,+,+,+,+,+,+,+X.Z.X.X.X.X. +R.O.O.O.O.O.O.O.O.O.I.I.I.I.I.I.I.I.I.I.I.v.v.I.I.I.I.y.y.y.y.y.y.y.y.y.y.y.y.y.y.y.y.y.y.y.y.y.y.y.y.y.y.y.y.y.y.y.y.y.y.I.I.I.I.I.L.O.O.O.Y.Y.Y.Y.Y.Y.Y.*+!+!+!+!+*+!+!+!+!+<+<+<+<+<+<+!+!+}+}+<+<+<+<+<+<+<+<+<+}+<+}+1+1+1+1+1+1+1+1+1+(+(+(+3+3+3+3+a+a+a+a+a+a+3+3+3+3+d+d+a+a+a+a+d+a+a+3+3+3+3+2+(+'+'+'+)+(+(+_+)+)+)+)+)+)+)+)+)+)+)+)+_+_+_+_+_+_+_+)+)+_+_+_+)+_+_+)+)+)+)+)+)+)+)+)+)+)+)+)+)+)+)+)+)+)+)+)+)+)+)+)+1+1+1+1+1+1+1+1+1+1+~+~+9+9+",
". . . . . . . . . . . & 6 l V ,.j.A.~+t+E+F+G+G+G+F+E+E+E+D+D+D+E+B+x+x+x+x+x+x+x+x+x+x+x+t+t+t+x+l+l+l+l+l+l+l+l+l+n+n+n+n+o+o+o+o+o+f+n+n+n+n+n+o+o+f+f+d+d+d+d+f+d+3+3+(+}+}+:+,+,+,+Z.Z.Q.Q.Q.Q.Q.Q.H.H.H.u.w.G.G.H.H.H.H.H.M.M.M.M.`.`.`.`.`.`.`.`.`.`.`.`.@+@+Z.++++Z.Z.Z.++++++++X.X.-+-+'+(+_+_+)+ +J.s.q.6.^.{.Y G 4 , + . . . + . + + . + . + + * 1 G {.n.D.)+2+e+k+k+r+r+q+q+q+q+q+q+q+q+q+q+q+q+q+q+q+q+q+q+q+q+q+q+q+q+q+q+q+q+q+q+q+q+q+q+q+q+q+i+i+i+i+f+f+f+i+f+f+f+f+f+f+f+d+d+d+d+3+a+a+a+a+a+a+a+a+3+3+3+3+3+3+(+(+(+'+'+'+'+'+'+'+'+'+Y.Y.Y.Y.Y.Y.'+Y.'+'+'+'+'+'+'+'+'+!+!+!+Y.Y.Y.,+,+,+,+,+,+,+,+Z.Z.X.X.X.X.O.O.O.O.O.O.O.O.O.O.O.O.I.I.I.I.I.I.I.I.I.I.I.I.I.I.I.I.I.y.y.y.y.y.y.y.y.y.y.y.y.y.y.y.y.y.y.y.y.y.y.y.y.y.y.y.y.y.y.y.y.y.I.I.I.I.I.L.O.O.O.O.Y.Y.Y.Y.Y.Y.Y.Y.Y.Y.Y.*+!+!+<+!+<+<+<+<+<+<+}+}+}+}+<+<+<+<+<+<+<+<+<+}+}+}+(+(+(+(+(+(+(+(+(+(+1+(+(+3+3+3+3+3+3+3+3+3+3+3+3+a+a+3+d+d+3+3+a+3+a+3+3+3+3+2+(+'+'+'+'+)+)+)+)+)+)+)+)+)+)+)+)+)+)+)+)+_+_+_+_+_+_+_+_+_+_+_+_+_+_+_+_+_+)+)+)+)+)+)+)+)+)+)+)+)+)+)+)+)+)+)+)+)+)+)+1+1+1+1+1+1+1+1+1+1+9+~+~+~+",
". . . . . . . . . . . & 6 l A V 4.A.~+l+E+F+G+G+G+F+F+E+E+D+D+D+E+B+x+x+x+x+x+x+x+x+x+x+x+t+t+t+l+l+l+l+l+l+l+l+l+l+n+n+n+n+f+f+o+o+f+f+f+f+n+n+f+f+f+f+d+d+d+d+d+d+d+3+(+(+[+:+:+,+,+,+Z.Z.Z.Q.Q.Q.Q.H.H.H.H.u.w.G.H.H.H.H.H.Q.M.M.M.`.`.`.`.`.`.`.`.`.`.`.`.@+@+@+`.Z.`.`.++++++++++++X.X.X.X.'+(+2+2+_+_+)+R.J.s.q.0.^.W E 9 ! * + . + + + + + + . . + * 2 E ..0.D. +_+e+k+r+r+r+q+q+q+q+q+q+q+q+q+q+q+q+q+q+q+q+q+q+q+q+q+q+q+q+q+q+q+q+q+q+q+q+q+q+q+q+q+i+i+o+i+f+f+f+f+f+f+f+f+f+f+f+d+d+a+a+a+a+a+a+0+0+d+d+3+3+3+3+3+3+3+3+(+(+(+'+'+(+'+'+'+'+'+'+Y.Y.Y.Y.Y.'+Y. + +'+'+'+'+'+'+!+!+!+Y.Y.Y..+,+,+,+,+,+,+,+Y.Y.Z.X.X.X.P.O.O.O.I.O.O.O.O.O.O.O.O.I.I.I.I.I.I.I.I.I.I.I.I.I.I.I.I.I.I.y.y.y.y.y.y.y.y.y.y.y.y.y.y.y.y.y.y.y.y.y.y.y.y.y.y.y.y.y.y.y.y.y.I.I.I.I.I.I.O.O.O.Y.Y.Y.Y.Y.Y.Y.Y.Y.Y.Y.*+!+!+<+<+<+<+<+!+<+<+}+}+}+}+<+<+<+<+<+!+!+!+<+!+!+!+(+'+'+'+'+'+'+'+'+(+(+1+(+(+3+3+3+3+3+3+3+3+3+3+3+3+3+a+a+a+a+a+3+a+a+3+3+3+3+_+(+'+'+'+)+'+'+'+)+)+)+_+_+_+_+_+_+_+_+)+)+)+_+_+_+_+_+_+_+_+_+_+_+_+_+_+_+_+_+)+)+)+)+)+)+)+)+)+)+)+)+)+)+)+)+)+)+)+)+)+1+1+1+1+1+1+1+1+1+1+9+9+9+9+",
". . . . . . . . . . & ^ 6 l A V 3.A.V.c+E+F+G+G+G+G+F+E+E+D+D+D+E+E+B+x+x+x+x+x+x+x+x+t+t+t+t+t+t+l+l+l+l+l+l+l+l+l+l+n+n+n+o+o+n+n+n+f+f+f+n+n+n+n+a+a+d+d+3+3+3+3+3+3+3+}+}+}+,+,+,+,+Z.Z.Q.Q.Q.Q.H.H.H.H.u.u.G.G.H.H.H.M.M.M.M.M.M.M.M.M.M.`.`.`.`.`.`.`.`.`.@+@+@+@+@+@+@+@+++++++++++++X.X.-+-+(+2+2+2+_+)+)+ +R.J.q.6...G k 1 , * * + + + + + + + + + _ o Y 3.q.R.)+b+k+k+r+r+p+r+q+q+q+q+q+q+q+q+q+q+q+q+q+q+q+q+q+q+q+q+q+q+q+q+q+q+q+q+q+q+q+q+q+q+q+q+o+o+o+o+f+f+f+f+f+f+f+f+f+n+n+n+a+a+a+a+a+a+a+a+a+a+a+a+d+d+d+3+3+3+(+(+(+(+(+(+(+(+'+'+'+'+'+Y.Y.Y.Y.Y.Y.Y.Y.'+ +Y.Y.Y.Y.!+-+-+Y.,+,+,+,+,+,+,+,+,+Z.Z.Z.Z.++++X.X.P.O.O.O.O.O.O.O.O.O.O.O.O.I.I.I.I.I.I.I.I.C.I.I.I.I.I.I.v.v.y.y.y.y.y.y.y.y.y.y.y.y.y.y.y.y.y.y.y.y.y.y.y.y.I.I.I.y.y.y.y.y.v.v.v.I.I.I.L.L.L.L.O.Y.Y.Y.Y.Y.Y.Y.Y.Y..+*+!+!+!+!+!+}+<+<+<+<+/+/+/+<+<+<+!+!+<+<+!+!+!+!+!+}+'+'+(+(+(+(+(+(+(+(+(+(+(+3+3+3+3+3+3+3+3+3+3+3+3+3+3+3+3+3+3+(+3+3+3+3+3+3+3+(+_+)+'+'+'+'+'+'+)+)+)+)+_+_+_+_+_+_+_+)+)+_+_+_+_+_+_+_+_+_+_+_+2+2+_+_+_+_+_+_+_+_+1+1+1+1+1+1+~+~+1+1+1+1+~+~+1+1+1+~+~+~+9+9+9+9+9+9+9+9+a+a+~+~+",
". . . . . . . . . . % > ^ 6 l A ).n.V.c+E+F+G+G+G+G+F+F+E+E+E+E+E+E+B+B+x+x+x+x+x+x+x+t+t+t+t+t+t+l+l+l+l+l+l+l+l+l+l+n+n+n+f+f+n+n+n+f+n+n+f+f+n+a+a+d+3+3+3+3+3+3+3+}+(+}+}+}+,+,+,+,+Z.Z.Z.Q.Q.Q.H.H.H.H.H.u.G.G.H.H.H.M.M.M.Q.Q.Q.Q.Q.Q.Q.Q.M.M.M.`.`.`.`.`.`.@+@+@+@+@+@+@+++++++++++++++X.-+-+2+2+e+e+2+2+2+2+_+)+R.D.0.).W E o 2 , * + + + + + + + + , 3 E ).0.R.)+b+k+k+o+r+r+p+q+q+q+q+q+q+q+q+q+q+q+q+q+q+q+q+q+q+q+q+q+q+q+q+q+q+q+q+q+q+q+q+q+q+q+q+o+o+o+f+f+f+f+f+f+f+f+f+f+n+n+n+n+n+n+n+n+n+n+n+a+a+a+a+d+d+d+3+3+3+3+(+(+(+(+(+(+(+(+'+'+'+'+Y.Y.Y.Y.Y.Y.Y.Y.Y. +Y.Y.Y.Y.Y.X.X.,+Y.Y.Z.,+,+Z.Z.Z.Z.Z.Z.Z.Z.Z.++Z.Z.Z.O.O.O.O.O.O.O.O.O.O.O.O.I.I.I.I.I.I.I.I.C.I.I.I.I.I.I.I.I.y.y.y.I.I.I.I.I.I.I.y.y.y.y.y.y.y.y.y.y.y.y.I.I.I.I.I.I.I.I.I.I.I.I.I.I.I.I.L.L.L.L.L.O.Y.Y.Y.Y.Y.Y.Y.Y.Y..+!+!+!+!+!+}+<+<+<+<+/+/+/+<+<+<+!+!+<+!+!+!+!+!+!+!+'+(+(+(+(+(+(+(+(+(+(+3+3+3+3+3+3+3+3+3+3+3+3+3+3+3+3+3+3+3+(+(+(+(+(+(+(+(+(+(+(+)+)+'+'+'+'+'+)+)+)+)+)+_+_+_+_+_+_+_+_+_+_+_+2+2+2+2+_+_+_+_+2+2+2+2+2+2+2+2+_+_+_+_+1+1+1+1+~+~+1+1+1+1+~+~+~+~+~+~+~+9+9+9+9+9+9+9+9+9+9+9+9+9+",
". . . . . . . . . . . & > ^ 6 l W 3.V.~+t+E+F+G+G+G+F+F+E+E+E+E+B+B+B+B+B+t+x+x+l+l+t+t+t+t+t+t+l+l+l+l+l+l+l+l+l+l+l+l+n+n+n+n+n+n+a+n+a+a+n+n+a+a+d+a+3+3+3+(+(+(+3+3+(+(+}+}+,+,+,+,+,+Z.Z.Q.Q.Q.H.H.H.H.H.H.G.G.H.H.H.M.M.M.Q.Q.Q.Q.Q.Q.Q.Q.M.M.M.M.M.M.M.M.M.`.@+@+@+@+++++++++++++++++++++-+[+4+e+e+k+e+e+e+e+e+e+_+ +D.n.3.).W E o 2 , , * + + + + + , 2 o Y 0.R.)+b+k+k+o+o+r+r+q+q+q+q+q+q+q+q+q+q+q+q+q+q+q+q+q+q+q+q+q+q+q+q+q+q+q+q+q+q+q+q+q+q+q+q+p+o+o+o+f+f+f+f+f+f+f+f+f+n+n+n+n+n+n+n+n+n+n+n+n+n+n+a+d+d+d+d+3+3+3+3+3+3+3+(+(+(+(+(+(+'+!+Y.Y.Y.Y.Y.Y.Y.Y.Y. +Y.Y.Y.Y.Y.,+Z.Z.Y.Z.Z.Z.Z.Z.Z.Z.Z.Z.Z.Z.Z.++++Q.Z.Z.Q.O.O.O.O.O.Y.Y.O.O.O.O.O.I.I.I.I.I.I.I.I.I.I.I.I.I.I.I.I.I.I.I.I.I.I.I.I.I.I.y.v.I.I.I.I.I.I.I.I.I.I.I.I.I.I.I.I.I.I.I.I.I.I.I.I.I.I.L.L.L.L.L.L.O.O.Y.Y.Y.Y.Y.Y.Y..+.+!+!+!+!+!+<+<+<+<+/+/+/+<+<+<+!+!+!+!+!+<+!+!+!+!+(+(+(+(+(+(+(+(+(+(+(+3+3+3+3+3+3+3+3+3+3+3+3+(+3+3+3+3+3+(+(+(+(+(+'+'+'+'+'+'+'+'+)+)+)+)+)+)+)+)+)+)+)+)+_+_+_+_+_+_+_+_+_+_+2+2+2+2+2+2+2+2+2+2+2+2+b+b+b+b+b+b+b+b+1+1+1+b+b+b+b+b+1+1+~+1+~+1+1+b+9+9+9+9+9+9+9+9+9+9+9+9+9+9+",
". . . . . . . . . . . . % > ^ 6 A ,.A.V.c+B+F+G+G+F+F+F+F+E+E+E+B+B+B+B+t+t+t+t+t+t+l+l+l+l+l+l+l+l+l+l+l+l+l+l+l+l+l+m+a+a+n+n+a+a+a+a+a+a+a+a+0+d+3+a+3+3+3+}+3+3+3+3+(+(+'+'+,+,+,+,+,+Z.Z.Q.Q.Q.H.H.H.H.H.H.G.H.H.H.H.M.M.M.Q.Q.Q.Q.Q.Q.Q.Q.M.M.M.M.M.M.M.M.M.M.`.@+@+++++++++++++++++++++=+-+[+4+4+k+k+k+k+k+k+k+k+k+b+)+R.D.n.3.).W E o o 2 _ , * + + , ( o Y 0.D.)+_+e+e+k+k+o+o+k+q+q+q+q+q+q+q+q+q+q+q+p+p+p+p+p+p+q+q+q+q+q+q+q+q+q+q+p+p+p+p+p+p+o+o+o+o+o+f+f+f+f+f+f+f+f+f+f+n+n+n+n+n+n+n+n+n+n+n+n+n+n+n+f+d+d+d+d+3+3+3+3+3+3+3+3+3+(+(+(+(+'+'+!+!+Y.Y.Y.Y.Y.Y. +Y.Y.Y.Y.Y.Z.Z.Y.Z.Z.Z.Z.Z.Z.Z.Z.Z.Z.Z.Z.++++P.Q.Q.Q.Q.O.O.O.O.Y.Y.Y.Y.O.O.O.O.O.O.I.I.I.I.I.L.I.I.I.I.L.L.L.L.L.L.L.L.L.L.I.I.I.I.I.I.I.I.I.I.I.I.I.I.I.I.I.I.I.I.I.I.I.I.I.I.I.I.I.I.I.L.L.L.L.L.L.L.O.O.O.Y.O.Y.Y.Y.Y..+.+*+!+!+!+!+<+<+<+<+/+/+/+<+<+<+!+!+!+!+<+<+}+}+!+!+(+(+(+'+'+(+(+(+(+(+(+(+(+(+(+(+3+3+3+3+3+3+(+(+(+(+(+(+(+(+(+(+'+'+'+'+'+'+'+'+)+)+ + + + + + +)+)+)+)+)+)+_+_+_+_+2+2+2+2+2+2+2+2+2+2+2+e+e+2+2+2+2+2+b+b+b+b+b+b+b+b+b+9+9+9+9+9+1+b+b+b+1+1+1+1+b+9+9+9+9+9+9+9+9+9+9+9+9+9+9+9+",
". . . . . . . . . . . . . % & ^ l V j.A.~+t+E+F+G+F+F+F+F+E+E+E+B+B+B+B+B+t+l+l+l+l+l+l+l+l+l+l+l+l+l+l+l+l+l+l+l+m+0+0+a+a+a+a+a+a+a+a+d+a+a+a+a+a+3+3+3+3+3+}+(+(+(+(+(+'+'+!+,+,+Y.Z.Z.Z.Z.Q.Q.Q.H.H.H.H.H.H.H.H.H.H.H.M.M.M.Q.Q.Q.Q.Q.Q.Q.Q.M.M.M.M.M.M.M.M.M.M.`.@+Z.++++++++++++++++++=+=+[+4+8+i+i+k+e+k+k+k+r+r+u+j+b+1+V.V.D.0.0.3.).Y E E k 3 _ _ ( 3 o Y 6.D.R.)+_+2+e+k+f+k+k+i+i+q+q+q+q+q+q+q+q+p+o+o+o+o+o+o+q+q+q+q+q+q+q+q+q+q+p+p+p+p+o+o+o+f+f+f+f+f+f+f+f+f+o+o+o+o+o+n+n+n+n+n+n+n+n+n+n+n+n+n+n+n+f+f+f+d+d+d+3+3+3+3+3+3+3+3+3+3+(+}+(+!+!+'+!+!+'+Y.Y.Y.'+Y.Y.Y.Y.Y.X.X.Z.Z.Z.Q.Q.Q.Q.Q.Z.Z.Z.Z.Z.Q.P.P.Q.Q.Q.Q.Q.O.O.O.Y.Y.Y.Y.O.Y.O.O.O.O.I.I.I.I.I.C.I.I.L.L.L.L.L.L.O.L.L.L.L.L.L.L.L.L.I.I.I.I.L.L.L.L.L.I.I.I.I.I.I.I.I.I.I.I.I.I.I.I.I.I.I.L.L.L.L.L.L.L.O.O.O.O.O.Y.Y.Y..+.+.+.+*+!+!+!+!+<+<+<+*+/+/+<+<+!+!+!+!+!+<+<+}+}+}+}+(+(+(+'+'+'+(+(+(+(+(+(+(+(+(+(+(+(+(+(+(+(+(+(+(+(+(+(+(+(+'+'+'+'+'+ + + + + + + + + + +R. + + + +)+)+)+)+_+_+2+2+2+e+e+e+e+e+2+2+2+2+e+e+e+e+e+e+e+e+b+b+b+b+a+a+a+b+9+9+9+9+9+9+b+b+b+b+9+9+9+9+9+9+9+9+9+9+9+9+9+9+9+9+9+9+c+c+",
". . . . . . . . . . . . . . . & ^ A ,.j.V.c+B+F+G+G+G+F+E+E+D+x+B+B+B+x+x+x+l+l+l+l+l+l+l+l+l+l+l+l+l+n+l+l+l+n+m+a+a+a+a+a+a+a+a+a+a+a+3+a+3+3+3+3+3+3+3+3+}+}+(+(+}+}+}+!+'+!+,+Y.Z.Z.Z.Z.Z.Q.Q.Q.H.H.H.H.H.H.H.Q.Q.H.H.M.M.M.M.M.M.M.M.M.M.M.M.M.M.M.M.M.M.M.M.M.M.Q.Z.++++++++++++++++++=+=+|+[+4+4+4+4+e+e+k+k+r+r+u+u+j+9+9+~+V.R.R.D.n.0.^.).Y E E k o o E Y ^.n.D. +)+_+e+e+e+e+i+i+i+i+q+i+q+q+i+o+o+p+o+o+o+o+o+q+q+q+i+i+i+i+i+q+q+q+o+o+o+o+o+o+f+f+f+f+f+f+f+o+o+o+o+o+o+o+o+s+s+s+s+s+s+s+s+n+n+n+n+n+n+n+f+f+f+f+f+d+d+d+d+d+3+3+3+3+3+3+3+(+<+'+'+'+!+!+!+!+'+'+'+Y.Y.Y.Y.Y.X.X.X.Q.Q.Q.Q.Q.Q.Q.Q.Q.Q.Q.Q.Q.Q.Q.Q.Q.Q.Q.Q.O.O.O.O.Y.Y.O.O.O.O.O.O.O.O.I.I.I.I.I.I.I.I.L.L.L.L.L.O.O.O.L.L.L.L.L.L.L.L.L.L.L.L.L.L.L.L.L.L.L.L.I.I.I.I.I.I.L.L.L.L.L.L.L.L.L.L.L.L.L.L.L.O.O.O.O.O.Y.Y.Y..+.+.+.+.+.+*+!+*+!+!+!+*+*+*+!+!+!+!+*+!+!+!+<+}+}+}+}+(+(+'+'+'+'+'+(+(+(+}+}+}+}+}+}+(+(+(+(+(+(+(+(+(+(+(+(+'+'+'+'+'+'+'+ + + + + + + + +R.R.R.R.R.R. +)+)+)+)+_+_+2+2+2+e+e+e+e+e+e+e+e+e+e+k+k+e+e+e+e+b+b+b+b+b+b+b+b+b+b+9+9+9+9+9+b+b+b+b+9+9+9+9+9+9+9+9+9+9+9+9+9+9+9+9+9+9+c+c+",
". . . . . . . . . . . . . . . % ] l V j.V.c+x+E+F+G+F+F+D+D+x+x+x+x+x+x+x+l+l+l+l+l+9+9+9+0+c+c+9+9+9+9+9+a+a+a+0+0+0+0+0+0+a+a+a+a+a+3+3+3+3+3+}+}+<+<+}+}+}+}+}+}+(+}+}+!+!+!+,+Y.Z.Z.Z.Z.Z.Q.Q.Q.H.H.H.H.H.H.Q.Q.Q.H.H.M.M.M.M.M.M.M.M.M.M.M.M.M.M.M.M.M.M.M.M.M.Q.Q.Q.Q.++++++++++++++=+=+=+[+[+4+4+4+4+4+4+k+k+r+r+r+u+x+l+l+9+9+9+~+1+ +R.D.0.6.^.)...Y Y Y ..^.0.D.R.)+_+2+2+e+d+e+4+i+i+i+i+q+q+i+k+r+r+o+o+o+o+q+q+q+q+i+i+i+i+i+i+i+i+o+o+o+o+o+o+o+f+o+o+o+o+o+o+o+o+p+o+o+s+s+s+s+s+s+s+s+s+s+s+s+s+s+s+s+n+n+o+o+f+f+f+f+d+d+d+d+d+d+d+d+d+3+3+}+(+'+'+'+'+(+'+!+!+'+'+'+Y.Y.Y.Z.Z.X.X.Q.Q.Q.Q.Q.Q.Q.Q.Q.Q.Q.Q.Q.Q.Q.Q.Q.Q.Q.Q.O.O.O.O.O.O.O.O.O.O.O.O.I.I.O.O.I.O.O.O.O.L.L.L.L.O.O.O.O.O.O.O.L.L.L.L.L.L.L.L.L.L.L.L.L.L.L.L.L.L.I.I.I.I.I.I.L.L.L.L.L.L.L.L.I.I.L.L.L.L.I.O.O.O.O.Y.Y.Y..+.+.+.+Y.Y..+.+*+*+*+*+*+*+*+*+*+!+*+*+!+!+!+!+!+!+}+}+(+(+(+'+'+'+'+'+'+(+}+}+}+}+(+'+'+'+'+'+'+'+'+'+'+'+'+'+'+'+'+'+ +'+ + + + + + + + +R.R.R.R.R.R. + +)+)+)+)+_+_+_+_+2+2+2+2+e+e+e+e+e+e+e+k+k+e+k+k+e+b+b+b+b+b+b+b+b+b+b+b+b+b+9+9+j+j+j+j+9+9+9+9+9+9+9+9+9+9+a+9+9+9+9+9+9+9+c+c+",
". . . . . . . . . . . . . . . . $ 6 A ,.A.~+l+B+D+F+F+F+D+D+D+x+x+x+x+x+l+l+l+l+9+9+9+9+9+9+9+9+a+a+a+a+a+a+a+a+a+a+a+a+a+a+a+3+a+a+a+3+3+(+1+1+}+}+}+}+}+}+}+}+(+}+!+!+!+!+Y.Y.Y.Y.Z.Z.Z.Z.Z.Q.Q.Q.H.H.H.H.H.H.Q.Q.Q.H.H.M.M.M.M.M.M.M.M.M.M.M.M.M.M.G.G.G.M.M.M.M.Q.Q.Q.Q.++++++++++++++=+=+=+|+[+[+4+4+[+4+4+e+e+k+k+r+u+x+x+x+x+x+x+l+j+b+1+)+R.R.D.n.0.3.3.).).3.0.q.J. +'+_+2+2+3+3+e+4+i+i+i+q+i+o+o+r+r+o+o+o+q+q+q+q+q+i+i+i+i+i+i+i+i+o+o+o+o+o+o+o+o+o+o+o+o+o+p+s+o+p+v+s+s+s+s+s+s+s+s+s+s+s+s+s+s+s+s+s+s+o+o+n+o+f+f+f+f+f+f+f+f+f+f+f+d+3+3+}+(+'+'+'+(+}+}+'+!+'+'+'+'+Y.Y.Z.Z.X.X.Q.Q.Q.Q.Q.Q.Q.Q.Q.Q.Q.Z.Z.Z.Q.Z.Z.Z.Q.Q.O.Y.O.O.O.O.O.O.O.I.I.I.I.O.O.O.O.O.O.O.O.O.O.O.Y.Y.Y.Y.Y.Y.Y.O.O.O.O.O.O.O.O.O.O.O.L.L.L.L.L.L.L.L.L.L.L.I.I.I.I.I.I.I.I.I.I.I.I.I.I.I.I.I.I.I.O.O.O.O.Y.Y..+.+Y.Y.Y.Y.Y..+.+*+*+*+*+*+*+*+*+!+!+!+!+!+!+!+!+!+!+}+(+(+(+(+'+'+'+'+!+'+(+(+(+'+!+!+'+'+'+'+'+'+'+'+'+'+'+'+'+'+ + + + + + + + + + + + + + + + + + + +)+)+)+)+)+)+_+_+_+_+_+2+2+e+e+e+e+e+e+e+e+e+e+e+e+b+b+b+b+b+b+b+b+b+b+b+b+b+j+9+9+b+b+b+b+9+9+9+9+9+9+9+9+9+9+a+9+9+9+9+9+9+c+c+c+",
". . . . . . . . . . . . . . . . % > 6 V j.V.~+t+B+E+D+D+F+D+D+x+x+x+x+x+l+l+l+l+l+9+9+9+9+9+9+9+a+a+a+a+a+3+3+3+a+3+3+3+3+3+3+3+3+3+(+(+(+(+(+'+(+}+}+!+}+!+!+!+,+,+,+,+,+,+,+Y.Y.Z.Z.Z.Z.Z.Z.Q.Q.Q.Q.H.H.H.H.H.H.H.H.H.H.Q.Q.Q.M.M.M.M.M.M.M.M.M.M.M.M.M.M.M.M.Q.Q.Q.Q.Q.P.++++++Z.++++=+=+=+=+[+[+|+|+[+[+4+2+2+e+e+k+k+u+s+x+x+x+D+x+x+z+x+l+j+a+1+)+)+R.D.n.b.6.a.q.s.J. + +)+_+2+e+e+3+d+d+o+o+o+r+o+o+o+o+o+o+o+o+q+i+i+i+q+i+i+i+i+o+o+f+f+f+f+f+o+h+h+h+h+h+h+h+h+o+p+p+m+s+s+s+s+s+s+s+s+s+s+s+s+s+s+s+s+s+s+s+p+o+n+n+f+f+f+f+f+f+f+f+f+f+f+f+7+3+3+}+(+(+(+(+}+(+(+'+!+!+'+'+'+X.X.Z.Z.Z.Z.Z.Z.Q.Z.Z.++++++++++++++Z.Z.++++Z.Z.Z.Z.Z.Z.Q.Q.Q.O.O.O.I.I.O.O.O.O.O.O.O.O.O.O.O.Y.Y.Y.Y.O.O.O.O.O.O.O.O.O.Y.Y.Y.Y.O.O.Y.Y.Y.Y.O.L.L.L.L.L.L.I.I.I.I.I.I.L.I.I.I.I.I.I.I.I.I.I.I.I.I.O.O.L.O.Y.Y..+.+.+L.L.L..+.+.+.+*+*+*+*+*+*+*+!+!+!+!+!+!+!+!+!+!+}+(+(+(+(+(+'+'+'+'+'+'+'+!+!+!+!+'+'+'+'+'+'+'+'+'+'+'+'+ + + + + + + + + + + + + + +)+)+)+)+)+)+)+)+)+)+)+)+)+)+)+)+_+_+2+2+2+2+2+2+2+2+2+e+e+b+e+e+b+b+b+b+b+b+b+b+b+b+j+j+b+9+9+9+9+b+j+9+9+9+9+9+9+9+9+9+9+9+9+9+9+9+9+9+c+c+c+c+",
". . . . . . . . . . . . . . . . . % ^ A ,.j.V.~+t+B+D+D+D+D+D+x+x+x+x+l+l+l+l+l+9+9+9+9+9+9+9+9+a+a+1+1+3+3+(+(+3+(+(+(+(+(+(+(+(+(+(+(+(+'+'+'+!+'+'+'+'+!+!+!+,+-+-+-+,+,+,+Z.Z.Z.Q.Q.Z.Z.Z.Q.Q.Q.Q.H.H.H.H.H.H.H.H.Q.Q.Q.Q.Q.M.M.M.M.M.M.M.M.M.M.M.G.G.G.G.G.H.Q.Q.Q.Q.++++++Z.Z.++++=+=+=+=+[+|+|+|+[+4+4+2+e+e+e+k+k+j+s+x+x+x+D+C+C+D+D+z+z+x+u+j+j+b+)+ +J.J.D.D.R.R. +'+_+_+_+2+3+3+3+d+o+o+o+o+o+o+o+o+r+o+o+o+q+q+q+i+q+q+i+i+o+o+o+o+o+o+o+o+h+h+h+h+h+h+h+h+o+o+p+p+m+s+s+s+s+s+s+s+s+s+s+s+s+s+s+s+s+s+s+s+p+p+o+o+f+f+f+f+f+f+f+f+f+f+f+f+d+d+3+3+}+}+(+}+}+(+(+'+'+'+!+!+'+-+X.,+,+Z.Z.Z.Z.++++++++++++++++++++Z.++++++Z.Z.Z.Z.Z.Z.Z.Z.Q.O.O.O.O.O.O.Y.O.O.O.O.O.O.O.O.Y.Y.Y.Y.Y.O.O.O.O.O.Y.Y.Y.Y.Y.Y.Y.Y.Y.Y.Y.Y.Y.Y.O.L.L.L.L.L.L.L.I.I.L.L.L.L.L.L.L.L.L.L.L.L.L.L.L.I.O.O.O.L.L.O.Y..+.+.+.+.+.+.+.+.+.+*+*+*+*+*+*+*+!+!+!+!+!+!+!+!+!+!+}+(+(+(+'+'+'+'+'+!+!+!+!+'+'+'+'+'+'+'+'+'+'+'+'+'+'+'+'+ + + + + + + + + + + + +)+)+)+)+'+'+'+)+)+)+)+)+)+)+)+)+)+_+_+_+2+2+2+2+2+2+2+2+2+2+2+b+e+e+b+b+b+b+b+b+b+b+b+b+b+b+b+9+9+9+9+b+b+9+9+9+l+l+l+l+l+l+l+l+l+l+l+l+l+l+c+c+l+l+",
". . . . . . . . . . . . . . . . . . > 6 V 3.j.V.c+l+B+D+D+D+D+x+x+x+x+l+l+l+l+l+9+9+9+9+a+a+9+9+a+1+3+3+(+(+(+(+(+(+(+(+(+(+(+(+(+(+(+'+'+-+-+-+X.X.X.,+,+,+,+,+-+-+-+,+,+Z.Z.Z.Z.Z.Q.Q.Q.Z.Q.Q.Q.Q.Q.H.H.H.H.H.H.H.H.H.H.Q.Q.Q.M.M.M.M.M.M.M.M.M.M.M.G.G.G.G.G.H.H.Q.Q.Q.++++++Z.Z.++=+=+=+=+=+[+[+|+|+|+|+4+4+e+e+k+k+k+j+n+l+s+x+z+z+D+C+C+C+D+D+D+C+D+x+n+a+1+1+)+)+)+'+)+)+(+(+(+(+2+3+d+d+f+o+o+o+r+o+o+o+o+o+o+o+o+p+q+q+q+q+q+p+p+o+o+p+p+p+p+p+w+w+w+h+w+w+w+w+p+p+p+p+v+s+s+s+s+s+s+s+s+s+s+s+s+s+s+s+s+s+s+s+p+p+o+o+f+f+f+f+f+f+f+f+f+f+f+f+f+d+3+3+3+3+}+3+3+3+(+(+(+(+(+'+'+-+-+,+,+Z.Z.Z.Z.Z.++++Z.Z.Z.Z.Z.++++Z.Z.Z.Z.Z.Z.Z.Z.Z.Y.Z.Z.Z.Y.Y.Y.Y.Y.Y.Y.Y.Y.Y.Y.O.Y.Y.Y.Y.Y.Y.Y.Y.Y.Y.Y.Y.Y.Y.Y.Y.Y.Y..+Y.Y.Y.Y.Y.Y.Y.Y.Y.O.L.L.L.L.L.L.L.L.L.L.L.L.L.L.L.L.L.L.L.L.L.L.L.O.O.O.O.L.L.L.O..+.+.+.+.+.+.+.+.+.+*+*+*+*+*+*+*+*+*+*+!+!+!+!+!+!+!+!+'+'+'+'+'+'+'+'+'+'+'+'+'+Y.Y.Y.Y.'+'+'+'+Y.'+'+'+'+'+ + + + + + + + + + + + +'+)+)+'+)+)+)+_+(+)+_+_+_+_+_+_+_+_+_+_+_+2+2+2+2+2+2+2+2+2+2+2+b+e+e+b+b+b+b+b+b+b+b+b+b+b+b+b+9+9+9+9+b+b+9+9+9+l+l+l+l+l+l+l+l+l+l+l+l+l+l+l+l+l+l+",
". . . % % % % % . . . . . . . . . . & ^ m V j.A.~+9+t+B+D+D+D+x+x+x+x+l+l+l+n+l+a+a+a+a+a+a+a+a+3+3+3+3+3+(+(+(+(+(+(+(+(+[+[+[+[+[+[+[+-+-+X.Z.Z.Z.Z.Z.Z.Z.Z.Z.Z.Z.Z.Z.Z.Z.Z.Z.Z.Z.Q.Q.Q.Q.Q.Q.Q.Q.Q.Q.H.H.H.H.H.H.H.H.Q.Q.Q.Q.Q.Q.Q.Q.H.H.H.H.H.H.H.H.H.H.H.H.H.H.Q.Q.Q.Z.++++++Z.=+=+=+=+=+=+=+|+|+|+|+|+4+4+4+4+e+e+d+a+a+a+l+l+x+z+z+z+C+C+C+C+C+C+C+C+z+s+n+j+b+a+b+b+1+1+_+(+(+(+3+e+d+d+k+f+o+o+o+k+o+o+o+o+o+o+p+p+p+p+p+p+p+p+p+p+p+p+o+p+p+p+p+w+w+h+m+v+v+v+v+v+v+s+v+s+s+s+s+s+s+s+s+s+s+s+s+s+s+s+s+s+s+s+p+o+n+o+f+f+f+f+f+f+f+f+f+f+f+f+f+f+d+7+d+3+3+3+3+3+3+(+(+(+}+(+'+[+-+,+,+,+,+Z.Z.Z.Z.Z.++++++++Z.Z.Z.Z.++++Z.Z.Z.Z.,+,+Y.Y.Y.Y.Y.Y.Y.Y.Y.!+Y.Y.Y..+.+Y.Y.Y.Y.Y.Y.Y.Y.Y.Y.Y..+.+.+.+.+.+.+.+.+Y.Y.Y.Y.Y.Y.Y.Y.Y.Y.O.L.L.L.L.L.L.L.L.L.L.L.L.L.L.L.L.L.L.L.L.L.L.O.O.O.O.L.L.L.L.L..+.+.+.+.+.+.+Y..+.+*+.+*+*+*+*+.+.+.+Y.Y.!+!+!+!+!+!+'+'+'+'+ + + +'+'+Y.Y.Y.Y.Y.Y.Y.Y.Y.Y.Y.Y.Y.Y.Y.'+'+'+ + + + + + + + + + + +'+'+)+)+'+)+)+)+_+_+_+_+_+_+_+_+_+_+2+2+2+2+2+2+2+2+2+2+2+2+2+2+2+b+e+e+b+b+b+b+b+b+b+b+b+b+b+b+b+9+9+9+9+b+b+9+j+l+l+l+l+l+l+l+l+l+l+l+l+l+l+l+l+l+l+l+",
". . % % % % % % . . . . . . . . . . . - 4 G ).j.V.~+c+t+B+D+x+x+x+x+x+l+l+l+n+l+a+a+a+a+a+3+3+3+3+3+3+3+3+3+(+(+(+[+[+[+[+[+[+[+[+[+[+[+-+=+++++++++++Z.Z.Z.Z.Z.Z.Z.Z.Z.Z.Z.Z.Z.Z.Z.Q.Q.Q.Q.Q.Q.Q.Q.Q.Q.H.H.H.H.H.Q.Q.Q.Q.Q.Q.Q.Q.Q.Q.Q.Q.Q.Q.Q.Q.H.H.H.H.H.H.H.H.H.Q.Q.Q.++++++++Z.=+=+=+=+=+=+=+=+=+=+=+|+|+4+4+4+4+e+3+a+a+a+n+n+s+s+s+s+z+z+C+C+C+C+C+C+C+C+z+u+u+n+j+a+a+a+a+b+2+3+3+3+d+d+f+k+f+o+o+o+o+o+o+o+o+o+p+p+p+p+p+p+p+p+p+p+p+s+s+s+o+m+m+m+m+v+v+v+v+v+v+s+s+s+v+s+s+s+s+s+s+s+s+s+s+s+s+s+s+s+s+s+s+s+o+n+o+o+f+f+f+f+f+f+f+f+f+f+f+f+f+f+f+d+d+7+7+3+3+3+3+3+(+(+(+(+(+[+,+,+,+,+,+Z.Z.Z.Z.++++++++++++++++Z.++++++Z.Z.Z.Z.Z.Y.,+,+,+Y.!+!+!+!+!+!+!+!+!+*+.+Y.Y.Y.Y..+.+.+.+.+.+.+.+.+.+.+.+.+.+.+Y.Y.Y.Y.Y.Y.Y.Y.Y.Y.Y.Y.Y.O.O.L.L.L.L.L.L.L.L.L.L.L.L.L.L.L.L.L.L.L.L.L.L.L.L.L.L.L.L..+.+.+.+.+.+Y.Y..+.+.+.+.+.+.+.+Y.Y.Y.Y.!+!+!+'+'+'+'+'+'+ + + + + +Y.Y.Y.Y.Y.Y.Y.Y.Y.Y.Y.Y.Y.Y.Y.Y.'+'+ + + + + + + +'+'+ +'+'+'+'+ +)+)+'+)+)+_+_+_+_+_+_+_+_+_+2+2+2+2+2+2+2+2+2+2+2+2+2+2+2+2+b+e+e+b+b+b+b+b+b+b+b+b+b+b+b+b+9+9+9+9+b+j+l+l+l+l+l+l+l+l+l+l+l+l+l+l+l+l+l+l+l+t+t+",
". . . . . . . . . . . . . . . . . . . . - m W 3.A.V.~+c+t+B+x+x+x+x+x+x+l+l+l+a+a+a+a+3+3+2+2+3+3+3+3+3+4+[+[+[+[+[+[+[+[+[+[+[+[+[+[+[+=+=+Z.++++++++++Z.Z.Z.Z.Z.Z.Z.Z.Z.Z.Z.Z.Z.Z.Q.Q.Q.Q.Q.Q.Q.Q.Q.Q.Q.Q.H.H.Q.Q.Q.Q.Q.Q.Q.Q.Q.Q.Q.Q.Q.Q.Q.Q.Q.Q.Q.H.H.H.H.H.H.H.Q.Q.Q.++++++++Z.=+=+=+=+=+=+=+=+=+=+=+|+|+|+|+4+4+e+3+d+a+a+n+n+n+n+n+n+s+s+z+C+C+C+C+C+C+C+C+z+z+z+s+u+n+n+n+a+a+d+d+3+3+3+d+d+k+f+f+f+o+o+o+o+o+o+p+p+p+p+p+p+p+p+p+p+p+p+s+s+s+o+m+v+v+v+v+v+v+v+s+s+s+s+m+s+s+s+s+s+s+s+s+s+s+s+s+s+s+s+s+s+s+s+o+o+o+o+f+f+f+f+f+f+f+f+h+h+h+h+h+h+m+m+d+7+7+3+3+3+3+(+[+(+(+(+[+[+-+,+,+$+$+$+Z.Z.Z.Z.++++++++++++++Z.++++++Z.Z.Z.Z.Z.,+,+,+,+!+!+!+!+}+}+}+!+!+!+!+*+.+.+.+.+.+.+.+.+.+*+*+*+.+.+.+.+.+.+.+Y.Y.Y.Y.Y.Y.Y.Y.Y.Y..+.+.+Y.Y.O.O.L.L.L.L.L.L.L.L.L.L.L.L.L.L.L.L.L.L.L.L.L.L.L.L.L.L..+.+.+.+.+.+Y.Y.Y.Y..+.+.+Y.Y.Y.Y.O.Y.Y.Y.!+'+'+'+'+'+'+'+ + + + + +Y.Y.Y.Y.Y.Y.Y.Y.Y.Y.Y.Y.Y.Y.Y.Y. + + + + + +'+'+'+'+'+'+'+'+'+'+ + +)+)+)+-+-+)+_+_+_+_+_+_+_+2+2+2+2+2+2+2+2+2+2+2+2+2+2+2+2+b+e+e+b+b+b+b+b+b+b+b+b+b+b+b+b+9+9+9+9+b+j+l+l+l+l+l+l+l+l+l+l+l+l+l+l+l+l+l+l+l+t+t+",
". . . . . . . . . . . . . . . . . . . . % 4 G ).j.A.V.~+c+t+B+B+E+x+x+x+l+n+l+a+a+3+2+3+2+2+2+2+3+3+4+4+4+[+[+[+[+[+[+[+[+[+[+[+=+=+=+=+=+=+++++++++++Z.Z.Z.Z.Z.Z.Z.Z.Z.Z.Z.Z.Z.`.`.Q.Q.Q.Q.Q.Q.Q.Q.Q.Q.Q.Q.Q.Q.Q.Q.Q.Q.Q.Q.Q.Q.Q.Q.Q.Q.Q.Q.Q.Q.Q.Q.Q.Q.Q.H.H.H.H.H.Q.Q.Q.Z.++++++Z.=+=+=+=+=+=+=+=+|+{+{+|+|+|+|+4+4+3+d+a+a+n+a+a+a+a+n+n+n+s+z+z+C+C+C+C+C+C+C+C+C+C+z+z+s+s+n+n+n+n+a+3+3+3+e+d+d+f+k+f+f+f+o+o+o+o+p+p+p+p+p+p+p+p+p+p+p+p+s+s+s+s+v+v+v+v+v+v+v+v+s+s+s+s+m+s+s+s+s+s+s+s+s+s+s+s+s+s+s+s+s+s+s+s+o+o+o+o+f+f+f+f+f+f+f+h+h+h+h+h+h+h+m+m+d+d+3+3+3+3+3+(+[+[+(+(+[+[+-+$+$+$+$+$+Z.Z.Z.Z.++++++++++++++Z.Z.++++++$+$+,+,+,+,+,+!+!+}+}+}+}+}+}+}+}+}+!+!+!+!+!+!+*+*+*+*+*+*+*+*+*+*+.+.+.+.+.+Y.Y.Y.Y.Y.Y.Y.Y.Y.!+*+.+.+Y.Y.Y.Y.O.O.O.L.O.L.L.L.L.L.L.L.L.L.L.L.L.L.L.L.L.L.L.L.L.L.L..+L.L.L.L.O.O.O.Y..+.+.+O.Y.Y.Y.Y.Y.Y.Y.!+'+'+'+'+'+'+'+'+ + + + +Y.Y.Y.O.O.O.O.O.O. +Y.Y.Y.Y.Y.Y. + + + + +'+'+'+'+'+'+'+'+'+'+'+ + +)+)+)+)+-+-+_+_+_+_+_+_+_+2+4+4+2+2+2+2+2+2+2+2+2+2+2+2+2+b+e+e+b+b+b+b+b+b+b+b+b+b+b+b+b+9+9+9+9+b+b+9+l+l+l+l+l+l+l+l+l+l+l+l+l+l+l+l+l+l+l+l+",
". . . . . . . . . . . . . % . . . . . . % ! m W 4.j.V.~+c+t+B+B+E+D+x+x+l+n+a+a+d+d+e+3+3+3+2+4+4+4+4+4+4+[+[+[+[+[+[+[+[+[+[+=+=+=+=+=+=+=+++Z.++Z.Z.Z.Z.Z.Z.Q.Z.Z.Z.Z.Z.Z.Z.Z.`.`.`.Q.Q.Q.Q.Q.Q.Q.Q.Q.Q.Q.Q.Q.Q.Q.Q.Q.Q.Q.Q.Q.Q.Q.Q.Q.Q.Q.Q.Q.Q.Q.Q.Q.Q.Q.H.H.H.Q.Q.Q.Q.Z.++++Z.Z.++=+=+=+=+=+|+|+|+{+{+|+|+|+|+4+4+3+d+a+a+f+a+d+3+a+a+a+n+n+s+z+z+C+C+C+C+C+C+C+C+C+C+z+s+s+s+s+n+n+a+3+3+2+2+e+d+f+k+f+f+f+f+o+o+o+p+p+p+p+p+p+p+p+p+p+s+s+s+s+s+s+s+v+v+m+v+v+v+s+o+o+o+o+m+s+s+s+s+s+s+s+s+s+s+s+s+s+s+s+s+s+s+s+o+n+o+o+f+f+f+f+f+f+h+h+h+h+h+h+h+h+m+m+3+3+3+3+3+3+3+3+8+[+(+(+[+[+-+$+$+$+$+$+++Z.Z.Z.@+@+@+Z.Z.Z.Z.Z.Z.++++++$+$+,+,+,+,+!+,+}+}+}+}+}+}+}+}+<+}+}+!+!+!+!+!+*+*+*+*+!+!+!+!+!+*+*+*+*+*+*+Y.Y.Y.Y.Y.Y.Y.Y.Y.!+!+Y.Y.Y.Y.Y.Y.Y.Y.O.O.L.L.L.L.L.L.L.L.O.O.O.O.O.L.L.L.L.L.L.L.L.L.L.L.L.L.L.L.L.O.O.O.L.L.L.O.O.O.Y.Y.Y.Y.Y.Y.'+'+'+'+ +'+'+'+ + + + +Y.Y.Y.O.O.O.O.O.O.O. +Y.Y.Y.Y.Y. + + + + +'+'+'+'+'+'+'+'+'+'+'+)+)+)+)+-+)+-+-+[+[+[+[+[+_+_+_+4+4+2+2+2+2+2+2+2+2+2+2+2+2+2+b+e+e+b+b+b+b+b+b+b+b+b+b+b+b+b+9+9+9+9+b+b+9+9+9+l+l+l+l+l+l+l+l+l+l+l+l+l+l+l+l+t+t+",
". . . . . . . . . . . . % . . . . . . . % ! m G ).j.A.V.c+l+B+E+D+x+x+l+l+l+9+9+a+a+b+a+3+3+3+3+2+2+2+3+3+(+(+[+8+[+[+[+[+[+=+=+[+[+=+=+=+=+=+@+@+@+@+++++++++++Q.Q.Q.Q.Q.Z.Z.Z.Z.Z.Z.Z.Q.Q.Q.Q.Q.Q.Q.Q.Q.Q.Q.Q.Q.Q.Z.Z.Z.Q.Q.Q.Q.Q.Q.Q.Q.Q.Q.Q.Q.Q.Q.Q.Q.Q.Q.Q.Q.Q.Q.Q.Z.Z.++++++Z.++=+=+=+=+=+=+|+|+|+|+|+{+{+[+[+8+8+8+d+d+d+d+d+d+a+a+n+n+u+s+s+z+z+C+C+C+C+C+C+C+C+C+C+z+z+s+u+u+j+j+a+a+b+3+3+d+d+d+f+f+f+o+o+o+o+n+p+p+s+s+s+s+s+s+s+s+s+s+s+s+s+s+s+s+s+s+s+s+s+s+s+s+s+s+s+s+s+s+s+s+s+s+s+s+s+s+s+s+s+p+p+p+o+n+o+o+o+f+f+f+f+f+f+f+f+f+f+f+f+h+h+h+m+0+0+0+7+d+d+3+3+[+[+[+[+[+[+=+=+=+=+=+=+=+++Z.Z.++++++Z.Z.Z.Z.Z.Z.Z.Z.$+$+,+,+,+,+,+:+}+}+}+}+}+}+}+}+}+}+}+}+}+/+/+*+*+!+!+!+!+!+!+}+}+}+!+!+!+!+Y.!+Y.Y.Y.Y.Y.!+!+!+!+!+!+!+!+!+!+Y.Y.Y.Y.Y.Y.O.O.O.O.O.O.O.O.L..+.+.+.+L.L.L.L.L.L.L..+.+.+L.L.L.L.L.L.L.L.L.O.O.O.O.Y.Y.Y.Y.Y.Y.Y.Y.Y.Y.'+'+'+'+'+'+'+'+ + +Y.Y.Y.O.O.O.O.O. + + + + + + + +X. + + + +'+'+'+'+'+'+(+'+'+'+)+'+'+'+'+)+-+-+-+-+-+[+[+[+[+4+4+_+2+2+2+2+2+2+e+e+e+e+e+b+b+b+b+b+b+b+b+a+a+a+9+b+b+b+b+b+b+b+b+b+b+9+9+9+9+9+9+9+9+l+l+l+l+l+l+l+l+l+l+l+l+l+l+l+l+",
". . . . . . . . . . . . % . . . . . . . % - 4 G W 3.j.V.~+c+t+B+D+x+x+l+l+l+9+9+a+a+a+b+2+3+3+2+2+2+2+2+3+3+3+3+8+[+[+[+[+[+[+=+[+[+=+=+=+=+=+=+@+@+@+++++++++++Q.Q.Q.Q.Z.Z.Z.Z.Z.Z.Z.Z.Z.Q.Q.Q.Q.Q.Q.Q.Q.Q.Q.Q.Q.Q.Z.Z.Q.Q.Q.Q.Q.Q.Q.Q.Q.Q.Q.Q.Q.Q.Q.Q.Q.Q.Q.Q.Q.Q.Q.Q.Z.Z.++++++Z.++=+=+=+=+=+|+|+|+|+|+|+|+{+[+8+8+8+8+3+d+d+d+d+d+d+a+n+n+n+s+s+z+z+z+C+C+C+C+C+C+C+C+C+C+z+z+z+s+u+j+a+a+b+3+d+a+f+f+f+f+f+o+o+o+o+o+o+s+s+s+s+s+s+s+s+s+s+s+s+s+s+s+s+s+s+s+s+s+s+s+s+s+s+s+s+s+s+s+s+s+s+s+s+s+s+s+s+s+s+p+p+p+o+o+o+o+o+o+o+f+f+f+f+f+f+f+f+f+f+h+h+m+m+m+m+m+d+7+d+8+3+[+[+[+[+[+=+=+=+=+=+=+=+=+=+=+++++++=+$+Z.Z.Z.Z.Z.Z.$+$+$+,+,+,+,+:+:+}+}+}+}+}+}+}+}+}+}+}+}+}+}+}+/+*+!+!+}+}+}+}+}+}+}+}+!+!+!+!+!+!+!+!+!+!+!+!+!+!+!+!+!+!+!+!+!+Y.Y.Y.Y.Y.Y.Y.Y.Y.Y.Y.Y.Y..+.+.+.+.+.+L.L.L.L.L..+.+.+.+.+.+.+.+.+O.O.O.O.Y.Y.Y.Y.Y.Y.Y.Y.Y.Y.Y.Y.Y.Y.'+'+'+'+'+'+'+'+'+ +Y.Y.Y.Y.O.Y. + + + + + + + + + + + + + + +'+'+'+'+'+(+(+(+(+(+)+'+'+'+-+-+-+-+)+_+_+_+[+[+_+_+_+_+2+2+2+2+2+e+e+e+e+e+b+b+b+b+b+b+b+b+b+b+a+a+a+b+b+b+b+b+a+a+a+a+a+9+9+9+9+9+9+9+9+l+l+l+l+l+l+l+l+l+l+l+l+l+l+l+l+",
". . . . . . . . . . . . % . . . . . . . . - 4 m G ).j.A.>+9+t+B+x+x+l+l+l+l+l+l+j+b+a+a+b+2+2+2+2+2+2+2+3+3+3+3+3+3+3+[+[+[+[+[+[+[+=+=+=+=+=+=+=+@+@+P.P.P.++++Q.Q.Q.Q.Z.Z.Z.Z.Z.Z.Z.Q.Q.Q.Q.Q.Q.Q.Q.Q.Q.Q.Q.Z.Q.Q.Q.Q.Q.Q.Q.Q.Q.Q.Z.Z.Z.Z.Z.Z.Z.Z.Q.Q.Q.Q.Q.Q.Q.Q.Q.Q.Z.Z.++++++Z.=+=+=+=+=+=+|+|+|+|+|+5+5+5+5+8+8+8+8+3+d+d+d+3+d+d+a+f+n+n+s+s+s+s+z+z+C+z+z+C+C+C+C+C+C+C+C+z+z+s+s+n+n+a+n+f+f+f+f+f+f+f+o+o+o+o+o+s+s+s+s+s+s+s+s+s+s+s+s+s+s+s+s+s+s+s+s+s+s+s+s+s+s+s+s+s+s+s+s+s+s+s+s+s+s+s+s+s+s+s+p+p+p+p+o+o+o+o+n+o+o+o+o+o+f+f+f+f+f+f+h+m+m+m+m+h+h+h+7+7+7+3+8+8+8+[+[+[+|+=+|+|+|+|+=+=+=+=+=+=+=+$+$+$+$+$+$+$+$+$+,+:+:+:+:+:+:+:+}+}+}+}+}+}+}+}+}+}+}+}+}+}+}+/+}+}+}+}+:+:+:+:+:+:+:+:+!+!+!+!+!+!+!+!+!+!+!+!+!+!+!+!+!+!+!+!+Y.Y.Y.Y.Y.Y.Y.Y.Y.Y.Y.Y..+.+.+.+.+.+.+.+.+.+.+.+.+.+.+.+.+.+.+.+Y.Y.Y.Y.Y.Y.Y.Y.Y.Y.O.O.O.Y.Y.Y.Y.Y. +'+'+'+'+'+'+'+'+'+Y.Y.Y.Y.Y.Y. + + + + + + + + + + + + + + +'+'+'+'+'+(+(+(+(+(+_+(+(+(+(+_+_+_+_+_+_+_+[+[+[+_+_+_+2+2+2+2+e+e+k+j+j+j+j+j+b+b+b+b+b+b+b+b+b+a+a+b+b+b+b+a+a+a+a+9+9+9+9+c+c+c+9+9+9+9+l+l+l+l+l+l+l+l+l+l+l+l+l+l+l+",
". . . . . . . . . . . . . . . . . . . . . % ^ 4 m W 3.j.V.c+c+t+t+t+x+l+l+l+l+l+j+j+a+a+b+b+2+2+2+2+2+2+3+3+3+3+3+3+8+8+8+[+[+[+[+[+=+=+=+=+=+=+=+@+@+++++++++++Q.Q.Z.Z.Z.Z.Z.Q.Q.Q.Q.Q.Q.Q.Q.Q.Q.Q.Q.Q.Q.Z.Z.Z.Z.Z.Z.Q.Q.Q.Q.Z.Q.Q.Z.Z.Z.Z.Z.Z.Z.Z.Z.Z.Q.Q.Q.Q.Q.Q.Q.Q.Q.Z.++++Z.++=+=+=+=+|+|+|+|+|+|+5+5+5+5+5+5+8+8+8+8+d+d+d+3+d+d+f+f+n+n+s+s+s+s+s+z+z+z+z+z+C+C+C+C+C+C+C+C+C+z+s+s+n+n+n+n+n+f+f+f+f+f+f+o+o+o+n+s+s+s+s+s+s+s+s+s+s+s+s+s+s+s+s+s+s+s+s+s+s+s+s+s+s+s+s+s+s+s+s+s+s+s+s+s+s+s+s+s+s+s+p+p+p+p+o+o+o+o+n+n+n+o+o+o+o+f+o+o+f+f+m+m+m+m+m+m+h+h+7+7+7+7+8+8+8+8+[+[+[+[+|+|+|+|+|+=+=+=+=+=+=+$+$+$+$+$+$+^+^+:+:+:+:+:+:+:+:+:+:+}+}+}+:+:+:+:+:+:+:+:+}+}+}+}+:+:+:+:+:+:+:+:+:+:+:+:+,+!+!+!+!+!+!+}+<+<+<+<+<+!+!+!+!+!+!+!+!+Y.Y.Y.Y.Y.Y.Y.Y.Y.Y..+.+.+.+.+.+.+.+.+.+.+.+.+.+.+.+.+.+.+.+.+Y.Y.Y.Y..+.+.+Y.Y.Y.O.O.O.Y.Y.Y.Y.Y. + +'+'+'+'+'+'+'+'+Y.Y.Y.Y.Y.Y.Y.Y. + + + + + + + + + + + + +'+'+'+'+'+(+(+(+(+(+_+(+(+(+(+_+_+_+_+_+_+_+_+_+_+_+_+_+2+2+2+e+e+k+k+j+j+j+j+j+j+j+b+b+b+b+b+b+a+a+b+b+b+b+a+a+a+a+a+9+9+9+c+c+c+c+c+9+9+9+9+9+l+l+l+l+l+l+l+l+l+l+l+l+l+",
". . . . . . . . . . . . . . . . . . . . . % - ! 4 G W 4.A.V.c+l+t+t+x+x+x+x+l+l+j+j+j+b+b+b+b+b+2+2+2+2+2+2+3+3+3+3+3+4+4+4+[+[+[+[+|+|+=+=+%+%+=+@+@+++++++++++Z.Z.Z.Z.Q.Q.Q.Q.Q.Q.Q.Q.Q.Q.Q.Q.Q.Q.Q.Q.Q.Z.Z.Z.Z.Z.Z.Z.Q.Q.Q.Q.Q.Q.Z.Z.Z.Z.Z.Z.Z.Z.Z.Z.Z.Q.Q.Q.Q.Q.Q.Q.Q.Z.++++++=+=+=+|+[+[+[+[+|+|+|+|+5+5+5+5+5+8+8+8+8+d+d+d+d+d+d+f+f+n+n+s+s+s+s+s+z+z+z+z+z+C+C+C+C+C+C+C+C+C+z+z+s+s+s+s+s+o+o+f+f+f+f+f+o+o+n+n+s+o+n+o+o+o+s+s+s+s+s+s+s+s+s+s+s+s+s+s+s+s+s+s+s+s+s+s+s+s+s+s+s+s+s+s+s+s+s+s+s+s+s+p+p+p+o+o+o+o+o+o+o+o+o+o+f+f+f+f+f+f+n+m+m+m+m+m+h+h+h+h+7+7+7+8+8+8+8+8+[+[+|+|+|+|+|+|+|+=+$+=+=+=+,+:+^+^+^+^+^+^+:+:+:+:+,+:+:+:+:+:+:+}+}+:+:+:+:+:+:+6+6+:+:+:+:+:+:+:+:+:+:+:+:+:+:+:+:+,+,+!+!+!+!+}+}+<+<+<+<+<+!+!+!+}+!+!+!+!+!+Y.Y.Y.Y.Y.Y.Y..+.+.+.+.+.+.+.+.+.+.+.+.+.+.+.+.+.+.+.+.+.+.+.+.+.+.+.+.+.+.+.+.+Y.Y.Y.Y.Y.Y.Y.Y. +'+'+'+'+'+'+'+'+'+'+!+Y.Y.Y.Y.Y. + + + + + + + + + + + + +'+'+'+'+'+'+(+(+(+(+(+(+(+(+(+(+_+_+_+(+_+_+_+_+_+_+_+_+_+2+2+2+e+b+j+j+j+j+j+j+j+j+9+9+9+9+b+b+b+a+b+b+b+b+b+a+a+a+9+9+9+9+9+c+c+c+c+c+9+9+9+9+9+9+l+l+l+l+l+l+l+l+l+l+l+l+",
". . . . . . . . . . . . . . . . . . . . . . % - ! 4 G ).j.V.~+c+l+t+t+x+x+x+x+x+l+l+j+j+j+j+b+b+b+b+b+2+2+2+2+2+3+3+2+2+4+4+4+[+[+[+[+|+|+=+%+%+%+@+@+++++++++++++++++P.P.P.P.P.Q.Q.Q.Q.Q.Q.Q.Q.Q.Q.Q.Q.Q.Q.Z.Z.Z.Z.Z.Z.Q.Q.Q.Q.Q.Q.Z.Z.Z.Z.Z.Z.Z.Z.Z.Z.Z.Q.Q.Q.Q.Q.Q.Q.Q.Z.++Z.Z.++=+=+[+[+[+[+[+[+[+|+|+|+|+|+5+5+8+8+8+3+3+d+d+d+d+d+f+f+o+o+s+s+s+s+s+s+s+s+z+z+z+z+C+C+C+C+C+C+z+z+z+z+s+s+s+s+s+o+o+f+f+f+f+f+n+n+n+n+o+n+o+o+n+n+s+s+s+s+s+s+s+s+s+s+s+s+s+s+s+s+s+s+s+s+p+p+p+p+p+p+p+p+p+p+p+p+p+p+p+o+p+p+p+o+o+o+o+o+f+f+f+f+f+f+f+f+f+f+n+n+m+m+m+m+h+h+h+h+h+h+7+7+8+8+8+8+8+5+5+5+5+5+5+|+|+|+|+|+|+|+|+:+:+^+^+^+$+$+^+:+:+:+:+:+,+:+:+:+:+:+:+:+:+:+:+:+:+:+6+6+6+6+:+:+:+:+:+:+:+:+:+6+:+:+:+:+:+,+,+,+!+}+}+}+<+<+<+<+<+<+<+<+}+}+}+!+!+!+!+!+Y.Y.Y.Y.Y.*+*+*+.+.+.+*+*+*+*+*+*+*+*+.+.+.+.+.+.+.+.+.+*+.+.+.+.+.+.+.+.+.+.+.+Y.Y.Y.Y.Y.'+'+'+'+'+'+'+'+'+'+'+'+'+!+!+!+Y.Y. + + + + + + + + + + + + +'+'+'+'+'+'+(+(+(+(+(+(+(+(+(+(+_+1+1+1+1+1+1+_+_+1+1+_+_+2+2+b+b+b+j+j+j+j+j+l+9+9+9+9+9+9+9+9+9+a+b+b+1+b+b+b+a+9+9+9+9+9+9+c+c+c+c+c+9+9+9+9+9+9+9+9+l+l+l+l+l+l+l+l+l+l+",
". . . . . . . . . . . . . . . . . . . . . . . . - ! m W 3.n.V.~+c+c+t+x+x+x+x+x+x+u+j+j+j+j+j+b+b+b+b+b+b+e+e+e+e+e+2+2+2+4+4+4+4+[+[+[+|+=+%+@+%+@+@+=+=+=+++++++++++++P.P.P.P.Q.Q.Q.Q.Q.Q.Q.Q.Q.Q.Q.Q.Q.Z.++++Z.Z.Z.Z.Q.Q.Q.Q.Q.Q.Q.Z.Z.Z.Z.Z.Z.Z.Z.Z.Z.Z.Q.Q.Q.Q.Q.Q.Z.Z.Z.Z.++++=+=+|+[+[+[+[+[+[+|+|+|+|+|+|+5+5+8+8+3+3+3+d+d+d+d+f+f+f+o+o+n+s+s+s+s+s+s+s+z+z+z+z+z+z+z+z+z+z+z+z+z+z+z+s+s+s+p+o+f+f+f+d+n+f+n+n+n+n+n+n+n+n+s+s+s+s+s+s+s+s+s+s+s+s+s+s+s+s+s+s+s+s+s+p+p+p+p+p+p+p+p+p+p+p+p+p+p+p+p+p+p+p+p+o+o+o+o+f+f+f+f+f+f+f+f+f+n+n+n+m+m+m+m+h+h+h+f+f+f+f+f+i+8+8+8+8+5+5+5+5+5+5+5+|+|+|+|+|+|+|+:+:+^+^+^+^+^+^+:+:+:+:+:+:+:+:+:+:+:+:+:+:+:+:+:+:+:+:+:+:+:+:+:+:+:+:+:+:+:+:+:+:+:+:+:+:+:+:+:+:+}+}+}+<+<+<+<+<+<+<+<+}+}+}+}+}+!+!+!+!+!+!+!+!+!+!+!+*+*+*+*+*+*+*+*+*+*+*+*+*+*+*+*+*+*+*+*+*+*+*+*+*+*+*+*+*+*+*+*+!+!+!+!+'+!+'+'+'+'+'+'+'+'+'+'+'+'+!+!+'+'+'+'+'+'+'+'+'+'+'+'+'+'+'+'+'+'+'+'+'+(+(+(+(+(+(+(+(+(+(+1+1+1+1+1+1+1+1+_+_+_+_+_+1+1+b+1+a+b+j+j+9+9+9+9+9+9+9+9+9+9+9+9+9+a+a+b+b+b+b+a+9+9+9+9+9+9+9+c+c+c+c+c+9+9+9+9+9+9+9+9+9+9+9+9+9+l+l+c+l+l+",
". . . . . . . . . . . . . . . . . . . . . . . . % - 4 G V 3.n.V.>+~+c+l+l+x+x+x+x+x+j+j+j+j+j+j+b+b+b+b+b+e+e+e+e+e+e+e+e+4+4+4+4+4+[+[+=+=+%+%+%+@+@+=+=+=+++++Z.Z.++++++++++++Z.Z.Z.Z.Z.Z.Z.Z.Z.Q.Q.Q.Z.Z.++++Z.Z.Z.Q.Q.Q.Q.Q.Q.Q.Q.Q.Z.Z.Z.Z.Z.Z.Z.Z.Z.Z.Q.Q.Q.Q.Z.Z.Z.Z.Z.Z.=+=+=+=+=+[+[+[+[+[+[+[+|+|+|+|+|+5+5+8+8+3+3+3+d+d+d+d+f+f+f+f+n+n+o+o+o+o+s+s+s+s+s+z+z+z+z+z+z+z+z+z+z+z+z+z+z+s+s+p+o+o+f+f+a+a+f+n+n+n+n+n+n+n+n+s+s+s+s+s+s+s+s+s+s+s+s+s+s+s+s+s+s+s+s+s+p+p+p+p+p+p+p+p+p+p+p+p+p+p+p+p+p+p+p+p+o+o+o+o+f+f+f+f+f+f+f+f+n+n+n+n+m+m+m+m+h+h+h+f+o+o+f+f+i+i+8+8+5+5+5+5+5+5+5+5+|+|+|+|+|+|+|+:+:+^+^+^+^+^+^+:+:+:+:+:+:+:+:+:+:+:+:+:+:+:+:+:+:+:+:+:+:+:+:+:+:+:+:+:+:+:+:+:+:+:+:+:+:+:+:+:+:+}+}+}+<+<+<+<+<+<+<+<+}+}+}+}+}+}+!+!+!+!+!+!+!+!+!+!+*+*+*+*+*+*+*+*+*+*+*+*+*+*+*+*+*+*+*+*+!+!+!+!+!+!+!+!+!+!+!+!+!+!+!+!+!+!+(+(+'+'+'+'+'+'+'+'+'+'+'+'+!+!+'+'+'+'+'+'+'+'+'+'+'+'+'+'+'+'+'+'+(+(+(+(+(+(+(+(+(+(+(+1+1+1+1+1+1+1+1+b+b+1+1+1+1+1+1+1+9+9+9+9+9+9+9+9+9+9+9+9+9+9+9+9+9+b+b+a+a+a+a+b+9+9+9+9+9+9+9+9+c+c+c+9+9+9+9+9+9+9+9+9+9+9+9+9+9+9+9+c+c+c+",
". . . . . . . . . . . . . . . . . . . . . . . . . . - 4 m W 3.j.A.V.~+~+9+l+l+x+x+x+x+j+l+j+b+j+b+b+b+j+j+j+j+j+e+e+e+e+e+e+e+e+8+8+|+[+|+=+=+=+=+=+++=+=+=+++++++++++++Z.++++++++++++Z.++++++++Z.Z.Z.++++++++Z.++Z.Q.Q.Q.Q.Q.Q.Q.Q.Q.Q.Z.Z.Z.Z.Z.Z.Z.Z.Z.Q.Q.Q.Q.Z.++++Z.Z.Z.$+$+$+$+$+$+|+[+[+[+[+[+[+[+[+[+[+5+5+8+8+8+8+3+3+8+8+d+d+d+d+f+f+f+n+n+n+n+n+s+s+p+p+p+s+z+z+z+z+s+s+s+z+z+z+z+z+y+A+z+s+p+o+f+f+d+d+a+n+n+n+n+n+n+n+n+s+s+s+s+s+s+s+s+s+s+s+s+s+p+p+p+p+p+p+p+p+p+p+p+p+p+p+p+p+p+p+p+p+s+s+s+s+p+p+p+p+o+n+o+f+f+f+f+f+f+h+h+h+m+m+m+m+m+m+n+n+h+h+h+f+f+f+f+f+i+i+i+8+8+8+8+8+5+5+5+5+5+|+|+|+|+|+|+:+:+^+^+^+^+^+^+^+^+:+:+:+:+:+:+:+:+:+:+:+^+^+^+^+^+^+^+^+^+^+^+^+^+:+:+:+^+^+^+:+:+:+:+:+:+:+:+:+}+}+}+}+}+<+<+<+<+<+<+<+/+<+<+<+}+}+}+!+!+!+!+!+!+!+!+!+!+!+!+!+!+!+!+}+}+<+<+<+<+/+/+/+<+<+<+<+<+<+<+<+!+!+!+!+!+!+!+!+!+!+}+}+}+(+(+(+(+(+(+(+'+'+'+'+(+(+(+(+'+'+'+'+!+!+!+'+'+(+(+(+'+'+'+'+'+'+'+'+(+(+(+(+(+(+(+1+(+1+1+1+1+1+1+1+1+1+1+1+1+1+1+a+9+9+9+9+9+9+9+9+9+9+9+9+9+9+9+9+9+9+9+9+9+9+9+9+a+b+b+9+9+9+9+9+9+9+9+9+9+9+9+9+9+9+9+9+9+c+c+c+c+c+l+9+9+9+c+c+c+c+",
". . . . . . . . . . . . . . . . . . . . . . . . . . . - 4 m W ).3.j.A.V.~+9+9+l+x+x+x+x+u+l+j+j+j+j+j+j+j+b+b+b+e+e+e+k+k+e+e+d+8+8+8+[+[+=+=+=+=+=+=+=+=+=+=+=+=+=+++++Z.Z.Z.Z.Z.Z.Z.Z.Z.Z.Z.Z.Z.++++++++++Z.Z.Z.Z.Q.Q.Q.Q.Q.Q.Q.Q.Z.Z.Q.Q.Q.Q.Z.Z.Z.Z.Z.Z.Z.Z.++Z.Z.Z.Z.$+$+$+$+$+$+^+^+[+[+[+[+[+[+[+[+[+[+|+5+5+8+8+8+8+8+3+8+8+d+8+d+d+d+f+n+f+f+n+n+n+n+n+p+p+p+s+z+z+z+s+s+s+s+s+s+z+z+z+A+A+s+p+p+o+f+f+d+d+a+n+n+n+f+f+n+n+s+s+s+s+s+s+s+s+s+s+s+s+s+s+p+p+p+p+p+p+p+p+p+p+p+p+p+p+p+p+p+p+p+p+p+s+s+s+p+p+p+o+o+n+o+o+f+f+o+o+o+h+h+h+m+m+m+m+m+m+m+m+h+h+h+f+f+f+f+f+i+i+i+8+8+8+8+8+5+5+5+5+5+5+|+|+|+|+|+:+:+^+^+^+^+^+^+^+^+:+:+:+:+:+:+:+:+:+:+:+^+^+^+^+^+^+{+^+^+^+^+^+^+^+:+:+^+^+^+:+:+:+:+:+:+:+:+:+}+}+}+}+<+<+/+/+<+<+<+<+/+<+<+<+}+}+}+!+!+!+!+!+!+!+!+!+!+}+}+}+}+}+}+}+}+}+<+<+<+<+/+/+<+<+<+<+<+<+<+<+}+}+}+!+!+!+!+!+!+}+}+}+}+(+(+(+(+(+(+(+'+'+(+(+(+(+(+(+'+'+'+'+'+'+'+(+(+(+(+(+'+'+'+'+'+'+'+(+(+(+(+(+(+(+(+1+(+1+1+1+1+1+1+a+a+a+a+a+a+a+a+a+9+9+9+9+9+9+9+9+9+9+9+9+9+9+9+9+9+9+9+9+9+9+9+9+b+b+b+9+9+9+9+9+9+9+9+9+9+9+9+9+9+9+9+9+9+c+c+c+c+c+9+9+9+9+c+c+c+c+",
". . . . . . . . . . . . . . . . . . . . . . . . . . . % - ! m G W ).3.n.D.V.~+c+l+l+l+l+l+j+j+j+j+j+j+j+j+j+b+b+b+b+e+e+k+k+d+d+8+8+8+[+[+[+=+=+=+=+=+=+=+=+=+=+=+=+=+++Z.++++=+$+$+Z.$+$+$+$+$+$+$+Z.Z.Z.Z.++++Z.Z.Z.Z.Z.Z.Z.Z.Z.Z.Z.Z.Q.Q.Q.Q.Z.Z.Z.Z.Z.Z.Z.Z.Z.$+$+$+$+$+$+^+,+^+^+|+:+[+[+[+[+[+[+[+[+[+5+5+5+5+5+8+8+8+8+8+8+8+8+8+d+d+d+d+n+n+f+f+f+n+n+n+p+p+p+s+z+s+s+p+s+s+s+s+s+s+z+z+z+z+p+p+p+o+o+f+f+f+n+n+n+n+n+f+n+n+s+s+s+s+s+s+s+s+s+s+s+s+s+s+p+p+p+p+p+p+p+p+p+p+p+p+p+p+p+p+p+p+p+p+p+s+s+s+p+p+p+o+o+n+n+o+o+o+o+o+o+m+m+m+m+m+m+m+m+m+m+m+h+h+h+f+f+f+f+f+i+i+i+8+8+8+8+8+5+5+5+5+5+5+5+5+|+|+|+:+:+^+^+^+^+^+^+^+^+:+:+:+:+:+:+:+:+:+^+:+^+^+^+^+^+^+^+^+^+^+^+^+^+^+^+:+^+^+^+:+:+:+:+:+:+:+:+:+}+}+}+}+}+}+}+}+<+<+<+<+/+/+}+}+}+}+}+}+}+}+}+}+}+}+}+}+}+}+}+}+}+}+}+}+}+}+}+}+<+<+<+<+<+<+<+<+<+<+/+<+}+}+}+}+!+!+!+!+!+}+}+}+}+}+(+(+(+(+(+(+(+(+(+(+(+(+(+(+(+'+(+(+(+(+'+'+(+(+(+(+'+'+'+'+'+'+(+(+(+(+(+(+(+(+(+1+3+1+1+a+1+a+a+a+a+a+a+a+a+a+a+a+9+9+9+9+9+9+9+9+9+9+9+9+9+9+9+9+9+9+9+9+9+9+9+9+b+b+9+9+9+9+9+9+9+9+9+9+9+9+9+9+9+9+9+9+9+c+c+c+c+c+9+9+9+9+c+c+c+c+",
"% . . . . . . . . . . . . . . . . . . . . . . . . . . % % > ^ 6 m G W ).0.n.D.V.~+~+~+9+9+9+9+9+j+j+u+u+j+j+j+b+b+b+b+e+e+f+d+d+8+8+8+[+[+[+=+=+=+=+=+=+=+=+-+-+=+=+=+=+++=+$+$+$+$+$+$+$+$+$+$+$+$+$+$+$+$+$+Z.Z.Z.Z.Z.Z.Z.Z.Z.Z.Z.Z.Z.Q.Q.Q.Z.Z.Z.Z.$+$+$+$+$+$+$+$+$+$+$+^+^+:+|+:+:+:+[+[+[+[+[+[+[+[+|+5+5+|+5+5+8+8+8+8+8+8+8+8+d+d+d+d+f+f+f+f+f+f+f+o+o+p+p+p+s+z+p+p+p+s+s+s+s+s+s+s+s+s+s+p+p+p+p+o+o+f+f+n+n+n+n+n+f+o+n+p+p+p+p+p+p+p+p+p+p+p+p+p+p+p+p+p+p+p+p+p+p+p+p+p+p+p+p+p+p+p+p+p+p+p+p+p+s+p+p+p+p+o+o+o+n+n+n+n+n+n+m+m+m+m+m+m+m+m+m+m+m+m+h+h+h+h+h+h+h+i+i+i+8+8+8+8+8+5+5+5+5+5+5+5+5+|+|+|+:+:+^+^+^+^+^+^+^+^+:+:+:+:+:+:+:+:+^+:+:+^+^+^+{+^+^+^+%+^+^+^+^+^+^+^+^+^+^+^+:+:+:+:+:+:+:+:+:+:+}+}+}+}+}+}+}+}+}+/+/+}+}+}+}+}+}+}+}+}+}+}+}+}+}+}+}+}+}+}+}+}+}+}+}+}+}+}+}+}+}+<+<+}+}+}+}+}+}+}+}+<+}+}+}+!+!+!+!+}+}+}+}+}+}+'+'+(+(+(+(+(+(+(+(+(+(+(+(+(+(+(+(+(+(+'+'+'+'+'+'+'+'+'+'+'+'+(+(+(+(+(+(+(+(+3+b+3+a+a+a+a+a+a+a+a+a+a+a+9+9+9+9+9+9+9+9+9+9+9+9+9+9+9+9+9+9+9+9+9+9+9+9+9+9+9+9+9+9+9+9+9+9+9+9+9+9+9+9+9+9+9+9+9+9+9+9+9+c+c+c+c+c+9+9+9+9+c+c+c+c+",
"% . . . . . . . . . . . . . . . . . . . . . . . % % % % % % & - ^ 4 m G W ).3.0.D.D.D.V.V.~+~+9+b+j+u+u+j+j+j+j+b+b+b+a+3+d+d+3+8+3+[+[+[+[+-+-+=+=+=+=+=+-+[+[+[+-+=+=+=+,+,+,+,+,+,+,+,+,+,+,+$+$+$+$+$+$+$+$+Z.Z.Z.Z.Z.Z.Z.Z.Z.Z.Z.Z.Z.Q.Z.Z.Z.$+$+$+$+$+$+$+$+$+$+$+$+^+^+^+:+|+:+:+:+[+[+[+[+[+[+[+[+[+|+|+[+|+5+|+[+8+8+8+8+8+8+8+d+d+f+f+f+f+f+f+f+f+o+o+p+p+p+p+p+p+p+p+s+s+s+n+s+s+s+s+p+s+s+p+p+p+p+p+o+n+n+n+n+n+o+n+o+o+p+p+p+p+p+p+p+p+p+p+p+p+p+p+p+p+p+p+p+p+p+p+p+p+p+p+p+p+p+p+p+p+p+p+p+p+p+p+p+p+p+p+p+p+o+o+n+n+n+s+s+m+m+m+m+m+m+m+m+m+m+m+h+h+h+h+h+h+h+h+i+i+i+8+8+8+8+8+5+5+5+5+5+5+5+5+5+5+|+:+:+^+^+^+^+^+^+^+^+:+:+:+:+:+:+:+^+:+:+^+^+^+{+{+%+%+%+%+%+%+{+^+^+^+^+^+^+^+^+:+:+:+:+:+:+:+:+:+:+:+:+:+}+}+}+}+<+<+<+}+}+}+}+}+}+}+}+}+}+}+}+}+}+}+}+}+}+<+}+}+}+}+:+:+}+}+}+}+}+}+}+7+}+}+7+7+7+}+}+}+}+}+}+}+}+}+!+!+!+!+}+}+}+}+'+'+(+(+(+(+(+(+(+(+(+(+(+(+(+(+(+(+}+}+'+'+'+'+'+'+<+'+'+'+'+'+(+(+(+(+(+(+(+3+3+b+3+a+a+a+a+a+a+a+a+a+a+9+9+9+9+9+9+9+9+9+9+9+9+9+9+9+9+9+9+9+9+9+9+9+9+9+9+9+9+9+9+9+9+9+9+9+9+9+9+9+9+9+9+9+9+9+9+9+9+9+9+c+c+c+c+c+9+9+9+9+c+c+c+c+",
"% . . . . . . . . . . . . . . . . . . . . . . . . . . . . . . . % & > ! m m G W ).).3.0.n.D.V.V.~+9+j+j+j+j+u+u+j+j+a+a+a+3+3+3+d+3+3+8+[+(+[+[+,+,+-+,+[+[+[+[+[+[+-+-+,+,+,+,+,+,+,+,+,+,+,+,+$+$+$+$+$+$+$+$+Z.Z.Z.Z.Z.Z.Z.Z.Z.Z.Z.Z.Z.Z.Z.Z.$+$+$+$+$+$+$+$+$+$+$+$+^+^+^+|+:+|+:+:+:+[+[+[+[+[+[+[+[+[+[+[+[+|+|+[+|+5+8+8+8+8+8+8+d+d+d+f+f+f+f+f+f+f+o+n+p+p+p+p+p+p+p+p+s+n+n+n+s+s+s+s+p+s+s+p+p+p+p+p+s+s+s+s+s+s+o+o+p+p+p+p+p+p+p+p+p+p+p+p+p+p+p+p+p+o+o+o+p+p+p+p+p+p+p+o+o+p+p+p+p+p+p+p+p+p+p+p+p+p+p+p+p+o+o+o+n+n+n+s+s+m+m+m+m+m+m+m+m+m+m+m+h+h+h+h+h+h+h+h+i+h+6+6+8+8+8+8+5+5+5+5+5+5+5+5+5+5+|+:+:+^+^+^+^+^+^+^+^+:+:+:+:+:+:+^+^+:+:+^+^+^+{+{+{+%+%+{+{+{+{+{+^+^+^+^+^+^+^+:+:+:+:+:+:+:+:+:+:+:+:+:+}+}+}+}+}+}+}+}+}+}+}+}+}+}+<+}+}+}+}+}+}+}+}+}+<+}+}+}+}+:+:+:+}+}+}+}+}+}+}+7+7+7+7+7+7+7+7+7+}+}+}+}+}+}+}+}+*+!+!+!+!+!+!+'+(+(+(+(+(+(+(+(+(+(+(+(+(+(+(+(+}+}+}+(+'+'+'+'+<+<+'+'+'+'+(+(+(+(+(+(+(+3+3+b+3+a+a+a+1+a+a+a+1+1+a+9+9+9+9+9+9+9+9+9+9+9+9+9+9+9+9+9+9+9+9+9+9+9+9+9+9+9+9+9+9+9+9+9+9+9+9+9+9+9+9+9+9+9+9+9+9+9+9+9+9+c+c+c+c+c+9+9+9+9+c+c+c+c+",
". . . . . . . . . . . . . . . . . . . . . . . . . . . . . . . . . . . % - ^ ! 4 m m G W W ).3.n.D.R.)+~+b+j+j+u+j+n+n+a+a+a+d+a+d+d+d+3+3+3+(+(+:+:+:+[+[+[+[+[+[+[+[+,+,+,+,+,+,+,+,+,+,+,+,+,+$+$+$+$+$+$+$+$+Z.Z.Z.Z.Z.Z.Z.Z.Z.Z.Z.Z.Z.Z.Z.Z.$+$+$+$+$+$+$+$+$+$+^+^+^+|+|+|+:+|+:+:+:+[+[+[+[+[+[+[+[+[+[+[+[+|+5+5+5+5+8+8+8+8+8+8+d+d+d+f+f+f+f+f+f+f+o+o+o+o+p+p+p+o+o+o+n+n+n+n+s+s+s+s+p+s+z+s+p+s+s+p+s+s+s+s+s+s+p+p+o+o+n+o+o+o+o+p+p+p+p+p+p+p+o+o+n+o+f+o+p+p+p+p+p+p+p+o+o+p+p+p+p+p+p+p+p+p+p+p+p+p+o+o+n+n+o+o+n+n+n+n+n+m+m+m+n+m+m+m+m+m+m+m+h+h+m+h+h+h+h+h+h+i+6+6+6+8+8+8+5+5+5+5+5+5+5+5+5+5+|+:+:+^+^+^+^+^+^+^+^+:+:+:+:+:+^+^+^+^+^+^+{+{+{+{+%+{+{+{+{+{+%+%+^+^+^+^+^+^+^+:+:+:+:+,+,+,+,+,+,+:+,+,+}+}+}+}+}+}+}+}+}+:+}+}+}+}+}+}+}+}+}+}+}+}+}+}+}+}+}+}+:+:+:+:+}+}+}+}+}+}+}+7+7+7+7+7+7+7+7+7+}+}+}+}+<+}+}+!+*+!+!+!+!+}+}+}+(+(+(+(+(+(+(+(+(+(+(+(+(+}+(+(+}+}+}+}+(+'+'+'+<+<+'+'+'+(+(+(+(+(+(+(+(+3+3+b+3+a+a+a+1+a+1+1+1+1+1+9+9+9+9+9+9+9+9+9+9+9+9+9+9+9+9+9+9+9+9+9+9+9+9+9+9+9+9+9+1+1+9+9+9+9+9+9+9+9+9+9+9+9+9+9+9+9+9+9+9+c+c+c+c+c+9+l+9+9+c+c+c+c+",
". . . . . . . . . . . . . . . . . . . . . . . . . . . . . . . . . . . . . . % - - ! ! 4 m m W ).3.n.R. +)+b+j+l+u+j+n+a+a+a+a+a+f+d+d+d+3+7+3+3+}+}+}+}+[+[+[+[+[+[+[+,+,+,+,+,+,+,+,+,+,+,+,+,+$+$+$+$+$+$+$+$+$+$+Z.Z.Z.Z.Z.Z.Z.Z.$+$+Z.Z.Z.$+$+$+$+$+$+,+,+,+^+^+^+|+|+:+:+:+:+:+:+:+:+[+[+[+[+[+[+[+[+[+|+|+[+5+5+5+5+8+8+8+8+8+8+8+8+d+f+f+o+o+o+o+o+o+o+o+n+o+o+o+o+n+n+n+n+n+n+n+s+s+s+s+p+s+z+s+s+s+s+s+z+s+s+s+s+s+p+p+o+o+f+f+f+f+o+o+o+p+p+p+p+p+o+o+f+f+f+f+n+p+p+p+p+p+p+o+p+p+p+p+p+p+p+p+p+o+o+o+o+o+o+f+f+f+f+f+m+m+m+m+m+m+m+m+n+m+m+m+m+m+m+m+m+m+m+h+h+h+h+h+h+h+h+6+6+8+8+8+5+5+5+5+5+5+5+5+5+5+|+:+:+^+^+^+^+^+^+^+^+:+:+:+:+^+^+^+^+^+^+^+{+{+{+{+{+{+{+{+;+{+{+%+{+$+^+^+^+^+^+,+,+$+$+,+,+,+,+,+,+,+,+,+!+!+!+}+*+}+}+}+:+:+}+}+}+}+}+!+!+!+!+}+}+}+}+}+!+!+}+}+:+:+:+:+}+}+}+7+7+7+7+7+7+7+7+7+7+7+7+7+}+}+}+}+<+}+}+!+*+*+!+}+}+}+}+}+'+(+(+(+(+(+(+(+(+(+(+(+}+}+(+(+<+<+<+<+<+<+<+!+1+1+'+'+'+(+(+3+(+(+(+(+(+3+3+b+3+a+a+a+1+1+1+1+1+1+1+~+9+9+9+9+9+9+9+9+9+9+9+9+9+9+9+9+9+9+9+9+c+9+9+9+9+9+~+~+~+~+~+~+~+~+~+~+9+9+9+9+9+9+9+9+9+9+9+9+9+c+c+c+c+c+l+l+9+9+c+c+c+c+",
". . . . . . . . . . . . . . . . . . . . . . . . . . . . . . % % . . . . . . . . . . . . & - 4 G W ).0.D.V.V.9+l+l+x+l+l+l+a+a+a+0+0+m+0+0+0+0+0+}+}+}+}+}+7+}+}+:+:+:+:+,+!+!+,+[+=+=+=+=+=+=+=+=+=+=+=+$+=+=+=+=+=+=+++++Z.Z.++Z.Z.$+$+$+$+$+$+$+$+$+$+,+:+:+:+^+|+|+:+:+:+:+:+:+:+:+:+:+[+[+[+|+|+|+|+|+|+|+|+5+5+5+8+5+8+8+8+8+8+8+8+8+8+d+f+o+o+o+o+o+o+o+o+o+o+o+o+o+f+f+f+n+n+n+n+o+p+p+p+p+z+z+z+s+s+s+z+y+z+z+z+z+s+s+p+o+f+f+d+d+f+f+f+o+n+o+p+p+p+n+o+f+f+f+f+o+o+p+p+p+o+o+o+p+p+p+p+p+p+p+p+p+p+o+o+o+o+o+f+f+m+m+m+h+h+m+m+m+m+m+m+n+n+m+m+m+m+m+7+h+h+h+i+i+i+i+i+i+i+i+i+8+g+g+g+5+5+5+5+5+5+5+5+^+^+^+^+^+^+^+^+^+^+^+^+^+^+^+^+^+^+^+^+^+^+^+^+{+{+{+%+{+{+{+{+%+%+%+%+$+$+$+$+$+$+$+,+,+,+,+,+,+,+,+,+,+,+,+,+,+,+,+!+!+!+}+}+}+}+}+}+:+:+,+,+,+,+,+,+,+,+!+!+!+!+!+,+,+,+:+:+:+:+6+6+6+}+}+}+}+}+7+7+7+7+7+}+}+}+}+}+}+}+}+!+}+}+}+}+,+,+[+[+'+'+'+(+(+(+'+'+(+(+(+(+1+(+'+'+'+<+<+1+<+<+<+'+<+'+'+'+(+(+(+(+(+(+(+(+(+1+1+1+(+1+1+1+1+1+1+1+1+1+1+1+9+9+9+9+9+9+9+~+~+~+~+~+9+9+9+9+9+9+9+9+b+b+9+c+~+~+~+~+~+~+~+~+~+~+~+~+~+~+~+~+9+9+9+9+9+9+9+9+9+9+9+9+l+l+l+l+c+c+c+c+c+c+",
". . . . . . . . . . . . . . . . . . . . . . . . . . . . . . % % % % % % . . . . . . . . . . - 4 m W ).3.n.V.~+9+l+x+l+l+n+a+a+a+m+m+m+m+0+0+0+0+0+0+0+0+7+7+7+7+:+:+:+:+:+:+,+,+=+=+=+=+=+=+=+=+=+=+=+$+=+$+=+=+=+=+=+=+++++Z.Z.Z.$+$+$+$+$+$+$+$+$+$+,+:+:+:+:+|+|+:+:+:+:+:+^+:+^+:+:+:+[+8+8+5+5+5+5+5+5+5+5+|+5+8+8+5+8+8+8+8+8+8+8+8+8+8+8+f+f+f+f+f+f+f+f+o+o+f+f+f+f+f+f+n+n+n+n+n+o+p+p+p+p+p+p+s+s+s+s+z+s+s+z+z+s+s+p+o+f+f+d+d+f+f+f+f+o+o+p+p+p+o+n+o+f+f+f+n+p+p+p+p+o+o+o+p+p+p+p+p+p+p+p+p+p+p+p+o+o+o+o+f+h+h+h+h+m+m+m+m+m+m+m+n+n+m+m+m+m+m+h+h+h+h+i+i+i+i+i+i+i+i+i+8+5+g+g+g+5+5+5+5+5+5+5+^+^+^+^+^+^+^+^+^+^+^+^+^+^+^+^+^+^+^+^+^+^+^+^+{+{+{+%+{+{+{+;+%+%+%+%+%+$+$+$+$+$+$+$+$+,+,+,+,+,+,+,+,+,+,+,+,+,+,+,+,+!+}+}+:+:+:+:+:+,+,+,+,+,+,+,+,+,+!+!+!+!+,+,+,+,+:+:+:+:+:+6+6+:+}+}+:+}+}+}+}+}+}+}+}+}+}+:+:+:+:+,+!+!+!+!+,+,+[+[+}+'+'+'+'+(+'+'+'+(+(+(+(+(+(+'+'+'+<+<+<+1+'+'+<+'+'+'+(+(+(+(+(+(+(+(+(+1+1+1+3+1+1+1+1+1+1+1+1+1+1+1+9+9+9+9+9+9+9+9+9+9+9+~+~+~+~+9+9+9+9+9+b+b+9+c+c+~+~+~+~+~+~+~+~+~+~+~+~+~+~+~+9+9+9+9+9+9+9+9+9+9+9+9+9+9+l+l+c+c+c+c+c+c+",
". . . . . . . . . . . . . . . . . . . . . . . . . . . . . . . . % % % % . . . . . . . . . . . - ! m G ).3.n.V.~+l+x+l+l+l+9+0+0+m+m+m+m+m+m+0+0+0+0+0+0+7+7+7+7+8+8+8+[+:+:+[+:+=+=+=+=+=+=+=+=+=+=+$+=+|+|+$+=+=+=+=+=+=+++++++$+$+$+$+$+$+$+$+$+,+,+:+:+:+:+:+:+:+:+:+:+:+:+6+6+^+^+^+^+8+8+8+5+5+5+5+5+5+5+5+5+5+8+8+8+5+5+8+8+8+8+8+8+8+8+8+d+d+d+d+d+f+i+k+i+i+i+f+f+f+f+f+n+f+f+f+o+o+n+o+p+p+p+p+s+s+s+s+p+s+s+s+s+s+s+p+o+f+f+d+d+f+f+f+f+f+o+o+o+o+o+o+o+o+o+n+o+p+p+p+p+p+o+o+o+p+p+p+p+p+p+p+p+p+p+p+s+s+o+o+o+m+m+m+m+m+m+m+m+m+m+m+n+m+m+m+m+m+h+h+h+h+h+i+i+i+i+i+i+i+i+i+6+5+5+5+g+g+5+5+5+5+5+5+^+^+^+^+^+^+^+^+^+^+^+^+^+^+^+^+^+^+^+$+$+$+$+$+{+{+{+{+;+;+;+;+%+%+%+%+%+$+$+$+$+$+$+$+$+$+$+$+$+$+$+$+$+$+$+$+,+,+,+,+,+,+,+:+:+:+:+:+:+:+,+,+,+,+,+$+,+,+,+!+!+!+,+,+,+:+:+:+:+:+:+:+:+:+:+:+:+:+:+:+:+:+:+:+:+:+:+:+:+:+,+!+!+!+!+!+!+!+,+,+!+!+!+'+'+!+!+!+'+'+(+(+(+(+(+'+'+'+<+<+!+!+'+'+<+'+'+'+'+(+(+(+(+(+(+(+(+1+1+1+3+1+1+1+1+1+1+1+1+1+1+1+~+~+~+~+~+~+~+9+9+9+9+~+~+~+~+~+~+~+~+~+1+9+9+9+~+~+~+~+~+~+~+~+~+~+~+~+~+~+~+~+~+9+9+9+9+9+9+9+9+9+9+9+9+9+9+l+9+c+c+c+c+c+",
". . . . . . . . . . . . . . . . . . . . . . . . . . . . . . . . . . . . . . . . . . . . . . . % - 4 m G ).0.D.V.9+l+x+x+l+l+l+0+m+m+m+m+m+m+m+m+0+0+0+0+7+7+7+7+8+8+8+8+[+[+[+[+|+|+=+=+=+=+=+=+=+=+=+|+|+|+|+|+=+=+=+=+=+=+=+=+$+$+$+^+^+,+,+:+:+:+:+:+:+:+:+:+:+:+:+:+:+:+6+6+6+8+^+^+^+8+8+8+5+5+5+5+5+5+5+5+5+5+8+8+8+5+5+5+8+8+8+8+8+8+8+8+3+d+d+8+d+d+f+i+i+i+i+i+i+f+f+d+f+f+f+f+f+f+o+n+o+o+p+p+s+s+s+s+p+s+s+s+s+s+s+p+n+o+f+f+f+f+f+f+f+f+f+o+o+n+o+o+p+p+o+o+p+p+p+p+p+p+o+o+o+o+o+o+o+p+p+p+p+p+s+s+s+s+s+s+o+m+m+m+m+m+m+m+m+m+m+m+m+m+m+m+m+m+h+h+h+h+h+h+h+i+i+i+i+i+6+6+6+5+5+5+5+5+5+5+5+5+5+5+^+^+^+^+^+^+^+^+^+^+^+^+^+^+^+{+{+{+{+{+{+{+%+%+{+{+%+%+;+;+;+;+%+%+%+%+%+%+%+$+$+$+$+$+$+$+$+$+$+$+$+$+$+$+$+Z.$+$+$+$+,+,+,+:+:+:+:+:+:+:+:+:+,+^+$+^+^+,+,+,+,+,+,+:+:+:+:+:+:+:+:+:+:+:+:+,+,+,+,+,+,+,+,+,+:+,+,+,+,+,+,+,+,+,+,+,+,+,+-+-+-+-+!+!+!+'+'+!+'+'+'+(+(+(+(+'+'+'+<+!+1+!+'+'+!+'+'+'+'+'+(+(+(+(+(+(+(+1+1+1+(+1+1+~+1+1+1+1+1+1+1+1+~+~+~+~+~+~+~+~+~+~+~+~+~+~+~+~+~+~+~+~+~+~+~+~+~+~+~+~+~+~+~+~+~+~+~+~+~+~+~+~+~+9+9+9+9+9+9+9+9+9+9+9+9+9+9+9+9+9+9+9+c+c+",
". . . . . . . . . . . . . . . . . . . . . . . . . . . . . . . . . . . . . . . . . . . . . . . . % - 4 m W ).n.V.~+l+x+x+x+l+m+m+m+m+m+m+m+m+m+m+m+0+0+0+0+7+7+7+8+8+8+8+8+8+[+[+[+[+|+|+|+=+=+=+=+=+|+|+|+|+|+|+|+=+=+=+=+=+=+=+$+$+^+^+^+:+:+:+:+:+:+:+:+:+:+:+:+:+:+:+:+:+6+6+6+8+8+8+^+8+8+8+8+8+8+8+8+8+8+8+8+8+8+8+8+8+8+8+8+8+8+8+8+8+8+8+8+8+8+8+8+8+8+i+i+i+i+i+f+d+d+d+d+f+f+f+f+f+o+o+o+o+p+p+s+s+s+s+p+s+n+n+m+s+s+p+o+n+f+f+f+f+f+f+o+f+f+f+f+f+o+o+p+o+o+o+p+p+p+p+p+p+o+o+o+o+o+o+o+p+p+p+p+p+s+s+s+p+s+s+s+m+m+m+m+m+m+m+m+m+m+m+m+m+m+m+m+m+h+h+h+h+h+h+h+h+h+i+i+i+6+6+8+5+5+5+5+5+5+5+5+5+5+5+^+^+^+^+^+^+^+^+^+^+^+^+^+^+^+^+{+{+{+{+%+%+%+%+%+%+%+%+;+;+;+;+%+%+%+%+%+%+%+%+%+%+$+$+$+$+$+$+Z.Z.Z.Z.Z.Z.Z.Z.Z.Z.Z.Z.$+$+$+,+:+:+:+:+:+:+:+:+:+:+^+^+^+:+:+,+,+,+,+:+:+:+:+:+:+:+:+:+:+:+,+,+,+,+,+,+,+,+,+,+,+,+,+,+,+,+,+,+,+,+,+,+,+,+,+,+,+,+,+-+-+'+'+'+'+'+'+'+'+'+'+(+(+'+'+<+1+'+'+'+<+'+'+'+'+(+(+(+(+(+(+(+(+1+1+1+(+1+1+~+1+1+1+1+1+1+1+1+~+~+~+~+~+~+~+~+~+~+~+~+~+~+~+~+~+~+~+~+~+~+~+~+~+~+~+~+~+~+~+~+~+~+~+~+~+~+~+~+~+1+1+1+9+9+9+9+9+9+9+9+9+9+9+9+9+9+9+9+c+c+",
". . . . . . . . . . . . . . . . . . . . . . . . . . . . . . . . . . . . . . . . . . . . . . . . . - - 4 m W 3.A.V.9+x+x+B+B+x+t+m+m+l+m+m+m+m+m+m+m+m+m+n+m+f+d+7+8+8+8+8+8+5+[+|+|+|+|+|+|+=+=+=+=+|+|+|+|+|+|+|+=+=+=+=+=+=+=+^+^+^+|+|+:+:+:+:+:+:+:+:+:+:+:+:+:+:+:+:+6+6+6+6+8+8+8+^+8+8+8+8+8+8+8+8+8+8+8+8+8+8+8+8+8+8+8+5+5+5+8+8+8+8+8+8+8+8+8+8+8+8+8+i+i+i+i+8+8+d+d+d+f+f+f+f+f+o+o+o+p+p+p+s+s+s+s+p+s+n+n+n+s+s+p+o+o+n+o+f+f+o+n+n+o+f+f+f+f+f+o+n+n+n+o+o+p+p+p+p+o+o+o+o+o+o+o+o+p+p+p+p+p+p+p+s+p+s+s+s+m+m+m+m+m+m+m+m+m+m+m+m+m+m+m+m+m+m+h+h+h+h+h+h+h+h+i+h+h+6+6+8+5+5+5+5+5+5+5+5+5+5+5+^+^+^+^+^+^+^+^+^+^+^+^+^+^+^+^+{+{+{+{+%+%+%+%+%+%+%+%+;+;+;+;+%+%+%+%+%+%+%+%+%+%+%+%+%+$+$+$+$+$+$+Z.Z.Z.Z.Z.Z.Z.Z.Z.$+$+$+$+$+^+^+^+^+^+^+^+^+^+^+^+^+^+:+:+,+:+:+:+:+:+:+,+,+:+:+:+:+,+,+$+,+,+,+,+,+,+,+,+,+,+,+,+,+,+,+,+,+,+,+,+,+,+,+,+-+-+-+,+,+-+-+'+'+'+'+'+'+'+'+'+'+'+'+<+<+'+'+'+<+'+'+'+(+(+(+(+(+(+(+(+(+1+1+1+(+1+1+~+1+1+1+1+1+1+1+1+~+~+~+~+~+~+~+~+~+~+~+~+~+~+~+~+~+~+~+~+~+~+~+~+~+~+~+1+1+1+1+~+~+~+~+~+~+~+~+~+~+~+~+1+9+9+9+9+9+9+9+9+9+9+9+9+9+9+9+9+9+9+",
". . . . . . . . . . . . . . . . . . . . . . . . . . . . . . . . . . . . . . . . . . . . . . . . . % - - 4 m ).0.V.~+l+B+B+B+B+B+t+t+v+t+t+l+m+m+l+m+n+n+n+f+f+f+f+8+8+8+8+8+8+5+5+|+|+|+|+|+|+=+=+|+|+|+|+|+|+|+|+=+=+=+=+=+=+|+^+^+|+|+:+:+:+:+:+:+:+:+6+6+6+6+6+6+6+6+6+6+6+6+6+8+8+8+^+8+8+8+8+8+8+8+8+8+8+8+8+8+8+8+8+8+8+8+5+5+5+5+8+8+8+8+8+8+8+8+8+8+8+8+i+i+4+8+8+8+8+8+d+f+f+f+f+f+o+o+o+p+p+p+s+s+s+s+p+s+n+n+m+s+s+p+p+o+o+o+f+f+o+n+o+o+f+f+d+f+f+f+f+f+o+o+o+n+o+o+o+n+n+n+o+o+o+o+o+p+p+p+p+p+p+p+p+s+s+s+o+m+m+m+m+m+m+m+m+m+m+m+m+m+m+m+m+m+m+h+h+h+h+h+h+i+i+i+h+h+6+6+8+5+5+5+5+5+5+5+5+5+5+^+^+^+^+^+^+^+^+^+^+^+^+^+$+$+$+$+{+{+{+{+{+%+%+%+%+%+%+%+;+;+;+;+%+%+%+%+%+`.`.`.`.`.`.`.%+%+%+%+`.`.`.`.`.`.`.`.`.`.`.`.$+$+$+$+$+^+^+^+^+^+^+^+^+^+^+^+^+^+^+:+:+:+:+:+:+:+,+,+,+,+,+,+,+$+$+$+,+,+,+,+,+,+,+,+,+,+,+,+,+,+,+,+$+$+$+,+,+,+,+,+,+,+,+-+,+,+,+-+,+'+'+'+'+'+'+'+'+'+'+'+'+'+(+'+1+'+(+(+(+(+(+(+(+(+(+(+(+1+1+1+(+1+1+1+1+1+1+1+1+1+1+1+~+~+~+~+~+~+~+~+~+~+~+~+~+~+~+~+~+~+~+~+1+~+~+~+~+~+~+~+~+~+~+~+1+1+1+1+1+1+1+1+1+1+1+1+~+~+~+~+9+9+9+9+9+9+9+9+9+9+9+~+~+~+",
". . . . . . . . . . . . . . . . . . . . . . . . . . . . . . . . . . . . . . . . . . . . . . . . . % % - - 4 G 3.D.>+l+t+B+E+B+B+B+B+B+B+t+t+l+l+m+l+n+n+n+o+o+f+f+i+i+8+8+8+8+5+5+5+|+|+|+|+{+=+|+|+|+|+|+|+|+|+|+=+=+=+=+=+|+[+|+|+|+:+:+:+:+6+6+6+:+6+6+6+6+6+6+6+6+6+6+6+6+6+6+8+8+^+^+8+8+8+8+8+8+8+8+8+8+8+8+8+8+8+8+8+8+8+5+5+5+5+5+8+8+8+8+8+8+8+8+8+8+8+4+4+8+8+8+8+8+8+d+f+f+f+f+f+o+o+o+p+p+p+s+n+n+s+p+n+n+m+s+s+s+p+p+o+o+o+f+f+o+o+n+o+f+f+d+f+f+f+f+f+f+f+o+o+o+n+o+o+o+o+n+o+o+o+p+o+o+o+p+p+p+p+s+s+s+s+o+m+m+h+m+m+m+h+m+m+m+m+m+m+m+m+m+m+m+h+h+h+h+h+h+h+h+h+h+6+6+6+8+5+5+5+5+5+5+5+5+5+5+^+^+^+^+^+^+^+^+^+^+^+^+$+{+{+$+$+{+{+{+{+{+%+%+%+%+%+%+%+;+;+;+;+%+%+%+%+%+`.`.`.`.`.`.`.`.%+%+%+%+`.`.`.`.`.`.`.`.`.`.`.%+%+$+$+$+^+^+^+^+^+^+^+^+^+{+{+{+^+^+:+:+:+:+:+:+:+,+,+,+,+,+,+,+$+$+$+$+$+$+$+$+$+$+$+,+,+,+,+,+,+,+,+$+$+$+,+,+,+,+,+,+,+,+,+-+,+,+,+,+,+!+!+'+'+'+'+'+'+'+'+'+'+(+(+<+'+'+(+(+(+(+(+(+(+(+(+(+1+1+1+(+1+1+1+1+'+'+1+1+1+1+1+~+~+~+~+~+~+~+~+~+~+~+~+~+~+~+~+~+~+~+~+ +~+~+~+~+~+~+~+~+~+~+~+~+~+~+~+1+1+1+1+1+1+1+1+~+~+~+~+~+~+~+~+~+~+~+~+~+~+~+~+1+1+",
". . . . . . . . . . . . . . . . . . . . . . . . . . . . . . . . . . . . . . . . . . . . . . . . % . % % % - m ).n.V.c+t+B+E+F+E+B+B+B+B+B+t+t+t+l+l+l+n+n+n+n+o+o+f+i+i+8+8+5+5+5+5+|+|+|+|+|+|+[+[+[+[+|+[+[+|+|+|+|+|+|+|+|+|+[+[+[+[+:+^+^+8+6+6+6+6+:+:+6+6+6+6+6+6+6+6+6+6+6+6+6+6+6+6+^+^+8+8+8+8+8+8+8+8+8+8+8+8+5+5+5+5+5+5+5+5+5+8+8+8+8+8+8+8+8+8+8+8+8+8+8+8+8+8+8+8+3+d+f+f+f+f+o+n+p+p+o+o+s+s+s+s+s+n+n+n+s+s+s+s+p+o+n+o+f+o+n+o+o+o+f+f+d+d+d+d+f+f+f+f+f+o+o+o+f+f+f+f+o+o+o+o+o+o+p+p+p+p+p+p+s+s+s+o+o+o+o+o+h+h+h+h+m+m+m+m+m+m+m+m+m+m+m+h+h+h+h+6+6+6+h+h+h+6+6+6+6+5+5+5+5+5+5+5+5+5+5+5+|+|+|+^+{+{+{+{+^+^+^+$+{+{+{+{+$+$+{+{+{+{+%+%+%+%+%+;+;+W.W.W.`.`.`.W.W.W.W.W.`.`.`.`.`.`.`.$+`.`.`.`.`.%+%+%+`.`.%+%+%+%+{+%+%+%+%+%+%+{+{+{+{+{+{+{+{+{+{+^+^+^+^+:+:+,+,+$+$+,+,+,+$+$+$+$+$+$+$+$+$+$+$+$+$+$+$+$+$+$+$+$+Z.Z.Z.$+$+,+,+,+,+,+,+,+,+,+,+,+=+=+-+-+-+-+-+[+-+'+!+'+'+(+'+'+'+'+'+'+'+(+(+(+(+1+1+1+(+1+1+1+1+1+1+~+'+'+'+'+ + +'+'+~+~+~+~+~+~+~+~+~+V.V.V.V.V.V.V.V.V.V.V.V.V.V.V. + +)+)+ + + + + +'+'+'+)+)+1+1+1+1+1+1+1+~+~+~+~+~+~+~+~+~+~+~+~+~+1+1+1+1+",
". . . . . . . . . . . . . . . . . . . . . . . . . . . . . . . . . . . . . . . . . . . . . . . . . % . % % - 4 W 4.A.~+l+B+E+F+E+E+B+B+B+B+t+t+t+l+l+l+s+s+s+o+n+o+f+i+i+i+8+5+5+5+5+5+|+|+|+|+|+[+[+[+[+|+[+[+|+|+|+|+|+|+|+|+|+[+[+[+[+:+^+8+8+6+6+6+6+:+6+6+6+6+6+6+6+6+6+6+6+6+6+6+6+6+6+^+^+8+8+8+8+8+8+8+8+8+8+8+8+5+5+5+5+5+5+5+5+5+8+8+8+8+8+8+8+8+8+8+8+8+8+8+8+8+8+8+8+3+d+f+f+f+f+o+n+o+o+o+o+n+n+n+n+s+n+n+n+s+s+s+s+p+o+n+o+o+o+n+o+o+o+f+f+d+d+d+d+d+d+d+d+f+f+f+f+f+f+f+f+o+o+o+o+o+p+p+p+p+p+p+p+s+o+o+o+o+o+o+f+m+h+h+h+m+m+m+m+m+m+m+m+m+m+m+h+h+h+h+h+6+6+h+h+h+h+6+6+6+5+5+5+5+5+5+5+5+5+5+5+5+5+5+^+{+{+^+^+^+^+^+^+{+{+{+{+{+{+{+{+{+{+%+%+%+%+%+;+;+W.W.W.W.W.W.W.W.W.W.W.W.W.`.`.`.`.`.`.`.`.`.`.`.`.`.`.%+%+%+%+%+%+{+{+%+%+%+%+%+{+{+{+;+{+{+{+{+{+{+{+{+^+^+:+:+,+$+$+$+$+$+,+$+$+$+$+$+$+$+$+$+$+$+$+$+$+$+$+$+$+$+Z.Z.Z.$+$+$+,+,+,+,+,+,+,+,+,+,+-+=+=+=+-+-+-+-+[+[+'+'+'+'+'+'+'+'+'+'+'+(+(+(+(+(+(+1+1+(+1+1+1+1+1+1+'+'+'+ + + + + + +'+ + + +V.V.V.~+V.V.V.V.V.V.V.V.V.V.V.V.V.V.V. + + + +)+ + + + +)+)+)+)+)+'+)+)+)+)+)+)+)+1+1+~+~+~+~+~+~+~+~+~+~+~+~+~+~+~+",
". . . . . . . . . . . . . . . . . . . . . . . . . . . . . . . . . . . . . . . . . . . . . . . . . % % . . % ! G ).A.>+c+t+E+F+F+F+E+B+B+B+B+t+x+x+x+x+l+s+s+s+o+o+o+f+i+i+4+g+g+5+5+5+5+5+5+|+|+[+[+5+5+|+[+[+[+|+|+|+|+|+|+|+|+[+[+[+[+^+^+8+8+6+6+6+6+6+6+6+6+6+6+6+6+6+6+6+6+6+6+6+6+6+:+^+^+8+8+8+8+8+8+8+8+8+8+8+8+5+5+5+5+5+5+5+5+8+8+8+8+8+8+8+8+8+8+8+8+8+8+8+8+8+8+8+8+d+d+f+f+f+f+o+n+o+o+n+n+n+n+n+n+n+n+n+n+s+s+s+s+p+o+n+o+o+o+o+n+o+o+f+f+d+3+3+3+3+3+3+3+d+d+f+f+f+f+f+f+o+o+o+o+p+p+p+p+o+o+o+o+o+o+o+o+f+f+f+f+m+h+h+h+m+m+m+m+m+m+m+m+m+m+m+h+h+h+h+h+6+h+h+h+h+h+6+6+6+5+5+5+5+5+5+5+5+5+5+5+5+5+5+5+5+5+{+{+^+^+^+{+{+{+{+{+{+{+{+{+{+{+{+{+%+%+;+;+W.W.W.W.W.W.W.W.;+;+%+`.W.W.W.W.`.`.`.`.`.`.`.`.`.`.`.`.;+;+;+;+{+{+{+{+%+%+%+%+%+{+{+{+;+;+;+;+;+;+%+{+{+{+$+$+$+$+$+$+$+$+$+$+$+$+$+$+$+$+$+$+$+$+$+$+$+$+$+$+$+$+$+Z.$+$+$+$+$+,+,+,+,+,+,+,+,+,+=+-+=+=+=+=+-+-+-+-+[+[+'+'+'+(+(+(+(+(+'+'+(+(+(+(+(+(+(+(+(+1+1+1+1+1+1+'+ + + + + + + + + + + + + + + +V.V.V.V.V.V.V.V.V.V.V.V.V.V.V.V. + + + + + + + + + + + + + + +)+)+ + + +'+~+~+~+~+~+~+~+~+~+~+~+~+~+~+~+~+~+~+",
". . . . . . . . . . . . . . . . . . . . . . . . . . . . . . . . . . . . . . . . . . . . . . . . . . . . . . - m V j.V.c+t+B+F+F+F+E+E+B+B+B+B+x+x+x+x+x+s+s+s+s+o+o+o+k+i+i+i+g+g+5+5+5+5+5+5+5+5+5+5+5+5+[+[+[+|+|+|+|+|+|+|+|+[+[+[+8+^+^+^+^+:+:+6+6+6+6+6+6+6+6+6+6+6+6+6+6+6+6+6+6+:+:+^+^+8+8+8+8+8+8+8+8+8+8+8+8+5+5+5+5+5+5+5+8+8+8+8+8+8+8+8+8+8+8+8+8+8+8+8+8+8+8+8+8+d+d+f+f+f+o+o+n+o+o+o+o+n+n+n+n+n+n+n+n+s+s+s+s+p+p+o+o+o+o+o+o+o+o+f+f+d+3+3+3+3+3+3+3+3+d+d+f+f+f+f+f+o+o+o+o+o+p+p+o+o+o+o+o+o+o+o+f+f+f+f+f+m+h+h+h+m+m+m+m+m+m+m+m+m+m+m+h+h+h+h+6+h+h+i+i+h+i+i+h+i+g+5+5+g+g+g+g+g+5+5+5+5+5+5+5+5+5+5+{+|+|+{+{+{+{+{+{+{+{+{+{+{+{+{+{+;+;+;+;+W.W.W.W.W.W.W.W.;+%+%+%+W.W.W.W.W.W.W.W.`.`.`.`.`.`.`.%+;+;+;+{+{+{+{+;+{+{+{+{+{+;+;+;+;+;+;+W.;+;+;+;+%+%+$+$+$+$+$+$+$+$+$+$+$+$+$+$+$+$+$+$+$+$+$+$+$+$+$+$+$+$+$+$+$+$+$+$+$+$+,+,+,+,+,+,+Z.++=+=+=+=+=+=+=+=+-+-+[+[+'+!+'+(+(+(+(+(+'+'+'+'+(+(+'+'+(+(+(+1+1+1+1+1+'+'+ + + + + + + + + + + + + + + +V.V.V.V.V.V.V.V.V.V.V.V.V.V.V.V.V.R.R.R.R.V.R.R.R.R.R.R.R.R.R. + + + + + + + + + +~+~+~+~+~+~+~+~+~+~+~+~+~+~+",
"% % . . % . . . . . . . . . . . . . . . . . . . . . . . . . . . . . . . . . . . . . . . . . . . . . . . . . - 4 V 4.A.~+l+B+E+F+F+F+E+E+B+B+B+x+x+x+x+x+x+s+s+s+r+r+o+o+i+i+i+g+g+g+5+5+5+5+5+5+5+8+8+8+5+|+[+[+|+|+|+=+=+|+|+|+[+8+8+8+^+^+^+^+:+:+6+6+6+6+6+6+6+6+6+6+6+6+6+6+6+6+6+:+:+:+^+^+5+5+5+5+5+5+5+5+5+5+5+5+8+8+8+8+5+5+8+8+8+8+8+8+8+8+8+8+8+8+8+8+8+8+8+8+8+8+8+d+d+d+f+f+f+o+o+o+f+f+f+f+n+n+n+n+n+n+n+n+n+s+s+s+p+p+o+n+o+f+f+f+o+f+f+f+d+3+3+3+3+3+3+3+3+3+3+d+d+f+f+o+n+o+o+o+p+p+p+p+o+o+o+o+o+o+f+f+f+d+d+d+m+h+h+h+m+m+m+m+m+m+m+m+m+m+m+7+h+h+h+6+h+h+h+h+i+i+i+i+i+g+g+g+g+g+g+g+g+g+g+5+5+5+5+5+5+5+{+{+{+{+{+{+{+{+{+{+{+{+{+{+{+{+{+{+;+;+;+;+W.W.W.W.W.W.W.W.%+%+%+`.;+W.W.W.W.W.W.W.W.W.W.W.W.W.;+;+;+;+;+{+{+{+{+{+{+{+{+{+{+;+;+;+;+;+;+;+;+;+W.W.W.@+@+Z.$+$+$+$+$+$+$+$+$+$+$+$+$+$+$+$+$+$+$+$+%+%+%+%+%+%+%+%+$+$+$+$+$+$+,+,+$+$+$+$+++Z.Z.++++=+=+=+=+=+=+=+-+-+'+!+!+'+(+(+(+(+'+'+'+'+(+(+(+'+'+'+'+1+1+1+1+1+'+'+ + + + + + + + + + + + + + + +V.V.V.V.V.V.V.V.V.V.V.V.V.V.D.D.D.V.R.R.R.V.V.V.R.R.R.R.R.R.R.R.R.R. + + + + + + + +V.V.V.V.V.V.V.~+~+~+~+~+~+",
"% % . . % % . . . . . . . . . . . . . . . . . . . . . . . . . . . . . . . . . . . . . . . . . . . . . . . . - 4 V 4.A.~+l+t+E+E+F+F+F+E+B+B+B+x+x+x+x+x+z+s+s+s+r+p+r+r+q+i+i+i+g+g+g+5+5+8+8+8+4+8+8+8+5+5+|+[+|+|+|+=+=+|+|+|+[+8+8+8+8+^+^+:+:+:+6+6+6+6+6+6+6+6+6+6+6+6+6+6+6+6+:+:+:+:+^+^+5+5+5+5+5+5+5+5+5+5+5+5+8+8+8+8+8+8+8+8+8+8+8+8+8+8+8+8+8+8+8+8+8+8+8+8+8+3+3+3+3+d+f+f+f+f+f+o+f+f+f+f+n+n+n+n+n+n+n+n+n+s+s+s+p+p+o+n+o+o+f+f+f+f+f+f+d+d+3+3+3+3+3+3+3+3+3+3+d+f+f+o+o+o+p+p+p+p+p+p+o+o+o+o+f+f+f+f+d+d+d+d+m+m+h+m+m+m+m+m+m+m+m+m+m+m+m+7+h+h+h+i+i+i+i+i+i+i+i+i+i+g+g+g+g+g+g+g+g+g+5+5+5+5+5+5+5+5+5+{+{+{+{+{+{+{+{+{+{+{+{+{+{+{+{+{+;+;+;+;+;+W.W.W.W.W.W.W.`.`.`.`.`.`.`.`.W.W.W.W.W.W.W.W.W.W.;+;+;+;+;+;+{+{+{+{+;+;+;+;+;+;+;+;+;+;+;+;+;+W.W.W.W.W.@+@+Z.Z.@+%+$+$+$+$+$+$+$+$+$+Z.Z.$+$+$+$+$+$+$+$+$+$+$+$+$+$+$+$+$+$+,+,+,+$+$+$+=+Z.++Z.++++++=+=+=+=+=+=+-+-+'+'+'+'+'+[+'+'+'+'+'+'+'+(+'+'+'+'+'+1+1+1+'+'+ + + + + + + + + + + + + + + + + +V.V.V.D.D.D.D.D.D.D.D.D.D.D.D.D.D.D.D.D.D.D.D.D.D.D.D.D.R.R.R.R.R.R.R.R.R.R.R.R.R. + + + + + + +V.V.V.V.V.V.V.",
". . . . . . . . . . . . . . . . . . . . . . . . . . . . . . . . . . . . . . . . . . . . . . . . . . . . . . - 4 A ,.A.V.c+t+E+E+F+F+F+E+E+B+B+x+B+D+x+x+z+z+z+z+A+r+r+r+q+q+q+q+g+g+g+g+g+8+8+8+8+4+8+5+5+5+|+[+|+|+|+|+|+|+|+|+8+8+8+8+8+^+^+:+:+6+6+6+6+6+6+6+6+6+6+6+6+6+6+6+6+6+:+:+:+:+^+^+5+5+5+5+5+5+5+5+5+5+5+5+8+8+8+8+8+8+8+8+8+8+8+8+8+8+8+8+8+8+8+8+8+8+8+8+8+3+3+3+3+3+d+f+f+f+f+f+f+f+f+f+n+n+n+n+n+n+n+n+n+s+s+s+p+o+o+o+o+o+f+f+f+f+f+f+d+d+d+3+3+3+3+3+3+3+3+3+d+d+f+f+o+o+o+o+o+o+o+o+o+o+o+o+f+f+d+d+7+7+7+d+0+m+m+m+m+m+m+m+m+m+m+m+m+m+m+h+h+h+h+i+i+i+i+i+i+i+i+i+i+g+g+g+g+g+g+g+g+5+5+5+5+5+5+5+5+5+5+5+{+{+{+{+{+{+{+{+{+{+{+{+{+{+{+%+;+;+;+;+;+;+W.W.W.W.W.W.`.`.`.`.`.`.`.`.M.M.W.W.W.W.W.W.W.W.W.;+W.;+;+;+;+;+;+;+;+;+;+;+;+;+;+;+;+;+;+;+;+;+W.W.W.W.W.@+@+@+@+%+%+%+$+$+$+$+$+Z.Z.Z.Z.Z.Z.$+$+$+$+$+$+$+$+$+$+$+$+$+$+$+$+,+$+$+$+$+=+++Z.++++++++++=+=+=+=+=+=+-+-+-+'+'+'+'+-+'+'+'+'+'+'+'+'+'+'+'+'+'+ + + + + + + + + + + + + + + + + + + + + +R.V.V.D.D.D.D.D.D.D.D.D.D.D.D.D.D.D.D.D.D.D.D.D.D.D.D.D.D.D.D.D.R.R.R.R.R.R.R.R.R.R.R.R.R.R.R.R.R.V.V.V.V.V.V.V.",
". . . . . . . . . . . . . . . . . . . . . . . . . . . . . . . . . . . . . . . . . . . . . . . . . . . . . . & ^ A ,.j.V.c+l+B+E+F+F+F+F+E+E+E+D+B+B+x+x+x+x+z+z+A+A+r+p+q+q+q+q+g+g+g+g+i+i+i+8+5+5+5+5+5+5+|+[+|+|+|+|+|+|+|+|+[+8+8+8+8+^+^+^+6+6+6+6+6+6+6+6+6+6+6+6+6+6+6+6+6+6+6+:+:+:+^+^+5+5+5+5+5+5+5+5+5+5+5+5+8+8+8+8+8+8+8+8+8+8+8+8+8+8+8+8+8+8+8+8+8+8+8+8+3+3+3+3+3+3+d+d+f+f+f+f+h+f+f+f+n+n+n+n+n+n+n+n+n+n+s+s+o+o+o+o+n+o+o+f+f+f+f+f+d+d+d+d+d+d+d+3+3+3+3+d+d+d+f+f+f+f+o+o+o+o+o+o+f+f+f+f+f+d+7+7+7+7+7+d+0+m+m+m+0+m+m+m+m+m+m+m+m+m+m+h+f+f+f+i+i+i+i+i+i+i+i+i+i+g+g+g+g+g+g+g+g+5+5+5+5+5+5+5+5+5+5+5+{+{+{+{+{+{+{+{+{+{+{+{+{+{+{+{+;+;+;+;+;+;+;+;+;+;+;+;+`.`.`.`.`.M.M.M.M.M.M.`.W.W.W.W.W.W.W.;+W.W.W.W.;+;+;+;+;+;+;+;+;+;+;+;+;+;+;+;+;+;+W.W.W.W.W.@+@+@+@+@+%+%+$+$+$+$+Z.Z.Z.Z.Z.Z.Z.Z.$+$+$+$+$+$+$+$+$+$+{+$+$+$+$+$+$+$+Z.Z.++Z.++++++++++++=+=+=+=+=+=+-+-+-+'+'+'+'+-+'+'+'+'+'+'+'+'+'+'+ + + + + + + + + + + + + + + + + + + + + + +R.R.R.V.D.D.D.D.D.D.D.D.D.D.D.D.D.D.D.D.D.D.D.D.D.D.D.D.D.D.D.D.D.D.D.R.R.R.R.R.R.R.R.R.R.R.R.R.R.R.R.V.V.V.V.V.V.V.",
". . . . . . . . . . . . . . . . . . . . . . . . . . . . . . . . . . . . . . . . . . . . . . . . . . . . . . % @ l V 4.A.V.c+t+B+E+F+E+F+F+E+E+E+E+D+D+x+x+x+x+D+z+z+z+z+A+A+r+r+r+r+k+i+i+i+i+i+i+8+8+4+8+8+8+5+5+|+[+[+[+[+[+[+5+8+8+8+8+8+8+6+5+5+6+6+6+6+6+6+6+6+6+6+6+6+6+6+5+5+5+5+5+^+^+^+^+^+^+^+^+^+5+5+5+5+5+^+^+^+5+6+8+8+8+8+8+8+8+8+8+8+8+8+8+8+8+8+8+8+3+3+8+8+3+3+3+3+3+d+d+d+f+h+h+m+m+h+n+n+n+n+o+o+o+o+n+o+p+p+o+o+o+o+n+n+o+o+f+f+f+f+f+d+d+d+d+d+d+3+d+d+d+d+d+d+d+f+f+f+f+f+f+f+f+f+f+f+f+f+a+a+a+a+d+f+f+f+f+f+f+f+f+m+m+m+h+h+h+h+h+h+h+h+i+i+i+i+i+i+i+i+i+i+i+i+i+g+g+g+g+g+g+g+5+5+5+5+5+5+5+5+g+5+5+5+{+{+{+{+{+{+{+{+{+{+{+{+{+{+{+{+;+;+;+;+;+;+;+;+;+;+;+%+`.`.`.`.`.M.M.M.M.M.M.`.`.M.M.`.`.W.W.W.W.W.W.W.W.W.;+;+;+;+;+;+;+;+;+;+;+;+;+;+;+;+W.W.W.W.W.W.W.W.W.;+;+;+%+%+$+$+$+$+Z.Z.Z.Z.Z.Z.$+$+$+$+$+$+$+$+$+$+$+$+$+$+$+$+$+,+Z.Z.Z.++++++++++++++++++=+=+=+=+++++++X.X.Z.,+Y.Y.Y.Y.,+X. + +Y. + + + +O.R.O.O.O.O.O.Y. +V.V.V.V.V.V.V.V.V.V.V.V.V.C.C.C.C.D.D.D.D.D.D.n.A.A.A.A.n.D.D.D.D.D.D.D.D.n.n.D.D.D.D.D.D.D.D.D.D.D.D.D.D.D.D.D.D.D.D.D.D.V.V.V.V.V.V.V.V.",
". . . . . . . . . . . . . . . . . . . . . . . . . . . . . . . . . . . . . . . . . . . . . . . . . . @ @ . . % @ ^ A ,.j.A.~+c+t+B+E+E+F+F+E+E+E+E+D+D+D+D+D+D+D+D+z+z+z+A+A+A+r+r+r+o+k+i+i+i+i+i+8+8+8+8+8+8+[+5+|+[+[+[+[+[+[+5+5+8+8+8+8+8+6+5+6+6+6+6+6+6+6+6+6+6+6+6+6+6+6+5+5+5+5+5+5+5+5+^+^+^+^+^+^+5+5+5+5+5+5+5+5+^+^+^+^+8+8+8+8+8+8+8+8+8+8+8+8+8+8+8+8+3+8+8+8+3+3+3+3+3+d+7+d+d+7+h+m+m+m+n+n+n+n+f+o+o+n+o+o+o+p+o+o+o+o+o+n+o+o+f+f+f+f+f+d+d+d+d+d+d+d+d+d+d+d+d+d+d+d+f+f+f+f+f+f+f+f+f+f+f+f+a+a+n+a+f+f+f+f+f+f+f+f+f+m+m+h+h+h+h+h+h+h+h+h+f+i+i+i+i+i+i+i+i+i+i+i+i+g+g+g+g+g+g+g+g+g+g+5+5+5+5+g+g+5+5+5+{+{+{+{+{+{+{+{+{+{+{+{+{+{+{+{+;+;+;+;+;+;+;+;+;+;+;+W.`.`.`.`.`.M.M.M.M.M.M.`.`.`.M.`.W.W.W.W.W.W.W.W.W.W.W.W.W.W.;+;+;+;+;+;+;+;+;+;+;+;+;+;+W.W.W.W.W.W.W.W.;+%+%+$+$+$+$+$+$+$+$+$+$+$+$+$+$+$+$+$+$+$+$+$+$+$+$+$+$+$+$+,+Z.Z.Z.++++++++++++++++++++++++++++++++X.X.Z.Z.Y.Y.Y.Y.X.X. + +Y. + + +O.O.O.O.O.O.O.O.Y.V.V.V.V.V.V.V.V.V.V.V.V.V.V.C.C.C.C.D.D.D.D.D.n.n.j.j.j.j.n.n.n.n.n.n.n.n.n.n.n.n.n.D.D.D.D.D.D.D.D.D.D.D.D.D.D.D.D.D.D.D.D.D.D.V.V.V.V.V.V.",
". . . . . . . . . . . . . . . . . . . . . . . . . . . . . . . . . . . . . . . . . . . . . . . . . . . . . . . % - 4 A ,.j.V.~+c+t+E+E+F+F+F+F+F+E+E+D+D+D+D+D+D+D+D+x+z+z+A+A+A+p+p+o+o+o+f+i+f+i+e+8+8+8+8+8+[+8+[+[+[+[+[+[+[+5+8+8+8+5+5+5+^+6+6+6+6+6+6+6+6+6+6+6+6+6+6+6+6+5+5+5+5+5+5+5+5+5+^+^+^+^+^+5+5+5+5+5+5+5+^+^+^+8+8+8+8+8+8+8+8+8+8+8+8+8+8+8+8+3+3+3+8+8+3+3+3+3+3+3+3+d+d+7+7+7+0+m+m+a+n+n+n+f+f+o+n+o+o+o+o+o+o+o+o+n+n+o+o+o+f+f+f+f+d+d+d+d+d+d+f+f+f+f+f+f+d+d+d+d+f+f+f+f+f+f+d+d+f+f+f+a+n+f+n+f+f+f+f+f+f+f+f+f+m+h+h+m+m+m+h+h+h+h+h+f+f+i+i+i+i+i+i+i+i+i+i+i+g+g+g+g+g+g+g+g+g+g+g+g+g+g+g+g+5+5+5+{+{+{+{+{+{+{+{+{+{+{+{+{+{+{+{+;+;+;+;+;+;+;+;+;+;+;+W.`.`.`.`.`.M.M.M.M.M.M.`.`.`.M.`.W.W.W.W.W.W.W.W.W.W.W.W.W.W.;+;+;+;+;+;+;+;+;+;+;+;+;+;+;+;+;+;+;+;+W.W.;+%+%+$+$+$+$+$+^+^+^+$+$+$+$+$+$+$+$+$+$+$+$+$+$+$+$+$+$+$+$+,+Z.Z.$+=+++++++++++++++++++++++++++++++X.X.X.X.Y.Y.O.O.P.X. + +O. +R.R.O.O.O.O.O.O.O.O.O.V.V.V.V.V.V.V.V.V.V.V.V.V.V.C.C.C.C.D.D.D.D.n.n.n.j.j.j.j.n.n.n.n.n.n.n.n.n.n.n.n.n.n.n.D.D.D.D.D.D.D.D.D.D.D.D.D.D.D.D.D.D.D.D.D.V.V.V.V.V.",
". . . . . . . . . . . . . . . . . . . . . . . . . . . . . . . . . . . . . . . . . . . . . . . . . . . . . . . . % ^ m V 4.j.V.~+l+B+E+F+F+F+F+F+E+E+D+D+D+D+D+D+D+D+D+D+z+z+z+A+r+r+r+o+o+o+o+o+f+e+4+4+8+8+8+8+8+8+[+[+[+[+[+[+5+8+8+8+8+5+5+^+:+:+6+6+6+6+6+6+6+6+6+6+6+6+6+6+6+6+6+6+6+6+6+6+6+6+^+^+^+^+5+5+5+5+5+5+8+^+^+^+8+8+8+8+8+3+8+8+d+d+d+7+3+3+8+3+8+3+3+8+3+3+3+3+(+3+3+3+7+7+d+7+7+0+0+0+a+a+n+n+f+f+o+o+n+n+o+o+o+o+o+o+o+o+o+o+f+f+f+f+f+f+f+d+f+f+f+f+f+f+f+f+f+f+d+d+d+d+d+d+d+d+d+d+d+d+f+f+n+f+f+n+f+f+f+f+f+f+f+f+f+m+h+h+m+m+m+m+m+o+o+h+f+f+f+i+i+i+i+i+i+i+i+i+i+g+g+g+g+g+g+g+g+g+g+g+g+g+g+g+g+5+5+5+5+5+5+5+5+5+{+{+{+{+{+{+{+{+{+;+;+;+;+;+;+;+;+;+;+;+;+W.W.`.`.`.`.`.M.M.M.M.M.`.`.`.`.W.W.W.W.W.W.W.W.W.W.W.W.W.W.W.;+;+;+;+;+;+;+;+;+;+;+;+;+;+;+;+;+;+;+;+;+;+;+%+%+$+$+^+^+^+^+^+^+^+^+^+:+:+^+$+$+$+$+$+$+^+^+$+$+,+,+$+$+,+Z.$+$+=+=+++++++++++++++++++++++++++++X.X.X.X.O.O.O.O.Q.P.R.R.O.O.O.O.O.O.O.O.O.O.O.O.O.V.V.V. + + +V.V.V.V.V.V.V.V.C.C.C.C.D.D.D.D.n.n.n.j.j.j.j.n.n.n.n.n.n.n.n.n.n.n.n.n.n.n.n.n.n.D.D.D.D.D.D.D.D.D.D.D.D.D.D.D.D.D.D.D.D.D.D.D.",
". . . . . . . . . . . . . . . . . . . . . . . . . . . . . . . . . . . . . . . . . . . . . . . . . . . . . . . . . - 4 G ).0.A.V.c+t+E+F+F+F+F+E+E+E+E+E+D+D+D+D+D+D+D+D+z+z+z+z+A+r+r+r+r+o+o+o+k+e+d+3+3+4+3+8+3+3+3+[+[+[+[+[+8+8+8+8+8+8+8+:+:+:+6+6+6+6+6+6+6+6+6+6+6+6+6+6+6+6+6+6+6+6+6+6+8+^+^+5+5+5+5+5+5+5+5+8+8+8+8+^+8+8+8+8+8+3+7+7+d+d+d+7+7+3+8+3+8+8+3+3+3+3+3+3+(+3+3+3+7+7+7+7+7+0+0+0+a+a+n+n+f+f+o+o+o+o+f+f+f+f+f+o+f+f+f+f+f+f+f+f+f+f+f+f+f+f+f+f+f+f+f+f+f+f+f+f+f+d+d+d+d+d+d+d+d+d+f+f+n+f+n+n+f+f+f+f+f+f+f+f+f+h+h+m+m+m+m+m+m+o+o+o+o+o+o+f+i+i+i+i+i+i+i+i+i+g+g+g+g+g+g+g+g+g+g+g+g+g+g+g+g+5+5+5+5+5+5+5+5+5+{+{+{+{+{+{+{+;+;+;+;+;+;+;+;+;+;+;+;+;+W.W.W.W.W.`.`.`.M.M.M.M.`.`.`.W.W.W.W.W.W.W.W.W.W.W.W.W.W.W.W.W.;+;+;+;+;+;+;+;+;+;+;+;+;+;+;+;+;+;+;+;+;+;+%+%+%+$+^+^+^+^+^+^+^+^+^+:+:+:+^+^+$+$+$+$+$+^+^+^+^+,+,+$+$+,+$+$+$+=+=+++++++++++++++++++++++++++++P.P.P.P.O.O.O.I.H.P.O.O.O.O.O.O.O.O.O.O.O.O.O.O.O.V.V.V.V.V.V.V.V.V.V.V.V.V.V.C.C.C.C.D.D.D.D.n.n.n.j.j.j.j.0.0.0.0.0.0.0.n.n.n.n.n.n.n.n.n.n.n.n.n.n.n.n.D.D.D.D.D.D.D.D.D.D.D.D.D.D.D.D.D.D.",
". . . . . . . . . . . . . . . . . . . . . . . . . . . . . . . . . . . . . . . . . . . . . . . . . . . . . . . . . % ! m W ).n.V.9+t+E+E+F+F+F+E+E+E+E+E+E+E+E+E+E+E+D+D+x+z+z+z+A+r+r+r+k+k+k+k+f+f+d+d+d+3+3+3+8+3+3+[+[+[+[+[+3+3+d+8+8+8+6+:+6+6+6+6+6+6+6+6+6+6+6+6+6+6+6+6+6+6+6+6+6+6+6+6+8+8+^+^+5+5+5+5+5+5+8+8+8+8+8+8+8+8+8+3+d+7+3+3+3+3+7+7+7+7+3+3+3+3+3+3+3+3+3+3+3+3+3+3+7+7+7+7+7+0+m+m+a+a+n+n+f+f+f+f+f+f+f+f+f+f+f+f+f+f+f+f+f+f+f+f+f+f+f+f+f+f+f+f+f+f+f+f+f+f+f+f+f+d+d+d+d+d+d+d+d+d+f+f+f+f+n+n+f+f+f+f+f+f+o+o+o+h+m+m+m+m+m+m+m+o+o+o+o+o+o+f+f+i+i+i+i+i+i+i+i+g+g+g+i+g+g+g+g+g+g+g+g+g+g+g+g+g+5+5+5+5+5+5+5+5+{+{+{+{+{+{+;+;+;+;+;+;+;+;+;+;+;+;+;+;+W.W.W.W.W.W.W.W.W.W.W.W.W.W.W.W.W.W.W.W.W.W.W.W.W.W.W.W.W.W.W.W.W.W.W.W.W.W.W.W.;+;+;+;+;+;+;+;+;+;+;+;+;+;+%+{+$+^+^+^+^+^+^+^+^+^+:+:+:+:+:+,+$+$+$+$+$+$+$+$+$+$+$+$+$+,+$+$+$+=+++++++++++++++++++++++++++P.P.P.P.Q.Q.O.I.H.H.H.J.I.O.O.O.O.O.O.O.O.O.O.O.O.O.O.C.C.V.V.V.V.V.V.V.V.V.D.D.D.C.C.C.C.D.D.D.n.n.n.n.j.j.j.j.0.0.0.0.0.0.0.0.0.0.0.0.0.0.n.0.n.n.n.n.n.n.n.n.n.D.D.D.D.D.D.D.D.D.D.D.D.D.D.D.D.",
". . . . . . . . . . . . . . . . . . . . . . . . . . . . . . . . . . . . . . . . . . . . . . . . . . . . . . . . % % ! 4 G W 3.D.~+l+x+E+F+F+F+E+D+E+E+E+E+E+E+E+E+E+E+D+D+x+x+z+u+u+u+r+r+k+k+k+k+k+d+d+d+d+3+3+3+3+3+(+(+(+(+(+7+7+d+7+3+6+6+:+6+6+6+6+6+6+6+6+6+6+6+6+6+6+6+6+6+6+6+6+6+6+6+6+8+8+8+^+^+5+5+5+5+8+8+8+8+8+8+8+8+8+8+d+7+3+3+a+3+3+7+7+7+7+3+3+3+3+3+3+3+3+3+3+3+3+3+3+7+7+7+7+h+m+m+m+n+n+n+n+f+f+f+f+f+f+f+f+f+f+f+f+f+f+f+f+f+f+f+f+f+f+f+f+f+f+f+f+f+f+f+f+f+f+f+f+f+d+d+d+d+d+d+d+d+d+f+f+f+f+n+n+f+f+f+o+o+o+o+o+o+m+m+m+m+m+m+m+m+o+o+o+o+o+o+f+f+f+i+i+i+i+i+i+i+g+g+g+i+g+g+g+g+g+g+g+g+g+g+g+g+g+5+5+5+5+5+5+5+5+5+{+{+{+{+{+;+;+;+;+;+;+;+;+;+;+;+;+;+;+W.W.W.W.W.W.W.W.W.W.W.W.W.W.W.W.W.W.W.W.W.W.W.W.W.W.W.;+;+;+;+W.W.W.W.W.W.W.W.W.W.;+;+;+;+{+{+{+{+{+;+{+;+;+{+{+^+^+^+^+^+^+^+^+^+:+:+:+:+:+,+$+$+$+$+$+$+$+$+$+$+$+$+$+$+,+$+$+$+++++++P.P.P.++++++++++++++P.P.P.E.E.H.H.H.I.H.H.H.J.I.I.I.O.O.O.O.O.O.O.O.O.O.O.O.C.C.C.C.C.C.C.C.V.D.D.D.D.D.C.C.C.C.D.D.n.n.n.n.n.j.j.j.j.0.0.0.0.0.0.0.0.0.0.0.0.0.0.0.0.0.n.0.n.n.n.n.n.n.n.D.D.D.D.D.D.D.D.D.D.D.D.D.D.D.",
". . . . . . . . . . . . . . . . . . . . . . . . . . . . . . . . . . . . . . . . . . . . . . . . . . . . % % % % % % - ! m G ).n.V.b+x+D+F+F+F+E+E+D+D+E+E+E+E+E+E+E+E+D+D+x+x+z+u+u+u+u+r+r+k+k+n+k+e+d+d+d+e+3+3+3+3+(+(+(+(+(+0+7+7+7+7+7+6+:+6+6+6+6+6+6+6+6+6+6+6+6+6+6+6+6+6+6+6+6+6+6+6+6+8+8+8+^+^+5+5+5+8+8+8+8+8+8+8+8+8+8+8+d+7+3+a+a+3+3+7+7+7+7+3+3+3+3+d+3+3+3+3+3+3+3+3+3+7+0+7+7+h+m+m+m+n+n+n+n+f+f+f+f+f+f+f+f+f+f+f+f+f+f+f+f+f+f+f+f+f+f+f+f+f+f+f+f+f+f+f+f+f+f+f+f+f+d+d+d+3+d+d+d+d+d+d+f+f+f+f+n+f+f+f+o+o+o+o+o+o+m+m+m+m+m+m+m+m+o+o+o+o+o+o+f+f+f+f+i+i+i+i+i+i+g+g+g+i+g+g+g+g+g+g+g+g+g+g+g+g+g+5+5+5+5+5+5+5+5+5+{+{+{+{+;+;+;+;+;+;+;+;+;+;+;+;+;+;+;+W.W.W.W.W.W.W.W.W.W.W.W.W.W.W.W.W.W.W.W.W.W.W.W.W.W.W.;+;+;+;+;+W.W.W.W.W.W.W.W.;+;+;+;+{+{+;+{+{+{+{+{+{+{+{+{+^+^+^+^+^+^+5+^+^+:+:+:+:+,+$+$+$+$+Z.Z.Z.$+$+$+$+$+$+$+$+,+$+$+Z.Z.++P.P.P.P.P.++++++++++++P.P.E.E.E.H.H.H.I.v.v.v.J.I.I.I.I.I.I.O.O.O.I.C.C.C.C.C.C.C.C.C.C.C.C.C.D.D.D.D.D.D.C.C.C.C.D.D.n.n.n.n.n.j.j.j.j.0.0.0.0.0.0.0.0.0.0.0.0.0.0.0.0.0.0.0.0.n.n.n.n.n.n.n.D.D.D.D.D.D.D.D.D.D.D.D.D.D.",
". . . . . . . . . . . . . . . . . . . . . . . . . . . . . . . . . . . . . . . . . . . . . . . . . . . % % - - - - - ! ! 4 G W 3.V.~+u+E+F+F+F+E+E+E+E+E+E+E+E+E+E+E+E+D+D+D+A+u+z+u+u+u+u+u+u+u+j+j+j+d+d+d+3+3+3+3+3+3+3+3+3+3+0+0+7+7+6+6+6+8+6+6+6+6+6+6+6+6+6+6+6+6+6+6+6+6+6+6+6+6+6+6+6+8+6+6+6+6+8+8+8+8+5+8+8+8+8+8+8+8+7+7+d+d+d+d+d+d+d+d+d+d+3+3+3+3+3+3+a+3+3+3+3+3+3+3+7+7+7+7+7+0+h+m+m+f+n+n+n+a+n+n+n+n+k+f+f+f+f+f+f+f+f+f+f+f+f+f+f+f+f+f+f+f+f+f+f+f+f+f+f+f+f+f+f+d+d+d+d+d+d+d+d+d+d+d+f+f+n+n+n+n+f+o+o+n+o+o+o+o+o+o+o+o+m+m+m+h+h+h+h+h+f+f+f+f+f+f+f+f+f+i+i+i+i+i+i+g+i+i+i+g+g+g+g+g+g+g+g+g+g+g+g+g+5+5+5+5+5+5+5+5+{+{+{+{+{+{+{+{+{+{+{+;+{+{+{+;+;+;+;+W.W.W.W.W.W.W.W.W.W.W.W.W.W.W.W.W.W.W.;+;+;+;+;+;+;+;+;+;+;+;+W.W.W.W.W.W.;+;+;+;+;+;+;+{+{+{+{+{+{+;+{+{+{+{+{+^+^+^+:+:+:+:+:+:+:+:+:+,+$+$+$+Z.Z.Z.Z.Z.Z.Z.Z.Z.Z.Z.Z.Z.++++Z.++P.P.P.P.P.P.P.++++++P.P.P.P.E.E.E.v.v.v.v.v.v.v.s.I.I.I.I.I.I.I.I.C.C.C.C.C.C.C.D.D.D.D.C.D.D.D.D.D.D.D.D.D.C.C.C.C.n.n.n.n.n.n.n.n.n.n.n.0.0.0.0.0.0.0.0.0.0.0.0.0.0.0.0.0.0.0.0.0.0.0.n.n.n.n.D.D.D.D.D.D.D.D.D.D.D.D.D.D.",
". . . . . . . . . . . . . . . . . . . . . . . . . . . . . . . . . . . . . . . . . . . . . . . . . . . . % % - - - - ! ! ! m W 3.D.V.b+B+E+F+F+E+E+E+E+E+E+E+E+E+E+E+E+D+D+x+A+A+z+u+u+u+u+u+u+u+u+j+j+e+e+d+d+3+3+3+3+3+3+3+3+3+0+7+0+7+3+6+6+8+6+6+6+6+6+6+6+6+6+6+6+6+6+6+6+6+6+6+6+6+7+6+6+6+6+6+6+8+8+8+8+8+8+8+8+8+8+8+8+8+7+7+d+d+7+d+d+d+d+d+d+d+3+3+3+3+3+3+a+3+3+3+3+3+3+3+}+}+7+7+0+7+0+m+m+a+a+a+a+a+a+a+d+a+k+f+f+f+f+f+f+o+o+o+o+o+f+f+f+f+f+f+f+f+f+f+f+f+f+f+f+f+f+f+f+d+d+d+d+d+d+d+d+d+d+f+f+f+n+n+n+n+n+o+o+o+o+o+o+o+o+o+o+o+o+o+o+f+f+f+f+f+f+f+f+f+f+f+f+f+f+i+i+i+i+i+i+i+i+i+i+i+g+g+g+g+g+g+g+g+g+g+5+5+5+5+5+5+5+5+5+5+{+{+{+{+{+{+{+{+{+{+{+{+{+{+{+{+{+%+;+W.W.W.W.W.W.W.W.W.W.W.W.W.W.W.W.W.W.W.;+;+;+;+;+;+;+;+;+;+;+;+;+;+;+;+;+;+;+;+;+;+;+;+;+{+{+{+{+{+;+;+;+{+{+{+{+^+^+^+:+:+:+:+:+:+:+:+:+$+$+$+Z.Z.++++++++Z.Z.++++++++++++Z.Z.++++P.P.P.P.P.P.P.P.P.P.P.P.E.E.E.E.E.v.v.v.v.v.v.v.s.v.v.v.v.v.v.v.v.C.C.C.C.C.C.C.C.C.C.C.C.C.C.D.C.C.C.C.C.C.C.C.C.C.n.n.n.n.n.n.n.n.n.n.n.n.0.0.0.0.0.0.0.0.0.0.0.0.0.0.0.0.0.0.0.0.0.0.n.n.n.n.n.n.D.D.D.D.D.D.D.D.D.D.D.D.",
". . . . . . . . . . . . . . . . . . . . . . . . . . . . . . . . . . . . . . . . . . . . . . . . . . . . % % - - - - - - ! 4 G W 3.D.~+t+E+F+F+F+E+E+E+E+E+E+E+E+E+E+E+D+D+x+x+A+z+z+u+u+u+u+u+u+u+j+j+j+e+e+d+d+d+d+d+d+d+3+3+d+3+7+d+d+3+6+8+8+6+6+6+6+6+6+6+6+6+6+6+6+6+6+6+6+6+6+6+7+7+7+6+6+6+6+6+8+8+8+8+8+8+8+8+8+8+8+7+7+7+d+d+d+7+d+d+d+d+d+d+d+3+a+3+3+3+3+3+3+3+3+3+3+3+3+}+}+7+7+7+7+0+0+0+0+0+a+a+a+d+a+d+a+f+f+f+f+f+f+f+o+o+o+o+o+f+f+f+f+f+f+f+f+f+f+f+f+f+f+f+f+f+f+f+d+d+d+d+d+3+d+d+d+d+f+f+f+n+n+n+n+o+o+p+p+o+o+o+o+o+o+o+o+f+f+f+f+f+f+f+f+f+f+f+f+f+f+f+f+f+i+i+i+i+i+i+i+i+i+i+i+i+i+i+i+g+g+g+g+g+g+5+5+5+5+5+5+5+5+5+5+5+5+{+{+5+5+{+{+{+{+{+{+{+{+{+%+%+%+%+W.W.W.W.W.W.W.W.W.W.W.W.W.W.W.W.W.W.W.W.;+;+;+;+;+;+;+;+;+;+;+;+;+;+;+;+;+;+;+;+;+;+;+;+;+{+;+;+;+;+;+;+{+%+%+%+$+$+,+:+:+:+:+:+:+:+:+,+$+$+$+Z.++Z.Q.Q.Q.Z.Z.Z.Z.Z.Z.Q.Q.++++P.P.P.P.P.P.P.P.P.P.P.P.E.E.E.E.E.E.E.v.v.v.v.v.v.v.s.v.p.p.p.p.p.p.p.C.C.C.C.C.C.C.C.C.C.C.C.C.C.C.C.C.C.C.C.C.C.C.C.C.n.n.n.n.n.n.n.n.n.n.n.n.0.0.0.0.0.0.0.0.0.0.0.0.0.0.0.0.0.0.0.0.0.0.n.n.n.n.n.n.n.D.D.D.D.D.D.D.D.D.D.D.",
". . . . . . . . . . . . . . . . . . . . . . . . . . . . . . . . . . . . . . . . . . . . . . . . . . . . % % - - & & & % & ^ 4 A ,.j.V.c+B+E+F+E+E+E+E+E+E+E+E+E+E+E+E+D+D+x+x+x+z+z+z+u+u+u+u+u+u+u+j+j+k+k+k+d+d+d+d+d+d+d+d+d+d+d+d+8+8+8+8+8+8+6+6+6+6+6+6+5+6+6+6+6+6+6+6+6+6+6+7+7+7+7+7+6+6+8+8+8+8+8+8+8+8+8+8+8+8+7+7+7+d+d+d+7+a+d+d+a+d+d+d+3+3+a+3+3+3+3+3+3+3+3+3+3+3+3+}+}+}+}+7+0+7+0+0+0+d+a+a+a+a+3+d+d+d+d+f+f+f+f+f+f+f+f+f+o+o+o+o+o+f+f+f+f+f+f+f+f+f+f+f+f+f+f+f+d+d+d+d+d+3+d+d+d+d+f+f+f+n+n+n+n+o+o+o+o+o+o+o+o+o+o+o+f+f+f+f+o+o+o+f+f+o+o+o+o+f+f+f+f+i+i+i+i+i+i+i+i+i+i+i+i+i+i+i+i+g+g+g+g+g+g+g+5+5+5+5+5+5+5+5+5+5+5+5+5+5+5+5+{+{+{+{+{+{+{+{+{+^+%+%+`.`.W.W.W.;+;+;+;+W.W.W.W.W.W.W.W.W.W.W.W.W.W.W.W.;+;+;+;+W.W.;+;+;+;+;+;+;+;+;+;+;+;+;+;+{+{+;+;+;+;+;+;+%+%+%+$+$+$+:+:+:+:+:+:+:+,+$+$+$+Z.++Q.Q.Q.P.P.Q.Q.Q.Q.Q.Q.Q.Q.P.P.P.P.P.P.P.P.P.P.P.E.E.E.E.E.E.E.E.E.E.v.v.v.v.v.v.p.l.p.p.p.p.p.p.p.p.n.n.n.n.n.n.n.n.n.n.n.C.C.C.C.C.C.C.C.C.C.C.C.n.n.n.n.n.n.n.n.n.n.n.n.0.0.0.0.0.0.0.0.0.0.0.0.0.0.0.0.0.0.0.0.0.0.0.n.n.n.n.n.n.n.n.n.D.D.D.D.D.D.D.D.D.D.",
". . . . . . . . . . . . . . . . . . . . . . . . . . . . . . . . . . . . . . . . . . . . . . . . . . . . . % % % % % % % % > ^ l V 4.A.~+t+E+E+E+E+E+E+E+E+E+E+E+E+E+E+D+D+D+x+x+C+z+z+z+u+z+z+u+u+u+u+j+k+k+k+k+f+f+d+d+d+d+d+f+d+8+8+8+8+8+8+8+8+6+6+6+6+6+5+5+6+6+6+6+6+6+6+6+6+6+7+7+7+7+7+6+8+8+8+8+8+8+8+8+8+8+8+8+7+7+7+d+d+7+7+a+a+a+a+a+a+a+a+a+a+a+a+a+0+a+3+3+3+3+(+(+3+3+}+}+}+}+7+7+0+0+0+0+a+a+a+a+a+3+d+d+d+d+d+d+f+f+f+f+f+f+f+o+o+o+o+o+o+o+f+f+f+f+f+f+f+f+f+f+f+f+f+d+d+d+d+d+3+d+d+d+7+d+f+f+n+n+n+n+o+o+o+o+o+o+o+o+o+o+o+f+f+f+f+o+o+o+o+o+o+o+o+o+o+f+f+f+i+i+i+i+i+i+i+i+i+i+i+i+i+i+i+i+i+i+i+i+i+i+8+8+8+8+8+5+5+5+5+5+5+5+5+5+5+5+5+5+5+5+{+{+^+^+{+{+^+%+%+`.`.`.`.%+%+%+%+%+%+`.`.`.`.`.`.`.`.`.`.`.`.`.`.`.@+@+@+@+@+@+%+%+%+%+%+%+%+%+%+;+;+{+{+{+{+{+{+;+;+;+;+;+@+%+$+$+$+$+,+:+:+:+:+,+,+,+,+,+Z.Z.Z.Q.Q.Q.Q.Q.Q.Q.Q.Q.Q.Q.P.P.P.P.P.P.E.E.E.E.E.E.E.E.E.E.E.E.E.E.E.E.E.v.v.v.p.p.p.p.p.p.p.p.p.p.p.p.p.n.n.n.n.n.n.n.n.n.n.n.n.C.C.C.C.C.C.n.C.n.n.n.n.n.n.n.n.n.n.0.0.0.0.0.0.0.0.0.0.0.0.0.0.0.0.0.0.0.0.0.0.0.0.0.0.0.0.0.0.0.0.0.0.0.n.n.n.n.n.n.n.n.n.n.n.n.",
". . . . . . . . . . . . . . . . . . . . . . . . . . . . . . . . . . . . . . . . . . . . . . . . . . . . . % % % % % % . . % & 6 A ,.A.>+c+x+E+E+E+E+E+E+E+E+E+E+E+E+E+D+x+D+x+x+C+z+z+z+z+z+z+z+u+u+u+j+j+k+k+k+k+k+k+f+f+f+f+i+i+8+8+8+8+8+8+8+8+8+6+6+5+5+5+5+6+6+6+6+6+6+6+6+6+7+7+7+7+7+7+7+8+8+8+8+8+8+8+8+8+8+8+d+d+7+7+7+7+7+a+a+0+a+a+a+a+a+a+a+a+a+a+a+0+a+a+3+3+3+(+(+3+3+}+}+}+}+7+7+d+0+0+0+0+a+a+a+a+3+d+d+d+d+d+d+d+f+f+f+f+f+f+o+f+f+f+f+f+f+f+f+f+f+f+f+f+f+f+f+f+f+f+d+d+3+3+3+3+3+d+d+7+7+d+d+n+n+n+n+o+o+o+o+o+o+o+o+o+o+o+o+f+o+o+o+o+n+n+n+o+o+o+o+f+f+f+f+i+i+i+i+i+i+i+i+f+f+f+h+i+i+i+i+i+i+i+i+i+i+i+i+8+8+8+8+g+5+5+5+5+5+5+5+5+5+5+5+5+5+5+5+^+^+^+^+^+{+%+`.`.`.%+%+{+%+%+%+%+%+`.`.`.`.`.`.`.`.`.`.`.`.`.`.@+@+@+@+@+@+@+@+%+%+%+%+%+%+%+%+{+;+{+{+{+{+;+;+;+;+;+;+@+@+$+$+$+$+,+,+,+,+,+,+,+,+,+,+Z.Z.Q.Q.Q.H.H.H.H.H.H.H.H.H.H.H.P.P.E.E.E.E.E.E.E.E.E.E.E.E.E.E.E.E.E.E.E.v.v.v.p.p.p.a.a.a.a.a.p.p.p.p.p.0.0.0.0.0.0.0.0.n.n.n.n.C.C.C.C.C.C.n.n.n.n.n.n.n.0.0.0.0.0.0.0.0.0.3.3.3.3.0.0.0.3.3.3.3.3.3.3.3.3.3.3.0.0.3.3.0.0.0.0.0.0.0.0.0.0.n.n.n.n.n.n.n.n.n.n.n.",
". . . . . . . . . . . . . . . . . . . . . . . . . . . . . . . . . . . . . . . . . . . . . . . . . . . . . . % % % . % . . . % ^ n ,.j.V.c+t+B+E+E+E+E+E+E+E+E+E+E+E+E+E+x+x+x+D+x+z+x+u+u+z+z+z+u+u+u+u+j+k+k+k+f+f+k+f+i+f+i+i+i+i+8+i+i+8+8+5+6+8+5+6+5+5+5+5+6+6+6+6+6+6+6+6+7+7+7+7+7+7+}+}+7+7+8+8+8+8+8+8+8+8+d+d+d+7+7+0+7+a+a+a+0+a+a+a+a+a+a+a+a+a+a+a+0+a+a+a+3+3+(+(+3+3+}+}+}+}+7+7+d+0+0+0+0+a+a+a+a+3+d+d+d+d+d+d+d+f+f+f+f+f+f+f+f+f+f+f+f+f+f+f+f+f+f+f+f+f+f+f+f+f+d+d+d+3+3+3+3+3+3+3+3+d+7+d+n+n+n+n+o+o+o+o+o+o+o+o+o+o+o+o+n+n+o+o+o+o+o+o+o+f+f+f+f+f+f+f+i+i+i+i+i+i+i+i+f+f+f+h+h+h+h+i+i+i+i+i+i+i+i+i+i+i+i+i+6+g+g+g+5+5+5+5+5+5+5+5+5+5+5+5+^+^+^+^+^+^+$+%+%+%+%+^+{+{+^+^+{+%+%+%+%+%+`.`.`.`.`.`.`.`.`.`.@+@+@+@+@+@+@+@+@+@+@+@+@+%+%+%+%+%+%+;+%+%+;+;+;+;+;+;+%+$+Z.$+$+,+,+,+,+,+,+,+,+,+,+Z.Z.Z.Q.P.Q.H.H.H.H.H.H.H.H.H.H.H.P.E.E.E.E.E.E.E.E.E.E.E.E.E.w.w.E.u.u.u.u.p.p.p.p.p.a.c.c.a.a.a.p.p.a.a.a.0.0.0.0.0.0.0.0.n.n.n.n.n.C.C.C.C.n.n.n.n.0.0.0.0.0.0.0.0.0.0.3.3.3.3.3.3.3.3.3.3.3.3.3.3.3.3.3.3.3.3.3.3.3.3.3.3.3.3.3.3.3.0.0.0.0.0.0.n.n.n.n.n.n.n.n.n.",
". . . . . . . . . . . . . . . . . . . . . . . . . . . . . . . . . . . . . . . . . . . . . . . . . . . . . . . . % . % . . . . > 5 V 4.A.>+c+t+E+E+E+E+E+E+E+E+E+E+E+E+E+x+x+D+D+x+z+u+u+u+z+z+z+u+u+u+u+u+j+k+k+f+f+f+f+i+i+i+i+i+i+8+i+i+g+g+g+6+5+5+6+5+5+5+5+6+6+6+6+6+6+6+6+7+7+7+0+7+7+7+}+}+}+8+8+8+8+8+8+8+8+d+d+d+d+0+0+a+a+a+0+0+a+a+a+a+a+a+a+a+a+a+a+<+a+a+a+3+3+(+(+3+3+}+}+}+}+7+7+3+0+0+0+0+a+a+a+3+3+d+d+d+d+d+f+d+d+f+f+f+f+f+f+f+f+f+f+f+f+f+f+f+f+f+f+f+f+f+d+d+d+d+d+3+3+3+3+3+3+3+3+3+d+7+d+m+m+m+m+m+m+m+m+o+o+o+o+o+o+o+o+o+o+n+o+o+o+o+o+o+f+f+f+f+f+f+f+i+i+i+i+i+f+f+f+f+f+f+h+h+h+h+h+i+i+i+i+i+i+i+i+i+i+i+8+6+g+g+g+5+5+5+5+5+5+5+5+5+5+5+5+^+^+^+^+^+^+^+$+%+%+^+^+5+^+^+^+^+^+{+%+%+%+%+%+`.`.`.`.`.`.`.`.@+@+@+@+@+@+@+@+@+@+@+@+@+@+%+%+%+%+%+%+%+%+%+;+;+;+;+;+%+Z.Z.Z.$+,+,+,+,+,+,+,+,+,+,+Z.Z.Z.Q.P.P.Q.Q.P.Q.Q.Q.Q.H.H.H.H.E.E.E.E.E.E.E.E.E.E.w.w.w.w.m.m.i.i.m.u.u.p.p.p.p.a.a.c.c.a.a.a.a.a.a.a.a.0.|.|.0.0.0.0.0.0.n.n.n.n.n.n.n.n.n.n.0.0.0.0.0.0.0.0.0.0.3.3.3.3.3.3.3.3.3.3.3.3.3.3.3.3.3.3.3.3.3.).3.3.3.3.3.3.3.3.3.3.3.3.3.3.0.0.0.0.0.0.0.0.0.0.0.0.",
". . . . . . . . . . . . . . . . . . . . . . . . . . . . . . . . . . . . . . . . . . . . . . . . . . . . . . @ @ . . . . . . . . / n ,.j.V.c+t+E+E+E+E+E+E+E+E+E+D+D+E+E+E+D+D+x+x+D+x+x+u+u+u+A+u+u+u+u+u+j+k+k+k+k+k+e+e+8+8+i+i+i+i+g+g+g+g+g+5+5+5+6+6+6+6+6+6+6+6+6+6+8+8+8+8+8+8+d+7+3+6+7+8+8+8+8+8+8+8+6+8+d+d+d+d+7+d+a+a+a+a+a+a+a+a+a+d+d+d+3+3+a+a+3+3+3+3+3+3+(+(+(+3+}+}+}+3+3+3+0+a+3+d+a+a+a+3+a+a+a+3+3+d+d+d+n+a+a+a+n+n+n+n+n+d+d+d+f+f+f+f+f+d+d+d+d+d+d+d+d+a+a+a+a+a+3+3+3+3+3+3+3+3+a+0+0+0+m+m+m+m+m+o+o+o+o+f+f+o+o+o+o+m+m+m+o+o+o+o+o+o+f+f+f+f+f+f+f+f+f+f+f+f+f+f+m+f+f+f+f+f+8+8+8+8+8+8+8+8+6+6+6+6+6+6+6+g+g+g+g+5+5+5+5+5+5+5+5+5+5+5+5+5+^+^+^+:+:+:+$+$+$+{+^+5+5+5+^+^+{+^+^+$+{+%+%+%+%+%+@+=+=+++++++Z.Z.`.++Z.=+=+%+@+@+@+@+@+@+@+%+%+%+;+%+%+%+%+@+@+@+`.`.`.`.Z.Z.Z.Z.Z.$+$+$+$+$+++Z.Z.P.P.P.P.P.P.P.Q.Q.P.P.P.P.P.G.G.G.G.E.E.E.E.w.w.w.w.w.E.E.u.i.l.i.i.i.a.p.p.p.p.i.a.i.a.a.a.a.a.a.a.a.0.|.|.|.|.|.|.0.0.0.0.0.0.0.0.0.0.0.n.n.n.0.0.0.0.0.0.0.3.3.3.3.3.3.3.).).).).).).{.).).).).).).).).).).).{.).).).).).).).).).).).3.3.3.3.3.3.3.0.0.0.0.0.4.3.",
". . . . . . . . . . . . . . . . . . . . . . . . . . . . . . . . . . . . . . . . . . . . . . . . @ @ @ @ . . . . @ . @ . . @ @ @ > l V j.V.c+t+E+E+E+E+E+E+E+E+E+E+E+E+E+E+E+D+D+x+x+x+u+u+u+u+A+u+u+u+u+u+k+k+k+k+k+k+e+e+8+8+8+i+i+i+g+g+g+g+g+5+5+5+6+6+6+6+6+6+6+6+6+6+8+8+8+8+8+8+7+7+7+7+7+7+7+7+7+7+7+7+7+d+d+d+d+7+7+0+0+a+a+a+a+a+a+a+a+3+3+d+3+3+a+3+3+3+3+3+3+3+3+3+3+3+}+}+}+3+3+3+0+a+a+3+3+3+3+a+a+3+a+a+3+3+a+d+f+a+a+a+a+a+a+a+a+d+d+d+d+d+d+d+d+d+d+d+d+d+d+d+d+a+a+a+3+a+3+3+3+}+(+3+3+3+a+0+0+0+0+m+m+m+m+o+o+o+o+o+o+m+m+m+m+m+m+m+m+o+o+o+o+o+f+f+f+f+f+f+f+o+o+o+f+f+f+m+m+f+f+f+f+f+d+d+d+7+7+8+8+8+6+6+6+6+6+6+6+6+5+5+5+5+5+5+5+5+5+5+8+5+5+5+5+5+^+^+^+:+:+:+,+$+$+^+^+^+^+^+^+^+^+^+^+^+^+^+$+$+$+$+$+=+=+=+++++++++++Z.++=+=+=+=+@+@+@+@+@+@+@+@+%+%+%+%+%+@+@+@+@+`.`.`.`.Z.Z.Z.Z.Z.Z.Z.Z.Z.Z.Z.++++++P.++++++++P.P.P.P.P.P.P.P.G.G.G.G.E.E.E.w.w.E.w.w.w.m.m.i.i.l.i.i.i.a.a.a.a.a.i.i.c.a.a.a.a.a.a.a.a.0.2.|.|.|.|.|.|.|.|.0.|.|.0.0.0.0.0.n.n.n.0.0.0.0.0.3.3.3.3.3.3.3.).).).).).).).).).).).).).).).).).).).)...).).).).).).).).).).).).).3.3.3.3.3.3.3.3.3.3.3.3.",
". . . . . . . . . . . . . . . . . . . . . . . . . . . . . . . . % % % % . . . . % % % % % . . . . . . @ @ @ @ @ @ . @ . . . . . @ 6 V 4.V.~+t+E+E+E+E+E+E+E+E+E+D+D+E+E+E+E+E+E+x+x+x+u+u+u+A+A+u+u+u+u+u+k+k+k+k+k+k+e+e+8+8+8+8+8+8+g+g+g+g+g+5+5+5+6+6+6+6+6+6+6+6+6+6+8+8+i+i+i+i+i+7+7+7+7+7+7+7+7+7+7+7+7+d+d+d+7+d+d+0+0+0+0+0+a+a+a+a+a+a+a+a+a+a+a+a+a+3+3+3+3+3+3+3+3+3+3+}+3+3+3+3+0+a+a+a+a+a+a+a+a+a+a+a+3+d+a+a+a+d+d+d+d+a+a+a+a+d+d+d+d+d+3+3+3+d+d+d+d+d+d+d+d+a+a+3+a+3+3+3+3+}+}+3+3+3+3+7+7+0+m+h+m+m+m+m+o+o+o+m+m+m+m+m+m+m+m+m+m+h+h+h+h+h+h+h+h+h+h+h+h+h+h+h+h+h+h+h+h+m+m+f+d+d+d+7+d+7+7+7+7+7+6+6+6+6+6+6+6+6+6+6+8+5+5+5+6+6+6+6+6+6+6+5+5+5+5+6+6+:+:+:+:+,+^+^+^+^+:+:+^+^+^+^+^+^+^+^+^+$+$+$+$+$+$+$+$+$+$+$+$+Z.$+=+=+=+=+=+++++++@+@+@+@+@+@+@+@+@+@+@+@+@+@+`.`.Z.Z.Z.$+$+$+Z.Z.Z.Z.Z.Z.++++++++++++++++++P.P.P.P.P.P.P.G.G.E.E.E.E.E.E.E.E.w.m.m.m.i.i.i.l.i.i.i.l.a.a.a.a.c.c.c.a.a.a.a.a.a.a.a.a.2.|.|.|.|.|.|.|.|.|.|.|.0.0.0.0.0.0.0.0.0.0.0.0.3.3.3.3.3.3.).).).).).).).).).).......W Y Y ..).)...........W W W ).).)...).).).).).).).).).3.3.3.3.3.3.4.).",
". . . . . . . . . . . . . . . . . . . . . . . . . . . . . . . . . . . . . . . . . . . . . . . . . . @ @ @ @ @ @ @ @ @ @ . . . @ @ 6 A 4.A.~+l+B+E+E+E+F+E+E+E+E+E+E+E+D+E+E+E+E+D+x+u+u+u+u+u+u+u+u+u+j+k+j+k+k+k+k+k+e+e+8+8+8+8+8+8+8+g+g+g+g+5+5+5+6+6+6+6+6+6+6+6+6+6+6+i+i+i+i+i+i+h+h+7+7+0+0+7+7+7+7+7+7+7+7+7+0+3+3+d+d+0+0+a+a+a+a+a+a+a+a+a+a+a+a+a+a+3+3+3+3+3+3+3+3+3+3+3+3+3+3+a+0+3+3+a+a+a+a+a+a+a+a+3+3+3+d+d+f+d+d+d+d+d+a+a+a+d+d+d+3+3+3+3+3+d+d+d+d+d+d+d+d+d+d+3+3+3+3+3+3+3+3+3+3+d+d+d+7+m+m+h+m+m+m+o+o+m+m+m+m+m+m+m+m+m+h+h+h+h+h+h+h+m+m+m+m+m+m+0+0+h+h+h+h+h+h+h+h+m+m+m+0+d+7+d+d+7+7+7+7+7+7+7+7+6+6+6+6+6+6+6+6+6+6+6+6+6+6+6+6+6+6+6+5+5+6+6+6+:+:+:+:+:+:+:+:+6+:+:+:+:+:+:+:+:+:+:+,+$+$+$+$+$+$+$+$+$+$+$+$+$+$+$+$+$+$+$+Z.Z.Z.++++++Z.`.`.@+@+@+@+@+@+@+@+Z.Z.Z.Z.$+$+$+$+Z.Z.Z.Z.Z.Z.++++++++++++++P.P.P.P.P.P.P.P.P.P.M.E.E.E.E.E.E.E.w.m.m.m.m.i.i.i.i.i.i.i.b.b.c.i.a.c.c.c.a.a.a.a.a.a.a.a.2.2.2.|.|.|.|.|.|.|.|.|.|.|.|.|.0.0.0.0.0.0.|.|.|.3.3.3.).~.~.~.).).).).).).).).).W W W W W W W W W W W W Y W W W W W W Y Y Y Y W W W ).).).).).).3.3.3.3.).).",
". . . . . . . . . . . . . . . . . . . . . . . . . . . . . . . . . . . . . . . . . . . . . . . . . . . . @ @ @ @ @ @ @ . . . . . % ^ A ,.A.V.c+t+E+E+E+F+E+E+F+E+E+E+E+E+E+D+E+E+D+x+u+u+u+u+u+r+u+u+u+k+k+j+n+k+k+k+k+e+e+8+8+8+8+8+8+8+g+g+g+g+5+5+5+6+6+6+6+6+6+6+6+6+i+h+h+i+i+i+h+h+h+6+7+7+0+0+7+7+7+7+7+7+7+7+7+0+3+3+3+3+0+0+0+a+a+a+a+a+a+a+a+a+a+a+a+a+3+3+3+3+3+3+3+3+}+}+}+0+0+0+0+0+0+0+0+a+a+a+a+a+a+a+a+a+3+d+d+d+d+d+f+f+f+d+a+3+3+3+a+a+3+3+a+a+3+3+d+d+d+d+d+d+d+d+3+3+3+3+3+3+3+3+3+d+d+d+f+f+f+f+h+h+h+h+h+o+h+m+m+m+m+m+h+h+h+h+h+h+h+m+m+m+0+0+0+0+0+0+0+0+0+0+0+0+0+0+0+0+h+h+7+7+7+7+7+7+7+7+7+7+7+7+7+7+6+6+6+6+6+6+6+6+6+6+6+6+6+6+6+6+6+6+6+6+6+6+6+6+:+:+:+:+:+:+:+:+6+6+:+:+:+:+:+:+:+:+,+,+$+$+$+$+$+$+$+$+$+$+$+$+$+$+$+$+$+$+$+$+$+$+$+$+$+Z.Z.Z.`.`.`.`.`.`.`.Z.Z.Z.Z.Z.$+$+$+$+++++++=+=+++++++++++++++++++++P.P.P.P.P.P.P.P.P.E.E.E.E.E.E.E.w.m.m.i.i.i.i.i.i.i.i.i.b.b.b.c.a.i.a.a.a.a.a.a.a.a.a.2.2.2.2.2.|.|.|.|.|.|.|.|.|.|.|.|.|.|.|.|.|.|.|.|.|.|.3.).).~.~.R R R W W W R W W W Y W W G G G G G W W W W Y W W W W W W Y Y Y Y Y W W W ).).).).).).).).).~.~.",
". . . . . . . . . . . . . . . . . . . . . . . . . . . . . . . . . . . . . . . . . . . . . . . . . . . . . . @ @ @ @ . . . . . . . ^ m ,.j.V.c+l+x+E+E+E+E+E+F+E+E+E+E+E+E+E+E+E+x+x+u+u+u+u+r+r+u+r+r+k+k+k+k+k+k+k+k+e+e+8+8+8+8+8+8+8+8+g+g+g+g+g+g+6+6+6+6+6+6+6+6+6+6+i+i+h+6+h+h+6+h+7+7+7+m+0+0+7+7+0+7+7+7+7+7+7+3+3+3+3+3+3+3+3+3+3+3+3+3+3+d+d+3+a+a+a+3+3+3+3+3+3+3+3+}+7+7+0+0+0+0+0+0+0+0+0+0+3+3+3+0+3+3+3+3+3+d+d+d+d+d+d+d+d+a+3+a+a+a+a+a+3+a+a+3+3+3+3+d+3+3+3+3+3+3+3+3+3+3+8+3+3+d+d+f+f+f+f+f+f+h+h+h+h+h+h+h+o+h+h+h+h+h+h+h+h+h+h+h+m+m+m+m+m+m+0+0+0+0+0+m+m+m+0+0+7+7+7+7+7+7+7+7+7+7+7+7+7+7+7+7+7+7+7+6+6+6+6+6+6+6+6+6+6+:+6+6+6+6+6+6+6+6+5+5+6+6+6+:+:+:+:+:+:+:+:+:+:+:+:+:+:+:+:+:+:+:+,+,+,+$+$+,+,+,+,+,+,+,+,+^+^+$+$+$+$+$+$+$+$+$+$+$+$+Z.Z.Z.Z.Z.Z.Z.Z.Z.Z.Z.Z.Z.Z.$+$+Z.Z.++++++++++++++++++++++@+@+++++++++++++++++P.P.P.E.E.E.E.E.E.E.w.u.i.i.i.i.i.i.i.i.i.i.i.i.i.i.a.a.a.a.a.a.a.a.a.a.a.2.2.2.2.2.2.|.|.|.|.|.|.|.|.|.|.|.|.|.|.|.|.|.|.|.~.~.~.~.~.R R R R R R G W R G W G G G G s G G G G G G G G G G W W W W Y Y Y Y Y Y Y W W W W W ).).).).).).,.R ",
". . . . . . . . . . . . . . . . . . . . . . . . . . . . . . . . . . . . . . . . . . . . . . . . . . . . . . . @ @ . . . . . . . . - m V 3.A.~+c+x+E+E+F+E+E+E+E+E+E+E+E+E+D+E+D+x+x+z+u+u+u+r+r+r+r+r+k+k+r+k+k+k+k+k+e+e+8+8+8+8+8+8+8+8+g+g+g+g+g+g+6+6+6+6+6+6+6+6+6+6+6+6+6+6+6+6+6+7+6+7+7+7+7+7+7+7+7+7+7+7+7+d+d+d+3+3+3+d+d+d+d+d+d+d+d+d+d+d+d+d+d+3+3+3+3+3+3+3+3+3+3+7+7+7+0+0+0+0+0+<+0+0+0+0+0+3+a+0+0+0+3+3+3+3+d+d+d+d+d+d+3+a+3+a+3+d+d+d+3+3+a+a+a+a+3+3+3+3+3+3+3+3+3+8+8+[+[+[+8+8+8+i+i+i+i+8+d+7+h+h+h+h+h+h+h+h+h+h+h+h+h+h+h+h+h+h+h+7+7+7+7+7+7+7+7+7+7+0+0+7+7+7+7+7+7+7+7+7+7+7+7+7+7+7+7+7+7+7+7+7+6+7+7+7+7+7+6+6+6+6+6+6+6+6+6+6+6+6+6+6+6+5+5+6+6+:+:+:+:+:+:+:+:+:+:+:+:+:+:+:+:+:+:+:+:+:+^+^+^+^+^+^+^+^+^+^+^+^+^+^+^+$+$+$+$+$+$+$+$+$+$+$+Z.Z.Z.Z.Z.$+$+$+$+Z.Z.Z.Z.Z.Z.Z.Z.++++++++++++++++++++++@+@+++++++++++++++++P.P.P.P.E.E.E.E.E.E.E.E.u.i.i.i.i.i.i.i.i.i.i.i.i.b.a.a.a.a.a.a.a.a.a.b.2.2.2.2.2.2.2.~.~.~.~.~.~.~.~.|.|.|.|.|.|.|.|.~.~.~.~.~.~.R R R R R R s s s s s s G G G G G G G G E s s E G G G G G G G G E E Y Y Y Y Y W W W W W W W W W W W R O ",
". . . . . . . . . . . . . . . . . . . . . . . . . . . . . . . . . . . . . . + + . . + + . . . . . . . . . . . . . . . @ . . . . . & 4 W 3.n.V.c+x+D+E+F+E+E+E+E+E+E+E+E+B+D+D+x+x+x+z+u+u+u+r+r+r+r+r+k+r+r+k+k+k+k+k+e+e+8+8+8+8+8+8+8+8+g+g+g+g+g+g+6+6+6+6+6+6+6+6+6+6+6+6+6+6+6+6+6+6+7+7+7+7+7+7+7+7+7+7+7+d+d+d+d+d+d+d+d+d+d+d+d+d+d+d+d+d+d+d+d+d+d+d+3+7+7+}+}+}+3+3+3+7+7+0+0+0+0+0+0+<+0+0+0+0+0+0+0+0+0+0+7+3+3+3+d+d+d+3+3+3+3+3+3+d+0+a+a+a+a+d+3+a+a+3+3+3+3+3+3+3+3+3+8+[+[+[+[+[+[+8+8+8+8+8+8+8+8+8+7+h+h+h+7+h+h+h+h+h+h+h+h+7+7+7+7+7+7+7+7+7+7+7+7+7+7+7+7+7+7+7+7+7+7+7+7+7+7+7+7+7+6+6+6+7+7+7+7+7+6+6+6+7+7+7+7+7+6+6+6+6+6+6+6+6+6+6+6+6+6+6+6+6+5+6+6+6+:+:+:+:+:+:+:+:+:+:+:+:+:+:+:+:+:+:+:+^+^+^+^+^+^+^+^+^+^+^+^+^+^+^+^+$+$+$+$+$+$+$+$+$+$+$+Z.$+$+$+$+$+$+$+$+Z.Z.Z.Z.Z.Z.Z.Z.++++++++++++++++++++++++++++++++++++++++++++P.P.P.P.E.E.E.E.E.E.s.l.l.i.i.i.i.i.i.i.i.i.i.i.b.a.a.a.a.a.a.a.a.a.b.2.2.2.2.2.2.'.~.~.~.~.~.~.~.~.~.~.~.~.~.~.~.~.~.~.~.~.~.R R R s s s s s s s s s s s s s s s s s s i i i i s s G s s s G G v E Y Y E E E E G G G G G W W W W W s s ",
". . . . . . . . . . . . . . . . . . . . . . . . . . . . . . . . . . . . . . . . . . . . + + . . . . . . . . . . . . . . . . . . . % 4 G ).0.D.~+l+B+E+E+E+E+E+F+E+E+E+B+t+t+x+x+x+x+x+u+u+u+u+r+r+r+r+r+r+r+k+k+k+k+k+i+e+e+d+d+8+8+i+i+i+i+g+g+g+6+6+6+6+6+6+5+5+5+6+6+6+6+6+6+6+6+6+6+6+6+6+6+6+6+6+6+7+7+6+6+6+8+8+8+8+8+8+8+8+8+8+8+8+8+8+8+8+d+d+d+d+d+d+d+3+3+3+3+3+3+3+<+0+0+3+a+a+a+3+3+3+3+0+0+}+0+0+0+3+3+}+}+3+3+3+8+3+3+3+3+3+a+a+a+a+0+0+a+a+a+a+a+a+a+a+1+3+3+3+3+3+3+3+3+3+[+[+[+[+8+8+8+8+8+8+8+8+8+8+8+8+i+i+i+i+i+i+6+6+6+6+6+6+6+6+6+6+6+6+6+6+6+6+6+6+6+6+6+8+8+8+8+6+6+6+6+8+8+8+8+8+8+8+8+6+6+6+6+6+6+6+6+6+6+6+6+6+6+6+6+6+6+6+6+6+6+8+6+6+6+6+5+5+5+5+6+6+:+:+:+:+:+:+:+:+:+:+:+:+:+:+:+^+^+^+^+^+^+^+^+^+^+^+^+^+^+^+^+{+{+^+^+^+$+$+$+$+$+$+$+$+Z.Z.Z.$+$+$+$+$+$+$+$+%+%+@+@+@+@+@+@+@+@+@+@+@+=+=+=+++++++++++++++++++++++++++P.P.@+P.P.E.E.E.E.E.E.E.E.i.i.l.l.i.i.i.i.i.b.b.l.l.b.q.b.b.b.b.b.b.b.6.6.6.^.^.|.~.'.~.~.~.~.~.~.~.~.~.~.~.~.~.~.,.,.R R R R R R s s s s s s s s i i i i i i i i i i o o o o o i o m E G G G G G G E E E Y E E G G G G G s s s s s s s s ",
". . . . . . . . . . . . . . . . . . . . . . . . . . . . . . . . . . . . . . . . . . . . . + + . . . . . . . . . . . . . . . . . . . ! m ).j.D.~+c+B+E+E+E+E+E+E+E+E+E+B+t+t+x+x+x+x+x+u+u+u+u+u+r+r+r+r+r+r+k+k+k+k+k+k+f+d+d+d+d+d+i+i+i+i+i+i+8+8+6+6+6+6+6+6+6+6+6+6+6+6+6+8+6+6+7+7+7+6+6+6+7+7+7+7+6+6+6+6+6+8+8+8+8+8+8+8+8+8+8+8+8+8+8+8+d+d+d+d+d+d+d+3+3+3+3+3+3+3+<+<+0+0+0+3+3+3+3+3+3+3+3+3+3+0+0+0+3+3+<+<+3+3+3+8+3+3+3+3+3+3+3+3+a+a+a+a+a+a+a+a+a+a+a+a+3+3+3+3+3+3+3+3+3+8+8+[+[+8+8+8+8+8+8+8+7+8+8+8+8+8+i+i+i+i+i+8+6+6+6+6+6+6+6+6+6+6+6+6+6+6+6+6+6+8+8+8+8+8+8+8+8+8+8+8+8+8+8+8+8+8+8+8+8+8+8+6+6+6+6+6+6+6+6+6+6+6+6+6+6+6+6+8+8+8+8+8+6+5+5+5+5+5+5+6+6+6+:+:+:+:+:+:+:+:+:+:+:+:+:+:+:+:+:+:+^+^+^+^+^+^+^+^+^+^+^+^+|+|+|+|+|+|+|+^+$+$+$+$+$+$+$+$+$+$+$+=+=+=+=+=+$+$+$+=+++++++++@+%+%+%+=+=+=+=+++++++++++++++++++++++++++P.@+@+P.E.E.E.E.E.E.E.E.i.i.i.l.l.l.i.b.b.b.b.b.l.b.b.b.b.b.b.b.b.6.6.6.6.^.^.^.~.~.'.~.~.~.~.~.~.~.~.~.~.~.~.~.~.,.O R R R R R s s i i i i i i i i i i i i m m m m i o o o o o o o o k E G m m m E E E Y Y Y E G G G G G s s s s s s s s ",
". . . . . . . . . . . . . . . . . . . . . . . . . . . . . . . . . . . . . . . . . . . . . + + . + + . . . . . . . . . . . . . . . . ! m W 3.A.V.c+t+E+E+E+E+E+E+E+E+E+B+t+t+x+x+x+x+x+u+u+u+u+u+u+u+u+u+u+u+j+j+k+k+k+k+f+d+d+d+d+d+f+f+i+i+i+i+8+8+6+6+6+6+6+6+6+i+i+i+i+i+i+i+7+7+7+7+7+7+6+6+6+6+6+6+6+6+6+6+8+8+8+8+8+8+8+8+8+8+8+8+8+8+8+d+8+d+d+d+d+3+3+a+3+3+3+3+3+a+a+a+<+<+<+<+3+3+3+3+a+a+a+a+a+0+0+0+3+<+<+<+3+3+3+3+3+3+3+3+a+3+a+a+a+a+a+a+a+a+a+a+1+a+a+a+a+a+3+3+3+3+3+3+3+3+8+8+[+8+8+8+8+8+8+8+d+d+8+8+8+8+i+i+i+i+i+8+8+6+6+6+6+6+6+6+6+6+6+6+6+8+8+8+8+8+8+8+8+8+8+8+8+8+8+8+8+8+8+8+8+8+8+8+8+8+8+8+8+8+8+6+6+6+6+6+6+6+6+6+8+8+8+8+8+8+8+8+8+8+5+5+5+5+8+8+8+6+6+:+:+:+:+:+:+:+:+:+:+:+:+:+:+:+:+:+|+:+:+[+:+:+:+:+:+:+:+:+|+|+|+[+[+[+[+|+|+|+=+$+$+$+$+$+-+-+=+=+=+=+=+=+=+=+=+=+=+=+=+=+=+=+=+=+=+=+=+=+++++++++++++++++++++++++++P.P.P.E.E.E.E.E.E.E.E.E.i.i.l.l.l.l.l.l.b.b.b.q.q.b.b.b.b.b.6.6.6.6.6.6.^.^.{.).).).).).).).).).).).).~.~.R R R R R R R R R s s s i i i i i i i i i i 9 9 9 9 9 9 9 9 1 1 1 1 1 1 1 o o o m m m m G G v E Y G G G G G s s s s s s s s i i ",
". . . . . . . . . . . . . . . . . . . . . . . . . . . . . . . . . . . . . . . . . . . . . + + + + + . + . . . . . . . . . . . . . . - 4 G ).j.V.c+t+B+E+E+E+E+E+E+E+E+B+t+t+x+x+x+x+x+x+u+u+u+u+u+u+u+u+u+u+u+j+j+j+k+k+a+d+d+d+d+d+f+f+f+f+i+i+8+8+7+7+7+7+6+i+i+i+8+d+f+f+f+f+d+d+0+0+0+7+7+7+7+7+7+7+7+7+7+d+8+8+8+8+8+8+8+8+8+8+8+8+8+d+d+d+d+d+d+d+3+3+3+3+3+3+3+3+a+a+a+a+1+1+1+1+1+1+1+3+a+a+a+a+a+a+a+a+a+<+<+<+<+3+3+3+3+3+3+a+3+a+1+1+a+1+1+1+1+1+1+1+1+1+a+a+a+3+3+3+3+3+3+3+3+3+3+3+8+8+3+8+d+d+d+f+d+d+d+8+8+8+i+i+i+i+8+8+8+8+8+8+8+8+8+8+8+8+7+7+8+8+8+8+8+8+8+[+3+3+8+8+8+8+8+8+8+8+8+8+8+8+d+3+8+8+8+8+8+8+8+8+6+6+6+6+6+6+6+6+8+8+8+8+8+8+8+8+8+8+8+5+5+8+8+8+8+8+8+:+:+:+:+:+:+:+:+:+:+:+:+:+:+:+:+:+[+[+[+[+[+[+[+[+[+[+[+[+[+[+[+[+[+[+[+[+|+|+=+=+=+=+-+-+-+-+-+=+=+=+=+=+-+-+-+-+-+-+=+=+=+=+=+=+=+-+-+-+X.X.X.X.X.X.X.X.X.X.X.X.++P.P.P.E.E.E.E.E.E.E.E.l.i.l.l.l.l.l.l.l.b.b.l.q.q.q.a.b.b.b.6.6.6.6.6.^.^.^.{.{.).).).).).).).).).).).~.R R R R R R R s s s s s i i 9 9 9 9 9 i i i i 9 9 9 9 9 9 9 9 9 1 1 1 9 9 9 m 1 o m 9 9 m G G G G G E G G G G G G G s s s s s s s ",
". . . . . . . . . . . . . . . . . . . . . . . . . . . . . . . . . . . . . . . . . . . . . . . . . . . . . . . . . . . . . . . . . . > 4 G ).j.V.~+l+B+E+E+E+E+E+E+E+E+B+t+t+x+x+x+x+x+x+u+u+u+u+u+u+u+u+u+u+j+j+j+j+j+j+e+a+d+a+d+d+f+f+f+f+f+f+i+d+7+7+7+7+7+i+d+d+d+d+d+f+f+f+f+f+f+m+m+m+d+d+7+7+7+d+7+7+d+d+8+8+8+8+8+8+8+8+8+8+8+8+d+d+d+d+d+d+d+d+3+3+3+3+3+3+3+a+a+a+a+a+1+1+1+1+1+1+1+1+a+a+a+a+a+a+a+a+a+a+<+<+<+3+3+3+3+3+3+3+a+a+1+1+<+]+]+]+~+~+~+1+1+1+a+a+a+d+3+3+3+3+3+3+3+3+8+3+3+3+3+3+d+d+d+f+f+d+d+d+8+i+i+i+i+i+8+8+8+8+8+8+8+8+8+8+8+d+d+7+7+d+d+d+3+8+3+3+3+3+3+8+8+8+8+8+8+8+8+8+8+3+3+3+3+3+8+3+d+d+d+d+6+6+6+6+6+6+6+6+3+3+3+3+3+3+3+3+8+8+8+8+8+8+8+8+8+8+8+8+[+:+:+:+[+[+[+[+[+[+[+[+}+}+:+[+[+[+[+[+[+[+[+[+[+[+[+[+[+[+[+[+[+[+[+[+|+=+=+=+=+=+=+-+-+-+-+-+-+=+=+=+=+-+-+-+-+-+-+-+-+=+-+-+-+-+-+-+X.X.X.X.X.X.X.X.-+X.X.X.++P.P.E.E.E.E.E.E.E.s.E.l.i.l.l.l.l.l.l.l.l.q.q.q.q.q.a.b.6.b.6.6.6.6.^.^.^.{.{.).).).).).).W W ).).).).).W W R R O R s s s s G s i 9 9 9 9 9 9 9 i i 9 9 9 9 1 1 1 1 9 1 1 1 1 1 9 1 9 1 m m 9 9 m G G G E E G G G G G G G G G G G G G s s "};
