/* XPM */
static char *judge[] = {
/* columns rows colors chars-per-pixel */
"800 600 256 2 ",
"   c #01030C",
".  c #030609",
"X  c #020511",
"o  c #040A14",
"O  c #060E19",
"+  c #090E19",
"@  c #090D15",
"#  c #0C131C",
"$  c #0A1218",
"%  c #12161C",
"&  c #14191D",
"*  c #1A1C1D",
"=  c #131516",
"-  c #10110F",
";  c #0E1620",
":  c #0E1922",
">  c #111721",
",  c #141A23",
"<  c #1A1E24",
"1  c #151E29",
"2  c #191F29",
"3  c #1C2125",
"4  c #1B232B",
"5  c #182329",
"6  c #1C2631",
"7  c #1E2933",
"8  c #1B2937",
"9  c #1C2F36",
"0  c #222325",
"q  c #22252A",
"w  c #24292C",
"e  c #2A2B2A",
"r  c #35322D",
"t  c #232C34",
"y  c #262D36",
"u  c #25323B",
"i  c #2B343C",
"p  c #2B3336",
"a  c #373838",
"s  c #302F2B",
"d  c #23211E",
"f  c #423D38",
"g  c #701620",
"h  c #3C423B",
"j  c #45433D",
"k  c #50513D",
"l  c #724B3C",
"z  c #2B3844",
"x  c #333C43",
"c  c #353D48",
"v  c #2C3B4D",
"b  c #1D3345",
"n  c #3C444B",
"m  c #384348",
"M  c #3A4855",
"N  c #374A55",
"B  c #3D5062",
"V  c #474948",
"C  c #514E49",
"Z  c #55534C",
"A  c #434C53",
"S  c #454E57",
"D  c #4A5358",
"F  c #545A5C",
"G  c #585956",
"H  c #4B514D",
"J  c #625E57",
"K  c #6F514F",
"L  c #5D615C",
"P  c #66635C",
"I  c #736B5D",
"U  c #495866",
"Y  c #555D64",
"T  c #4C5C6F",
"R  c #5B6264",
"E  c #59646B",
"W  c #586877",
"Q  c #516573",
"!  c #636563",
"~  c #646A6B",
"^  c #6B6D6C",
"/  c #696965",
"(  c #736D65",
")  c #6D706E",
"_  c #74726D",
"`  c #7B756B",
"'  c #7B7568",
"]  c #656D74",
"[  c #6D7272",
"{  c #68747B",
"}  c #737573",
"|  c #7B7A75",
" . c #7C7C7A",
".. c #777876",
"X. c #756A72",
"o. c #6F5C64",
"O. c #5B3C43",
"+. c #837B6D",
"@. c #867B69",
"#. c #847D73",
"$. c #847E76",
"%. c #946D70",
"&. c #9A5A60",
"*. c #942936",
"=. c #7E807C",
"-. c #868074",
";. c #8B8375",
":. c #84827C",
">. c #8C857B",
",. c #8E887C",
"<. c #8F8977",
"1. c #938B7D",
"2. c #9A8E7B",
"3. c #938876",
"4. c #9D917D",
"5. c #8F826D",
"6. c #A2947D",
"7. c #5D7386",
"8. c #5A6E82",
"9. c #677887",
"0. c #737D86",
"q. c #687D93",
"w. c #6B768A",
"e. c #A07B84",
"r. c #78838A",
"t. c #6C8398",
"y. c #778798",
"u. c #758996",
"i. c #778CA3",
"p. c #7B93A8",
"a. c #7994AF",
"s. c #7FA0BB",
"d. c #848482",
"f. c #8C8A84",
"g. c #8B8985",
"h. c #938D83",
"j. c #988F81",
"k. c #938E89",
"l. c #969084",
"z. c #9B9384",
"x. c #95928B",
"c. c #9C958B",
"v. c #9E988D",
"b. c #9F9884",
"n. c #9D9993",
"m. c #9A9793",
"M. c #869098",
"N. c #A29584",
"B. c #A59986",
"V. c #A0978A",
"C. c #A39B8C",
"Z. c #AA9D8C",
"A. c #AA9B85",
"S. c #A49D93",
"D. c #A99F92",
"F. c #A49E99",
"G. c #B18D93",
"H. c #ADA18E",
"J. c #AAA189",
"K. c #A7A095",
"L. c #ACA294",
"P. c #ACA59B",
"I. c #AFA89D",
"U. c #A6A29A",
"Y. c #B2A594",
"T. c #B4A996",
"R. c #B1A79A",
"E. c #B4AB9C",
"W. c #BAAD9C",
"Q. c #B9AA96",
"!. c #BCB19E",
"~. c #B7B09D",
"^. c #B1A38D",
"/. c #8697A8",
"(. c #869CB4",
"). c #929BA8",
"_. c #8BA3BA",
"`. c #96A8B9",
"'. c #96A3AD",
"]. c #ACA8A2",
"[. c #B4ADA2",
"{. c #B9AFA2",
"}. c #B4AEA9",
"|. c #B7B0A5",
" X c #BCB3A4",
".X c #BCB5AA",
"XX c #BEB8AC",
"oX c #B9B4A9",
"OX c #BDB9B3",
"+X c #A7AFB9",
"@X c #AA9DA1",
"#X c #C1B29E",
"$X c #C2B5A4",
"%X c #C3B8A6",
"&X c #C1B7AA",
"*X c #C4BBAC",
"=X c #C9BDAC",
"-X c #C9BAA6",
";X c #C5BDB2",
":X c #C9BFB2",
">X c #C4BDB9",
",X c #CFABB4",
"<X c #D295A0",
"1X c #CAC0AF",
"2X c #C6C0B4",
"3X c #CBC2B4",
"4X c #CCC5BA",
"5X c #CEC8BC",
"6X c #C6C2BA",
"7X c #D0C7BA",
"8X c #D2CABC",
"9X c #D2C6B6",
"0X c #D6CAB8",
"qX c #95ACC5",
"wX c #9AB3CA",
"eX c #94B0CC",
"rX c #A6B8C9",
"tX c #A5BCD5",
"yX c #B3BBC7",
"uX c #A7BFE0",
"iX c #D3BAC5",
"pX c #AAC4DA",
"aX c #B6C9D9",
"sX c #B8C5CE",
"dX c #B5CDE4",
"fX c #BAD4E7",
"gX c #ADCBE5",
"hX c #A9CBE0",
"jX c #CBC9C4",
"kX c #D4CCC2",
"lX c #D6CDC6",
"zX c #DAD2C5",
"xX c #DBD4CB",
"cX c #D6D2C9",
"vX c #C7CDD5",
"bX c #CBD3DB",
"nX c #D7D7D8",
"mX c #D6CBD5",
"MX c #E3D8CB",
"NX c #E3DCD4",
"BX c #E4C9D6",
"VX c #E8E3D9",
"CX c #C8D9E8",
"ZX c #D4DBE4",
"AX c #D7DCE6",
"SX c #C6DCF1",
"DX c #DBE3EC",
"FX c #D7E2EA",
"GX c #DAE8F4",
"HX c #CDE4F2",
"JX c #E3EBF4",
"KX c #E5ECF6",
"LX c #E9F3FA",
"PX c #E9ECF1",
"IX c #E4DBE5",
"UX c #BEC0B9",
/* pixels */
">X.X>XOX>X;X>X>XOXOX>XjXjXjXjX>XjXjX>X>X6X[.xX~.T.6.6.6.6.^.^.^.~.XXoX].XXoXUX*X*XjX5X5XOX|.OXkXUXXXUX6XXX6XoXUX2X2XoX2X6X6X6X6X6X6X6X2X4X.XXX>X;X&XoX>X;X>X&X;X2XXX2XXX.X2X3XXX2XXXXX2XoXXX2X1XUX%X2X2X2X2X%X XXXoX1X2XoX~.~.oXUX2X|.|.2X1X*XXXoXUX1X*XUX*XXX2X5X2X6XXX8X2X2XXX2XoX|.oXoXXXoX|.XX5XoXXX*X5X*X2XoX*X2X6XXXXX2XOX2XXX2X.XXX2X;XXX2XoXoXXX6XXX2XXXoX2XXX|.1XoX2X2XXXXX2X|.|.XX2XoXXXoX.X&X;X.X.X;X=X;X}.$X$X>X&X>X4X:X&X&X>X8X7X>X:X8XzX>X7X>X:X:X4X4X7X&X:X:X>X:X:X:X:X&X-X{.;X:X:X4X=X2X*X X2X9X1X1X3X3X1X2X2X*X*X2X1X%X1X3X3X=X1X X1X1X3X1X3X3X5X5X1X5X~.1X0XUX0X0X5X1X1X1X1X5X1X1X1X%X1X%X1X%XXX1X2XXX1XXX XE.*X=X|.&X:X;X:X>X:X&X2X*X*X=X&X&X XXX&XXX=X X%X1X*X&XoX X X&X=X.X&X&X;X=X&X=X.X&X1X*X2X1X=X3X1X&X*X X*X1X1X2X2XXX1XXX:X&X7X:X=X:X=X1X1X=X2X2X:X>X:X=X;X>X=X&X;X:X&X>X;X&X:X&X;X&X.X=X>X;X:X:X:X:X>X>X&X>X7X>X7X:X:X:X>X:X=X:X:X:X:X:X:X:X:X:X:X7X9X&X;X:X3X%X%X1X*XXX3X4X1X*X1X*X1X4X1X1X1X3X2X3X9X*X4X1X2X=X=X X=X3X X1X9X=X=X:X&X$X#XE.#X:X&X&X$X{.&X:X9X=X=X=X=X4X1X1X1X X%X%X%X%X2X*XXX1X2X%X1X%X1X1X X3X1X1X1X1X3X1XXX X1X2X1X&X*X*X4X1X*X*X&X1X*XXX=X*X3X1X*XoX1X*X1X4X&X&X&X.X&X&X&X:X:X&X=X[.{.{.&X&X1X2X%XoX&X&X;XkXiX:X.XD.D.&X=XR.L.P.E.&XP.E.@X#XR.E.Q.{.E.R.{.{.E.L.{.Q.E.$X=X X X X X[. X.X;X[.P.&X@X#X$X[.&X&X}.&X&XR.[.[.{.[.{.{.P..X X.XoXoXP.~.~.I.P.~.|.oXI.~.oX~.~.[.|.~.oXoX~.~.oX~.oX*XoXoX~.|.U.I.].~.].oXE.I.[.}.E.I.I.[.[.[.[.].[.}.P.[.}.oX[.[.|.}.I.I.|.[.}.[.}.P.[..XE.;XP.I.P.[.P.P.}.[.[.I.I.I.S.I.].oXI.}.P.I.P.S.[.P.F.F.P.S.I.[.}.P.I.[.P.U.S.E.[.F.I.P.P.F.P.c.S.C.z.P.S.P.D.P.C.F.P.].R.D.F.P.c.c.S.P.S.V.m.D.S.D.F.@XF.D.c.S.S.D.c.h.D.D.].P.P.F.I.F.I.P.I.F.L.I.].P.E.[.P.P.P.P.].P.F.P.P.P.",
"OX.X;X>X;X>X>XOXoXOX>XlXjXcXOXoXOX>XjX6XkX&X.XC.H.Y.^.6.6.6.2.6.J.~.[.XXXXjX5XUX6X5XjX6XUX6XoXUXOX2XoXjX6XXX2XOX2XUXOXjX6X6XUX6XXX6X2XXX6X&X>X5XoX.XOX4X4X2X6X&X2X2X.XXXXX2XoX6X2X2X2XoXoXXXoXXXXX XXX6X5X2XXXXXXXXXXXXX~.|.%XUXXX1X*XXXUX*X*XXXoX6X8XoX.XXX2X5X2X2X2XXX2X2X2X2X2X2XoXoXP.2X|.*X2XXXUX.X2X2XXXOX;XXX2X2XXXXX|.2X*X5X*XUXoXXXXX.X.X|.oXXX.XXX.X.XXXUXoX|.oX2X.XXXoX.X2X2XXXoX2X.X XoXXXXX8X;X;XXX:X&X>X&X&X;X.X;X}.:X;X&X:X:X:X:X.X,X7X7X:X7X>X:X=X>X:X>X:X>X:X:X:X:X:X;X>X&X&X&X=X4X*X=X2X1X3X*X3X3X2X1X%X4X1X1X3X%X=X5X3X8X3X4X1XXXXX1X1X4X3X3X1X0X1X1X~.5X~.1XzX0X1XXXUX%X5X1XUX~.1XUX%XUX1XUX1X1X*X1X1X1XE.~. X2X&X&X;X:X:X:X&X-X=X&X*X&X2X X X~.&X1XXX~.XX%XXX%X3X1XW.2X4X4X&X&X:X:X;X:X*X:X3X=X3XXX*X3X2X1X0X|.1X4X1X3X1X1X4X3X{.>X>X:X>X=X=X%X5X4X2X4X:X>X7X:X:X:X:X>X>X:X:X:X=X&X;X$X&X}.{.&X=X;X:X:X7X:X=X=X=X:X:X7X4X:X:X:X:X:X:X:X:X:X:X:X:X:X:XkXMXzX:X#X:X:X4X3X*X*X%X&X*X2X1X3X1X*X3XXX3X3X3X*X3X2X1X1X*X=X1X3XXXXX!.XX XXX&X*X:X=X:X:X{.$X=X$X#X$X#X$X&X=X=X=X=X=X=X=X1X1XoX1X1X*X1X1X%X1X1X1X1X%X2X1XXX%X X!.~.1X3X1X1X3X1X*X*X=X1X2X*X*X*X*XXX1X1X1X X*X2X*X3X%X*X1X2X1XXX X>X=X:X&X&X:X;X;X&X:X>X#X{.{.;X*X1X*X X X;X.X&XjXjX&X>XoXW.R.$XL.Y.|.&X XK.P.D.Z.D.&XE.,XY.R.E.#X,XD.{.R.{.&X=X.X&X X X X&X=X&X[.E.=XR.R.;X}.&X=X#X}.&XV.V.{.[.E.[.D.R.R. X.X|.~.~.oXoXoX~.oX~.|.~.oXI.[.[.[.I.[.%XoXXXoX~.P.~.XX*X|.|.~.~.I.I.~.|.|.}.[.}.|.I.P.I.E.}.|.P.P.|.[.}.E.oX[.].[.P.|.[.E.|.[.E.[.|.P.}.].[.OXE.U.I.I.F.[.I.E.P.E.].P.P.[.I.I.P.P.P.D.P.F.K.I.P.L.F.P.}.E.I.E.F.I.U.P.P.U.P.S.C.n.S.P.[.c.z.m.m.S.F.F.S.].[.>X{.F.V.F.S.D.S.G.S.j.z.m.k.G.V.F.D.D.P.D.D.S.F.V.S.m.R.].S.S.c.S.P.L.E.F.E.P.S.I.I.I.}.I.S.K.P.I.I.F.D.R.F.K.",
"OXOX;X}.>X>X>X>XOX;X>X>X>X6X>XOX6X6XOXOXjXoXkXR.B.J.6.3.5.#X6.6.~.~.[.XXUX*X5X6X~.UX5X5XoX}.OXoXoX6X6X5XXX].oX6XOX5XOX2X4X6X6X6XOXoX2XOXXX6X;X;XkX;X2X;X.XoX2X&X*XUXoXoXoX2XoX4X|..X|.XXXX~.oXoXXXXX~.oXXX1X2X1XoX1X2XoXoX~.XX2X*XoXXXoX|.oXoXXX XXXXXoXoX6X*X5X1X2X2XoXkX~.2XUX2X3X*X|.XXXXXXOXXX2X2X2XoX2X2XXX;XoX|.oX.XXXXXoXoX2XXXXX2X3XXXoXXX|.|.[.2XoX6XXX.XXX1XXXoX2X*XXXoXXXXXUX2X2XOXXXXX2X*XXX>X8X;X&X:X>X7X:X>X&X;X4XkX:X}.:X:X:X:X>X>X&X>XkX4X>X=X,X,X>X>X:X:X:X&X7X=X4X>X,X4X:X.X=X3X9X4X&X*X&X3X9X*X3X3X1X=X*X*X4X3X3X2X X*X*X*X3X3XXX*X4X1XXX3X5X5X5X0X5X5X5X~.UX5X5X1XUX1X%X1X1X1XUX%X%X~.~.1X1X XXXXX1X1X*X~. X1X4XE.&X&X=X7X:X;X&X:X&XE. X%X~.E.R. X8X X4XE.=X~.E. X=X=X=X=X&X;X7X&X:X*X&X&X=X%X*X&X1X X8X1X3X3X*X X3X4X1X4X*X2X7X7X4X4X&X4X=X%X3X3X2X9X>X4X:X6X7XkX:X8X7X:X:X>X=X>X0X=X&X:X=X;X&X&X=X7X;X:X:X:X:X:X:X4X9X9X:XkX:X:X:X7X:XiX4XkX9X:X:X:X:XzXlX:X&X:X&X1X3X*X XXX*X*X1X2X X1X*XXX=X*X*X3X*X1X*X=X XXX2X*X&X XXX~. X2X X$X$X$X&X&X&X&X=X{.&X#X$X&X{.-X#X=X=X=X=XXX9X1X*X1X1X1X1X1X%X3X1X%X~.1X%X9X~.~.~.%X!.~.XX~.~.%X1X3X3XXX%X1X&X=X X1X1X&X3X*X*X*X1X*X=X2X*X*X*X1X*X;X&X=X=X:X:X.X=X&X&X&X}.&X&X&X&X1X1X3XXXR..X X&X:XcXBX7X;X&XT.~.P.Y.!.~.C.C.L.B.C.Z.E.Q.W.R.E.E.Y.R.$X~.{.W.W.{.|. X&XE.&X[..X X$X[.[.&XD.{.&X&X&X&X}.&X&XV.].R.D.&X{.[.[.|.*X|.oX X1XoXoXXXoX~.~.~.|.I.~.oXP.~.I.~.oXoXoX|.~.~.oXoXoXoX[.|.I.I.|.].].I.}.[.I.E.oX[.I.P.[.[.|.P.}.E.[.[.|.E.[.[.I.[.].I.[.}.{.[.[.I.[.P.E.oXI.S.I.I.F.P.P.I.I.F.P.F.P.P.L.P.[.].P.P.F.D.F.U.P.K.F.I.[.[.U.P.L.I.S.S.F.P.P.I.F.S.P.P.I.S.$.c.j.n.V.c.c.P.S.}.S.D.S.D.@XE.S.c.F.S.c.j.c.j.c.z.S.c.S.S.S.S.F.S.S.l.l.l.h.j.c.C.h.c.v.S.F.F.L.F.P.P.].I.S.P.I.I.P.I.P.U.S.L.",
"}.}.OX;X>XOXOXOX].>X>XjX>XOX>XoX6X>X>X;X;X>.MXP.B.J.T.J.6.#X#X#X~.oXXX6X4X6XUX*XXX6XOXUX6XXXOX[.6XjX|.oX6XjX4X6XUX5XjX6X6X6X4XOXUX2XoX6X;X}..XoX>X2X5X;X.XXX}..X*X2XXXoXoXXXoXXX[..X*X2X*X2X2X~.~.~.~.oXoXXXoXoXXX~.2X%XUXoXUXXX2XXX1XUX*XXXXXoXoXoX|.XXoX*X2X6XXXXX2XoX6X|.XX5X.XXX|.|.XXoX2X2X2X;XXX.X*XXX.X2XoX;X;X2XXX2X5XXXXX2X.XXXXX}.oX|..XoX*XoXXX6X*X1X2X2X2X2XoX2X.X2X2XXXXXXX4X2X4XXX2X5X2X;X:X2X>X>X:X&X>X6X&X&X,X&X:X>X:X;X>X&X:X7X=X;X:X:X4X4X:X>X&X:X:X7XlXkX:X>X>XE.:X:X&X;X&X X*X:X1X=X=X%X8X2X1X1X3X3X1X*X2X1X1X8X*X3X*X*X1X1X1X=X*X3X2X2X%X1X1X1X%XUX1X1XXX1X0X1X1X~.~.UX%X~.~.1X1X1X~.1X~.~.1X1XoX%X*X XP. X*X=X X.X}.&X=X:X&X&X=X X XE.*X X X X X*X X*X X X1XE.XX X>X7X:X4X:X7X7X;X=X*X4X*X3X3XXX1X1X4X3X9X1X%X1X3X9X3X3X1X*X:X4X4X7X>X:X=X~.0X X=X8X7X=X:X:X,XkXkX7XiXkX>X,X7X>X3X>X;X&X;X=X:X7X4X:X&X&X;X:X:X:X:X9X>X7X4X7XkX:XzXkX9X:X4XzX:XlX7XkX:XBX0X&X&X.X&X&X%XXXXX&X=X%XXX*X1X&XXX*X1X X3X1X=X X*X1X X1X1XXX1X=X1X1X X~.&X&X{.&X$X#X-X&X&X$X#X$XE.$X$X=X:X%X&X%X=X X%X1X1XXX1X1X*X%X%X3X1XXX1X%X~.~.1X~. X X1X X~. X~. XXX3XXX%X*X X=XXXXX*X&X1X*X&X%XoX&X*X=X2X X1X*XXX&X*X&X XoX;X;X&X&X{.&X;X$X>X:X&X X X&X1X X~. X=X;X;X7XlXkX{..XE.E.~.#X~.oX&XR.P.[.D.D.R.Z.&XY.Y.Z.D.R.W. XW.{.{.{.E.&X XR. X{.{..X;X;X=X&X[.D.[.#X&X&X&X#X{.{.&X;XR.{.&X.X X X X|. XoX|.|.~.P.~.oXoXUXoX~.|.~.~.XX~.|.|.XXoX|.|.[.|.~.oXUX[.P.I.I.[.|.I.|.oXoXI.}.}.|.}.P.P.}.[.[.|.|.[.|.oXP.}.[.[.].E.I.P.}.}.[.E.].E.I.}.[.F.U.P.R.F.I.F.S.P.S.I.I.I.P.F.P.P.P.P.I.c.P.I.[.E.I.C.S.].K.K.P.S.S.C.I.I.S.I.I.S.S.[.E.P.F.c.,.k.C.S.j.f.S.V.j.c.h.c.F.D.R.S.C.@XD.S.h.F.c.z.S.S.R.F.P.G.F.F.D.G.S.S.D.F.h.S.S.F.z.S.U.E.P.S.C.F.I.P.P.S.P.P.U.S.P.P.I.I.P.",
">X}.}.>X&X>X>X>X}.OX>XOXjXOXOXOX>XOXOX>XjX$.VXZ.J.6.T.T.#XQ.^.^.2X2X*XcX4X6XXX;X6X6XUX2X;X2X6X2X4XOXXXOXOX6XkX6XkX5X6X5X5X6X6X;XOX2XOX6XXXoXXXoX2X2X4X5X6X2XC.}.2X|.oX.XXXoX|.2XoX6XoX1XXX2XoXI.~.oX~.oXXXoXoXXXXXXXXX5XUXXX5XUX*XXXoXUX2XXXXXXX XXXoXoX|.UXoXXX4X2X|.2X5X.XXX5XXX*X|.|.2X2X;XXX2XOX;X&X.X.XXX6X2X;XXXXX&X6X6X;XoX2XXXXX|.XXXXXX.XXXXX8X2X5X*XUX6XUXXXXX*XXXoX4X3X2X2X*X2XXX2XXXXX=X2X:X:X;X2X=X:X7XkX&X>X&X&XOX,X2X>X7X=X>X>X:X:X7X>X:X4X>X=X:X&X&X=X:X4X4X8X:X:X:X:X>X&X:X4X4X=X4X2X2X2X&X=X*X1X X%XXXXX2X X5X X9X3X4X=XXX1XXX1X1X1X1X1X0X2X5X1XUX1X1XUX%XoX1X5X0XUX~.%X~.1X1X~.UXXXXXUX~.1X~.oX X%XoX XXXb. XXX%X%X X;X4X>X9X;X:X*X*XoX X*X&X X&X.X1X&X X&X{.2X X=X X4X2X8X:X:X:X4X:X=X3X0X2X*X*X1X3X*X1X=X4X1X.X*XXX8X3X9X1X=X=X>X:X7X>X8X9X~.*X1X4X7X=X:X;X7XkX>X7X:X:X:X:X>X7X7X:X:X:X&X&X&X7X7X4X>X&X=X*X:XzX0X7XlX7X7XlX7X7X7XlX:X7X:X8X7X:XkX:X8X:XMX8X{.>X&X XW. X*X1X1X!.$X X=X&X=XXX1X3X X1X*X*X1X%XXX&X*X*X&X&XoX1X&X%X*X*X=XE.#X{.$X&X&X-X&XW.$XW.#XE.$X$X{.&X$X*X%X~.1X1X%XXX!. X1X~.1X~.XX%X%X X1X~. X!.1X X~.~.!.=X1X XXX*X~.XX%XXX XE.&X X~. XXX%X2X X*X3XXX%X X X3X1X=X.X[.:X4X*X&X&X.X XoX*X9X:X&X4X X X X X X.X=X.X&X:XBX>X.X|.E.V.~.!.T.E.&X[.[.V.R.D.N.@XP.{.Y.R.N.D.R.Y.R.{.Y.D.{.{.{.;XW.{.&XR.>X:X&X&X{.D.D.@XF.[.[.[.R.R.[.{.K.|.P.~.E.*X XR.oXE.oX~.~.|.~. XoXXXoXoXXXoXoXoXoX X|.~.oX XoXXX|.~.XX~.|.I.[.I.I.I.P.oX}.[.[.|.E.oX}.E.P.I.I.[.}.R.}.[.}.[.}.P.].E.].I.[.[.P.}.R.].].I.I.oXP.I.P.[.I.P.c.F.L.U.F.I.U.F.U.I.P.I.P.R.P.c.[.}.[.[.P.h.P.I.K.U.K.S.P.P.I.}.I.I.I.C.c.F.D.x.f.c.S.c.h.l.l.>.S.k.S.h.k.F.D.F.D.].R.D.G.c.>.S.k.c.c.S.c.D.S.D.S.V.@X}.S.c.V.k.S.S.h.S.S.F.P.S.S.S.K.U.[.[.].R.P.E.S.I.F.L.[.[.",
"}.}.OX&X>X;X;XOX}.OXOX>XjXOX}.}.OX.X}.oX4Xc.MXR.J.J.J.~.#XQ.~.^.J.XX6X6XUXoX|.OXXXUX6XcX6XOX6X5XOXoX2XOXXXUXXXUX6X6X6XOX6X6X>XOXoXXX|.[.|.[.2X|.;X2XOX|.oX}.|.&XUXI.~.[.[.|.|.oXXXXX6X*XXXI.*X*X~.~.oX2X1X5X~.XXI.oX1XUX%X2X X2XXX6X*X1X4X2X2X|.~.XXoX|.|.*XoX2X2X2X2X6XkXXX.XOXoX6XoXI.oX.X8X3X*X;XXXXXXXXX2X2X2X.XXXoXoX&X;X.X.X2XXX*XXX;X&X;XXXXX5XlX5X2XXX2X5X*X4XoX.XXXoX2X4X2XXX2X6X2XXX2X.X=X>X>X4X:X6XXX>X7X:X,X:X:X}.&X:X;X;X7X7X:X7X:X>X:X7X:X$X&X&X&X&X>X;X>X;X=X7X>X>X&X;X&X&X:X&X=X=X*X%X1X*X1X1X*X1X3X3X9X1X1X1X5X2X1X%X1X1X=X&X3X2XUX1XXXXX3X0X%X5X1X1X1X~.1X5X%X1XzX1X%X~.1XUX1X1X~.~.1X1X%XXX~.1X2X%X1X%XoX~. X1X4X4X;X=X:X:X7X=X=X*X=X%X XXX*X&X&X*X X&X X&X$X=X X X*X=X7X8X4X4X4X:XzX2X3X3X8X3X=X3X5X5X*X1X8X3X8X=X4X0X8X8X4X>X:X:X7X7XkX9X4X%X1X1X2X:X4X4X;X:X7X7X=X=X;X:X:X:X:X7X8X7X7X=XR.[.P.&X4X=X.X&X4X:XkXzXlX=X7X7X9X7X&X;X7X:X7XkX7XkX7X7X8XzX:XNXzX&X:X&X X=X*X X&X2XXX XXX&X X1XXX=X XXX XXX*X*XXXoX1X*X X~.%XE.*X X&X&X:X:X{.#X{.W.{.W.{.=X*XW.T.Q.E.W.{.{.#X9X%X1X1X X!.%X1X~.1X~.~.~.1XXX1X1X1X~.~.~.~. X!. XT.%X1X=X2X$X%X X%XE.&X X%X X*X&X~. XXX%X3XoX%X*X1X&X%XXX&X X&X*X X1X2X*X X X*X%X1X:X&XW.E.W.~.E. X&X$X[.;X>XkXzXzX*XP. XR.Y.P.E.~.{.E.E.R.P.L.R.Z.Z.Q.R.R.j.Y.Y.D.E.Q.D.V.{.W.{.#X&X&X.X{.=X&X&X&X[.[.#X[.{.$X{.{. X|.L.R.B.R.E.P.C.K.R.P.P.|. X|.oX|.~.oXXX*XXX~.3X*X1XoX X|.|.XX~.oX~.~.~.I.XXoXoXI.I.|.I.P.K.P.I.}.[.[.|.}.I.P.I.P.I.I.|.].}.E.[.E.|.}.}.E.P.].[. XS.P.I.[.I.I.I.oXP.C.P.P.P.F.K.c.U.P.E.[.P.L.P.P.P.L.[.}.P.F.}.[.I.[.F.I.S.L.L.S.P.S.n.L.P.P.P.P.P.F.E.I.h.h.V.z.>.h.j.F.F.V.S.S.V.h.z.D.].D.E.[.S.S.l.z.h.S.c.G.m.S.D.F.S.S.F.[.Z.F.D.S.x.h.k.S.F.S.h.h.c.S.S.c.P.E.[.[.P.P.F.U.U.P.P.[.[.U.",
"&XOXOXOX.X.XOX>XoXOX>X6XjX>X}..XOXOX}..X4Xc.8X XL.T.b.oX1X1XQ.T.T.~.OX2X.XXXoXjX6X6XUXkXjX6XjXUXUXjX6X6X2XOX2X6X;X6X2X2X2X6X;X>X].2XXXoX.XoXoXXX;X.X*X.XoXI.[.XX.X*X|.~.XX~.2XoXoXoX[.oXXX2X2XoXUXoX1X2XXXoXoXoXoX~.XX2XXXoXXXXXoX*XoXoXoXoXXXoXoXXXUX5X*X|.|. XXX2X*X8XkX|.*X2X|..XoX~.|.|.XXXX;XoX.XXXoXXXoX.X;XoX.X4X;X.X;X;XXX2XXX.XXXoX2X4X2XXX2XkX2XXX2X2X1XXX2X6XXX.X6X5X5X2X2X2XUX2X4X2XoX>X&X2X;X.X>X2X;X>X>X&X;X;X&X;X>X:X7X>X>X:X:XiX:X7X7X&X;XoX[.&X>X:X&X:X:X&X*X2X&X=X.X&X$X&X:X3X4X1X*X3X1X*X X*XXXXX9X3X1X1X1X1X1X&X3X=X3X1X2X&X1X1X1X1X2X1X1X5X0X1X1X5X1X1X%X%X1X5X%X%XUX~.1X1X~.~.XX%X1XXXXX1X3X%X1X1X2XXXI.1X1X*X4X*X;X=X;X4X4X X X:X2X2X4X%X{.=X=X&X=X|.&X{.2XE.3X X=XlX4X&X9X XR.*X1X9X0X2X9X4X5X1X1X3X1X*X*X0X3X*X9X9X9X0X=X>X7X:X>X;X:X9X3X=X&X9X7X:X=X4X>X:X8X:X:X7X:X:X:X:X:X:X7X7X;X;X=X&X:X=X:X2X*X*X7X8X:X8X7X4X9X8X4X:X=X=X=X4X:X:X7X:X:X7X:X=XzX8X&X&X&X&X&X&X X%X~.%X*XXX*X!.XX$XXX=X X2X=X*X1X2X%X X=X X X&X=X X=X&X&X&XE.,X$X&X&X%X$X=X%X$X%X$X#X&X-X#X%X-X=X*X1X1X1XXX~.XX X1X1XXX~.%X%X3XXX X1X~. X X1X1X X X~.*X*X2X*X1X X*X~.&X%X~. X&XXX%X*X%XXX1X%X*X X X&X%X&XE.E. X%X X X&X X%X&X=XXX1X*X&X{.&X=X&X&X=X X*X X=X;XlXMXBX|. X~.H.Y.T.E.XXR.E.D.D.L.Z.P.R.G. X$XR.R.&XD.D.T.D.D.S.R.[.[.{.&X*X&X&X&X.X X.XP.{.[.$X{.[.}.$X=XE.2.K.E.[.P.K.C.l.C.P.~.oX|. XoX|.~.oXoX XoXXXoX&X*XoXoXoXE.|.oXoX~.~.I.~.~.oX|.oXI.I.I.K.P.I.P.E.I.[.oX}.[.}.I.[.[.I.R.I.I.}.L.P.P.E.[.|.|.oX].].I.[.I.I.[.P.P.oXP.F.P.U.P.L.S.S.S.I.P.[.P.I.].[.I.F.I.K.I.P.E.[.I.}.F.L.S.P.I.].I.P.F.C.S.P.S.U.P.n.P.F.z.$.$.$.V.c.f.l.j.l.c.f.S.S.S.c.D.@X@XV.D.V.k.>.>.k.S.S.S.V.@XR.V.c.S.S.S.V.S.R.c.j.h.j.S.f.S.S.P.P.F.C.F.I.].I.P.[.[.U.E.I.P.S.I.I.",
"}.>X>XOXOX>X>X;X[.}.>X>X6X>XoXOX>X}.OX}.>X#.kX XK.K.P.~.~.%X~.T.~.H.6X6X6XOX}.kXjXjXXXUXcXcX>X2XUXOX2X5XUXOXOXXX>X6X6X>X2X>X}.&X6X}.oX6X[.XX&XI.2XoXK.I.oXP.|.XXI.I.K.P.XXUX[.XXXX*XXXXXoX*XoX5XXXXX*XoXXX2X1X~. X XoXXXXXXXXX XoXXXUX2X5X4X4XXX[..X*X6XXXXX*X4X5XUX*XxXzXK.I.1XXX XXXXX XXXoX2X;X|. X2XoX2XXX2X.X;X;X&X.X;X&X&XXX;X2XXX2X2XXX4X2XXX;X2X*XoX|.XX6X*X2X.X2XoXXX5X4X2X2XXX1X2X2X2X*X8X2X:X>X=X4X4X&X;X&X$X:X>X;X&X:X7X>X#X:X7X=X:X>X=X>X.X;X;X,X&X&X&X:X>X:X=X X3X$X=X X&X&X&X&X*XXX1X1X2X3X*X X X1X2X X|.1X4X1X3X1X8X8X2XXX%X=X*XXX%XXX1X2X1X1XXX1XUXXX~.1X~.UX1X5XzXUX%X1X~.UX~.oX1X%X1XXX1XoX%X4X1X%XXX1X~.~.1X*X*X=X&X7X4X:X:X7X;X&X X3X&X*X&X.X=X6X{.&X X{.{.&X|. X&X&X2X3X=X&X4X*X4X2X3X3X=XXX1X=X1X4X1X X*XXX3X0X*X3X3X4X8X:X8X4X>X9X:X$X4X2X%X*X=X:X4X4X9X:X&X:X:X:X>X:X8X7X8X4X=X4X7X=X:X2X=X|.&X8X=X1X*X:X:X0X&X=X9X:X:X1X4X=X=X8XMX8X9X:X&X=X:X:X&XMXkX{.&X&X&X*X*X*X&XXX*X*X1X*X9XXX X X X1X=X4XXX*X1X*X2X*X X2X2X3X%XoX1X=X9X4X:X=X&X=X%X=X!.$X$XW.W.{.W.Y.=XW.&X9X=X1X X X1X1X1X1X9X2X%X9X1X1X1X%X XXX X1X1X~.~.~.%XXX1X%X*X*X XXX1X1XXX&XXX%X4XXX=X=XXX%X&X=X*XXX1X1X2X*X X*XXX%X*X%XoX~.XX X*X2X1X=X X X%X X XW.W. XW. X&X X8XMXxXzX~.~.I.T.I.E.|.D.j.[.V.R.L.H.R. X&X#XD.Y.H.R.R.{.E.W.R.E.7X[.[..X X X&X=X.X&X[.P.{.$X{.[.R.[.&X|.P.[.&X[.|.[.Z.h.c.P. X.X X|.I.[.~.oXoX%X XoX%XoX X|.XX~.~. XXXXX~.U.oXUX~.OX[.oX|.I.I.I.P.|.oX[.[.}.I.|.[.[.[.I.[.].I.I.[.F.I.oX[.].[.oX.XR.}.R.E.].].P.P.I.P.}..X[.D.I.S.F.I.K.v.C.F.F.L.F.I.L.P.I.P.|.I.P.P.P.|.oX|.P.P.F.P.P.I.F.E.S.F.K.I.L.P.I.L.P.F.,.h.>.h.l.S.j.h.x.S.S.j.c.c.G.c.D.R.].D.].D.F.h.j.D.S.S.c.V.C.@XV.S.S.V.V.D.D.@XF.c.h.1.F.z.z.F.S.c.P.F.L.].P.S.K.I.R.S.F.S.D.m.P.I.",
">X>XOX>X>XOX>X,XOXOXOX>X>X>X}.OX>XOX>X.X;X>.kX=XoXXX[.|. X*X3X!.~.^.oX2X5XUXOX>X>X}.OXOXjX6X6X5XXXOX2XOX2XoXOX>X;X6X6X6X>X4X>X&XUX*XoXUXXXXXXX2XXX2X*XUXXXoX[.oX|.K.XX~.|.|..X|.UXXX1XUX~.oXXX|.XX1XoXoX~.XXUX1XXX1XoXXXUX~.oXP..XXX2XXXoX2X*XXXXXXXXXXXoXXXXX5X2XXX6XkXkXI.P.%X XoX|..X&X}..X&XXX;X&X.X=X;X7X7X&X>X2X&X&X;X;X:X6X.X;XXX2X&X&X*X4X2X;X;X&X2X;XOX;XXX;XoX2XXX3X2X*XXXXX*XXX;XXX;X2XXX5X.X:X;X&X=X;X>X;X&X=X}..X&X>X:X&X=X;X4X:X;X&X:X:X:X;X:X&X#X1X&X*X1X%X2X*X&X&X X%X XXX&XXXXX1X*X=X*X9XoX%X*X2X0XXX1X*X3X X1X X1X2X1X~.1XXX2X%XXXXXXX1X3X3X1X1X1XXXoX%X~.%X~.5XzX2XXX1XoXoX1X1X%X1XUX~.UX1X1X%X~.5X1X1X~.~.%X=X&X:X7X7X7X>X:X:X7X{.:X&X7X{.&X=X&X4X=X.X&X[.{.$X{.&X&X7X:X:X7X{.:X:X7X9X8X8X3X1X3X3X=X*X2X X1X1X1X3X%XXX&X4X3X8X:X>X&X=X7X#X:X1X X X1X1X*X*X2X=X4X4X=X3X8X3X*X7X7X7X&X1X1X*X3X9X3X1X4X1X2X=X4X1X3X3X1X3X3X0X4X3X3X1X%X4X8X9X1X1X3X3X2X2X3XxXkXXX XXX1X1X%X1X*X X X1X*X*X;X1X&X%X3X1X2X1X*X=X1X*X=X1X X1X1X1X2X1X*X3X0X0X=X4X=X:X%X%X#X$X-X-X!.!.%XY.$X$X%X1X%X1XXX%X X XXX%X*XXX%X1X3X X9X1X%X X%X1X1X1X!. X1X1X*XXX1XXX1X3X*X3X*X2X%XXXXX*XXX3X3X%XXX%X3X1X%X1X XXX X1XXX1X~.1X X X X1X*X!. X X XW.R.E.E.$XW.Y. XE.E.[.jXNXVX9XW.R.Z.P.T.T.T.{.C..XC.V.B.C.L.E.Y.E.W.Q.D.Y.R.{.E.R.$X$X&X}.$X&X{.&X;X{.=X.XE.D.{.{.[.[.j.j.[.R.v.P. X|.P.K.c.l.l.~.XX|.XXL.P.L.[.oXI.|. XE.&X XP.E.|..X XXXoXI.I.I.|.I. X|.|.oX|.[.[.[.U.[.[.[.}.}.|.|.E.{.}.[.].oXI.P.}.P.c.}.oX}.|.[.}.E.E.}.[.}.[.}.P.E.[.I..XI.I.[.P.P.I.[.[.P.S.S.E.I.P.E.I.I.E.oX}.F.P.[.[.oX].I.[.P.I.P.F.S.S.P.P.S.I.[.S.P.S.S.S.P.c.k.l.c.S.l.n.z.c.S.c.V.D.&XD.R.F.D.@XP.R.R.j.c.F.S.S.V.l.V.x.V.V.c.G.c.S.S.D.m.F.C.,.l.c.S.P.S.P.S.S.I.P.I.F.I.D.].P.S.P.[.I.P.F.",
"}.&XOXiX>XOX}.>XoXOX>X;XOX}.}.,X}.>X.X;X>X>.8X>X*XoX|.{.4X8X1X~.%X~.~.T.~.UX>XXXOX}.cXcX6X6XOX6X2X6X6XoX>XoXoX>XoX}.4X;X4X4X>X>X2XXXXX*X~.P.I.*XoXXX~. X1X1XoXXX2XoX|.I.|..XoX.X|.*XoXXXoXoXXXoX~.XXXX5XXXoXXXXXoXXX2X2X1XXXXXoXXX XoXXXoXoXoX.XoXoX*XXXkXXXUX*X2X.XXX2X8XP.XXoX2X X{.R..X4X&X=X;X2X2X>X>X9X>X&XoX&X;X;X;X;X>X;X:X;XXX&X;X>X&X&XXX3X=X2X>X&X5X*XXX;X2X2X2X.X2XXX2X2X6X2XXX2X2XXX2X4X6X4X:X>X.X>X;X:X;X=X2X:X;X&X7X7X>X>X&X;X=X:X=X:X:X:X&X&X;X{. XXXXX X*X X*X~.*X X XoX%X%X%X%X1X2XXX*X2X*X1X*XXX1XXX1X*X1X*X2X3XXX%X1X1XXX1X1X2X1X1X1X2XXX1X*X%X1X1XXXUX1XUX1X0XzX%X%X1X%X1XoXUX%X1X1XXX1X~.1XXX1X1XUXXX~.%XXX4X$X:X7X7X:X=X:X&X;X&X=X&XP.>X&X&X>X X&X7X4X;X;X>XjX&X$X:X:X[.;X&X&X&X:X8X*X*X*XXX=XXX1X=X9X=X4XXX4X3X1X X1X1X5X:X:X;X.X;X>X>X:X9X1X XXXXX*X1XXX*X1X1X8X1X4X8X4X:X9X9X4X*X1XXX3X8X8X3X3X2X1X=X8X3X2X9X~.3X9X3X8X8X=X*X3X3X8X1X3X3X3X8X1X=X=XMX9X&X%X X XoX2XXX*X4X=X2X*X1X1X*X4X&X*X9X3X XXXXX1X&X1X2XXXXX=X2X*X%X*X%X9X4X9X=X$X&X,X$XW.#XE.Y.Q.!.Q.!.#X=X=X1X9X1X1X1X X~.1X1X1X%X1X%X9X1X3X%X%X X~. X1X1X XXX X X1XXX1X$X%X1X*X&X~.=X*XXX%X&X=X*X1X9X*X4X3X*X*XXX*X*X$X X X X1X1X!.1X X~.XX X1X=XW.R.$XY.E.$XW.E.W.~. X X&XzX0XE.K. X~.P. XY.E.R.V.D.C.S.R.{.W.4XY.=XE.P.Y.{.$X$XD.@X$X{.[.&X&X&X;X{.{.{.[..X&X{.E.R.c.G.C.P..XE.K.b.L.E.Z.b.1.v.L.~.oXoXI.J.K.L.|. X|. X*XoX[.|.|.~.P.E.|.E..XI.~.I.oXI.|.|.oXoXoX[.oX[.|.I.I.].[.|..X}.[.[.|.}.I.oX[.P.|.}.&XE.[.}.oX|.|.[.oX}.E.[.[.oXI.].I.]..XI.P.P.K.I.P.F.P.c.S.S.P.}.I.}.I.].[.[.I.P.S..X}.&XI.[.}.R.[.P.S.S.K.S.P.K.U.F.S.K.P.F.S.I.F.c.l.h.c.z.z.F.S.S.j.m.P.F.k.S.D.F.S.C.@XD.F.S.S.S.S.S.c.V.S.S.S.F.S.S.P.F.D.D.c.z.x.c.D.I.I.P.S.C.S.F.P.P.[.I.P.P.P.I.P.].[.I.L.",
".X&X;X>X>X}.>X>XOX}.>X>X>X}.}.}.;XiXjX;X;X$.xX;X~.|.oX2XXX2X8XXXJ.L.T.~.~.|.XX2X>XOX6XlXOX6XUX5XoXXXUXOX|.>XXX}.>X}.oXOX>X;X>X.X|.oXoX~.I.L.|.XXXXoXoXI.XXoX2XE.U.l.[.XX[.oX2XI.XX2X1XXX2X2X~.~.oX~.1X~.I.XXoXoX~.oX1XXXXX2X2XoXoX2XUXXXoX[.P.|.oX|.I.[.XX2X1XUX2X2X2X2X5XoXXX*X.X|.L.P.{..X}.}..X&X;X4X>X>X;X&X:X&X>X:X7X:X:X>X;X4X;X&X;X;X>X4X;X;X;X>X2XXX*XOX&X2X&X>X.X2X.X2X5XOX2X.X2X2X4X2X2X;X&X4X4X7X4X:XlX8X;XXX>X=X4X7X=X,X&X:X;X:X>X=X&X&X&X}.&X X$X&X~.%X XXX X X=X X*XXX X XXX%X X*X%X&X X%X1X1X1X1X%X*X%X3XXX1X2X%X1XXX%XXX1X1X~.2X1X2X1X2X1X5X1XXXUX5X1X1X1X~.oX1X~.5X5X*XoX%X1X1X1X1X~.1X1X1X1X~.0X2X1X%XXX*X5X1X:X&X:X:X7XkX>X-X:X;X{.:X;X&X&X:X&X.X{.6X;X&X&X&X$X}.7X:X&X{.E.&X{.{.;X7X*X1X3X8X3X1X*X1X3X2X1X4X1X1X4X3X%X X1X3X:XkX:X.X&X:X$X=X3X1X%X1X1X3X1X1X8X3X3X4X1X2X1X1X2X2X9X9X4X*X1X4X3X*X1X0X3X2X=X9X3X1X1X X1X%X4X1X9X%X!.%X*X*X2X1X1X1X3X9X&X>X:X&X;X:X1XXX1X1X1X*X3X1X1X3X2X1X*X1X3X*X=X3X4X9X&X*XXX1X*X*XXX*X1X1X2X*X*X3X:X:X9X{.$X=X{.#X=X=X$X$X!.#X!.1X1X=X=X1X1X1X1X1X*X1X*X=X1XXX1X~.~.1X1X1X1X3X1XoX1X1X X1X$X1X1X1X3X1XXX*X*X*XXX X%X1X%X2X3X*XXX=X3X1XXX3X8X8X4X=XXX%X1X1X1X X1X!.~.1X1X X XE.%X%XW.E.$XR.R.!. X X$XkXkX7X{.E. X XE.E.~.K.E.L.D.P.{.$XW.L.,XR.&XE.D.{.{.#X{.R.L.{.$X{.#X}.{.{..X{..X.X$X,X{.D.D.D.S.R.E.D.K.V.1.b.S.K.P.C.K.E.I.~.~.K.I.K.P.I.P.~.[.oXXXXX XoXE.[.*X X X&XoX~.~.|. X~.XX|.I.I.].[.}.[.n.K.E.[.|.}.[.}.[.|.[.S.I.[.E.}..X}.[.oX[.[.|.}..XoX[.|.}.|.[.I.[.P.}..X[.P.F.S.S.n.F.P.P.P.I.I.I.I.I.I.E.[.I.P.D.P.[.}.E.oX}.E.I.I.F.L.S.c.I.[.I.L.S.U.P.P.P.I.S.S.F.j.C.c.S.n.c.c.S.S.D.S.F.c.c.S.F.z.D.F.D.S.c.S.c.h.G.S.F.V.S.S.S.F.R.].P.[.P.I.].F.m.P.P.P.F.F.P.c.F.P.[.I.P.F.I.F.L.P.P.F.S.F.",
"}.>X}.OX>X;X}.&XOX;X.X>X;X;X>X}.}.OX;X.X&X+.xX.XXXXX|.2X2X1X9X~.~.~.~.~.~.~.2X.X6XjXjX6XjXlXjXkX6X6XOX.X|.OXOX|.>X;X;X;X>X>X;XoXoXXXoXoXoX~.oXXX1XoX1XI.~.oXI.~.|.[.oX2XUX~..XI.XX2X6X[.*XoXoXI.~.oXoXoX1X~.~.XXoXXX1XoXoXoXXXoX2XoX|.*XoX|..X.X|.|.XXXX|.XX2XXX*X2XoX2XkXXX2X1X*X{.E.}.{..X&X;X&X;X.X;X;X.X;X:X;X4X2X2X>X;X;X&X;X&X;X>X&X&X&X6X;X2X2X;X;X2X*X2X2X>X2X;X2X2X2X6XoX2XXXoX;X6X*X;X;X2X2X2X>X7X:X>X3X>X6X;X>X;X;X.X[.;X[.&X&X}.{..X[.=X&X&X=X%XE.W.~.!.%XXX&XXX X XXX%X X*X X%X=XXX1X&X*X*XXX1XXX~. X X1XXX%X%XXX*X1X%XXXXX~.XX%X2X X1X1X2X1X1X1XXX1X5X1X~.%X1X1X2X2XMXzX5X*X1XXX2X5XUX1X5X1XUX~.%X2X1X1X1X1XXX*X1X*X3X7X7X:X:X:X=X&X7X4X4X:X=X7X:X=X.X{.=X7X7X&X&X&X#X=X&X>XR.W.}.}.:X&X:X*X X=X9X4X3X*X3X3X1X3X1XzX1X3X1X=X2X1X9XkX:X,X&X;X&X4X4X1XXX*X1X1X*X2X3X3X*X*X=X3X=X*X1X3X=X*X:X1X%X4X1X1X1X4X1X1X%X2X3X9X1X X1X%X X0X3X8X3X X1X=X&X*X9X9X4XXX8X2X=X8X4X&X=XXX~.3XoX1X3X*X3X1X*X9X2X*X1X3X1X*X1X1X1X4X3X2X=X1X X X X1X4X&X*X3X3X=X=X,X$X[.#X-XW.Q.#X-X^.!.$X-X=X1X1X=X&X X1X1X~.=X1X%X1X1X X1X1X1X X1X1X1X3X1X1X%X1X1X1X1X9X XXX4X4X1X1X X%X%X*X3X3X&X1X2X1XXX=X2X1X*X1X3X3X1X=X X1X X~.~. X X X1X1X1X2XXXY.L.$X$XW.R.W.R.W.!. X&X7XzXkX.X XR.E.E.~.E.P.C.W.I.G.{.{.$X@X X$XQ.{.W.{.E.R.D.{.#X{.[.{.}.$X&X}.{.{.{.=X>X=XR.P.N.D.Y.R.P.L.C.K.S.P.K.E.P.K.P.L.I.[.~.P.I.~.E.L.~.P.E.T.P.~.oX&XXXE.&XoXoX.XXXoXI.~.oXoX|.}.[.oX[.I.[.oXI.I.[.[.[.[.I.I.oXoXoX[.I.E.S.oXoX[.{.}.oX|.|.}.[.oX[.}.[.E.[.P.[.[.}..X[.K.I.P.L.c.P.P.[.P.I.L.[.}.[.}.I.}.].[.I.S.[.|.}.oX}.P.oX].I.].L.P.S.P.P.P.E.L.P.F.I.S.S.c.S.c.S.f.z.h.S.S.S.F.P.S.S.F.G.S.S.S.V.S.].c.h.G.G.S.F.m.S.S.P.D.D.D.[.[.D.I.].P.D.V.c.S.P.S.D.D.S.c.S.S.P.P.[.R.P.[.P.S.K.I.P.K.",
"OX}.OXOX&X>X>XOX}.&X.XjXOX}..XOXOX>X}.;X4Xh.4X{.|.[.*X2X2X2X1X~.H.T.T.J. X X;X6XjXkXjXjXkX6X6XjXUX6XUXoXI.oXoX}.&X>X>X&X6X6X>XoXoX>XoXI.P.I.~.XXK.~.oXoXI.~.oXI.I.|.~.XXXX.X.X*X|.oXoX2X|.6X1X|.oXXXXXoX~.oX~.oXUXoXoXXXXXXXXXUXXX*X2XXX;XoXoX*XI.~.*XXX*X2X*XUX2X2X.XoX8X&X=X;X*X[.P.P.&X}.{.&X;X2X:X&X>X&X&X>X;X&X>X:X:X;X&X;X;X>X=X&X&X>X X&XOX&X}.&X2X*X2X2X:X7X;X&X2X:X2X>X2XXX4X*X2X2X;X2X>X X>X:X&X>X;X;X&X X.X|.|.&X2X&X;XkX;X&X X=X;X{.&X*X*X*X X X~.~.T.~. X%X*X&X*X X!.~. X%X*XXX%X X XXXXX X1X*XXXoX XXX1X1XXX1XXX%XXX%X%X2X1XUX%X1X~.1X5X~.XX2X2X1XUX%X1XXXXXXX1X1X0XMXzX8X2X4X1X1X1X1X1X1X5X1X1X1X1X2X%X%X1X1X5X1X4X0X4X=X>X9X:X:X:X7X7X>X:X>X:X:X&X=X;X.X|.|.=X&X}.$X;X&X{.R.&X{.#X>XkX=X7X&X;X2X9X1X3X1X2X1X3X3X4X8X3X%X1X&XXXXX7X&X&X&X>X;X=X7X%X X1X3X3X=X1X X%X1X*XXX2X1X&X3X3X*X2X=X1X;X4X=X1X3X*XXX=X*X2X2X9X1X3X3X9X=X~.1X3X1X1X*X%X%X1X5X:X*X*X&X$X4XxX8X.X|.&XE.XX%X1X*X*X1X2X*X1X1X1X3X3XXX2X&X1X4X3X*X*X*X4X=X1XXX X1X X=X3X7X4X$X=X=X=X{.Y.#X=XQ.%X#X#X%X%X$X#X&X&X=X1X1X*X*X%X%X1X%X%X1X1X1X3X1X1X9X3X9X3X1X1X1X1X1X1X1X%X%X1X3X9X1X&X*X3XXX%X|.3X1X%X*X*X3X4X1XXXXXXX9X3X%X3X1X9X X~.~. X~.~.~.~.T.%X~.Y.H.$X%XW.$XW.L.{. X,X8XcX7X.X.X{.[.P.oX X~.E. XL.E.{.&X{.$X{.R.{.Q.$X{.{.{.#X{.{.@X{.[.[.[.:X{..X[.[.$X[.].D.D.D.L.P.C.j.P.U.E.P.K.I.~.K.v.~.P.E.oXL.K.b.~.I.I.I.P.P.K.U.I. X&X&X X XoXXX XoXoX%XoX[.|.oX|.[.[.[.[.|..XI.[.[.|.[.{.}.[.].[.[.[.I..XI.I.[.}.[.oXE.[.|.|.}.|.[.[.oX}.P.[.[.P.[.|.oXP.L.P.I.v.E.}.[.P.I.P.[.[.[.[.I.[.}.}.E.F.I.[.oX}.I.}.I.P.I.I.I.I.P.I.}.}.I.I.P.].F.P.S.S.z.c.c.S.C.S.S.L.C.F.S.S.C.F.R.S.S.F.S.V.c.V.h.S.F.S.c.S.c.C.S.S.R.F.S.P.F.R.S.D.R.S.F.P.F.c.C.F.P.P.I.}.[.F.D.R.D.[.F.D.S.P.P.F.",
"}..X}.;X}.}.}.;XOX.XOXiX;XOXOX&X>X>X;X6X>Xz.NX.XI.XXoXI.E.~.~.~.~.~.6.J.!.XX6X5XjX4X>X6X6X2XoX].OXXXOXUX}.oXOX}.{.}.4X6X=X>XkX4XoX6X;XXX|.XX1XoX|.~.oX2XXX2X*XXXXXXX2X2XXXoXXX3X2XXXXXoXXXXXoXoXoX1X2XoX2XXXXXXX1X1XoX2X2X2X1X1XoXXX5XXXoXoXXX|.oXXXoX|.XX2X1X4X;X6X2XoX2X|.|.7X2X XR.W.{.[.}.&X2X>X>X:X&X:X=X>X;X>X:X:X:X;X;X;X;X;X;X>X>X6X;X.X>X&X=X;X>X&X;X2X:X>X&XOX4X:X>X4X3X2X>XXX;X&XXX>X>X=X.X.X&X&X;X=X.X X X&X X&X X*X&X&X{..X&X2X XE.&X=X2X*X XE.T.~.T.%XXX=X X1X*X X XXX~. X*X XXX X*X1X1X2X2X1X1X%X=XXXXX X1XoX%X1X%X2XXX%X~.1X1X1X1X5X0X5X1X1X1X5X1X1X1XXX*X2X1XkX5XMXzX5X2X3X1X5X5X1X1XUXXX5X1X%X1X1XXXXX1XUX1X5X4X3X3X>X7X:X>X:X>X:X:X=X;X&X#X:XXX[.&X&X;X;X=X&X{.&X.X&X:X&X;X:X&X:X:X&X=X:X=X*X1X3X*XXX%X*X&X3X1X*X8XXX3X*X%X1X>X;X=X>X:X7X:X>X3X3X2X*X3X8X1XXX1X&X&X X=X*X*X&X*X9X*X1X*X X9X3X2X3X3X1X X1X1X%X X X3X0X1X1X4X1X1X4X*X%X1X2X1X3X=X&X&X*XE.&XMXMX|.=X*X=X%X~.~.~.1X X*X=X1X*X XXX&X%X%XXX3X1X*X X=X3X1X*X1XXXXX~.&X&X*X=X=X$X=X=X=X&XY.&X%X$XT.!.=X%X$X1X-X$X=X-X X1XW.%X1X4X1X3X1X X%XXX X1X X~.1X1X3X1X1X X1XXXXX!. XXX3X3X1XXX1X3X1X*X*X!. X XXX%X%XXX1X1X1X%X X%X1X%X9XXX~.XX1X X1X1X1X1X1X%X X1X XB.!.W. XE.E.W.E. X&XkXkX4X=XR.R. X XE.~. X|.R.P.E.{.{.#X&XE.W.D.{.$X{.{.R.D.R.{.&X=X,X&X&X&X&X>X{.&X{.&X&XE.j.S.D.D.{.{.[.~.oX~.I.I.~.P.[.I.|. XXX~.oXoXXX*X|.~.|.I.~.|.XXXX.XXX&XXXXXXXXXoX%X|.oX|.oXXXE.}.I.E.|.[.}.|.[.}.[..X6X[.[.I.E.I.I.[.}.R.P.[.I.P.}.}..X[.E.[.}.I.[.[.}.E.[.].K.P.oX].L.P.F.P.F.].[.K.L.P.].I.[.[.P.P.].[.I.].I.P.[.[.[.[.oX[.P.I.[.I.[.].P.E.P.I.].L.P.P.P.P.S.m.S.[.S.S.F.}.F.S.S.P.S.S.S.F.D.F.D.C.S.S.h.c.F.S.S.S.S.F.C.D.c.R.F.P.P.F.D.F.S.P.S.P.P.F.C.P.].F.[.P.].].R.].@X].[.F.].I.S.I.U.",
"OX}.;XOX>X>X>X>XOX}.>X>XOXOX}.[.}.>XOXjX4Xc.xX6X[.P.|..X6X2XE.P.L.H.J.B.!. X;X6X2X2X;X6XXXUXUXoX.XoXoXXXoX[.oX2X4XoX>X&X>X&X6X6X;XXXXXXX2XoX1X6XUX1XoXXXoXoX~.I. XXX2X.XXX|.oX|.XXUX2XXXXX*X.X2X2X5X2XXX2X2XoXXXXX2XUX1X2XXXUX3X*XoX2XXXoXoX;XXX*XXX2XE.|.oXXX2X*XXX>X2X4X[.R.4X;X&XE.L.E.[.&X;X:X;X:X>X;X&X}.}.{.=X:X&X}.&X;X:X:X&X{.;X;X,X&X>X:X&X&X}.&X;X;X&X>X=X>X&X=X;X.X.X;X>X&X.X,X>X7X:X=X>X=X;X}.&X&X:X X X&X X XoX&X*X=X X&X=XXX&X*X*XXX%X2X%X X X~.*X~.&X*X*X XXX=X*X X&X&X*X%X*X*X2XXXXX1X2X1XXX1X9X3X1X4X1X1X1X2X3X2XXXXX1X1X1X1X1X1X1X0X5X1X1X5X5X%X1XXX%X*X5X3X1X5XcX8X2X*X4X4X8X1X1X~.~.1X1XXXUXXX0XXX1X1X1XXX2X=X2X4X:X>X:X7X>X:X&X&X:X:X>X&X;X|.*X2X&X&X4X2X2X9X4X>X=X7X X:X4X:X8X#X&XE.&X=X&XXX=X1X*X3X%X*X1X*X3X1X2X4X1X3X&X=X4X7X4X7X>X7X4X2X5X%X2X5X3XXX1X2X3X=XXX4X1X2X1X=X=X1X=X4X*X9X9X3X9X1X*X*X1X XoXXX X X4X9X2X2X3X9X3X X~.*X1X*X3X2X:X7X&X&X&XxX0X:X*X*X=X~.%X%X1XT. X*X*XXX4X~.XX%X2X&X%X=X3X1X1X3X1X*X1X%X1X X1X1X~. X*X#X&X:X=X-X=X=X$X%XQ.$X$X-X%X%X%X$X$X#X$X X X!.=X%X=X1X1X~.%X1X X X1X~.1X%X1X1X%X1X X!.1X X!.1X2X1X*X*X1X1X XXX1X1X3X X1X~.XX9X%X1X%X!.~.1XXX1XXX1X*X1X X1X1X3X9X~.1X~.!.~.~.E.T.!.J.Q.E.H.E. X X&X7XlX4X*XE.~.&X%X&X*XE.E.R.W.E.Q.{.{.{.E.{.{.{.[.@XG.Z.$XF.{.&X.X>X7X:X&X7X#X[.&X;X&X}.D.D.P..XR.R.&X{.[.~.I.~.I.I.~.[.I.~.XXoXXXoX~.~.4XoXoXI.I.I.oX[.oXoXXXXXXXXX*X|.%XoXoXoXXX.X[.oX[.[.|.}.}.[.oX[.I.P.P.[.[.oX}.[.|.}.[.I.].}.P.P.E.}.P.}.[.}.E.I.].P.[.oX[.I.I.P.R.oX[.S.S.S.F.P.I.P.F.F.P.I.P.[.P.U.I.}.|.P.].L.I.[.I.}.[.|.I.[.U.P.F.I.F.I.P.P.P.I.P.I.F.P.P.I.S.F.S.P.P.I.P.P.F.C.c.c.C.P.S.D.S.S.D.S.c.c.S.P.D.F.S.F.U.F.K.S.D.S.S.F.F.F.S.S.S.L.P.S.S.P.].].].P.P.}.].].[.].].].].}.P.P.].F.",
"}.].>X>X&X}.}.}.>X;X}.;X}.OX}.}.].>X.X;X>XF.xX6XoX&X.XOX2X5X|. XE.Y.!.~.Y.~.oX>X6X6XOXXX6XXX6XUX6XXXOXOXoX6X|.XXoX{.>X;X.X|.oX;X6X;X;XoX~.XX6XXX6X2X2X2XXX5X5X|.2XUX2X2XXXXX2XXX2X1XXX2XXX|.oX.X2X2X5X2X2XXX2X2X2X5XXXoXXX5XXXXXoX2XXXUX2XXX2X|.*X*X*X|. XI.P.*X2XoX|.;XkX&X{.{..X&X{.P.&X{.}.&X X.X&X&X;X{.$X&X:X>X[.>X}.=X>X$X&X>X&X;X&X=X>X=X:X>X&X;X&X>X.X;X:X&X&X;X.X;X;X=X&X&X;X&X&X;X;X}..X.X.X&X&X:X>X4X.X&X&X&X X=X XE.[. X&XE.=X2X1X*X X&X*X1X&XXX~. X XoX1X*X X=X2X X~.XX%X X*X&X*X3X1X4X1X1X|.1XoX X1X3X1X4X*X2X3X2X1X1X2X1X1XUX1X1XUX2X1X1XUXXX1X1X5XXX1XoX%X1X1X2X3XNX5X1X*X*X=X3X5X1X1X1X5X1XXX1XUX1X~.5XUX1X1X2X>X4X9X>XkX7X7XkX7X&X:X:X&X&X;X=X&X&X X&X4X X&X7X;X>XMX7X:X4X4X;X=X>X;XkX7X7X:X&X3X3X*X3X*X4X1XXX1X=X9X3X1X3X=X=X3X*X7X4X7X7X;X7X*X3X1X5X3X3X=X*X3X=X3X1X*X*X1X1X2X3X&X2X3X1X3X2X9X4X2X3XXX1X*X1X X~.1X8X0X2X3X1X1X3XoX1X2X*X1X3X=X=X:X&X7X;XxXkX&XE.|.1X1X%X%X~.~. X*X*X&X1X&X=XXX%X X1XoX=X X*X*XXX3XXX X X X*X1X1X&X=X=X&X$X#X%X{.$X9X&X#X#X$X=XW.%X%X=X&X#X=X1X=X%X1X9X%X X3XXX1X~.%X1X X~. XXX%X%X~.1X0X3XXX1X1X X X*X*X3X*X*XXX1X1X*X3XXX X%X*X9X1X%X~. X1X1X1X%X1X1X1X%X1X1X1X1X X!.oX X X~. X!.~.E.~.E.Q.E.E. X&X XjXMX7X2X%XXX*X X=X*X XE.z.E.P.{.{.{.&X&X{.L.{.{.Q.L.E.&XQ.R.{..X&X;X{.{.}.{.}.{.}.{..X{.R.R.&X{.E.[.oXXX~.~.E.K.I.XX|.|.I.1X XoX~.oXXXoX~.XX~.~.oXoX~.oXXXXXoXoXXX;XoXoXoXI.oXI.[.E.|.I.].[.[.I.[.oX}.}.P.P.oXoX|.I.I.E.}.E.}.R.oXoXoXoX].E.[.].[.I.I.[.I.I.[.[.[.].[.[.oX[.S.P.P.P.K.P.S.S.P.I.}.P.I.I.L.I.|.I.L.I.P.[.I.P.L.[.P.[.}.P.[.D.P.F.C.S.F.F.L.S.U.S.L.P.L.D.P.P.P.S.F.I.P.P.S.c.D.m.S.D.m.S.S.F.D.F.S.C.S.c.F.I.R.K.S.K.S.F.S.S.R.S.D.P.D.P.F.F.S.S.P.P.].].}.F.F.D.[.@X].}.}.}..XF.F.}.].",
";X}.}.>X}.].].}.>XOXOX;X}.OX}.].@X;X;X}..XS.cX;X}.[. X&X4XcX2XoX~.^.6.~.~.XX1XUX5XUX5XUXUX4X*X5XOX2XUX4X6X&XXX;X&X.X>X2X6X|.>X;X|.oX>XXXXX|.*X2XOXoX2X2XXX2X2XXX2X4X2X5XoXXX.XXX2XoX2X2XoX2X2X2X2X5X2X5X3XOX;X2X2X5X.X|.OX2X;X;XoX3X2XoX;X2X;XXX|.[.oXE.P.|.E.XXXXXXUX|.I.|.[.:X&X[.{..X{.}.&X>XOX,X&X&X&X}.[.}..X;X,X&X&X&X}.&X;X&X&X;X&X&X;X&X=X.X.X4X>X&X&X&X=X&X>X2X4X}.{.&X&X&X&X&X,XoX}.=X&X}.#X>XOX,X;X&X&X!.2X*X X1X%X*X X X&X*X0X1XXX=X*X*X X=X1X*X1X X X X*X*X2X&X*X=X*X*X X X|. X*X1X1X1X1X1X1X~.~.XX1X1X1X1X1X1X1X1XXX1XoX1X1X1XXX1X1X1X1X1X1X5X1X5X1XXX1XXX1X~.1X1X2XxXNX*X3X*X9X3X1X2X1X1X1X%X%X1X3X1XXX2X&X:X*X6X4X7X4X4X7X6X7X4X:X&X7X=X{.;X>X:X.X&X&XXX*X X&X8X8X2X*X*X;X XP.{.=X X&X=X3X8X4X=X2X*X*X2X:X$X4X:X3X8X4X9X4X8X1X%X*X9X6X2X5X2X;X4X4X8X3X4X1X1XXX*X X1X3X1X2X*X1X2X2X9X*X:X:X:X=X:X2X9X2X5X1X3X=X2X1X1X3X1X4X=X4X3X4X3X9X8X1X3X1X&X*X1X2X1X.X=X8X8X=X;X=X&X~. X~. X=X*X X*X&X2X=X&X8X3XXX&XXXoX&X3X=X*X*X X X1X1X1XXX1X X X X1X%X%X!.T.W.=X=X-X&X$X=X%X$X=X=X:X=X$X=X-X$X&X*X$X*X:X1X X X%X!.XX%X X~.%X%X%XXX1X1X!.1X X X X%X1X3X=X X%X1X2X*X1X=XXX1XXX X%X X1X%X1XXX1X~.1X1X9X X X~.1X%XXX X X1X~. X XT.L.E.!.T.E.~. X X~.*X5XxX8X:X&X&X X X X X XE.2.R.K. X$X&X=X&X{.&X}.R.R.}.&XQ.&X@X$X{..X,X}.}.].{.&XoX>X{.[.{.D.C.}.P.[.].{.oX~.~.~.I.oXoX~.~.~.|.UXXXXX%X~.|.|.|.oXXXXX~.[.oXoX*XoXoXXXXXoXoXoXoX|.oX|.[.I.I.[.[.}.[.|.oX}.I.I.|.oXE.oX}.[.L.[.].[.[.P.P.R.P.}.P.[.P.I.[.P.I.E.I.}.I.[.].[.].[.].S.F.D.P.P.I.S.[.I.I.[.P.I.}.E.E.P.[.I.P.E.[.I.I.}.E.|.I.[.F.S.S.S.[.S.P.F.L.F.S.F.F.S.D.I.P.].E.].P.S.K.F.L.P.F.P.K.P.C.n.C.S.P.I.P.v.v.C.F.K.S.F.P.S.C.S.K.E.F.K.S.L.P.P.R.S.D.S.S.F.F.}.F.].D.}.@X].}.].}.[.P.P.].[.].@X",
"OX>X>X;X>X>X.X}.>X.X;X}.}.;X}.;X}.>XjX>X}.$.lX;XF.R.oX>X6XcXUXoXUX%X1XXX%XXXUX1X5X5XUX5X4X6X6X6XUX6XOXoX}.oX>XoXoX.X4X6X>X;X.XoXOX.X.XXX|.|.oX2X2XXX2X3XXX2X2X2XXX5X4XXX2X5X4X6X6X.XXX.X5X4X2XXX2XXX2X2X2XXX4X2X;X2X5X*X2X&X;X>X2X2X2XoX|.oXXX|.&XR.E.[. XR.|.XXXX*X1XXX5X2X X X X{.E.D.oX,X.X&X;X=X&X>X&X&X:X=X[.{.OX{.}.[.=X&X;X;X&X;X:X&X&X&X%X4X&X&X9X&X}.&X;X>X.XMX:X{.>X;X}.&X&X}.}..X$X&X&X&X&X}..X&X&X$X XXX=X*X XXX XE.{.&X1X2X8XXX X9X=X2X*XXX*XXXXX~. X X1X3X%X*XXX X*X X%XXX*X%X1X=XUX1X~.UX1XUX1X1X1X%XUX1XUX1XUX%X1XXX1X1X2XXXXX1XUX1X1XUX1X1XXX1XXX1X5X1X~.UXXX1X3XlXMX5X4X2X2X2X1X1X2X2XXXUX1X1X1X%XXX2X8X2X2X2X4X4X8X4X4X4X8X>X>X:X>X&X4X{.&X{.*X2XoX4X5X X X2XzX8X8X;X[.{.{.{. X>X2X2X9X&X&X4X4X1X=X=X2X=X=X:X%X8X9X1X1X3X4X2X2X2X1X4X&X4X4X2X&X=XXX2X2X*X2X%X=X4X1X3X1X*X2X*X*X3X&XE.=X8X:X:X1X9X1X*X2X1X2X=XXX1X4X1X3XW.=X=X1X&X3X2X*X&X1X3X&X*X%X*X=X.XxX8X7XE.&X*X!.9X X1X%X1X2X=X=X*X.XE.E. X=X*X1X!.*X1X~.~.&X%XXX!.1X~.1XXX!.1X1X1X=X=X!. XE.$X=X=X#X=X=X%X$X-X$X$X{.=X&XW.%XW.%X&X=X=X X1X1X1X X X%XE.%XXXXX%X1X9X9XXX!.~. X~. XXXXX1X*XXX2X&X*X*XoX*X1X%X!.1X~.1X1XXX1X1X X~.~.!. X!.~. X X X X X%X%XW.~.T.H.E.Y.H.L.XX X=X~..X5XNX8X=X$X X X%XoX*X=X&X&X|. XW.&X}.{.$X&XQ.Q.<X}.#X#X&X{.E.}.{.|..X&X&X&X,X&X,X&X&X[.E.D.Z.C.E.#X[.#XoXoX|.P.oXoX~.K.I.I.oX~.XXXXoXoX XXXXXoX*XoX|.oXoXoXoX*XXX*X1XoXoXoX[.|.oX~.I.I.].[.m..X&X XI.[.}.[.[.}.[.I.P.}.F.P.P..X[.[.F.[.E.oXoXI.P.S.S.P.I.].P.[.P.|.[.}.R.oXD.S.P.].E.F.I.S.[.R.[.P.I.].}.I.].I.}.P.].P.I.I.P.I.P.}.I.I.D.P.].[.[.v.P.S.L.R.P.S.S.S.z.S.[.P.I.F.I.S.F.C.K.S.S.S.C.K.P.S.S.F.P.P.P.c.c.S.S.L.K.P.S.S.K.F.I.P.S.S.S.F.L.F.F.F.S.D.F.R.}.].}.}.}.}.[.].[.F.[.].}.[.F.F.}.}.",
"OXOX;XOX;XOXOX.X>X>XjX>X,X6XOXjX>X}.;X;XF.;XOXP.{.{.;X.XjXjX5XoX%XXX1X%X2X1XUXUX1X5X2X2X6XUX6XUXOX6X6XoXoXoXoX}.oX>X6X2X:X;X;X;X2X>X=XXXP.oXoX;XXXXXoXXX5X5X2XXXXX2X2XOX2X2X2X4X3X2X;X2X2X2X2X.X.XXX2X2XXX;X;X2XXX2X2XoX.X.X.X&X5XXX.XXX.XoX[.[.E.~.P.L.P.P..X*XxX8X5X1X2X2X1X2X;X{.&X&X].{.&X&X>X:X;X&X&X.X.X.X}.D.&X;X&X}.}.=X[.&X&X&X&X$X>X:X*XoX&X1X;X.X{.&X}.}.&X&X&X&X#X;X&X;X$X:X{.{.;X>X>X&X;X&X.X>X&X=X X*X&X X2X%XXX X X X X1X4X1X=XXXXX X1X1X=X&X=X X X XoX9X&X1X*X%X XE. X X1X X*X1X1X1XUX1X1X1XUX%X1XUXUX1X1X1XUX1X1X2X1X1X1X~.1X5X1X1X1X5XUX1X1X%X~.~.~.~.%XUXUX%X3XkX8X2X2X4X2X2XXX2XXX1X1X1X2X2X2X X1X.X:X4X*X2X7X2X4X4X4X2XkX4XlX=X4X=X>X:X$X{.2X&X2X XzX8X3X4X2X9X2X2X&X;X X7X{.;X>X=X1X=X:X:X*X=X*X X&X X:X:X*X2X8X3X9X9X1X3X*X1XXX3XXX.X=X2XXX1XXX1X2X*X9X1X1X*X1X*X2X=X*X*X*X X=X&X&X4X:X:X:X4X1X*X=X3X&X&X*X1XXX1X9X&X=X&X%X3X3X3X%X*X1X*X&X%X1X1X&X:XzX7X:X=X&XT.0X9X%X%X1X1X1X1X&X X&X X1X X*X%X1X%X=X&X X&X*XXX~. XoXXX~.%X1X%X X1X%X%XW. X%X=X=X$XW.$X%X$X%X&X-X$X{.-X#X$X:X&X%X%X=X=X X1X1X%X%X1X%X&X~.~.%X~.%X3X1X X X X~.~. XXX1X1X%X*X*X1X*X1X=X*X XXX1X%X%XXX1XXX1X X~.1X1X1XXX%X1X~. X~.~.!.XX1X*X~.L.W.W.&X3X X8X*X&X~.&X8XcX2X&X XE.&XE. X X~.&X&X:X$X X{. XW.{.[.L.[.].[.{.R.{.&X{.$X}..X&X&X&X&XoX{.}.{.;X}.}.P.D.[.E.;XR.}.~.oXoX~.~.oXI.1.I.~.oXoXUXL.oXoXoXoXoXoXoXoXXXUXXXXXoX|.|.|.oXoX~.oX~.oXoXI.[.I.E.I.F.[.}.|.E.[.[.I.I.}.[.I.[.E.P.].P.P.I.I.P.].I.].[.F.P.F.R.P.I.}.I.[.I.[.oXR.I.{.I.P.P.I.[.I.I.P.F.F.P.L.[.I.P.[.P.P.I.I.P.S.P.P.[.}.[.I.oXE.I.}.I.I.I.I.I.I.].F.U.P.F.S.P >.F.D.[.R.S.C.C.c.S.S.P.n.F.U.F.P.L.S.P.P.F.S.n.K.K.F.F.S.C.S.F.K.F.L.v.F.v.S.C.n.P.S.F.}.D.[.[.[.F.].].R.[.}.}.}.}.}.].P.E.@X].P.",
"}.}.OX;X;X>X}.>X>X>XlX6XOXoXOXOX>XOX.XOXS.}.lXF.OX;X6XOX6X2XkX*XUX2XcXUX5XUX%X5XUXUX2XUX6X*X6X6X2X2X2XOXOXoX[.;X&X2X;X.X.X;X;X;X6X:X4X[.oXXXXX6XI.2X2X5X5X2XoXXX.XXX2XXX5X4X2XXX2X2XOX2X2X2X5XXX2X2X2X5X2XOX;XXX2X2X4XXXXX|.&X&X3X*X2XoXoXL.F.I.I.|.|.K.T.XX8XlXzXcX2XK.3XoX&X;X{.:X{..X}.&X&X&X|.=X&X&X>X;X,X}.[.R.&X}.&X&X.X&X$X=X;X&X&X}.-X&X X X X X{.{..X.X#X&X>X,X&X>X&X;X>X;X&X:X>X=X&X;X;X=X4X&X4X7X>X:X&X*X%X XXXE. X*X*X1X*X*X X*X!. X X1X*XXX1XXX=XXX1X&X1X*X*X*X*XXXT.P. X%XXX XXX*X1XUX1X~.~.1X1X%X1X1X1X1XXX%X1X1X1X2X2X5X5X%X5X5X5X1X1X5X0X1XUX1XUX1X5X1X~.XX1X%X3XkX5X3X*X3X4X1X1XXX1XXXoX1X1X2X1XXX=X*X*X4X3X;X6X7X4X4X2X4X2XkX2X4X=XE.&X&X;X X&X*X2X.X*X2X4XzXMXzX4X5X.X;X=X:X}.=X=X X1X4X:X&X*X*X&X=X*X&X&X&X%X&X1X2X3X4X1X9X1XXX1X2X>X;X>X8X&X3X2X4X2X1X4X X4X*X3X*X3X9X*X1X8X*X=X&X&X9X:X:X2X*X3X1X&X*X=X8X*X1X3X1X4X=X&X:X&X*X1X1X&X*X XoX*X X2XXX>X=XkX4X[.R.*X XW.~.XX=X X3X3X1X3X&X=X*X*X*X*X XXX&X*X&X*X&XXX=X1X1X1X1X1X!.XXXX3X1X=X1X=X$X*X=X:X:X=X=X&X$X=X9X=X:XW.$X=X&X$X-X&X-X:X&X1X X X1X!.XX=X X X1X~.~.1X%X%X X%X3X1XXX%X|.5X*X*X&X=X*X*X3XXX%X1X1X1X1X1X%X!.~. X1X~. X X1X!.XX~.T.!.!. X~. X!.!. XE.!.T.$XE.W.E. X X%X*X8XlX4XoXR.E. XE. X~.oX X&X$X>X XE.&XV.$XR.E.{.D.{.R.{.@XR.{.].$X[.&X}.}.&X>X&X$X].{.$X#X[.{.{.>X:XR.{.~.oXoX~.I.|.~.K.~.oX~.XXoX~.~.I. X~.~.oX~.UXoXXXoXUXoX|.P.|.|.oXoXoX[.|.I.I.I.[.L.S.F.P.oX}.}.E.|.[.P.[.}.P.I.].P.P.P.P.].E.I.[.[.R.I.oXI.C.P.F.E.}.E.}.[.[.[.I.].}.P.P.F.I.I.R.[.P.P.[.U.[.F.I.P.[.P.].}.L.P.P.E.}.I.[.}.[.[.}.].E.I.F.I.P.K.I.I.P.F.I.P.z.J c.c.D.I.].F.F.F.I.P.F.S.S.C.S.K.S.I.n.F.P.P.S.c.S.C.F.S.S.S.v.S.S.F.F.S.S.S.S.S.n.S.D.F.R.F.].F.S.].].].].}.[.}.[.@X[.].@XF.F.].F.",
",XOXOX>X}.OXOX>X>X>X>X7X>XOX>X>XjXjX>XjX}.6XcXI.}.oXoXXX2X4X5XXXUX0X5X5X2X1X5X5XcXUXjXUXoX2XUX2X6X6X2XUX6X&X;X;X4XkX2X>XOX6X;X6X;X.X;X*XXX2X3X2XXX6X*X2X2X5XOXoXXX*X*X*X2X5X*X2X2X6XXXXX.X2X;X:X2X;XXXXX&X.X4X;XXXXX;X;X:X:X;X7XXXXX*X&XoXE.R.z.K.E.P.E.P.XX8XzXxXzX5XL.1X3X X&X&X&X&X&X&X X;X&X;X&X;X&X&X>X:X;X>X;X}.&X.X;X;X&X X X%X XW.&X=X%X%X X X%X&X:X;X&XOX,X&X$X&X;X;X>X&X>X:X>X;X:X:X:X;X&X&X>X;XMX>X:X&X*X~.XX%X*X X=X X8X*X%X X XXX X=X X X%XoX*X*X X XoX X*X1X*X4X1XP.XXXX%X*X1X1X*X1X1X1XUX%XXX%X%X~.1X1X%X%X1X%X%X1X%X%XUX5X1X1XUX1X1X1X~.1X1XUX1X1X1X1X~.1X0X1X1X2X6X~.8X*X1X3XUX1X%XXX1X~.XX%X1XXX%XXX*X*X2X*X;X>X4X:X=X;X;XkX*X&X>X;X&X$X&X.X&X|.*XoXR.*X7X8X2X8XkX|.3X X2X>X X&X=X;X:X:X:X4X:X*X=X=X2X&X:X:X:X4X:X=X>X2X2X=X4X1XXX*XXX&X&X4X8X1X2XXX3X8X3X9X3X3X4X1X8X3X=X2X*X1X*X2X=X:X:XkXkX8X=X:X4X2X=X&X>X2X*X:X:X:X7X&X>X.X4X2X&X3X&X*X X*X*X&X*X:X:XzX:X.X X&XW.T.{.&XW.1X1X2X X$X&X&X&X*X1XXXXX2X&X1X*X*X%X%X1X1X%X1X2X*X X1X%X1X*X=X=X9X4X&X4X9X7X9X=X3X:X9X.X*X=X&XE.:X:X=X=X=X&X#X=X%XXX*X=X%X&X:X*X1X%X X2X1X X&XXX=XXX*X XE. X~.*X X&X*X~. XXX1X%X%X1X1X X X%X~.~. X~. X!.!.%X1X X~.~.L.L.!.%X X~.%XW.E.Y.R.W.%X:XE. X X X.X8XkX2X&X{.R.[.&XoX.X=X>X&X#X&X&X$X{.R.[.[.<X}.#XR.@XY.W.R.$X[.}.{.#X&X{.&X,XoX.X;X&X&X&X{.{.{.=X}.&XR.oXXX~.oXI.~.P.P.~.I.~.|.|.|.|.U.oXoXI.oX~.|.|.I.oXoX~.XX~.|.|.oX|.XXoX~.oXoXoXoX[.P.F.L.U.|.oXE.].I.I.[.[.E.I.I.P.|.|.I.[.P.].E.P.E.oX}.E.I.oX}.].[.I.[.I.P.I.P.F.E.P.h.F.P.E.].F.I.[.P.I.[.P.c.P.P.[.I.I.I.D.P.[.[.I.|.].P.I.[.[.{.[.].}.P.P.K.P.L.K.P.P.L.S.S.C.F.I.I.L.I.S.F.L.S.S.L.F.P.E.P.S.F.I.I.P.C.c.v.S.c.c.C.S.S.C.F.C.S.K.S.F.L.S.S.S.S.F.I.D.].[.F.D.@X].P.].].@X].@X].[.F.].].].F.",
".X>X>XOX}.oXjX>X>X>XjX>X;XOX>XOX6XiX>XjX}..X;XI.&X[.[.2XoX2X2X6XUX5XUX1XUXUXUX2X5X8X5X5X5XUXoX5XOX6X2X2X6XXX>X5XlX>X;X X.X;X.X.XOX>XXXoX|.XX5X2X;X2X5X5XXX2X2XXX2XXXUXXXXX2XXXXX2X2X2X2X;X2X;X>XXXXX>X;X;X2X;X&XoXXXE..X>X;X;X>X&X;X>X|.|.}.{.}.|.L.R.P.K.XXxXzXkXxX1XK.~.!. X&X X$X XP.}.&X[.&X&X}.;X;X:X:X=X&X=X=X&X&X&X;X.X&X1X X X%X=X3X X=X*X%X X%X&X;X;X;X&X;X;X>X,X6X:X&X&X:X&X:X:X:X>X:X>X,X.X=X:X{.:X:XXX X&X*XXX X*X*X&X4X=XXX XXX%X2X*X*X X X X%X XXX1X X X1X1X X1XE.L.Y.!.XX1X X*X*X%X1X1X1X%XUXUX1XUX%X1X1X1XUX%XUX2X2X1X1X%X1X1X%X1X5X5X1X1X1X%X1XUXXX%X1X~.5X5X5X1X6XXX5X*X2X9X1XXXoX1XoX%XXXXX1X1X%XoX2X*XXX&X2X7X:X2X3X&X*X&X=X&X>X&X$X{.&X:X:X3X&X2X X|.2XkX0X4X3XXX.X&X&X&X X&X:X&X7X&X:X7X7X2X:X=X>X$X:X>X=X=X&X:X&X2X8X3X3X*X*X*XXX>X;X6X2X*X1X4X8X2X4X9X3X1X8X1X9X3X3X*X3X8X9X2X1X:X8X:X:XlX7X:X4X7X,X&X&X X2X-X4X4XD.C.7X;X=X:X;X*X2X=X*X:X$X*X=X>X:XMX9X X X&X$XW.$XW.%X=X$X=X$X$X&X$X=X%X*X*X=X&X X=X3X5X*X2X1X1XXX1X1X1X*X1X1X9X=X=X=X$X=X=X=X:X&X:X:X&X1X=X=X&X1X=X$X=X{.:X:X=X&X:X7X1X=X%X*X:X=X3X9XXXoXXX1X1X X~.%X*X&X*X*X*X~.1X&X X1X&XXX!.3XXX X%X4X X X~. X%X X~.~. X~.9XXX1X~.~.E.!.!. X%X~. XXX!.$XW.E.#X&X{.R.~.!.E.&XkXkX4X{.[.{.&X=X&X.X.X{.$X;X;X{.[.$XQ.R.$XE.S.{.R.#X{.Q.[.,X}.&X}.}.&X}.;X&X[.;X.X}.$X.X.X&X&X$X[.{.E.I.~.~.|.~.I.I.I.~.~.I.I.I.~.~.I.K.~.I.~.|.|.|.|.~.I.[.|.|.oXoXoXoX|.oX|.I.oX|.oXoX|.[.P.L.I.I.}.[.I.E.}.|.[.}.I.[.|.[.[.E.P.F.].I.}.{.I.[.}.[.[.P.[.oXP.I.P.P.F.I..XF.z.S.[.].P.F.I.[.].P.I.I.F.P.D.P.[.I.[.}.S.I.}..X[.E.[..X[.oX[.P.[.E.K.K.S.K.F.P.I.S.F.I.I.S.S.I.P.U.P.P.L.S.S.U.F.K.F.I.L.L.S.S.S.C.F.z.c.S.C.S.F.z.l.c.S.v.F.K.S.S.S.P.S.S.S.L.F.[.].[.F.F.P.F.P.].].F.S.D.F.].@XD.].F.D.",
"}.}.}.}.[..XjX&X}.&X>X>X}.>XOX}.}.6XjX6X[.S.lX.XoX.X|.>X4XXXOX5X5X5X5X5X1XXXUXUXUXcXUXXX6X2X6X6X2X2XUXOX4X>X>X2XkX4X>X;XoX.X&X>X;X2X|.oX.X|.oXXX5X2X2X2X2X2X;X2X2X5X6XXXoX|.*X6XXX;X;XXX2X&X4X=X&X.X&X.X;X2X&X&X.X>X.X.X;X&X;X&X;X&X;X&X|.{.;XoX*XE.*X|. X*XkXMX2X*X~.I.XXb.1X|..X&X X{. X}.&X:X;X{.&X}.&X}.>X.X.X,X&X>X,X&X=X&X1X1X1X%X*X1X1XXX&X*X=X$X{.&X7X;X6X:X;X&X:X>X7X>X}.>X$X8X:X&X>X:X&X;X&X.X.X>X;X=X3X X X3XXX%X*X X%X*X3X X&X X X&XoX%XXX X XXX X~.1X XXX*XXX~.!.E. X|. XXX*X&XXX*X~.1X1X1X1X1XXX1X1X~.1XUX1X1X1X1X1X2X1X1X2X2X1XUX5X1X1X5X1XUX1XUX0XUX1XUX%X~.1X5X1X5X2X4X2XXX2X1X1X%X1X1XXX%X~.oX*X~. X1X&X&X*X;X;X>X4X*X2X*X2X*X=X;X=X;X&X:X:X;X3X*X*X2X*X4X2XzX2X3X2X*X2X:X:X=X:X:X>X:X4X:X:X:X:X=X&X4X7XkX:X:X;X&X=X&X&X=X=X:X4X%X=X:X4X4X&X:X5XoX1X2X*X1X9X3X3X0X9X3X1X9X1X9X9X3X9X2X0X:X>X:X7XkX:X:X>X=X:X:X*X4X:X4X:X8X&X&X:X&X&X=X2X3X1X2X*X*X&X&X&X=XxX&X&X|.=X*X&X$X$X=X=X:X XW.2X*X=X=X*X*X1X*X1X1X*X*X1X%XoX2X X%X2X1X1X%X2X=X%X=XW.&X$XW.$X=X X&X=X=X*X1X2X=X=X=X3X4X&X=X-X=X=X=X4X:X=X3X&X1X*X%X2X7X%X1X1X1XXX*XXXXX*X1X&X=X1X*X&X*XXX%X*X*X1X*X X XXX1X!.~.1XT.Y.I.I.E.~.~.~.~.T.XXT.3X1XP.~.%XXX XT.T.E.E.$X$X=X&X~.XXXX X*XkX8X*X{.}.{.:X:X.X[.{.{.&XQ.@X}.$X&X@XR.{.E.E.R.R.E.R.W.&X&X{.{.&X:X}.=X&X;X$X[.{.&X}. X{.&X{.{.[.&X[.~.~.oXoXI.J.K.I.|.UX~.[.I.|.|.~.P.E.oXoX~.].[.oX|.I.I.|.|.oX|.oX[.|.[.[.I.P.P.|.].[.oXP.U.P.}.E.I.[.}.{.}.oX[.I.I.}.].P.x.j.P.S.S.P.[.}.I.F.P.I.R.].I.[.[.F.P.[.I.}.L.P.P.I.P.P.F.L.U.L.F.L.P.F.P.P.P.I.[.].].S.I.[.[.P.[.[.[.}.E.P.F.P.E.].F.P.P.P.oXP.S.C.P.I.S.U.K.S.P.P.P.L.P.S.P.P.P.K.U.F.F.S.c.U.c.C.k.S.c.n.c.S.x.S.c.S.K.C.L.c.F.L.S.S.S.c.P.S.].P.D.].].].].].D.F.P.].P.F.[.F.F.F.S.m.",
">XjX;XOX>X,X>X>XjX}.jX&X].OX}.}.oXOX>X6XS.P.NXOX.X>X[.[.6X4X;X5X5X5X5XcX2XUX~.XX5X5X6XUXUX2X5XUXjXOX5X6X6X2X4X6XXX4X;X;X&X>XXX.X;X;XXXoXXX|.XX2X2XXX2X2X.XoX2X2X4X6XXX*XoX6XXX*X;X|.XX3X&X6X>X XoX;X2X&X>X&X;X;X;X=X;X}.;X;X}.&X.X|.>X&X|.&X[.{.E.P.|. XP.P.|.|.~.|.~.H.1XI. X=X&X=X X X=X;X&X>X;X}.&X$X;X&X;X&X&X>X&X&X}.;X;X&X XXXXX*XoX*X*X=X&X&X&X&X&X&X&X;X&X&X;X&X&X;X&X=X{.,X&X>X:X>X:X>X:X{.>X;X&X;X&X2X2X X X=X%XXX*X X X X*X~.%X X X X*X1X X*X1X&X%X&X X X*X*X*X X1XXXE.~.%X*X3X1X*X=X1XXX~.UX1X5X1X1XXX%XUX1X1XUX%XUX1XXX1X1X5X1X1X1X1X5X1X5X1X1X1X1X0X0X1X5X5X~.zX5X4X6X*X*X1X2X2X2XUX1X1XUX1XXX2X%XUX~.*X*X2X|.;X*X&X4X:X4X2X4X2X*X&X&X;X&X:X7X:X{.4X2X&X&X;X*XoXzX*X*X*XXX7X8X4X7X=X=X4X4X8X:X:X7X7X3X>X:X:X7X:X7X8X&X:X4X>X2X;X=X8X2X8X:X>X;X=X>X*X1XXXoX*X*X1X4X4X&X9X4X*X*X3X=X1X9X3X3X:X8XkX;X7X7X:X7X:X7X:X:X4X4X4X*XkX:X7X:X&X&X4X=X2X&X*X*X*X=X4X&X&X:XxX9X{.&X{.{.W.%X$X&X=X=X:X X=X&X*X&X1X*X2X1X2X*X2X&X2X*X1X1XXX%X5X1X1X1X=X1X*X%X=X$X$X$X%X*X X:X:X{.=X9X4X1XXX.X*X*X=X}.$X&X:X=X=X=X:X=X&X=X*X3X=X;X1XXX1X2X1X3X1X1X1X2X1X$X2X2X2X1X2X=X*X*X%X2XXX|.1X1X1X%XXX~.T.~.~. X~.T. X!.~.~. X1X0XT.~.~.~.!.~.~.!.{.&XW.W.&X=X~.~.&X XkXxXoX{.R.{.&X&X&X&X{.}.=X{.[.{.&X$X[.R.{.D.[.{.R.{.[.E.{..X{.{.}.{.&X&X}.&X}.&X}.;X{.{.{.[.{.&X{.|.E.~.oXoXoX].~.I.K.K.oX*X~.I.L.~.K.~.E.I.|.oX|.|.I.~.I.I.oXXXoXoXoXI.[.I.[.[.|.I.P.[.|.}.[.P.I.[.}.I.I.[.P.P.I.I.[.R.}.[.I.I.c.S.S.P.F.I.I.[.F.S.P.I.I.[.I.I.R.].I.I.}.K.K.I.I.P.I.L.F.S.S.L.P.P.S.F.I.P.I.I.I.[.I.F.P.}.E.].I.].[.I.P.F.E.P.}.L.P.U.P.S.S.F.P.P.I.P.P.P.P.I.}.I.U.S.S.P.P.F.P.I.I.S.K.P.P.P.F.S.c.S.S.S.P.S.c.F.c.n.K.F.F.S.I.F.P.c.S.F.S.S.F.F.F.@XD.R.@X@X].F.[.R.].].F.F.@XS.S.",
"4XlX>XoX>X.XOX>X;X.X>X}.}.].}.].}.}.jX>XF.P.xX;XXX6XXX;X5XlX4X4X5X2X5X5XUXXXoXUXkXjXkXUXUX2X6X6X6X2XjX6XjXcX5X2X4XkX4X6X;X&X.X;X2XoX}.4XXX[.I.XXXXXX*X2X;X;X4X2X6X2XoXXX*XoX*XOX2X5X2X2X;X2X2X2X;X;X;X&X>X&X6X:X;X;X>X&X&X{.{.&X&X$X{.[.}.;X[.}.|.oX XP.R.oXE.S.P.P. XZ.*XC.*X2X;XoX X{.&X&X&X&X&X&X>X{.;X&X>X>X:X:X$X;X>X:X#X}.*X*X*X*X&X%X*X X*X=X*X.XoX&X>X&X&X;X:X;X&X.X.X:X&X$X;X;X>X&X:X&X&X&X:X;X&X}.=X;X&X*X X X~. X X X X*X X%X%X*X X~.XX*X*X*X X X XXX X X~.oXXX1X1XXX~.%X%XUX1X1XUX1X1X~.1XUX1XUX%X~.~.UX%X1XUX1X1X1X1X1XUX1X5X1X1X1X1X1X1XUXUX%X0X5X~.UX0X%X1X5X2X5XcX5X5X5X5X5X1X1X1X5X1X1X1X1X1XUXE.~.XXoX3XXX2XoX X;X2X.X4X4X&X;X;X:X:X&X&X;X&X&X;X2X2X=X;X*X;X2X2X2X8X3X2X:X=X4X:X;X:X4X:X:X7X:X7X4X4X:X:X:X:X7X:X=XkX7X:X:X:X:X4X=X4X4X4X&X4X;X3X3X1XXX;X&X3X1X1X1X=X2X9X4X3X8X2X1X9X=X7X=X7X;X;X>X:X:X:X8X:XlX=X9XzX:X:X:X:X=X>X:X7X=X>X&X&X&X*X2X2X2X*X3XMX4X}.:X&X{.W.W.$X%X&X=X3X=X=X=X:X=X*X2X=X&X1X&X.X=XXXXX1XoX%X X1X3X1X1X1X%X$X1X9X&X$XW.{.:X=X&X2X*X2X1X4X*XXX&X*X%X,X*X&X$X:X-X:X&X&X:X4X:X=X4X=X*X1XXXXX&X*X3X*X*X*X4X2X%X1X3X*X2X3X3X3X&X*X3X*X1X%X%XXX3X3XE. X%X!.~.~. XXX$X!.1XE. X9X1X~.~.~.%X X~.W. X&X=X:XE. X&X&X X XkXzX*X{..XE.{.;X&X{.[..X&XE.;X.X&X&X{.{.Q.$X$X}.Q.{.&X&X{.{.#X{.}.&X.X{.}.{.&X$X}.@X{.R.[.[.[.{.@XQ.R.~.I.oX~.|.L.~.U.I.K.XX|.I.I.I.I.I.I.[.|.[.oX|.|.I.].~.XXoX|.I.P.I.].|.~.|.|.|.P.I.U.[.[.I.[.I.I.I.P.I.}.I.[.I.[.I.[.I.F.c.P.}.E.E.].[.[.E.I.P.P.[.[.P.[.P.E.[.I.I..XP.I.[.F.F.R.v.K.P.I.I.].D.I.R.P.P.R.P.R.P.I.S.E.[.].}.I.P.I.}.I.F.L.[.[.S.K.I.U.S.C.P.P.P.I.P.F.[.[.I.P.P.I.I.L.P.P.P.P.P.K.S.S.P.F.I.I.P.].S.P.U.P.L.S.n.z.>.C.K.P.C.S.S.F.S.S.P.P.S.m.D.F.].F.F.[.@XD.F.F.].}.F.F.V.m.F.S.",
";X>X,X[.OX>X>X>X].[.OX;X}.}.]..X}.oX>X6X].S.lXjX6X&X>X4X4XlXkX4XcXUX5X5X1XUXXX5X6X4XjXjX6X6XXX2XjXoXkX6X6X5X2X5X9X>X4X;X;X>X>X&X4XXX;X4X|.oXP.oXoX2X2X.X&XXX6X*XXX1X1XUXoX2X2X4X3X.X6X5X&X;X.X;X4X7X4X:X=X4X6X;X.X;X:X;X;X&X.X{.&X[.P.&XR.{.,X&X2X&XXXXX XXX|.[.[.[. XJ.1XP.*X=X7X=X=X{.{.}.}.;XoX,X;X&X:X=X:X:X>X&X}.:X$X{.}.}.&X&X2X2X*X&X*X4X;X X&X;X&X{.&X&X}.&X&X}.=X:X>X;X;X;X,X}.;X:X:X{.{.}.}..X&X&X[.$X X X X&X=X2X X&X X~. XXX X XXX=XE.XX*X*X X&X%X X~.~.~.~.~. X*X~.XX~.%XXXXX~.1X1X1XUX~.1X1X1X%X1X1X%X1X1X1X%XXX1X2X1X%X1X1X1XUX1X5X1X1X1X1X1X1X5X0X1X1XUX1X1X1X1X5X5X0X1X0X3X2X5X0X0XzX1XUX%X1X~.oX%X%X*X*X1X*X&X|.:X8X.X&X|.2X;X:X:X>X&X&X=X:X:X*X8X*X4X*X;XXX*X4X:X9X3X4X:X4X8X=X;X:X&X:X:XkX:X=X4X:X7X7X:X7X0X>X:X:X7X8X:X:X4X1X3X2X7X>X4X4X4X3X2X1X2X X4X=X8X5X4X=X1X:X:X9X4X3X=X:X3XkX4X8X:X7X:X8X7X7X:X:X:X>X9XBX8X:XkX7X7X7X9X:X:X:X$X:X:X1X1X*X1X:X8XxXkX&X{.=X=X:X$X X*X*X%X X%X&X&X=X4X:X=X*X*X=X&X&X=X1X%X1X X2X%X%XXX%X%X%XXX&X%X$X$X=X*X3X9X=X1X*X*X=X&XXX%X*X%X=XXX!.&X=X*X&X=X:X&X=X$X-X:X:X-X:X:X1X=X XXX8X1X*X1X2X=X1XXX4X1X=X1XXX*X=X1X4X3X=X1X1X%X%X*X1X%XT.*X!.$X X%X X X~.1X~.!.%X1X X!. X X&X~.L.R.W. XW.W.&X&X*X&X*X5X8X*XW.{.E.{.&X{.{.&X&X{.[.&X&X=X#X[.&X{.Q.@X@X$X$X{.Q.{.{.].[.&X X&X;X{.[.P.{.[.Q.].E.&X#XR.#XF.R.R.~.~.XXoXoX~.~.I.K.~.I.|.~.L.I.oX~.~.P.~.|.|.|.|.|.oXoXoX|.|.I.P.I.~.I.U.|.|.P.I.I.P.[.[.|.}.|.[.].oX}.{.[.[.oXP.I.].[.D.F.I.|.[.[.}.].I.oXP.U.I.].I.}.[.P.P.I.P.[.}.P.E.P.P.R.R.F.E.P.F.P.P.P.[.].P.F.].[.].I.[.I.P.P.[.[.I.[.I.I.P.I.P.}.[.I.S.K.S.F.S.P.I.P.U.P.P.I.[.I.S.I.F.S.F.P.U.U.P.U.S.v.c.S.C.S.S.L.S.P.K.P.K.P.F.v.S.h.S.S.S.P.S.P.S.F.S.I.P.S.S.F.].F.R.@X].F.F.F.S.F.F.F.F.S.F.m.k.",
">X>XjX&X>X>XOXoX}.OXOX>XOXOX.X}.}.oXoX}.>X}.lXkX4X;X>X>XkX4X6X2X5X5XUX5X5X5XUX0X6XkXjX4X5XOXUXUXjXcXkXUX6XXXOX;X;X>X7XjX6X;X6X>X6X4X5X2X;X2XXX&X|.oX;X2X6X;X;X&X*X2XXXXX&X&X6X2X2X2X2X2X>X&X>X&X4X2X4X>X:X:X&X;X4X;X;X;X>X}.{.&X&X>X>X=X&X{.&X&X&X&XXX&X&X2X&X&X=X;X XE.XXoX*X2X7X&X.X.X,X;X&X;X>X>X:X;X&X.X:X,X&X}.;X&X}.#X&X$X|.=X3X X&X&X1X&X&X|.*X&X=X;X;X&X&X;X&X&X>X;X}.&X=X&X|.4X;X&X*X[.}.&X{.$X$X{.}.:XXX~. X!. X&X X X&X X X=X1X X X X%X1X*X*X XXX*X%X X XXX1X1XXX1XXX~.1X1X~.%X~.1X%XXX1XXXXX~.1XUX1X5X1X5X1X1X1X~.XX1XUXXXUXUX1X5X%X1X1XXX1X2X5X5X1X1X5X1X0X1X1X1X5X0X5XcX5X5X2X3X5X2X1XUX5X1X1X1X1X XXX&X X2X*X4X;X>X:X4X:X*X&X:X=X;X&X4X&X:X7X>X:X3X2X2X&X4X4X&X&X=X;X2X2X4X&X;X2X>X:X7X4X7X7X7X7X4X4X9X:X7X:X7X4X7X7X:X:X:X9X:X9X2X8X=X4X2X4X8X8X4X2XXX2X=X4X:X9X3X4X3X2X&X&X&X:X X*X2X4X=X4X4X7X7X7X:X4X=X:X:X:X9X8XzXzX7X7X7X7X:X:X:X>X4X1X=X=X*X XXX1X4X8X0X2X&X{.#X&X=X&X&X=X-X&X&X,X,X:X=X$X,X:X=X=X1X3X=X$X&X*X1X1XoX*X1X1X1X1X*X1X&X&X*X=X*X9X=X:X2X1X1X8X1X3X=XXX1X*X1X&X X$X X9X:X{.&X#X$X:X&X9X:X=X$X=X*X=X1X3X3X9X3X4X3X9X*X=X4X1X3X&X*X1X1X3X=X9X1X X*X1X1X=X*X X~.~.1X%X!.XX!.!.%XoXXX1X3X1XXX9X1X%X9X X~.W. X X&X&X!.XX%X X*X4X5X1X&X{..X&X&X&X XE.#X}.{.;X;X{.&X&X&X&X[.#X$X}.}.#X#X{.&X}.{.{.&X,X$X}.[.[.&X].}.$X[.{.[.[.{.E.].[.oXoXoXoX~.~.].~.P.~.~.|.oX~.|.oX|.oXI.[.I.oX|.|.|.oXoX|.I.[.~.|.|.P.n.I.[.|.[.[.oX].P.I.E.}.}.].E.[.[.[.}.[.[.I.[.E.I.].E.[.[.[.[.[.[.[.[.[.].I.I.I.P.P.].[.I.I.[.}.P.F.P.D.@XR.E.].D.R.R.S.P.].P.D.[.P.P.P.R.P.S.].P.E.F.P.[.].P.].I.P.L.P.I.c.v.S.F.P.[.L.K.P.S.I.I.F.I.P.U.L.K.c.K.P.I.S.S.S.S.P.U.F.P.F.S.S.L.F.P.L.I.S.S.S.U.S.S.S.P.I.[.S.P.D.D.P.F.P.F.F.F.F.].].].S.F.].F.F.S.F.S.F.S.k.",
"jX4X>XjX7XjX>XOX}.>X>XlX>X>XOX}.}.>XjX6X4XP.VX4X;X4X&X5XcXkX2XkX1X5X5X5X5XXXXXUXjXkXcX4X4X5X6X6X2XjX4X4X4XOXOX5X>X>X4X4X6X7X4XkX>X6X6X2X*X4X>X>X;X2X2XOX.X.XoX}.OXOX2X5X>X2X>X;X;X6X4XXX;X&X>X.X>X7X;X;X>X4X>X&X;X.X&X:X&X;X{.>X&X&X=X>X;X>X=X>X&XXXXX*X&X>X;X4X>X;X;X2X8X1X2X8X4X:X&XoX&X&X;X$X;X&X:X&X>XoX&X.X&X&XP.{.{.&X>X=X X&X&X*XXX X&X&X&XW.*X*X{.&X&X.X&X=X}.$X,X{.&X;X&X4X&X&X*X*X X X&X=X;X:X$X}.#X:X*X%XXX X*XXX%X X&X&X1X4X8X2XXX1X%X*X*X&X%X*X1X2XXX1X%X2XXX1X1XXX1XoXXX1X1XoX%X~.~.1X1X1X1X~.XX1X1X1X1XUXUX1X5X%X%X1X%X%X1X1X1X5X1X5X~.5X1X1X5X1X1X5X1X5X5XUX1X2X2X5X5X1XXX1X5X2X1X1X%X2X1X~.UX~.|.&X*X|.|.|.*XXX;X2X5X;X;X;X:X>X&X&X:X;X7X8X:X:X*X2X4X&X2X2X4X=X&X4X4X*X2X8X;X&X:X7X:X4X>X7X7X7X7X7X;X:X7X:X&X>X:X7X7X7X:X4X:X4X4X*X;X3X4X4X3X4X3X9X*X2X;X4X=X>X8X3X4X&X:X>X=X$X*X4X=X2X;X:X7X7X4XkX9X:X:X:X>X$X8X8XkXlX:XzX7XlX7X:X7X:X=X4X&X&X X*X%X*X=X4X=X=X X=X=X:X:X#X=X,X#X&X:X=X*X=X&X-X:X&X$X[.&X&X&X$X$X%X1X*X%X1XXX3X1X1X3X2X:X=X=X=X=X=X X{.&X3X1X2X X=X&X=X&X2X*X=X=X=X9X1X:X-X$X=X=X$X$X9X=X:X&X&X*X*X1X3X9X3X=X X1X&X1X2X*X&X1X&XXX*X1X*X1XXX*XXXXX1X1X1X3X3X XR.|. X X~.1X XXX1X*X%X4X&X*X3X*X4X2X X&X*XE.~.%X*X X!.XX&X X1X4X=X{.}.&X&X X X|. X[.&X{.&X,X{.&X#X{.#X[.R.@X{.#X}.@X{.}.&X}.{.}.@X=X{.P.,X[.&X}.&X[.[.&X].[..XR.&XoX~.~.oX|.I.|.K.I.oXoX~.oX~.|.~.~.|.~.oXoX|.|.|.oX~.|.|.oXoXI.|.oXoX|.|.P.[.[.}.|.}.[.I.|.E.P.[.[.[.|.}.[.E.}.|.}.I.[.[.].I.I.}.[.[.oXI.}.[.}.R.E.[.}.[.|.[.}.I.E.|.F.I.P.P.F.[.P.S.P.F.].}.R.D.[.R.F.P.P.P.}.P.P.F.P.].[.E.L.S.F.E.P.c.I.F.S.S.C.S.P.I.].F.P.P.I.L.S.K.S.P.K.c.F.L.F.F.I.S.S.K.F.K.P.L.P.I.U.c.C.F.U.S.P.I.P.P.S.P.I.F.K.[.I.P.].D.P.F.F.S.F.P.F.D.F.}.[.F.F.F.F.[.F.D.S.G.F.k.",
"OX>X>X>X>XjX;XOXOXjXjXjXjXlXjX}.]..XjXOXoXz.jX6X4XUX3XcXxXcXXX5XUX5X1X5X1XXX1X2X5X5XcXjXkXUX6X5X5X6X5X6XOXXXOX2X7X4X>X4X>X>X6X>X>X;X>X2X4X4X6X:X2X6X2XzXlXkX7X.XoX3X&X>X&X4X4X4XXX6X6X4X6X;X>X{.&X>X.X>X:X4X;X;X4X;X2X&X;X X}.&XiX>X;X&X:X&X:X;X*X>X4X&X;X2X&X.X:X4X7XkX7X:X2X>X>X&X&X&X;X}.&X&X&X&X;X&X&X=X.X;X.X{.&X&X XoX*X1X2X1X1X&X*X1X1X X%X X&X*XoX X&X=X&X&X&X}.=X&X&X&X&X|.*X*X&X%X=X*X*XXX X&X}.$X:X4X4X%XXX3X4X*X*X*X1X2X3X1X3X1X*X3X1X3X1X*X*X2XXX=XXX1X1X5XXX2X1X1X%X1XXX1X%XXX~.UX~.5X0X5XUX1X1X1XUX5X1X%XUX%XUX%X1X1X1XUX1X1X1X%X5X1X%X1XUX1XUX0X1XcXXXUX1X1X%X1X2XzX3X5X1XXX2X%X1XXX2X1X2X1X~.~.E.XXE.|.R.|. X|.&X;X2X6X4X4X&X;X&X=X>X&X:X:X:X:X8X&X&X2X2X*X2X.X2X2X*X2X8X2X9X2X4X:X2X8X:X8X4X9X8X:X4X7X:X:X:X9X7XkXlX:X:X:X7X>X8X4X2X4X7X>X*X4X9X8X5X8X1X5X9X:X3X=X:X&X;X:XkX&X:X=X=X7X&X:X7X:X:X8X:X,X:X>X7X:X:X7X7X7X7X7X7X7X;X=X4X>X2X*X4X XXX1XXX*X=X&XzX9X&X&X&X*X-X:X#X:X:X:X9X9X=X:X&X&X-X:X&X$X#X=X=X,X=X3X4X=X-X-X1XXXXXXX*X2X1X1X4X=X&X$XW.{.:X9X9X*X2X3X4X=X X=X*X2X=X-X=X&X-XR.&X=X=X=X&X&X&X%X XXX*X XXX$X4X1X2X|.3X3X*X*X=XXX1XXX&X X X*X&X X X~.2X*X3X1X X2X%X&X X&X&X1X2X1X*X1X1X%X&X&XXX%X%X3X1X=XXX!.~. X*XXX3X%X*X*X%X*X4X1X=X{.&X}.&X&X}.,X&X{.R.$X$X&X#X@X&X&X{.{.{.&X&XR.[.$X[.&X.X;X&X}.}.;X&X{.[.&X&X$X X,X}.&X[.[.{.;X|.|.|.XXoXXXoX~.J.~.oXI.I.oXXX~.|.~.oX|.oXoXoX~.oXOXoXoX|.oX|.].|.I.|.K.}.OX[.[.|..X|.|.[.L.U.I.I.].}.E.I.E.}.[.[.[.[.P.[.E.E.oXoXoX|.}.|.[.}.}.E.[.}.oXoX|.|.}.I.].I.I.R.D.F.D.D.D.D.P.[.].@XR.R.].[.[.E.K.P.[.E.P.[.P.P.I.S.I.P.P.F.I.U.F.C.P.F.S.F.P.K.S.P.[.P.S.S.].S.L.S.v.C.c.v.U.K.S.L.S.S.S.K.n.K.K.S.S.c.K.S.K.P.L.S.S.E.K.n.P.F.P.}.L.F.S.I.F.D.S.F.F.F.F.@X[.R.F.F.D.F.S.F.P.F.S.F.S.",
";X;X>X;X;X;X;X}.F.[.&XjX6X>X>XOXOXOXjX>XOXU.NX;X5X5X2X6XUXxX2X6X1XUX5X5X5X5XUXXX5XjXcX6X4XjXjX5XjX6X6X4XjX6X8X>X>X4X>X2X7X6XkX4X4X6XkX4X8X8X4X4X6XlX8X4X4X4X6XcX2X5X6X2X;X4XkX4X.X.XXX;X4X>X4X4X>X:X>X4X&X8X;X;X&X7X;X>X&X>X&X;X;X.X;X=X>X:X&X;X2X.X;X:X>X2X2X2X6X7XkX4XlX4X4X,X:X&X=X}.&X.X&X>X>X>X;X&X&X>X&X&X;X;X&X&X&X X%X*X1X*X1XXX&X2X*XXX&X X X*X X X X.X&X&X;X$X>X$X:X&X=X>X*X X&X&X4X1X=X%X3X%X&X:X7X=X3X*X1X X1X&X1X1XXX1X=X2X*X1X2X3X2X*XXX*X*X1X*X XXX1X1X%X*X1X1X*X~.~.1XUX1X~.~.~.UX5X~.~.~.%X1XUX~.%X1X1X%X~.1X%X%XUX1X5X1X1X1XUX1XXX1XzX0XUX5X1XUXXX%X%X1X5XUX1XXXzX5XUX2X1X1XXX2X1X1X5XUX1XXXI.E.oXoX XP.E.|.}.oX&X.X=X=X>X;X.X;X:X:X;X:X:X:X:X2X*X2X*X*X*X;X*X:X4X=X7X2X*X4X=X2X*X4X8X8X4X*X7X8X8X7X:X7X:X:X4X7X:X8X:X8X:X,XkX3X3X:X4X:X2X8X*X1X1XXX5X8X2X7X3X:X:X:X:X:X:X:X:X7X:X>X=X7X:X:XkX:XkX8XkX:X=X:X:X7X:X:X7XkX9X:X:X:X=X3X;X=X|. X&X X X=X1X2X3XzX8X&X:X&X#X%X*X&X=X=X=X=X,X=X$X$X#X=X,X=X#X=X=X=X:X:X=X:X9X:X:X3X2X1X1X1X1X2X2X:X=X=X=X&X&X3XlX1X X~.%X=X*XXX3X%X=X&X$X{.-XW.=X$X$X*X$X#X%X1X*X%X%X*XXX%X X1X&X1X%XXX*X3X1X*X1X1X=X*X~. X*XXX XE. X~.*X*X1X=X*XXX~.2X X X X~.&X*X2X4X*X*X1X X X&X*X*X*X X X X%X1X*X X*X%XXX*X4X8X%X>X[.&X$X;X:X{.[.[.$XE.P.].&X$XR.{.$X=X[.R.$X[.R.[.$X{.;X&X&X,X&X&X;X,X&X&X>X&X}.&X}.&X&X[.[.&X&XXX|.].UXoXoXI.K.I.oXoX~.|.|.oX~.|.oX|.~.oXoXXXoX|.~.oX~.|.|.P.~.|.I.|.I.|.*X.X|.oX.X}.&XoX[.[.E.I.R.].[.R.].[.[.E.}.}.}.].[.I.].oX.X|.[.|.E.E.[..X}.[.oX.X|.[.E.[.[.P.].R.].].C.P.@XP.].[.R.R.[.}.{.R.].I.F.U.P.I.I.P.].}.P.P.I.E.F.P.D.K.S.S.F.S.c.L.K.P.S.P.F.U.S.P.P.S.P.F.L.S.F.P.S.P.c.F.z.S.S.P.S.[.S.S.L.n.S.S.F.U.S.S.K.P.S.S.K.K.P.F.P.c.S.D.].}.].F.F.].].F.F.}.F.}.].].D.}.F.S.F.F.c.",
";X}.}.}.;X&X}.}.}.;XOXOX>XOXoX}.OX>X6XOXXXU.VXOX1X6X5X5X6XcX5X5X2X5X5X5X5XXX2XUX6X5XcXkX4XOX6XcXkX6XjXjX6X;X>X>X>XkX;X>X4X;X;X>X>X6XkX>XkXkX4XkXkXcX4X>X>X4XkXzX5X;X5X2X>X2X>X2X6X&X;X;X;XoX;X&X&X&X;X;X;X4X;X;X7X4X2X6X>X4X;X.X:X&X>X&X:X{.&X;X=X;X&X6X4X4X2X=X&X4XlXlXxX&X;X:X>X&X}.{.oX{.=X:X:X>X&X.X.X>X;X>X;X&X&X X X*X=X&X&X4X X=X=X4X1X=X%XXX%XR.&X&X.X;X>X:X&X$X:X=X:X;X=X;X:X&X&X*X3X*X XXX9X2X4X*X*X3X3X*X4X1X3X3X=X X%X%X=X1X&X&X%X3X3X3XXX=X1X&XXX X1X%X1X1X*X*X1XXX%XXX%X1X1X~.UX%X1X1X1X1X~.%X%XUX1X1XUX1X%X1X5X5X%XUX%X1X1XUX1X1X1X1XUXUX5X1X5X5X1X5XXXUXUXoX1X0X1X0X5X1X2X1XXX1X1X5X1X1X1X~.~.I.I.[.I.L.Z.P.E.R.}.E.oX{.}.{..X=X>X=X=X&X$XkX&X=X2X;X9X2X2X2X*X*X&X2X8X4X2X8X4X2X*X2X7X:X2X;X2X8X7X>X7X7X:X:X=X>X:X7X7XkX:X8X:X:X3X2X4X8X2X4X8X4XXX5X3X3X2X2X*X4X>X:X:X&X7X>X9X:X>XlX8X:X:X7X:X7X:X7XkX:X:X7X:X:X:X&X:X>X>X:X:X:X:X:X:X=X3X2X1X&X*X3X=X4X1X3X0XkX&X&X{.4X;X,X{.=X=X=X=X8X:X:X:X,X:X=X=X=X:X:X:X:X-X#X:X,X:X1X1X*X*XXX1X1XXX%X%X:X{.&X:X:X=X=X&X&X&X&X*X*X X%X%X&X#X{.:X$X&X&X&X=X9X%X%X%X*X=X1X2X*X*X1X1X1X2X1X2X=X1XE.=XXX*X|.1X X*X=X3X1XXX X*X&XXX*X*XXX*X1X1X&X1X*X&XXX1XXX%X1X*X*X*X%X&X X2X&X*XXX X*XE.&X=X X X*X*X X4X8XXX{.&X{.{.&X[.{.[.[.{.$XR.{.&X{.@X[.&X&X{.{.;X{.R.[.[.;X&X.X;X&X&X&X;XOX;X&X.X.X:X&X{.}.[.&X&X.X;X|.oX~.oXoXoXI.~.~.oXXXoX~.I.~.~.oX~.|.|.[.oXXX~.|.I.oX|.oX|.|.I.[.I.[.I.|.XX[.|.}.|.[.}.}.[.I.P.[.I.P.I.].I.[.}.[.I.}.[.|.[.P.I.[.P.I.].E.].P.[.|.{.P.|.|.oX[.}.}.}.I.}.].[.D.R.D.S.R.F.@X[.R.].{.[.F.P.P.].P.[.E.P.I.|.[.[.}.[.P.P.[.I.I.I.K.P.K.K.P.I.P.P.F.S.F.v.F.K.c.L.P.S.L.S.F.S.P.S.S.F.F.F.K.v.S.F.C.S.P.v.S.K.P.C.S.S.P.n.P.K.S.S.S.S.F.D.D.[.].@X].S.F.D.D.].].].}.].P.].[.P.F.S.F.F.",
"OXOX>X}.OX}.@X@X].}.].oX}.}.].].6XjX>X6X|.S.xX2X6X2X6X5X5X5X3XUX5X2XzXUXXXoXXX6X6X5XcXjXcX5X6X6X6X5X2X4X>X6X4X2XjX7X>X>X;X>X4X>XkX;X>X4X;X4X6X>X2X4X4X6X8X6XkX4XjX4X>X2X6X2X;X;X;X;X>X.X>X=X>X;X:X>X=X;X>X2X&X;X6X4X7X=X&X4X;X=X>X:X>X;X>X&X;X:XxX>X.X=X>X;X2X>X;X8X7X8XMX>X$X7X>X&X&X[..X&XiX&X&X&X&X.X.X,X$X&X&X=X.X&X&X X3X8X&X%X=X2XoX1X3X1X*XXX=X~.%X&X*X*X=X>X=X>X:X>X:X=X:X&X>X1X%X1X8X3XXX1X3X*X=X=X*X&X X1X=X X4X3X2X X XXX3X2X*X1X*X*X1X=X*X!.XX1X3X=X1X5XXXXX1X*X1XoX%X1X1XoX%X%X~.~.5X1XUX~.1X1X~.1X%X1X%X%XUX%X~.1X~.1X%X1XXX1X1X1X1X5X1X1X1XUX1X1X1X1X1X5X1X0XXXUX5X5X5X1X5X3X5X1X2X1X1XUX1XUX~.L.[.Z.l.b.>.v.P.R..X{.}.[.{.[.}.}.}.&X=X>X=X>X&X;X&X*X2X4X4X=X*X2X4X2X2X3X7X2X=X2X8X:X7X2X8X8X*X4X:X:X7XkX7X:X:X4X:X:X7X:X:X:X:X:X*X2X2X4X4X7X7X*X2X8X3X3X2X*X2X2X*X9X&X4X7X7X:X:X:X0X:X:X7X>X7X:X:X:X:X7X7X:X&X>X=X=X7X:X7X:X:X&X4X4X:X:X:X*X=X*X=X=X4X*X=X XMX8X4X=X-X#X=X$X#X=X,X=X$X&X$X$X%X X=X=X:X:X,X:X=X=X=X&X:X:X,X1X2X1XXX1XXX%X X=X X=X:X=X&X=X&X9X*X X*X=X*X&X X&X4X1X$X:X9X$X$X=X=X-X&X=X=X3X=X=X2X1X*X%XXXXX&X1X3X1X=X2X X%XXX X3X*X*X*X*XE. X%X=XXX1X%X2X X X X XXX*X%X&X~.~. X%XXX XoX X X1X*X X*X1X&X*X X*X1X&XXX%XXX X X%X3X8X$X=X{.&X[.&XR.{.=X=X].{.].[.$X{.$X#X{.:X&X.X{.,X{.R.R..X.X&X;X;X&X}..X.X;X.X{.:X>X&X}.$X}.$X}.[.}.~.I.~.oXXX~.~.oXXXoXoXoX|.|.|.oXoXoX[.~.I.OX|.|.I.|.oXI.~.|.|.I.|.|.U.I.].[.[.].E.[.oXOX[.oX[.}.}.[.I.P.[.I.I.I.].E.[.I.[.P.P.I.R.].R.].I.I.I.I.F.[.I.}.{.].|.I.[.{.P.E.R.].D.@XS.S.D.R.[.[.E.[.}.D.P.I.[.P.P.}.[.F.I.[.[.[.|.I.P.].|.P.n.L.F.I.P.S.P.I.].L.S.c.[.P.L.P.].F.F.P.K.F.E.P.I.P.P.K.C.L.F.C.F.C.S.F.F.L.S.c.F.K.P.F.F.P.P.S.S.S.U.C.D.S.F.F.F.R.].F.P.@XF.].@XR.F.F.F.S.F.}.].R.P.S.",
";X>XOX}.F.[.].].&X&X}.].@X@X}.}.jX6X>X>X>XP.NX>X;X7X6XkX8X5XUX2XoX5X2X2XUX%X%XUX%X5XcX5XcXcXcXcXcXjX5X6X6X6X6X>X2XxX6X6X6XlX>X=X;X>X4X;X>X4X6X;X2X2X6X3X&X4X2X>X6XkXkX;X2X;XXX;X6X4X;X;X;X;X;X4X:X>X&X>X4X&X>X&X7X>X4X4X4X4X3X2X4X2X;X>X:X7X:X4XxX:X;X.X;X;X2X7X7XkX7XkXxX&X7X7X:X&X}.&X[.h.&X&X{..X:X[.>X,X.X.X>X=X>X}.&X&X~.*XoX1X%X*X*X3X2X1X=X XW. X&X&X{.;X&X;X&X&X;X:X4X&X2X*XXX=X*X9X3X*X3X*X*XXX3X&X1X X X9X=XoX=X%X%X1X1X*XXX1X2X3X*X4X9X0X*X2XXX1X1X X*X*X*X*X=X&XXXXX1XXX1XXX%X*X XXX1X1X1X1X1XUX~.0XUX1X1X1X%XUX%X5X1XoX1XXXXX1X1X1X4XXX3X4X*X4X4X2X2X*X*X2X2X;X*X2X4X4X5X4X*XXX3X*X1XXX*XXX%XoXJ.J.D.l.+.@.I ` k.m.P.{.I.&XE.oX.X[.I.|..X4X&X;X:X&X;X&X>X:XkX4X>X:X4X9X4X4X4X8X4X3XlX3X*X:X8X8X2X4X5X4X2X3XkX2X;X4X7X:X:X:X7X:X4X;X&XXX2X6X8X2X4X8X9X4X4X8X7X4X4X>X:X:X:X:XkX:X7X7X:XzXkX:X:X8X:X:X:X:XiX9X7X:X:X&X*X*X1X*X&X3X*X*X2X8X8X3XoX4X3X=X*X2X1X*X1X X8X8X1X=X2X$X&X$X:X=X&X-X{.=X&X$X#X&X=X;X=X:X=X:X:X=X,X&X&X=XXXXXXX2X*X=X X&X$X&X&X=X{.:X$X$X=X:X>X$X,X:X&X$X&X*X:X=X-X:X$X=X{.=X$X$X=X$X:X:X=X=X&X&X$X=X X&X:X:X&X$X&X&X{.{.{.E.:X:X*X*X4X=X~.&X X%X~.[.&X*X!.%XXX%X*X&X*X&X1X&X*X*X XXXXX*X X%XXX1X*X=X2X X*X*X XE. X~. XXX X1X9X2X&X&X{.[.&X{.{.R.E.D.E.[.&X X[.=X{.&X=X[.,XoX|.{.|. X&X>X#X&X&X}.&X&X}.;X;X>X;X&X&X&X[.[.&X[.[.&X.X.X}..XXXoX~.oXoXXXK.XX~.oXoX~.I.I.I.P.~.oX|.I.oXI.oXoX|.|.I.|.[.].|. X[.I.P.[.}.].E.}.[.oX|.}.}.[.}.[.}.[.P.L.E.I.R.}.[.[.I.[.R.}.}.[.I..X[.[.P.[.I.[.I.}.[.[.I.oXI.P.P.P.D.@XD.P.].R.D.R.[.D.[.].[.D.D.[.P.].P.F.R.[.[.I.I.I.F.S.[.P.P.F.F.L.S.P.P.[.].P.S.S.F.P.S.P.S.[.I.F.K.L.S.I.[.U.[.I.S.S.L.P.I.K.S.F.U.E.P.F.c.z.S.S.v.U.P.L.P.S.K.I.S.c.S.F.D.F.F.S.@XP.].}.].].].].P.F.S.S.c.P.P.S.",
"OXiX4XOX}.}.].{.}.@Xc.m.D.F..X>XOX>X>XjX;XF.NX>X&X6X5X>X5XcXcX5XUX3XXX1XXXUX5XUXUX5X5X5X5XcXcX5X6X5X6XUX6X5X4X4XkXkX4XlX4X4X>X>X>X4XjX4X4X4X6X.X>X;X2X4X4X6X2X2X>XxX2X4X6X6X;X2XoXXX;X;X;X;X4X&X>X:X&X>X&X=X;X.X:X;X*X;X5X3XOX;X2XXX;X&X8X>X4X4X7X7X6X&X=XOX2X4X2X4X>X7XzX[.>X7X&X&X&X}.{.{.,XjX&X.X;X}.=X&X;X>X&X&X{.=X:X&X&X&X*X*X1X=X3X*X*X*X XXX XE.{.:X&X:X&X=X:X:X:X&X&X&X2X&XXX*X1X4X*X%X=X*X=X1X2X1X2X=X3X*X*X3XXX4X3X2X1X1X1X2X X1X1X3XXX1X3X%X%X&X*X*X*X*X*X*XXX=X=X X1X1X*X*X&X%X1XXXUX1X5X1XUX1XXXXX~.1X1XUX1X1X1X1XoX2X1XXX1X2X2X3X1X1X1X2X2X*X*X2X4X7X2X&X4X*X;X*X2X4X8X*X2X4X*X*X2X1X2X1XXX*XI.v.1.P Z a a G >.m.S.S.].I.oX|.|.*XE.[. X&X:X=X=X>X;X:X=X:X:X7X7X7X:X8X4X:X4X4X X2X;X=X2X2X&X2X8X4X8X1X3X8X&X*X:X=X:X:X:X7X:X7X:X X[.=X&X=X2X1X4X2X4X=X4X:X:X:X:X7X:X8XNX&X:X:X7X:X7XzX:X8XkX7X:X:X:X:X:X:X:X7X>X&XXX2X X1X*X2X*X1X2X3X3X1X1X4X%X2X=X*X=X3X4X*XxX0X X X=X=X=X-X-X:X,X$X&X%X$X#X=X$X$X$X&X,X=X:X=X=X&X=X#X&X!.1X1X1X2X:X&X&X&X&X=X=X{.=X{..X{.#X-X#X*X:X$X=X X=X&X&X=X$X-X=X=X=X=X$X$X$X%X-X$X X=X&X{.&X X=X&X;X=X:X&X&X=X:X=X&X&X=X X*X=X2X=X&XXX%X X X%X XXXXX X X*X%X&X*X*X X~.1XE. X!.%X2X*X&X=X3X&X%X X X X X=XE.~.%X&X*X3X8X1X&X&X&X&X}.;X$X&X&X{.[.{.*X,X[.&X,X.X}.=X&X{. X{.{.{..X&X}.&X&X&X&X{.,X[.[.&X;X&X}.}.[.[.oXoX[..X{.;XE.[.I.[.oX|.oX X~.oXI.~.~.|.~.[.~.I.|.|.|.E.*XoXoXoXI.|.I.~.E.I.[.}.}.oXoX[.|.E.oXoXI.[.|.[.[.|.|.|.[.I.S.S.I.P.}..X].[.I.I.I.D.E.].[.}.P.K.R.oXP.F.I.[.I.I.I.}.[.P.F.P.F.R.D.R.F.P.@XR.[.F.F.[.R.P.F.[.[.{.D.S.F.P.S.P.I.I.P.I.P.L.S.P.S.K.F.[.E.P.F.C.P.P.C.P.[.I.P.[.I.L.K.F.S.P.P.E.].I.I.I.P.I.I.P.c.L.F.L.P.S.n.C.S.S.C.c.S.U.S.].I.I.C.m.S.F.S.F.P.F.D.F.P.F.P.D.}.R.].D.P.F.I.P.F.S.",
";XjX>XOX>XNX>X@X@XS.F.G.V.F.}.6XjX6XoXcX4XNXP.kX>X>X6XxX5XUX2X2X5XUXUX1X5XXX1X5X5X5XUXUX5X5XUX5X6X5X6X6X5X5XkX6X>X;XjX6X>X4XlX6X;X>X4X>X&X6XOX2X.X&X*XOX>X.XlX2X4XMX4X7X;X;X;X;X2X4X;XXX>X>X:X2X:X&X;XV.[.;X7X>X2X2XXXXX;X6X4X2XXX.X:X4XOX;X:X>X>X:X>X2X4X7X.X&X4X8X9XxXlX&X>X7X&X&X&X[.].{.}.7X>X=X&X&X&X:X{.;X&X&X{.&X$X X&X&X*X3XXX X&X3X=X&XE. X&X X X&X|.kX>X7X&X>X&X:X;X:X*X=XXX%X*X*X=X*X*X*X1XXX1X=X*X1X3X X1X*X1X3X8X=X%XXX1X1X2X%XXX1XXX*XXX1X*XXX*XXXoX1X*X&X=X3X3X*X X2X=XoX X*X=X=X1X%X%X%X1X5X1X1X1X~.1X%X~.0X1X1X1XoX1X1X1XXX1XXXXX1X*X4X8X&X2X*X:X4X8X.X*X*X2X=X1X8X8XXX*X5X2X2XoXXXXXXXoX~.b.x.K r d = = r ( $.>.m.S.c.L.E.P.[.E.E.[. X:X X.X&X&X=X:X7X7X:X:X7X:X4X=X:X2X=X;X&X2X8X2X8X2X*X4X*X4X4XXX4X=X2X4X4X=X>X8X7X&X:X:X4X&X4X4X4X4X&X2X3X3X9X>X8X4X=X:X7X:X:X7X:X7X:X>X=X:XkX:X:X:XkX=X>X:XkX:X:X:X:X:X:X%X!.1X1X4X*X3X3X3X2X3X%X*X3X*X*X1XXX1X3X1X~.0XzX1X!.XX$X$X$X#X:X$X$X$X=X,X%X%X$X=X:X$X:X=X=X&X=X:X-X=X-X%X*X*X X2X%X:X=X&X&X=X&X&X:X,X{.:X$X&X$X X&X:X$X$X-X=X X$X=X$X%X&X-X X{.=X{.=X=X&X&X:X&X=X=X:X=X=X#X:X#X{.=X&X{.:X=X&X*XW. X4X*X*X%X XXX X X&X X%X&XR.~.*X*X1XXX X XXXXX!. X3X&X~.1XXX1X2X&X*X%X&X*X~.|.|.*X X*X X4X3X*X,X}.;X&X=X>X&X;X[.{.{..XE.|.&X}.&X;X&X{.&X{.&X}.{.}. X}.&X&X&X}.{.;X&X&X{.&X>X&X&X&X{.}.E.[..X&X|..XI.I.` E.|.XX~.I.[.I.~.~.oXoX|.~.~.[.].oXoXI.oXoX*X|.[.|.I.|.P.[.}.E.[.[.}.|.|.R.}.[.[.I.E.K.P.oX}.|.[.I.U.}.[.[.[.|.oX}.P.P.F.P.P.[.}.oX[.[.[.oX}.[.[.}.[.}.[.].P.P.F.P.F.P.F.F.D.D.E.@XR.].].R.[.P.R.R.D.P.F.S.P.F.S.K.K.].I.F.C.S.K.P.S.P.P.P.I.S.L.n.P.U.U.S.P.P.P.U.F.S.P.S.S.K.P.I.P.L.I.I.I.].P.U.C.U.F.P.c.c.F.c.S.S.m.z.S.v.S.E.K.P.S.x.S.S.S.P.].F.].F.[.].].F.[.}.].P.D.F.D.S.S.D.",
"OXOX>X&X;X>XmX>X}.}.}.}.].OXOXOXOXOXoXjXlXxXd.lXzX2X6X2X5XcX5X2XUX5X5X2X~.~.UX5XUX0X5X~.UXUXUX5X6X2X6X6X6X5XOXOX>X>X;X4X;X>X6X;X>X;X6X7X2X&X2X|.;X>X;X>X;X4X8X4X4X4X>X6X6X2X4X8XXXXX&X2XXX:X4X2X:X;X4X>X&X;X:X;X;XoX>XXX2X*X3X;XXX.X4X&X=X;X4X=X>X:X=X&X2X:X>X4X*X>X&X4XxX&X8X:X.X&X,X}.R.;X=X:X&X&X}.&X;X&X>X&X:X&X&X=X=X&X&X&X*X X*X*X*X%X1XXX=X|.E. X{.3X&X=X:X&X=X;X&X&X&X.X:X7X1X X4X*X3X2X*X*X*X%X3X4X2X X*X1XXX*X X1XXX1X1XXX X X X XXX%X3X1X X1X1X*X=X%XXX1X2X9X2X3X1X*X3X%X*X1XXX1X4X3X1X~.UXUX%X1X1X1XUX~.UX~.UX5X1X0X1X1XXX1X~.XX1X2XXX1X*X*X2X*XXX3X3X2X2X&X*X;X3X2X8XzX8X3X&X*X*X4XoX1X1XXX~.~.1.=.r * d * * 0 ! J ! :.>.z.P.V.S.[.P.P.E..X&X:X&X7X;X:X=X7X7X;X7X:X:X&X:X7X;X&X8X&X&X2X0X8X*X2X*X4X1X9X4X5X;X8X9X4X7X:X:X:X>X&X=X:X4X*X6X8X2X;X*X*XXX1X7X:X4X4X:X6X9XkX>X=X:X7X:X:X:X:X:XlX7X:X:X7X:XkX:X:X:X:X4X:X$XXXXX X X1X*X=X1X&X3X=X1X1X1X3X3X*X4X*X4X1X8X8X XXX!. X#X:X=X=X=X=X$X&X=X*X=X=X,X=X&X=X&X,X=X=X:X&X&X$X=X*X3X3X1X&X&X=X&X&X=X=X=X$XQ.&X$X&X:X&X%X=X=X:X&X=X,X$X&X$X&X&X$X%X&X$X-X&X%X{.&X#X&X#X&X{.{.{.{.E.&X{.#X{.&X-X&X&X$XW. X X=X*X2X&X X%X1XXX2X1X1X4X2X=X*X3X*X1X%X1X2X1X4X1X3X=X1X*XXX X1X*X*X&X1X2XE. X=X2X1XXX1X=X8X*X&X{.&X&X&X$X&X$X{.[.{. X{. X&X{.&X#X&X}.;X&X$X&X{.{.R.{.,X&X&X;X}.&X}.&X=X}.:X=X;X{.}.$X}.;X;X=X}.[.E.|. XoX XoX~.~.|.|.XX~.XXoXI.[.|.|.oXUXXXoX|.|.~.oXUX|.~.P.I.[.[.[.}.[.oX[.[.}.E.[.F.k.P.P.P.P.I.E.}.I.I.}.[.}.oX|.}.E.P.I.[.I.P.I.E.[.I.F.F.I.E.[.P.I.[.E.}.[.P.P.P.D.D.R.R.D.F.D.P.R.P.].R.R.].[.F.F.].].P.I.L.P.S.c.S.C.P.S.F.S.P.F.c.F.F.P.I.P.P.I.L.S.U.I.P.K.S.[.P.P.F.S.P.F.P.F.F.I.F.P.P.I.I.S.[.].E.E.F.c.I.I.S.F.F.L.F.S.P.P.K.P.z.S.S.S.S.D.].P.D.].D.S.].[.R.@X}.I.].R.F.F.S.F.",
"}.iX>XjX>X&X}.&X>X}.,X>X;X}.}.>X}.].].>XNXVXc.jXkXlXkX6X5X6X5X5X5X5XcX1XoXUX0XUX5X5XUXoXXXzX5XcXjXjX6X6X4X6X6XoXoX>X>XoX;X}.}.4X&X>X6X4X.X&X;X;X;X6X;X>X;XOX3X>X;X4X6X4X4XlX4X2X4X2X2XXX2X*X2X>X&X&X;X;X7X4X4X;X4XXX;X4XOX2X2X4X4X2X2X;X2X;X.X6X;X=X2X4X>X;X>X4X4X7XoX>XxX:X:X>X;X;X&X}.$X&X:X:X}.&X;X=X=X>X:X=X4X:X&X>X&X{.&X X1X%X X*X1X2X&X1X*XXX%X X X X2X&X&X:X&X=X&X=X.X;X=X=X&X X1X=XXX0X2X=X*X2X%X3X&X1X X*X X*XXX X X X~.XX1X1X1XoXXX~.%X3X*X1X*XoX3XXX X X%X*X1X*XXX*X X2X3X*X%X1X*X1X1X1X1X1X~.1XUXXX~.~.1X1X1XUX%XUX1X1XXX~.1X2X1X1X1X1X2X1X2X2X;X2X1X2X2X X2X2X8X2X4XkX3X*XoX3X*X&X&X2X.XXX~.4.' k * * < < < = x J Z G X.+.#.z.j.Z.D.D.].$X}.&X&X&X[.:X;X>X4X>X7X:X:X&X&X7X7X&X;X4X9X4X*X2X4X&X2X4X5X9X2X1X2XXX1X5X:X7X:XkX=X&X>X&X3X9X*X2XoX&XXX&X3X2X1X2X=X7X&X=X:X:X=X;X:X&X>X:X:X:X:X&X:X&X:X:X>X&X&X&X=X>X:X:XXX!. X X1X1XXX3X9X2X%X X1X1X1X*X1X*X3X9X3X=X0X8X&X$X%X&X$X$X#X,X=X=X$X$X#X$X$X$X*X%X#X&X$X$X*X%X$X&X,X=X$X.X:X*X*X&X9X*X&X:X=X:X:X:X&X,X&X{.,X=X&X=X&X,X=X$X&X&X$X$XW.W.{.$X&X$X:X=X$X$X{.$X3X$X{.E.$X$X[.{.&X=X%X$X{.%X{.$X$X&XE.*X%X X*X=X*X%X&X=X*X1X*X2X4X1X1X=X2X*X*X=X4X9X3X4X3X3X%X&X3XXXXX1XXX9X=X XXX~.&X X=X%XXX%X1X1X&X{.{..X&X}.[.}.{.R.[.[..X{.[.E.$X&X}.{.$X&X$X{.{.[.[.$X}.|.{..X;X&X$X}.{.&X$X}.}.&X&X[.&X&X.X.X&X.X[.|.{.|..X|.I.~.I.~.[.I.oX~.~.|.[.[.E.XX|.XX*XXXoX|.oXoXoX|.}.|.[.[.}.[.|.[.[.P.K.[.I.F.[.P.E.P.I.].[.I.E.I.}.}.I.[..X|.}.I.].[.{.oXoX[.[.E.F.P.E.|..X.X}.I.P.|.[.L.n.C.S.F.R.[.D.R.@XR.].[.[.D.F.P.P.L.I.K.P.D.L.c.x.S.K.P.[.P.P.I.P.[.P.E.P.v.[.S.K.F.S.S.K.L.P.K.S.I.[.I.F.L.F.P.P.I.P.P.P.L.F.F.P.U.}.E.U.P.I.F.I.S.c.C.F.L.S.S.S.S.P.F.c.P.S.S.S.].F.F.P.].].].}.P.].}.].P.I.I.S.F.c.S.",
"OX>XjX;X}.}.&X>X>XOX>X}.}.OX;XOXOXoX}.OXNXNXk.&X;XjX;XkXkX5X5XUX5X1X1XUX%X5XUX5XUXUXUXcXXXUXUX5X6XcX6XjX5X4X>X>X&X>X;X>X&X6X4X>X}.>X6X7X>X2X;XOX2X4X8X2X;XkX5X6X;XI.E.6X2X6X2X>X;XXXOX;X2X;X6X2X;X4X:X&X;X4X>X.X4X2X&X;X2X4X2X4X2X.X;X4X>X;X.X;X2X4X4X;X7X=X=X.X4XzX;X4XxX{.:X:X:X>X=X>X;X>X>X&X;X;X&X>X&X>X&X&X;X;X{.&X&X X X X*X|.1XXX*X3X*X X X*X2X1X&X.X:X*X&X:X&X;X&X&X&X&X.X>X.X&X*X&XXX X4X1X*X2X&X~.[.%X&X X X X X%X XXX1X XoXXXXX~.1X1X%XXXXX*X*X=X1X*X1X%XXX*X1X X*X1X3X*X1X1XXX%X XXX5X1XXX1X5X1X~.%X~.1X~.1X1X5X1X1XXX1XUX1X2X*X2X1X1XoX1X2X*X3X;X3X2X4X7X*X2X&X4X*X&XzX2X*X&X*XoXoX.X*X|.E.K.=.C d < < < , * < < x C C V G X.$.$.N.B.D.R.{.{.&X:X{.$X;X:X&X=X:X&X4X&X:X:XkX>X7X:X:X2X4X8X*X*X4X*X1X3X%X1XXX5X2X1X1X:X:X:X7X4X7X:X:X1X3X2X*XoX.X;X;X1X1X6X2X7X>X7X4X:X:X,X>X:X:X=X7X4X,X7X:X:X>X:X&X:X;X;X=X&X&X=X:X%X XXX%X1X%X1X%X%X=XXX%X*X*X2X*X*X%X4X3X3X3XzX8XR.R.=X$X$X=X X X$X=X$XQ.&X%X=X$X$X%X&X=X&X$X=X,X$X=X=X&X=X X X&XXX%X2X*X$X&X&X&X=X#X&X=X&X=X X$X#X$X&X X*X$X$X$X X&X$X=X$X$X&XW.$X%X$X=X&X=X=X X$X&X:X=X$X$X-X%X{.&X3X*X=X=X=X&X&X2X*X=X1X3X*X3X1X3X=X4X=X*X*X1X3X3X=X3X4X1X*X8X8X*X1X3X1X2X%X*X X9X*X*X&X*X=XXX1X2X XoX~.*X8X&X X.X{.{.&X&X$X[.{.&X{.{.&X{.{.E.}.[.=X&X[.}.&X[.&X&X&X>X}.{.;X&X}.;X&X;X}.&X}.[.;X;X}.R.}..X}.[..X.X.X|.}.|.[.~.~.I.|. XI.~.oXoX XXX~..XoXoX|.oX*XoXI.~.|.|.XXI.}.I.|.}.[.|.[.P.[.I.[.[.[.I.].P.I.I. X}.[.P.F.E.E.[.[.[.|.}.[.E.}.oXP.].I.}.I.I.P.P.}.[.].P.oXP.P.[.].P.c.k.D.D.D.@XD.@XL.E.].R.P.P.F.R.I.I.].I.z.F.I.S.S.F.F.S.S.S.S.I.P.P.S.U.P.S.S.K.L.P.K.K.F.P.P.K.F.S.P.P.K.L.K.P.K.L.].I.P.F.C.S.L.].}.R.P.P.I.K.P.c.n.S.L.I.P.K.P.S.E.F.F.S.S.F.n.S.F.D.F.P.P.[.I.I.].I.P.E.R.S.S.P.C.S.",
"OX;XOX>X;X>X&XOX}.&X}.>XOX;X].>X>X}.iXjXlXxXx.>X6X;X6X5XkX5XUXoXXXXXXXoXoXXXUX5XcX1X~.oX~.XXXX5X4X4X6XkXOX>X2X}.{.>X>X;X.XOX6X>XOX>X4X;X2X4X.X>X;X;XcX4X5XcXkX5XkX;X>X>X4X;X2X2XXXXX2XoXOX&X>XXX.X>X2X>XlX&X=X;X2X;X*XXXXX5X8X*XkX2X>X&X=X;X&X;X|.;X>X;X4X;XoX.X4XkX.X4X:XG.:X>X=X:X:X{.&X:X,X>X>XzX$X;X&X>X;XiX&X.X=X:X*X2X7X XXX*XXX%X1X X*X&XE.&X X2X%X X|.*X>X,X&X&X=X4X=X&X=X=X&X&X*X&X&X*X1X&X*X%X&X XW. X&XXX~.~. X&X X%X%X~. X~.1X~.XX1XXX X X1XXX&X X%X&X*X%X%XXX X X1X3X&X2X%X X X*X%X1XUX~.~.1X~.1X1X1X~.XX1X1X1X5X1X1XUX1XoXXX X*X1X1X4X2X4X*X&X&X2X3X=X2X:X&X1X3X2X&XzX1X5X*X&X*X X X X|.S.3.P 0 3 2 < < 3 < < < q c c S U G J $.3.N.F.P.P.}.&X&X{.{.&X4X&X&X:X=X.X&X&X7X:X&X=X>X:X*X3X2X4X4X&X2X8X1XUXXX*X5X1X%XXX:XkX:X7X2X.X*X*X5X2XXX2X2X4X2X*XXX1X2X4X&X.X&X;X;X=X:X:X&X:X=X>X:X:X7X;X&X:X&X:X:X:X&X:X;X$X&X=XoX%X*X1XXX1X1X X=X1X%X X%X2X1X1X2X1X1X8X1X4XzX8X X&X{.=XW.#X!.&X=X:X:X#X$X$X%X$X{. X=X=X&X}.,X$X,X$X=X#XE.&X1XXX%XXX=X*X{.-X&X=X=X*X X=X{.#X&X#XR.$X&X&X:X,X=X9X=X$X&X%X=X=X$X=X=X%X=X&X%X-X&XW.#X:X=X=X:X,X:X:X$X#X*X&X=X&X&X&X&X%XXX1X3X2X1X3X3X3X1X1XXXXX&X1X*X5X1X2X9X3X2X=X1X1X&X1XoX*X%X*X1X*XXXXX1X2X*X&XXX&X1X*X*X*X0XXX[.{.=X.X$X$X}.&X$XR.{.$X=X{.{.{.#X&X[.{.#X&X&X}.&X&X;X;X}.&X}.{.&X&X&XOX:X&X&X:X&X}.{.[..X}.&X{..X;X{.|.{.[.E.|.|.~.oXoXoX~.|.~.E.oXoX*X*XOX.X|.oXoX|.oX|.|.~.|.I.I.[.[.].[.P.F.I.I.U.[.[.[.I.|.oX[.[.[.|.oX[.P.I.P.[.I.}.[.}.E.R.I.F.E.[.}.P.F.P.].P.P.P.P.[.D.P.oX}.P.F.V.S.P.F.R.S.D.D.R.{.].P.P.I.P.P.I.U.P.S.c.I.c.z.c.S.S.F.P.P.P.P.K.F.L.K.v.P.S.I.P.K.P.F.S.[.S.P.S.P.P.C.P.S.K.F.S.L.I.L.I.F.L.P.L.[.P.I.E.I.F.I.P.S.F.n.P.S.P.P.P.[.S.D.c.D.C.F.F.F.D.m.D.D.P.}.I.I.F.].P.F.P.S.S.c.S.",
">X.XoXOX>X>X>X}.;X}.}.].S.].@X].oX>XOXjXMXjXS..X{.}.lXlXkX6X*X2XoX~.XXXXXX5X1X5X5XUX5XUX~.%XUXUX6X6X6X5XXXXXoXXX[..X.XoX>X&X.X4X.XR.I..X X2X>XXX&X>XOX8X2X2XkX5X4X4X;X2X5X6X5XXX2X2X2X2X&X&X*X4X;X*X.XoX;X.X.X;X2X3XkXOX*X5X&X>X2X&X[.2X4X4X;X;X=X>X4X2X=X;X>X4X;X:X4XkXxX}.xX:X4X>X;X[.[.;XoX&X,X:X;X;X:X&X;X4X&X.X=X*X3X2X&X=X X&X=X3X1X1XXX&X%X X&X%X2X&X&X*X;X&X&X&X:X*X>X>X&X&X*X2X2X X%X&X X~.1XXX1X2X*X X~.E. XXXE. XE. XXX%X2X~.XX1X1XoX X X1X%X%X X&X3X*X*XXX*X3X*XE.*X%X*X*X*X XXX1X&X~.~.XXXX1X5XXX1X1X~.UX1X1X5XUX~.~.1X1X1X*X3X2X1XoX1X3X*X2X*X2X1X5X*X2X4X4X*X8X4X2X8XkX2X.XoX X[.E.[.L.b.' j 3 3 2 3 3 < < < t ] eXeXqXq.S S Y X.$.V.S.R.{.&X[.[.{.&X&X&X{.:X:X;X>X=X:X&X&X:X X&X*X*X2X&X;X8X2X*X2X5X2X%X3XXX%XUX=X:X:X7X3X*X&X%XXX*X2X2X3X*X*X1X1X*X2X1X.X&X;X=X4X;X=X4X&X:X:X&X=X7X:X:X&X:X:X:X=X&X}.=X&X&X;X&X!.XX1X1X1X!. X$XE.~.XX1X1X9X*X*X=X&XXX*XXX%X0X0X&X{.$X=X$XE.$X$X{.$X#X#X$X$X{.$X$X,X$X&X#X#X#X[.=X&X&XE. X*X1X1X X3XoX1X:X=X:X=X$X=X&X&X{.,X#X$X$X=X=X=X-X:X=X=X=X&X=X*X=X=X9X=X=X=X&X&X$X=X~.4X:X&X:X9X:X=X3X:X:X:X=X,X:X=X&X=X1X X&X1X3X3X2X*X2X*X*X*X%X1X*X3X*X=X1X1X4X3X%X2X&X1X2X%X1X4X4X*X2X=X1X1X*X1X3X*X%X&X1X*X&X1X8X*X{.[. X.X}.$X{.&X&X[.[.[.}.{.{. X>X$X{.[.[.&X&X&X,X}.&X&X;X#X}.&XoX.X.X,X&X&X$X}.[.[.[.[.&X;X=X}.|.&X;X.X{.E.|.|.I.I.|.~.UXoXP.~.I.|.|.oXoX2X|.[.XXXX|.oXoXoXoXI.}.E.}.|.E.I.E.S.F.K.}.[.[.I.[.}.|.}.[.P.}.[.|.I.F.].|.I.I.oXoX[.I.P.I.I.I.P.I.I.[.R.S.P.P.P.[.F.P.{.P.L.D.F.S.S.S.S.F.F.D.H.@XP.F.P.P.P.U.I.P.E.P.S.P.F.c.C.}.P.C.I.P.P.P.S.n.P.F.n.S.C.F.I.P.I.P.].[.I.].S.I.P.P.F.S.I.F.P.P.P.I.I.P.U.P.F.].P.I.P.U.E.E.F.P.P.L.P.F.P.P.].I.S.S.P.F.R.F.S.F.S.S.F.F.}.[.F.P.S.P.D.C.m.c.c.c.S.",
">X}.&X&X;X>X>X].}.[.}.}.}.F.S.&X6X>XOXjXkXMXl.S.J.UXUX5X1X%X%X%XXXT.~.E.{.4X;XjX1XUX5XXXoXoXUX6X>X4X6X5XoX.X3X;XoXoXXX*X|.2X3XVX;XP.S.E.4X2XXX.X.XoX|.UXXXoXcXXX6X6X6X;X.XkXjXkXoX;X2XcX6X4X;X&X;X2X4X;X;X;X2X4X8X;X.X6X2X2X8X;X=X4X2X>X6X2X&X4XkX;X>X&X2X4X;X4X2X4X4X7XMX4X:X&X.X&X&X}.$X&X$X;X{.;X.XkX;X&X7X=X;X>X,X4X>X$X&X&X=XXX*X3X1X*X2X%X%XXX1X*X3X X1X3X=X2X&X%X&XXX=X X~.&X&X X%X3X*X*X~.XXXX X%XXX X X&XE.*XE. X1XoXR.1XXX1XoXXX%X1X1X2X~.1X~.oX~.1XXX X3X2X1XoX1X1XoX3X1X3X=XXXXX3X=XXX~.1XXX~.1X%X1X~.UX1X%X%XUXXX2X1X1X1X1XXXXX5X1X2X1XXXoX2XoX2X2X2X;X&X*X2X:X2X4X2X8X*X2X&XoX X|.L.E.S.,.o.e * 0 2 2 0 2 * q y q.uXeXuXqX(.U V o.X.#.j.S.F.[.[.[.E.oX&X*X*XXX*X=X>X=X4X4X*XXX~.2X*X3XXX1X X1X1XXX1X%XXX3X%X1X1X1X=X>X4XXX9X1X1X1X*X%XXX2X=X4X1X2X1X|.%X*X X.X:X&X:X&X4X:X&X&X:X7X.X=X4X*X;X.XoX.X&X=X3X:X&X X=X&X&XW.&X&X*X&X*X X!.~.1X X X1X%XXX X=X X4X%X%X3X9X&X X$X&X%X$X%X=X&X-X$X#X{.$X&X-X{.=X:X=X&X,X#X=X{.=X=X=X:X-X{.;X,X1X=X&X=X=X:X9X=X&X,X&X=X$X&X#X$X9X:X=X$X=X9X3X=X=X4X3X4X=X*X%X3X3X1X X1X1X*X*X*X=X1X2X*X%X%X3X:X4X9X4X%X X X*X1X*X*X*X1X3X1X3X1X9X*X1X~.XXXX*X*X1X1XXX3X4X1X1X*X1X1X&X1X1X2X1X1X2X=XXX1X*X4X3X2X=X*X X=X*X3X X{.{. XE.E. X.X&X&X{.[.[.{.&X&X4X&X$X}.&X&X&X&X}. X=X{.}.&X{.$X&X,X;X.X}.&X$X{.].R.[.oX{.|.&X XoX|.2XUX|.|.|.|.|.|.I.~.oX*X2XXXXXXXE.I.I.|.>XoX|.;X.X.X|.oX.X{.}.[.[.[.}.P.P.I.I.|.E.|.}.[.[.[.[.}.[.}.I.I.[..X[.K.I.[.[.].[.[.].I.P.I.[.].P.I.P.}.R.F.].P.F.P.D.[.F.R.@XF.V.V.S.F.V.F.P.D.D.F.].I.].P.P.K.K.K.P.[.D.P.P.S.C.[.[.I.S.S.P.F.F.L.E.F.P.K.I.P.L.P.P.P.L.L.I.U.P.c.P.I.U.P.S.S.F.P.F.[.I.E.].P.L.L.F.I.P.P.P.[.P.P.R.K.S.S.S.L.U.S.I.K.F.K.I.I.S.P.c.P.S.P.[.I.F.P.[.S.D.R.].S.S.m.c.",
">X>X>X>X}.OX;X&X}.].}.F.[.@X}.>X>XoX}.jX>XNXS.F.J.~.5X5X1X1X~.~.~.~.~.%X&X}.;X&X~.UX2X8X~.oXXX2X2X2X2XXX;X|.OX2X[.|.XX2XoXoX2XXX}.I.P.oXXXoXXX2XXX2X*XI.oX*X2X2X4XzXoX&X4X;X7X6X&X}.OX2X;X:XOX&X.X&X6X.X>X;X4X:X2XMXMX4X;X&X6X8X>X&X4X7X4X=X6X>X>X&X&X;X&X;X4X&X;X>X7XkXMX.X7X>X;X&X.X&X>X>X>X&X.X4X7X:X:X:X>X:X&X;X=X2X7X8X:X{.%XL.E.oX%X X*X&X&X*X3X&X1X4X8X3X&X%X1X&X*X X1XoXXXE.*X*XXX XW.%X%X*X=X X*X X X X=X%X&X%X%X&X X~.%XoX1X1X5XXXXX2X1X1XXX%XoX~.1X1XXXXX*X*X1X4X1X1X*X1X&X1X X1X1X*X%X1XXX1XUX~.UX~.1X1X1XUX%X1X1X~.XX1X1X2X1XXX1X1X1X1X1XXX2X1X2X3X2X*X;X7X2X*X2X4X*XzX3XkX3X=X[.[.I.I.c.| C d 0 2 q 2 3 3 2 2 w w.tX_.tX_.qX/.S n ! ( $.c.D.[.}.D.XX[.E.;X*X;X3X4X=X:X=X7X&XXX1X1X4X1X X2XXX2X2X1X2XXXXX1X5XUX1X2X:X4X3X1X1XXX*X*X&X XXX%X&X1X2X%X1X1XXX%XXX%X2X*X&X:X=X4X:X>X:X:X;X=X3X2X1X1X%X X{.[.{.2X=X4X*X[.;X.X.X&X2X=X3X X X1X X3X9X XXX3X=X&XXX=X%X X4X4X%X*X=X*XW.=X=X=X-X=X&XQ.=X$X$X=X&X,X$XR.:X=X=X$X-X&X:X*X=X&X=X=X=X:X=X4X=X=X:X=X{.=X$X&X:X:X&X,X=X=X:X=X*X,X,X:X&X*X=X=X*X3X3X3X8X3X1X1X3X=X2X1X1X3X=XXX*XXX=X2X:X=X2X2X1X*X*X*X$XXX X*X=X*X%X3X2X3X*X&X%X X%X*X1XE.1X*X*X*XXX%X&X X1X*X=X3X*X3X&X1XXX1X*X&X1X3X*X%XXX*X&X*X1X X XR.E. X X X2X X&X;X&X&X[.{. X.X&X].$X=X}.$X&X$X&X.X[.[.[.[.}.}.}.&X.X&X&X>X[.;X}..X{.[.|.&X.XoXI..X XoXoXoXI.U.~.I.oXUXXXXXoXoX|.[.I.oX[.|.].P.[.|.|.}.}.].;XoX}.E.}.oXP.P.I.[.}.[.}.[.P.[.[.P.P.[.E.R.I.}.[.[.P.K.I.[.[.[.[.E.[.P.[.I.P.P.I.P.P.R.[.{.R.F.D.F.P.D.R.[.D.S.S.D.S.V.D.F.S.F.D.F.U.I.n.I.I.U.K.K.P.P.m.P.l.h.F.P.[.F.v.K.P.S.P.F.F.C.P.n.F.S.F.S.C.F.P.P.P.S.F.U.I.S.F.P.L.S.P.F.I.P.[.P.F.S.S.K.F.P.L.].].D.P.[.P.F.L.P.F.S.v.P.P.S.S.I.F.S.F.K.P.K.K.U.U.L.F.L.P.S.F.j.$.>.j.S.",
">X,X>X>X>X>X>X}.[.&X}.}.].[.].;XOX}.OXjX>X>Xh.h.~.b.~.~.~.~.%X%X~.~.~. X>X;X4XjXXXUX2XUXUX6XXXXX2X2XXX.X|.;X2XkXXX.X X|.oX|.2X|.&X;X|.XXXXoXoX2X|..X5XI.*X2X2XXX|.jX;X;X4X;X4X4X;X2X>XXX;X X;X=X:X8X8X>X>X=X6X=X4XMXNX>X}..X>X2X8X>X7XkX4X;X=X;X&X=XoX>X=X7X2X;X:X&X&X4XcX:X>X;X;X&X,XoX=X;X:X&X:X:XkX=X7X>X:X>X;X=X4X=X=X:X=X{.~.E. X X X=X*X*X=X*X*X=X1X!.*X X*X X X X X%X~. X*X1X X2X~. X1X2X*X*X&X*X1X&X&X1X*XXX~.XX*X*X1X X%X1X%X5X1X1XoX1X2XXX1XUXXX1X1XXX%XXXXX=XXX1X1X4X3X4X1X=X*X*X3X*XUX%X1XXX%X~.1XXX1X1X5X1X1XUX1X1X5XXX1X1X1X%XXX1X2XXX3X*X2X1X2X8X2X*X*X=X4X2X=X8X*XxX2X&X2X5X X*X[.P.z.^ r < 0 2 0 3 2 2 2 < 2 ] _.a.a.a.(././.Y j G ( >.l.S.R.D.R.R.|.&XoXXX*X;X;X7X*X&X3XzX2X*X1X1X1X2X1X X2X1X1X1X1X5X1X1X1X1X=X3X1X1X2X*X*X4XoX1X*X X*X=X3X3X3X3X2X1X4X=X8X:X*X;X;XXX&X:X4X:X=X:X=X*X*X8X~.1X{.&X&X=X*X=X4X&X=X.X;X*X=X*X%X!.T.1X1X~.1X1X1X3X3X3XXX~.2X1X0XzX=X X*X-X&X#X$X=X:X=X=X&X$X$X$X,X&X$X$X#X&X:X$X&X&X{.:X,X:X&X$X:X:X0X&X&X=X;X:X:X&X=X=X:X:X=XW.*X:X,X%X=X%X=X&X:X3X*X;X9X3X3X4X1X1X4X2X&X1X4X3X3X3XXX1X*X*X3X1X2X=X&X:X*X*X1X2X3X&XXXXX=X*X*XXXXX1X&X X&X2X2X X~. X XXX&X1X*X X*X*X X2X&X*X2X1X*X*X*X*X XXX3X=X%X X X~. XXX*X3XXX&X X X{. X.X&X X$X&X$X$X$X{.{.,X&X[.[.&X&X[.;X{.|.[.{.;X;X}.[.$X&XR.}.&X&X&X&X&X&X.X.XoX[.[.|.}.|..XI..XXX X|.~.OXoX|.oX%XoXoXoX[.[.[.;XoXoX}.E.[.[.}..X&X.X&XoXI.E.|.[.].P.XX|.|.|.}.[.[.}.E.I.P.I.oX[.[.I.].[.F.P.P.}.}.}.|.|.I.I.P.].I.I.P.].E.].R.F.S.D.S.D.D.@X].D.D.S.V.m.S.V.D.S.].P.S.F.P.].I.U.P.I.n.K.S.P.S.S.>.z.F.I.P.K.].P.E.P.D.S.z.c.C.h.P.F.F.S.U.F.K.c.S.U.L.S.P.P.F.I.I.I.U.I.U.F.I.F.S.P.P.I.I.[.P.I.P.I.I.].P.I.S.n.P.S.C.U.S.c.P.P.E.F.P.P.P.S.K.S.c.E.U.S.P.c.m.S.j.x.V.V.",
"6XOX;X>X>X>X>XOX}.}.>X}.;X}.OX}.oXoX>XcX>X.XkX&X~.UX1X1XUX1X~.~.~.%X~.E.P.=XjX4XUX1XUX1X2X*X6XcX6XoX|..XoX*X2X;XOX|.UX.XE.oX|.XXoX|.|.|.oX|.|.oXXX2XkX.X6X2X|.|.;X;X4X;X;X>X;X>X.XXX2X3X>X;X>X2X;X>X7X*X&X.X4X;X4XkX7X X[.&X=X.X;X=X X>X;X:X;X4X;X;X;X4X>X4X>X2X;X4X;X>XcX7X=X&X}.}.&X}.&X&X>X.X,X>X:X>X7X:X>X&X>X:X4X;X:X4X>X=X X~. X*X*X XXX*X*X*X2X&X*XXX1X*X1X2X2X%XXXXX*X X%X&X2X&X*X X X*X*X&X2X1X1X*X XoX1X2X=X&X1X%X&X2XoX1X1X%X5X0X1X1X1X%XXX1XL.1XXX~.~.~.~.*X%X3X1X4X8X3X2X3X*X*X1X*X1XXX~.XX1XXX1XXXUXXX1X1X1X0X1X1X1X1X1XUX1X5X5X1X1X1X9X2X*X2X3XzXzX2X2X4X=X2X4X*X2XxX8X*X[.&XE.~.R.F.>.J d < < 0 3 2 2 0 2 q 6 z q.q.i.i.q.q.p.q.T A G o.d.l.c.D.P.K.E..X*X*XoX&X&X&X2X2X8X2X3X1X2X1XXX X5X1X1X1X1X1X1X5X1X%X5X1X3X4X2X9X5X*X2X*X1X*X3X=X4X%X2X=X2X1XXX X*X:X9X2X2X*X1X1X9X8X4X%X;X&X*X4X1X3X3X*X&X.X:X=X1X3X2X=X:X&X*X=X4X*X2X3XXX1X X1X X X X*X*X1X1X*XXX1X8X8X3XXX&X!.-X&X#X-X=X=X9X-X$X:X$X$X-X:X#X4X#X=X=X1X=X#X=X$X=X$X:X:X:X=X7X#X{.=X{.=X&X&X#X$X&X{.=X=X$X&X=X:X=XW.=X:X9X*X=X2X1X1X=XXX1X=XoX1X3X%X%X3X3X1X*X=X=XXX*X*X|.=X*X=X&X%X1X X%X1X X1X|.%X X!.*X*X1X=X X&XE.1X*XXX%XXX*X*X&X*XXX X*X X=X1X&X X%X*X*X*X*X*X*X1X X*X&X X=X1X3X1X$X X X X X XW. X}.&X[.}.[.[.[.&X&X$X$X}.$X&X&X}. X{.{.&X XoX,X&X{.[.&X[.&X}.&XiX.X;X[.E.|..XoXE..X|.|.~.|.2X2XXXoXoXXXXXoXoXoXoXoX[.|.oXOX.X|.[.}.[.oX;X;X;X}.oXI.}.[.[.[.[..X}.[.[.R.P.I.oX[.].oX|.}.|.I.].E.[.P.P.I.[.|..XE.}.P.].R.I.P.L.P.P.].F.D.[.P.F.G.S.D.E.D.F.S.S.V.S.D.S.F.S.S.S.S.P.U.U.P.P.I.|.S.U.S.S.P.x.z.U.P.D.P.U.E.P.x.c.D.P.].I.P.K.L.S.S.S.S.P.P.P.I.L.F.K.L.P.F.L.F.E.L.I.S.P.P.P.L.].P.P.I.}.P.P.P.I.].R.L.F.P.I.C.F.K.P.P.L.U.P.[.E.L.F.P.c.S.S.S.I.F.S.S.c.j.S.c.c.k.S.",
"6X>X>X>X>X>X;X>X>X>X>X.XOX].@X[.].|.oXUXXXUXcX1XUX5X5X1X%X%X1XJ.~.~.~.#X|.2X6X6X>X.XOX2X|.OX2XOXXXXXoX;XoX|.XX6X*X.XXX.XoX.XI.|.|.UXXXXXI.XX3XXX2X3XXX~.oXoXP.|..X4X.X6XkX;X4X4XXXXX;X>X>XXX;X;X*X4X2X|.;X.X;X|.6X=X;X;X}.P.[.&X.X*X2X4X4X:X&X;X;X7X2X>X.X4X4X>X=X&X.X4XxX:X4X&X:X}.#X}.=X.X>X&X2X>X>X&X:X:X=X;X&X&X:X:X:X7X3X4X X X X&X XXX%X%X X*X1X&X&X3XXX1X4X*X3X9X&X*X=XXX X*X*X1X&X=X X X%X XXX&X1X*X*X1X3X*X X*X&X%X*X1X1X1XUXXX0XXX5X1X2X1X1X%XJ.4.I.XX~. X X1X1X1X8X1X1X4X*X=X*X*X X XUX1X%X~.1XUX%X%X%X5X1X5X1X5X1XUX1X%X1X5X5X2X5XUX1X2XXX*X.X;X*X2X&X=X*X3X&X4X4X2X1X8X*X8X*X*XXX XE.c.$.G , , < 2 3 3 0 3 3 3 2 w i.q.(.(.q.t.7.i.9.W U D X.| h.z.K.L.L.I..X.X:X X:X.X&X:X=X2X*X2XXX1X5X2X4X X5X3X2X5X1X2X0X2X5X5X1X1X0X5X1X1X%X1X*X&X8X3X1XXX1X1X2X3X*X=X*X3X9X4X4X1X X1X1X2XXX1X*X*X=X2X1XXX3X1XXX2X*X*X*X3X2X1X*X=X=X:X1X2XXX X~. X1X1X X1X1X1X1X3X%X&X2X=X8X0X=X:X=X&X&X&X#X$X=X=X$X:X$X=X$X,X=X$X$X=X,X=X1X9X:X{.#X$X=X*X9X=X:X:X:X}.&X{.$X>X&X&X$X$X$X&X$X:X=X=X:X=X:X$X=X*X&X~.=X3X=X1X2X=X*XXX*XXX X%X2X*X1XXX X%X X%X*X3X&X~.%X1X*XXX%X X*X*X=XXX*X X*X*X=X*XXX*X*X%X*X X=X*XXX%X*X X*X~. X X X X*X%XXX X1X&X X XXX X XP.=XE.&XXX X1X*X X X~. X2X*X X.X X$X&X}.$X}.[.{.&X;X&X;X&X}.{.$X=X&X:X.X;X&X:X&X&X&X:X{.&X.X&X&X7X;X=X}..X;X=X.XoXXX|..XoXXXXXXX|.XX.XoX2XoX~.oXXXXXOXoXXX>X;X>XoXoXoX}..X;X.XoX.XoXoXoX}.[.|.oX[.P.|.[.|.oX}.E.].|..X[.}.}.[.oX[.[.P.[..X.XoX[.|.I.[.E.].[.P.I.I.@XZ.P.D.P.[.S.S.R.[.F.D.S.S.j.S.C.L.F.F.S.P.I.].].U.K.].[.R.P.P.S.S.x.z.S.P.c.c.v.P.I.P.P.S.S.F.P.P.D.F.P.L.S.S.S.P.[.P.}.I.S.U.[.F.S.P.F.I.S.P.F.U.R.].U.S.F.F.P.].P.P.P.K.E.].U.I.P.S.P.P.U.P.S.I.].S.I.P.U.n.U.F.c.c.S.P.].P.c.l.S.S.k.c.l.V.",
">XOX}.;X;X}.>X>X;X>X6X>X}.}.].}.|.oXoXUX~.~.cX5X5XUX5X5X1X-XJ.~.~.~.~.~.XX;X>X4X6X>X.X>XXX2X2X2XXXoX;X.X~.[.K.*XoXoX|.|.oX|.|.|.oX*XUX*X2XoX2X.XXX2X4XoX|.oXP.XX>X;X;XlX8X>X*X>XOX;X.X>XXXXX&X.X&X;X&X.X&X.X&XP.F.;X X;X X&X.X|.>X&X.X;X>X2X2X7X>X&X:X2X*X|.&X=X>XE.{.6XzX>X4X:X&X&X$X&X>X6X:X.X&X:X&X>X=X&X&X:X&X>X:X:X:X:X:X,X=XE. X=X*X*XXX X=X&X*X1X=X*X*X1X3X1X3X1X=XE.2X1X%XXX*X*XXX&X~.XX1XXX%X*X1X&XXX=X3X&X*XXX2X3X*X X%X%X1X1X1X~.1X1X1XUX2X1X1XXX2XXXXX XXX1XzX8X5X9X%X*X3X*X*X XXX X~.1X%X~.1X1X%X~.%X1X1X%X%X2X2X1X5X1X1X1X1X1X%X%X2X9X1X2X4X:X2X;X2X7X2X2X2X2X X=X2XcX*X8XoX XXX XP.c.#.j * < 2 0 4 3 2 0 3 2 q x T /.M./.N B y.t.Q 9.9.E M Y [ -.,.z.S.L.L.R.[.[.&X&X:X:X=X4X X*X1XXX1X8X*X1X5X3X1X5X1XXX5X2X2X0X5XXX2X8X3X5X1X2X1X1X4X9X1X%X&X4X1X1X3X*X X*X9X8X8X3XXX%X3X1X1XoX4X=X*X2X1X1X1X*X%X1X*X1X1X2X2X1X:X*X>X:X4X1X1X1X1X1X1X%X X!.3X4X2X4X4X1X3X*X*X8X:X&X&X=X#X:X=X#X&X=X$X-X&X=X%X=X=X=X$X&X#X#X&X*X$X-X{.-X=X,X=X=X=X=X-X#X#X{.#X=X#X{.&X=X#X$X,X:X&X=X=X,X$X$X&X$X%X2X*X*X1X&X&X*X*X=X*X2X1X3X=X1X3X*X XXX&X4X&X~.XX*X3XXX*X X X X X X*XoX%XE. X*X*X*X%XXX*XXX*XXX X&X%X3X X X3X%XXX%XXX*X*X*X=XXX&X*X X X%X1X%X X~.E. X=X X1X3X&X X&XW.*X&X=X*X.X{.&X$X}.{.&X$X{.&X&X;X,X=X:X&X[.:X>X&X&X>X:X&X&X>X;X&X}.;X.X;X4X;X>X&X&X2X2X>X;X2XXX*X2XXXoXUXoX.X6X.XXX2XoXUX*X;X2X2X;X;X.X;XoX.X.X.X;XoXOX.X.X.X.X.X.X|.}..X|.|..X}.P.}.[.[.I.oX|.oXoX[.P.[.[.P.S.P.I.XX.X}.].[.}.[..X[.[.K.P.D.D.[.@XD.{.D.R.P.F.F.D.S.P.D.D.S.F.C.D.S.}.>XP.].].S.|.[.].P.P.S.z.F.S.F.D.S.F.I.[.R.P.].P.P.P.I.P.F.L.P.S.S.F.S.P.P.I.[.L.P.L.I.D.P.P.S.P.P.D.S.I.I.[.I.S.I.E.I.P.P.I.E.F.F.P.I.[.P.S.P.P.P.P.I.L.P.L.S.S.S.c.C.L.P.S.F.S.D.D.c.l.P.F.S.l.c.c.",
">X;XoX>X&X>X;XjX>X>X6X>X;X}.}.>XXXUXUXUXUX~.MXUX1X5X5X5X1X~.^.~.^.%X~.~.{.;X=X>X;X>X>X;X>X6XXX2X5X;X*XXX|.[.v.|.|.5XXXXX6XXXI.|.oXXX5XXXoX2XXX.XoXoX*XXX*XXX|.2XXX2X6X8X2X;X;X6X;X;X;X2X.X;X;X4X;X{.;X{.{.I.I.;X:X4X6X}.|.[. XR..X.X&X2X|.|..X&X.X=X=X2X;X&XoX&X}. X&X;XkX:X{..X{.}.,X;X&X,X=X:X>X&X&X;X>X&X:X>X}.:X:X>X7X8XkXxX;XE.&X:X:X:X&X*X=X2X2X1X2X4X1X&X1X=X=XXXE.E. X1X%X X%X%X=X XoX1X*X*X%X&X*X*X2X1X=X*X=X1X1X2XXXXXXXXX1X1X2X1X1XUX1X2X1X2X5X1X5X1X XXX1X5X8X9X2X1X1XXX1X1X1X XXX1XUX1X1XoX%X~.UX5X1X1X1X1XXX1X5XUXUX1X5XUX5X1X%X1X1XXX3X;X*X*X*XXX4X4X2X4X2X&X.X3XXX*X2X3X*X*X XE.K.h._ 0 d < < 2 2 2 2 2 3 q a R 6 D /.] z 9.q.t.7.7.U Q U E U ~ | h.h.S.P.E.[.E..X X&X.X2X.X2X2X4X1X5X1X8X2X2X5X5X1X2X1X5X1XUX1X1X1X1X2X2X1XXX1X1X4X8X2X3X1X4X1XXX=X3X3X1X*X3X8X8X1X%X|.1X X1X1X9X1X3X=X4X3X1X*X%X1X*X*X*X*X=X1X2X2X2X9X3X3X1X1XXX1X1X1X X3XoX1X*X*X1X1X*X*X0XzX:X3X=X=XW.$X$X{.-X=X$X#X$X%X$X$X-X=X$X$X#X[.&X-X$XW.{.%XW.=X3X&X$X&X$X&X$X&X#X=X{.#X X$X[.$X$X$X&X=X%X3X:X,X$X*X*X=X*X&X&X*X&X1X1X1X*X%X3XXXXX4X1XXX*X*X*X*X1X X=X1X3X*X&X=X XXX*X~.=X*X X*X X%X*X%X%X&X&X1X1X XXX3X3X8X1X X3X3X X*X1X&XXXXX%X X&X&X&X X~.&X&XXXR. X X X X X2X=X~.&X X&X*X&X&X X&X].}.=X=X;X[.$X X X&X.X&X>X=X>X&X>X.X&X,X;X;X;X&X&X&X&X&X;X;X;X6X;X&X;X6X;X3X4X2XXXoX*X.X*X2XoXoXoXXX.XXX.XXXXX.X;XXX2X>X&X;X;X.X}..X;X;X.XoX.X.X.X.X.X}..X.X.X}.oX[.I.P.[.P.P.E.}.}.[.[.U.}.}.[.F.[.[.oXoX[.[.{.I.].}.[.}.R.[.R.].[.[.@XD.S.@X@X[.R.F.D.S.F.R.D.S.S.D.c.F.;X].}.[.[.[.}.{.[.P.m.S.S.F.F.I.P.F.S.].D.].P.].P.I.}.I.P.F.P.P.P.P.U.P.I.E.[.[.I.U.P.].P.I.P.F.I.F.F.P.P.[.P.P.P.I.I.I.P.I.I.P.I.I.I.P.P.U.P.L.F.S.S.S.P.F.S.K.S.F.P.F.S.S.S.S.P.D.S.S.P.S.S.c.c.j.",
">X>X>X>X>X>X;X;X>X>X6XiX>XOX}.&XI.oXXXUXoXUXcX1XUXUXcX5X0X~.~.J.~.~.~.~.{.}.;XkX>X;X5X;X}.6X;X4X2XUX5X*X2XUX[.*X2X6X.X2XXX2XXX2XoX1X*X1X XoXXX|.oXP.oX|.oXXXXX;XXXXXXXXX2XXX2X;XXXXX[..X&X;X;X&XoX.X>X;X.X&X|..XE.E.E.&X.X X|.[.|.&X;X2X;X.X.X|.[.}.[..X}.6X{.oX.X[..X>XzX7X&X;X&X&X4XXX$X&X>X>X=X&X;X.X&X>X,X;X:X&X&X&X>X:X:X:X7X4X:X4X4X*X8X2X3X4X4X4X&X%X3X2X1X*X=X4XXX%X4X*X8X~.XX XXX X1X*XXX X3X&XXX1X X*X*X1X*X*X*X=X X%X1X2X1X%XUX~.2X~.1XXX1X1XXX1X8X2X%XXX%X%X1X1X3X2X1X&XXXXX X X X$X~.~.%X1X1XUX~.1XoX%X1XUX%X%X%X1X1X%X1X1X1X5X5X~.2X1X5X*X X*X2X*X*X&X2X XXX2X3X*X*XkXkX3X2X*X XP.L.3.Z & < < d 2 2 0 0 2 2 2 z Y 4 , z 6 Y _.(.i.t.7.Q T T T W U R ! ..f.c.P.E.[.{.[. X&X;X&X=X*X1X5X2X2X5X1X4X1X5X1X1XcX0X1X%X5X2X1X1X2X1X5X%XXX=X1X3X1X4X2X*X1X*X&X1X2X*X=X=X X%XoX%X1X%XXX3X1X1X2X%X=X1X1X1X9X1X*X%X1X1X9X=X%X2X1X*X1X4X3X3X9X%X1X1XXX*X1X1X*X3X=X8X*X9X8X8XkX=X=X:X=X=X{.$X{.9X9X:X$X%XW.$X=X=X=X=X=X=X#XW.=X=X-X-X%XW.=X=XW.=X$X$X%X%X,XW.$X{.&X!.*X,X&X#X&X=X&X X&X=X=X,X&X{.*X*X3X*X3X1XXX*X2XXX=X3X1X%X=X%X X X*X X&X~.=XXXXX X%X*X XoX%X1XXX*X*XXX*X XXX*XXX*X*X X&X*X*X X=X8X0X4X1XXX1X=X~. X X X%X|.%X*X X&X$X$X X%X=X*X~.P.&X X*X2X XE. X X&X X X2X X$X:X=X>X=X&X[.{.{.}.=X;X;X&X$X:X=X&X=X>X;X:X>X;X;X&X;X>X>X&X&X>X=X.XoX;X2X2X;X*XXXXXUXoX~.XX2XoX|.|.XXXXXX2XXXXX|.oXoX;X>X&X;X;X;X;XOX.X;X>X{..X}.oXoX;XXX.X.XoX[.}.[.[.[.I.[.I.[.[.E.F.I.I.E.E.[.I.E.|.}.}.E.[.}.R.[.|.[.].|.;X}.$X].{.[.[.[.[.L.[.}.{.].I.[.R.F.D.F.L.P.P.}..X].[.I.}.oX}.].P.I.P.D.F.S.R.F.P.P.].P.].[.S.P.}..X].[.].P.].[.P.P.I.}.[.[.[.].P.P.P.[.I.].R.D.].].E.P.F.F.[.F.P.I.U.I.I.P.I.I.P.P.K.U.L.S.P.F.S.n.S.P.P.I.c.S.C.v.F.L.F.S.I.P.].S.D.F.c.D.P.k.h.",
">X>X>X>X&XOX;X>XiX6X6X;XOX.X>X>X>X>XjXjX&X>XNX>X0X-X0X1X-X~.^.J.~.1XXX2X2XoXoX5X&X6X>XkX}.2X;XoX;X}.[.XX;X.X[.oXXXXXXX[.|.6X5XXX2X.X*XXXoX~.oXI.l.v.P.oX~.oXoX1X|.|.P.oXXX.X*X6X2XXX~.XX4X2X&X.X;X*X6X4XXX X.X&X XXXE.|.E.&XoX*X.X|.;X&X>X{.[.;X&X.X&X&XoX}.[. X=XoX>X&XzX>XW.&X.X:X7X{.=X&X}.;X;X=X&X>X:X>X:X>X:X:X:X:X&X7X:X:X4X&X7X>X>X{.kX:X=X&X2X;X4X9X9X*X=X4X9X3X1X1X3X9X*X*X1XXX&X&X&X1X1X1X*X3XXX3X3X XXX1XXX=X&X3X X*X4X1X1X*X2XXX1X4X3X*X2X2XXX1X1X1XXX2X1XXX1X1X1XoX1XXX1XXX!.XX$X=XXX1X1XXX*X5X%X2X1XXX1X1X~.oXXX~.%X1XXXUX1X5X1X1X~.1X5X1X1X1X1XXX1X2X4X2X2X*X X*X.XzX5X&X*X2XE.~.c.$.O.* 2 d d 2 0 2 0 2 2 2 o.S 2 2 2 1 y w.qXi.t.q.8.8.T W Q Q W S F / :.k.l.S.P.{.{.E..X2X&X X2X4X:X4X3X&X*X4X4X1X2X1X3X9X1X3X1X2X5X0X1X1XoX%XXXXX1X5X%X1X1X1X1XXX%X3X1X1X1X~. X X X3X1X1X%XXX3X3XXX1X1X X1X1X1X1X1X5X1X1X1X5X~.5X1XXX2X2X2X1X1XXX~. X1X1X*X1X*X3X1X1X8X0XxX0X4X*X1X1X=X=X$X&X%X=X=XE.-X#X&X=X=X-X=X&X$X#X#XW.E.$X#X#X:X=X$X#X=X-X-X#X&X$X$X-X&X-X#X&X,X X&X-X&X=X=X=X:X&X=XE.*X2X*X*X*X1X*X1X1X*X*X1X4XXX1X*X*X2X*X1X=X1X2X=X|.%X3X1XXX1X*X*X&XXX1XXX*X~.=X=X*X*XXX X X X&X=XoX1X8X0X3X3X&X1X%XE.*X*X*X*X%X*X*X*X%X X#X&X{.=X&XR.W.7X X3X3XW. X*XXX1X X1X*X&X;X|.{.&X#X{.:X}.&X&X{.:X>X}.:X=X>X{.;X:X&X;X;X;X,X6X>X X&X2X:X=X=X2X;X.X.XkX8X>X2X2X*XoX*X2XXX|.|.XXoXXX;X;X;XXXoX>XXX;X;X&X4X>XoXoX>X&XoX>X|.|.}..X&X2XoX}.}.[.E.].[.}.E.I.[.[.I.}..XI.P.I.[.[.}.I.[.I.[.oX}..X}.[.}.[.[.[.{.oX[.&X}.{.].[.}.[.R.P.[.[.E.D.[.P.D.P.R.P.S.D.F.OXUXI.].}.[.}.}.}.L.S.m.F.D.S.].[.[.}.[.[.[.F.F.P.I.[.}.}.}.[.I.I.I.P.|.{.P.P.P.P.P.[.[.F.P.F.P.].].F.D.P.F.}.F.[.F.D.F.P.P.P.P.L.F.S.F.S.L.[.S.c.D.S.F.l.h.h.c.S.c.S.F.[.P.L.S.S.V.F.F.V.S.S.c.c.",
";X>XOX>XOX>X;X>XjX>XjX;XOX>X}.>X>X>XcXlX;X}.jXkX-X^.1X-X^.~.J.J.~.~.XXXX5X6XoXXX>X;X>X8X].4X6X{.oX.XI.[.XX|.XXXXXXP.|.[.oXoXoX.XoX2X6X2X XL.K.J.-.I.|.2XUXoX6X*X.X.X.X.XoX~.oX5X6X2X[.I..X;XoX.X|.;X.X&X X&X|.|.&X XP.P.|.XX X&X:X&X:X}..X.X[.|.:X6X2X&X;XP.E.}.}.&X&X.X8X4X:X>X:X{.}.&X}.;X:X:X:X4X>X4X:X;X=X7X:X}.;X>X>X:X>X>X;XcXzX7X7XlX:X7X=X&X;X=X&X4X8X*X1X3X3X3X*X2X3X*X*X*X*X1X*X2X1X&X1X*X3X=XXX%X4X1XE.&X~.*X X8X X3X4X*X*X2X3X1X1XXX%X%X%X*XXX1X3X1XXX%X1XXX1XXX~.XX%XXX X X X XXX%X~. X X~.*X*X2X%X2X1XXXXXXX1X1X~.~.oX1X%X1X0XUX~.1XUXXXXX1XUX5XXX&XXX*X3X2X4X&X4X2X8X8X2XXX X|.P.l.%.a * d 2 2 2 2 2 q 0 2 2 y e 2 2 4 5 1 b )./.q.8.T T E Q T 7.W U E S H X.>.j.C.S.P.R.{..X;X2X4XzX4X2X2X4X4X4X5X2X*X5X1XoX1X4X2X1X5X5XoXoXXX%X%X%XXX1X5XXX5X1XXX2X1X1X%X2X9X%X1X1X%X1X%XoX1X1X3X3X3X1X1X1X1X1X%X~.oX%X1X%X1X1X1X1X2X1X1X1X1X1X1X%X X X X%X*X3X9X3X3X1X*X4X0XxX9X=X3X%X=X9X&X%X=X=X=X#X#X:X=X=X=X&XW.#X#X$X{.&XW.$X#XE.=X$X:X,X#X9X=X$X=X:X&X-X#X&X{.;X*X%X&X=X:X&X=X=X=X:X:X=X*X2X1X3X3X&X2X1X3X3X*X3X9X1X1X3X2X9X1X9X4X*X1X3X=X*X*X1X1X*X1X2X1XXX*X1X&X=X2X2XXX=X*X1X*X1X*X2XXX*X1X1X&XXX1X%XXX*XE.*X2X1X*X3X*X1X X:X&XW.#X&X:X{. X*X&X3X4X X X%X%XE.oX&X&X*X{.=X&X.X}.}.&X&X{..X[.{.=X;X&X&X.X=X&X}.}.&X=X>X6X:X;X:X;X>X;X;X>X2X4X;X.X&X2X;X2X6XoX2X6XUXXXXXoX;XXXXX;XXXXX>X&X2X.X>XXX>XXXoX;X&X;XoXoX[.}..X}.|..XoX[.I.P.I.[.E.P.[.I.[.[.I.].P.R.[.L.].[.F.E.[.[.}. X[.[.|.|.E.P.[.].}.I..X&X}.$X{.[.&X{.[.].R.].R.].R.R.].D.D.F.S.F.P.I.}.kX}.I.[.].[.[.[.}.c.P.P.F.I.].}.}.].D.].}.}.].F.P.P.P.}.I.I.].[.].}.[.[.}.P.I.I.P.I.R.P.I.P.P.].R.F.].].P.P.[.].S.S.D.S.S.F.K.F.S.c.P.U.S.K.v.S.F.S.C.S.f.z.z.c.m.S.S.D.F.P.F.F.D.S.F.S.c.D.c.x.",
";XOX;X>X&X}.}.}.;XOX}.;XOX&X>X&X>X6X6XjX}.6XlX>X-X#XJ.#X-X~.^.#X~.oX5X5X.X;XE.|.U.}.>X&X;X;X;X[.>X;XR.I..XXXXX5X2X|.K.|.XXoX|.oX|.1X2X XK.oX~.oXI.K.P.*X~.oX|.4XXXI.|.;X|.2X2XoXXX5X|.I.|.2X;XoX&X>X X|.XXE.E.|.|.*XP.1X4XE. X&X.X;X;X&XoX=X>X&X>X2X>X.X|..X[.&X.X.X4X>X7X.X&X&X&X{.R.{.&X&X&X>X:X7X;X&X:X:X;X>X&X&X;X&X:X8X:X:X4X,XzXlXzX7X>X:X,X&X4X*X.X*X3X4X3X3X1XXX*X&X3X*X%X&X*X1X1XE.*X2X X*X2X1X*X*X=XXX*X*XXX%X X*X&X*X1X4X*X1X1X3X1X X XXXXX2X2X0X0X3X%X%XXX1X5X1XXX3XXX=X X X X1X XXXoX XoX XXXoX1X%X1X2X1XoX1X%X~.%X%X1X1X1X1XUXUX~.1XUX1X1X%XUXUX1X&X2X&X*X*X=XoX:X.X8X5X X X X|.P.c.h.f > < d d 2 0 2 2 2 2 0 0 2 q 2 2 4 2 2 w.(.t.7.7.7.W W 7.T Q W U 9 2 V F ( #.z.S.S.}.E. X>X:X8XkXzX2X*X.X&X5X1X%X*XXX3X%X1X1X1X1X1X1X1X1XXX1X%X1XXX1XXX1X0X1X3X1X1X1X=X1XXX1X1X X1X1X1XoX%X1X1X%X!.1X1X1X~.1X1X1X1X%XoX~.%X1XXX1X5X1X1X1X5X1X1X1X!.1X%XXX1X*XoX3X4X0X9X0XzX2X8X=X$X3X=X=X=X-X&X$X$XW.=X,X%X#X-X=X=X#X$X#X&X&X#X#X=X#X$X9X=X&X-X9X9X=X=X#X=X-X-X=X&X=X4X=X9X:X=X&X:X$X=X*X=X2X1X1X1X3X3X0X3X*X3X2X1X1X*X3X9X4X3X4X=X*X2X*X3X4X*X*X*X3X3X4X1X3X1X3X%X*X1X1X*X1X3X*X X X*X1X*X$X X XXX%X&XXX~. X&X%X*X~.1X3X2X=X2X1X&X:X4X=X*X=X&X{.&X*X3XW.E. X X&X*X X X2X X&X&X.X&X$X&X&X}.{.{..X&X,X}.}.&X;X>X$X}.&X&X}.$X=X.X;X:X>X&XoX2X;X&X;X.X.X;X;XXX3X2X2X2X2X2XXX|.oX|.oX&XOXOX;X.X>X;X>X2X>X;X6XXX;XOX>X.X}..X|.[.&X&X.X}.[.K.I.I.].|..X.XoX[.[.}.I.P.P.P.].I.{.I.|.}.[..X|.}.[.[..X[.].[.{.}.[.oX&X}.{.}.@X{.].D.[.R.R.R.R.F.R.P.D.F.P.D.F.P.I.}.>XXX[.}.I.].F.F.R.].S.F.].[.}..XD.F.].P.[.P.P.P.F.P.[.I.].R.[.E.P.P.I.U.[.[.].[.I.E.}.].R.].}.R.P.P.P.].].F.D.R.S.S.F.S.S.S.F.K.S.F.S.L.F.P.U.P.F.D.S.F.C.S.k.k.z.c.S.F.F.C.K.P.].D.F.S.c.S.x.l.",
";X;X].].}.}.}.}.&XOX[.}.OX;X>XOX}.,X>XxXF.jXlX X^.#X#X#XJ.J.~.J.~.4.UX1X>X&X|.}..X>X;X>X4X;X>XOX4X4XoXS.XXoX.X;X;X2XoX[.~.oX|.|.|.6XzX2X|.oX|.|.4X8XK.oX|.4XcX4X|.P.|.E.oXoX.XXX|.XXP.P.R.>X.XE.{.8X4X>XE.K.E.XXXX*X&X&XXX2X4XXX.X.XXX&X&X{.6X.X{.&X7X:X&X;X&X;X:X&X7X:XkX:X:X&X:X:X{.{.}.{..X,X&X;X,X:X:X>X;X7X}.;X&X.X,X:X>X=X>X:X:XkX&X:X*X&XOX&X;X:X:X=X1X3X*X2X&X1X X1X1X*X XoX1X*X=X X*X*X|. X%X*X1X%X X=X%X&X X X X1X*X=X1X9X1X1X1X3X4X1X1XXX1X1X3X2X2X2X2X2X3X2X1X1X5X1XXX*X%X*X*X XXX X X~.1XXXXX~.%XXX2X1X%XXX1XoXUX1X1XUXXX1X1X1X1X%X~.1X%X%X1XXX1X1X2X4X;X*X2X3X2X:X*X4X8X&XXX&X|.R.P.,.O.d < 2 2 2 2 0 0 2 0 2 2 q 2 2 6 2 2 , 6 X.i.7.7.q.q.7.8.W Q Q W B q Y S 2 c Y d.n.].}.&X}.6X:X2X&X4X;X;X;XUX*X5X3X5X3XXX1X2X1XUX1X1XXXoX1X2XoX1X1X1X%XXX2X9X4X*XXX*XXXXX%X~.!. X1X%X~.1X1X1X1X%X1X1X1X%X1X%X1X%X1X%X1X1X~.1XoX1X5X2X1X5X1X4X1X1XXX1X~. X3X1X*X1X3X4X8X0XxX;X=X4X$X%X=X%X=X=X=X$X$X$X1X9X3X$X-X$X=X=X=X#X$X:X#XQ.&X=X-X0X=X=X=X:X=X-X=X=X7X:X&X$X&X*X=X=X:X$X:X:X:X&X=X%X4X9X1X=XoX1X1X3X4X1X*X3X*X*X1X3X4X0X3X3X2X2X1X1X1X1X*X3X3X0X3X3X4X3X3X1X=X3X8X*X*X*X1X3X1X1X2X3X3X1X*X X=X4X3X XXX X%X3X2X*X*X3X1X4X9X3X&X=X=X%X&X&X=X&X&X X1X*X XXX1XXX XE. X=X2X:X&X;X X&X[.=X&X.X&X&X{.&X&X}.&X.X,X&X&X=X;X&X>X>X&X{.>X4XoX.X;X.X.X[.|.;X|..X;X4X2X6X1XXX2X2XoX.XoXXXXX&X;X.X;X;XoX.X*X.X.X.X;X;X;X.X.X.X.XoXoX.X|.|.}.E.I.}.[.|.}.|.}.}.|.|.I.D.].[.I.[.I.}.[.[.}.oXoX|.|.}.[.[.[.E.[.[..X|.|.}.}.}.}.D.R.P.P.[.].[.@XP.F.D.S.P.F.R.P.].S.oXI.6XoXI.}.].oX[.I.}.F.P.P.].[..XoX}.}.].R.[.].I.F.P.P.}.I.}.}.|.P.F.P.I.P.E.R.].I.].].P.].}.[.}.].F.P.].].E.F.F.F.F.P.S.C.S.L.P.L.S.S.S.P.S.S.S.P.I.F.L.S.S.h.z.>.h.,.S.P.L.S.L.P.R.F.D.S.k.C.l.j.",
"OX}.OX>X;X}.OX>X>X>X{.>XOXOXOXoXOX>X>XlX[.6XjXW.#XJ.#XJ.6.=.b.1X&X&XxX:XR..X&X>X8X.X.X>X4X6X>X.X>XjX4XI.oX.X;X|.oX;X4X&X;X.X|.|.[.oX.XoXP.~.R.E.2XoXv.I.P.oX*XI.[.oXv.oXoXE.K.I.oX*X X|.|.2XXX[.|..X2X;XE.|.E..XoX X|.XX2X XP.~. X.X.X;X;X{.;X=X{.[.;X7XoXoX.X4X>X:X;X{.kX>X{.:X&X&X{.D.{.;X&X}.>X7X{.&X;X>X&X&X=XkX=X>XoX{..X{.4X=X&X7X7X>X4X&X2X X2X&X4X*X=X2X*X%X&X1X%X*X*X&X X&X&X1XXX*XT.~.~.XX=X%X X1X*X&X X2X3X=X2X=X1X4X4X9X4X2X1X5X9X1X9X0X8X%X1X=X1X8X3X5XzX3X5X1X1X5X*X*X~.%X*X1X=X*XoX1XXXXX1XXX1XXX1X2XXX1X X2X2X1X1X~.1XUX%X1XUX1X1XXX2X1X1X1X5X1X8X2X4X*X2X;X*X*XXX X X8X.XXXE.|.{.C.Z < < < d d 2 2 0 2 2 2 0 2 4 4 2 2 2 2 2 y { 0.Q Q 8.8.t.t.8.Q T 8.N U T N p G G  .].].&X;X.X4X7X4X4X8X2X2X4X1X8X1X3X3X3X1X5X0X1X5X%X1XoX~.XX2X1X1XXX1XXX1X1X1X1X|.XX*X%XXX1X1X%X1X X1X1X1X1X%X%X1X1X%XXX1XXX%X%X1X1X%X~.%X3X2X1XxX9XXX%X%X9X1X1X%X=X*XXX=X1X1X1XXX1X9X0X8X=X&X3X%X=X{.&X=X-X$X{.#X=X0X0X9X=X#X-X:X-X:X$X=X=X$X=X$X=X=X=X:X=X=X%X9X:X=X:X=X=X#X$X=X&X=X&X=X$X=X:X:X=X7X=X:X&X=X1X2X3X&X1X2X*X1X*X=X3X*X1X*X1X1X4X0XzX1X3X=X4X3X1X8X3X3X0X3X8X4X0XXX*X*X*X3X3X2X8X2X9X3XXX3X*X1X&X*X3X4X1X*X X=X*X1XXX=X2X&X1X3X*X=X*X:X X9X=X&X1X*X&X2X1X*X4X0X*X1X*X*XR.[.&X&X&X&X}.#X$X&X=X*X{.]..X>X=X&X&X&X&X&X;X,X;X}.[.[..X.X&XoX{.>X2XoX.X&X2XXX|.2X2X2XOX2X2X|.2XoX}.[.oX.X.X|.}.;X&X&XoX&X|.|.OX[.oX;XOX{.;X&X;X.X}.[.[.oX[.}.}.|.oX{.|.[.|.[.oX].P.I.P.I.[.[.[..X}. X[.oX|.}.[.}.I.}.E.[.}.[.[.}.{.{.[.&XR.F.[.P.[.@XF.D.[.].D.[.I.S.D.F.D.I.}.I.[.6X6XOXP.].}.P.oX].P.P.S.]..X}.;X>X[.}.I.].P.}.].}.}.}..X}.E.].E.P.F.L.U.[.I.I.P.P.[.P.[.[.R.].P.U.S.U.I.P.P.U.S.S.S.F.C.F.I.F.U.K.S.P.P.v.S.K.F.F.S.c.k.z.c.c.>.h.S.F.n.F.L.S.S.V.F.x.c.h.m.z.",
".X>X;X>XiXOX>XOXjX>X>XjXkXjXjXjX6XOXjXcXS.>X&X!.^.J.^.6.J.~.<.J.,X>X:X:X>X&XlXMX>X;X4X;X4X8X6X;X:XoX2X.XXXXX.XXX;X5XXX2X>X.X;X{.I.P.E.U.L.oXoX2X5XoXP.oX|.XXoXI.E.K.oXoXE.|.C.P.oX*X|.1XoX2XXXoXoX;X.X7XXXb.z.|.E.XXXXP. XoX&XXXE.|.{.;X.X&X7X>X{..X:XlXlX=XR.[.kX=X&X}.D.$X:X:X>X:X&XV.[.&X&X&X>X7X&X&X;X,X&X&X;X>XBX:X.XkXkX>X&X>X;X&X:X:X:X3X*XXX=XXX&X X=X2X=X4X2X&X*X&X2X XE.*XXX*X*X4XoX X1X2X*XXX3XXX2X3X*X4X9X2X2X9X2X*X8X8X8X1X2X4X8X8X3X2X5X2X2X4X8X2X1X0XzX5X5X5X5X0X3X4X4X4X3X2X3X*XUX1X0X1XXX%X1X1XXX1X1X2X3X3X9XXXUX1XXX1XUX1XXX1X1X1X5X2XXXcX5X2X3X2X*X4X;X*XoX[.|.*X2XkX*X X;X[.&XS.` 0 d < 2 2 0 2 2 0 q 2 0 2 2 q q 2 2 2 2 2 y M t D 7.9.t.t.8.7.7.8.W W 7.7.c > 3 D } m.].{.&X2X.X4X2X*X2X8X9X6X2X2X2X4X3X4X1X5X5X2X2X2X1XoX%X9X3XXX%XXX1X1X1X1XoX1X1X%X%X1X X X~.1X1X X1X1X%X%X1XXX1X1X%X1X%XXX1X1X1X%X%X~.*XXX1X5X1X2X3X2X!.%XXX3XXX1X%XXXXXXXXX%X4X8XMX8X4X&X=X=X#X#X#X&X=X$X#X$X%X9X=X=X=X:X&X=X=X-X=X-X=X$X$X=X9X=X=X-X=X-X&X=X:X=X-X9X=X=X:X-X:X=X=X-X{.&X=X&X=X:X=X&X*X8X X2X1X3X1X3XXX3X3X*X1X4X4X%X1X1X3X8X8X1X3X=X1X2X1X1X9X4X4X1X3X8X1X8X3X*X*X*X3X3X*X1X*X1X1X1X3X1X*X*X8X*X=X=X X4X4X*X*X1X=X1X*X%X1X3X3X%X*X&X&XXX*X*X*X*X*X X%X*X*X X X=X&X{.&X;X&X&X{.}.&X&X;X>X,X&X&X;X&X;X}.&X}.;X.X&X&X&X;X;X;X.X:X&X&X|.*X|.|.oXXXoX.X2XOX;X*X5XXX|.oX2XoXoX[..X;X|.[.;XoX}.}.oX;X.X|.}.I.oX{.}.OX}.|.oX.XoX[.|..X|.[.E.}.[.oX}.oXoX.X{.I.}.[.oX}..X|.}.I.E.[.;X|.[.}.I.].|.P.}.}.{.[.[.}.}.}.[.I.].I.{.[.R.R.D.[.R.C.P.L.P.P.P.P.F.P.I.I.OX.XoXP.I.P.I.].I.F.c.S.S.F.}.].[.R.R.}.[.P.R.P.P.[.R.}.}.I.P.I.].E.F.P.P.I.].I.P.P.].P.].R.F.S.S.P.S.].P.S.F.P.L.P.L.I.P.S.P.L.P.K.S.P.S.P.S.D.[.D.S.S.c.c.x.V.l.x.c.c.].F.P.F.F.S.S.c.h.f.x.",
"iXjXiXOX>XiXOX>XOXjXjXjXcXjXjXcXjXjXjXxX[.lXxX!.#X6.~.J.J.J.%X~.;X>X$X}.[.7XMX>X>X&X{.L.P.{.&X.X{.{.&X.X8X2X3X;X;X&X4X;X X;X.X}.oXP.K.I.[.P.oX2X|.|.L.~.P.oX|.[.[.E.~.&XXXoXL.P.~.2X2XXXE.Z.[.*X}.{.{.[. XR.S.E.|. XE.~.~.E.E.L.K.|.{..X;X&X:X=X&X&X{.:X4X&X=X>X;X&X=X#X>XlX7X7X&X&X&X{.&X&X}.&X}.4X{.,X{.;X&X>X;XzXMX7X:X,X>X&X:X2X>X>X8X>X&X7X8X*X1X1X%X4X4X2X2X4X3X2X&X*X8X*X3X2XXX*X*X&XXX*X*X*X4X3X8X4X3X8X8X5X2X8X4X2X3X7X3X4X3X9X1X6X5X1X4X8X5X3X5X8X0X4X1X8X0X5X5X5X1X2X5X2X3X3X5X2X8X8X0X1X0XXXXX1X5X1X1X5X2X1X1X2X1X1X1X1XXX1X1X5X1X~.1X~.1X2X1X2X5X1X2X2X3X3X&X&X2X=X X2X8X*X2X X&X*X&XY.1.f % < < 2 2 2 2 2 0 2 0 q q 2 q q 2 2 2 2 2 2 3 5 9 Y r.7.W t.i.8.t.7.=.7.W 5 4 r.R x.P.oX&X2X7X4X2X2X3X4X8X9X2X2X9X2X4X7XUX5X1X1X5X2X2XXXXX1X2X1X1XXX2X1X1XoX%X1X1XXX1X~.1X1X X X~.1X1X1X%X1XXX%X1X1X%XXX1X%X1X1X1XXX1X1X4X1X2X1X*X1X1X*X*XXX*X1X%X1X*X*X1X*X1X1X1X4X3X3X-X:X&X&X&X&X-X$X#X{.-X=X0X=X$X$X$X#X$X-X=X-X$X:X$X$X&X=X=X=X$X$XW.=X1X-X=X=X=X9X-X*X*X=X=X:X4X=X$X&X$X:X$X=X4X7X2X2X=X3X0X8X3X8X*X*X=X1X1X*X9X3X*X3X8X4X4X4X9X3X1X*X3X3X&X1X1X1X1X*X*X3X1X3X*X1X1X*X8X*X*X2X2X*X3X3X3X&X1X*XXX=X*X*X3X1XXX!.XX3X2X3X%X~.9X*X=X*X*X%X*X1X%X3X3X X*XXX=X1X&XXX X X$X:X&X&X&X&X&X:X>X:X:X$X&X;X.X;X&X&X&X&X&X{.&X{.:X}.;X=X&X;X;X{.|.|.oX.X2XXX.XXX2XoX*XXX|.[..X2X.XoX|.|.oX[.|..X.XoXOX;X.X;X.X.X.XoX&X}.>XXX&X|.XXoX}.[.&X[.I.P.}.[.I.[.oX.XoX.XE.|.}.oX[.[.[.|.|.}.}.|.}.|.oXE.I.}.[.E. XP.[.{.{.}.{.[.E.[.I.[.R.R.].F.F.P.S.].F.I.}.P.P.P.F.E.F.E.P.S.I.P.].P.R.I.P.S.F.S.S.{.oX[.].I.I.P.I.I.I.P.P.I.}.E.P.I.S.S.P.F.I.I.S.P.I.].R.].P.I.].S.S.c.P.L.F.C.S.S.m.P.F.S.S.S.S.K.P.S.c.F.P.P.F.P.F.F.D.F.F.S.S.F.F.c.m.S.S.F.P.F.F.S.V.k.h.k.e.x.",
">X>X>XOX>X}.OXOX>XiXjXlXmXjXjXbXcXsXjXxX>X8X0X6.J.J.J.~.~.J.J.~.[.&X}.R.P.W.>X:X&X.X}.}.{.[.{.[..X;X8X|.2XcXkX5X&X.X;X.X.X.X&X{.oX|.K.J.|.I.oX*X|. XoX|. XXX|.I.|.~.|.XX XXXP.R.P.XXoXP.XXXX}.oX.X XjXR.|.R.|.&X.XE.R.E.E.~.~.L.~.W.&X=X&X>X{.&X>X&X:X:X4X&X X&X&X:X}.&X8X=X>X#XD.E.{.[.D.&X}.&X&X&X.X>X;XkX;X&X&X7XzX:XlX&X=X:X;X7X8X;X>X:X*X*X2X2X4X2X1X*X&X4X2X;X3X3X;X4X2X2X;X*X2X*X2X4X3X&X4X3X1X4X4X8X4X5X=X3X4X=X3X4X2X8X9X4X8X5X4XzX8X5X5X2X5X3X3X8X2X3X2X5XUX1X1X8X5X1X3X&X8X8XXX4X4X=X1X5X1XoX1X1XXXXX1X1X3X2X1X X2X3X1X1XXX1XzX0X1X~.1XUX1X5XUX2X5X1X8X3X3X4X*X4X8X5X;X8X4X8X*X4X*X;X.X].C.#.O.* d d d y r e q 2 2 2 2 q 2 2 6 2 2 q 2 2 5 5 5 5 u D y.t.t.q.Q 7.t.t.9.7 z y.W :.S.}.2X:X X4X3X2X*X2X3X4XXX2X2X*X2X*X5X0X5X1X1X1XXX1X2X%X%XXX1X2X1X1X1XXXXX~.XX%X1X%X X~.1X X X X X1X~.~.~.~.%X~. X%X1XXX1X1X1X%XXX1XXX1X1X1X1X1X%XoX*XXX1X2X*X*X*X=X*X1XXXoX%X9X8X9X:X:X=X&X#X$X=X:X&X$X$X9X0XW.$X$X#X&X$X$X-X&X=X=X-X#X=X$X=X-X:X$X9X=X,X-X=X-X=X:X9X=X=X,X:X7X=X:X$X&X$X}.:X&X:X9X%X1X*X=X3X=X3X*X3X5X1X2X=X1X4X8X3X*X1X*X*X%X1X2X&X1X=X3X2X*X3X1X1X*X*X X3X*X X&X*X%X&X1X1X3X=X=X8X3X=XXX2X1X1X*X*X*XXX1X*X1X1X&X9X&X&XXX4X3X=X&X X2X=X X2X1X4X*X*X&X X XE. X&X&X&X>X&X{.&X>X}.:X4X.X>X;X=X}.;X&X&X}.&X}.;X}.}.$X&X&X6X.X.X X}.oX|.oXoXoX2XXX.X2X2XXXXXoXoX.XoXoX;X{..X|.>XoX}.oXoX}..XoXoX;X;X.XoXXX[.oX.X.X.XP.[.[.}.|.}.oX[.F.[.E.E.[.}.}.{.}.|.}.E..X.X|..X}.[.oX[.[.[.|.}.E.|.|.}.|.}.{.].[.].[.[.}.].[.K.P.[.[.[.D.F.R.R.F.].D.P.P.I.P.I.[.I.I.}.P.R.F.P.P.F.{.I.S.P.D.S.}.}.}.R.P.I.F.[.P.}.S.S.I.I.P.[.I.I.P.I.E.I.P.[.P.P.R.D.].P.R.P.S.v.z.n.S.S.F.K.P.C.F.P.L.F.S.S.S.P.F.P.L.F.P.P.F.F.D.F.@XD.F.S.S.c.S.F.S.S.F.F.F.@XS.m.c.h.x.k.h.",
">X>X>XOXOX>X}.OX>XOXjXOXyXOXOXOXjXcXnXcX|.jX8X6.5.J.6.6.#X-X~.1X[.;X}.&X}.E.}.&X;X{..X}.{..X|.|.oX=X4XOX[.|.;X=X&X[.;XE.E.;X.X[..X.X[.R.K.[..X2X|.[.[.[.:X;X|.=X|.oXXX~.P.[.W.P.L.!.I.I.~.|.XX3X{.&X&X>X X[. X&X X X*XXX$X XQ.E.{.{.:X&X&X X{.|.:X$X7X7X&X{.&X&X&X9X:X;X7X>X#X}.{.}.{.[.}.}.E.}..X&X7X7X;X,X6X4XzX:X>X&X,X4X:X:X4XlXkXkX3X4XXX2X;X4X1X2X3X2X4X5X2X1X5X3X8X8X3X4X8X4X2X2X3X4X5X9X2X4X8XcXMX3X2X3X*X*XXX*X2X9X;X2X1X4X3X8X4X8X8X8X*X8X2X8X8X2X=X2X8X5X5X0X2X3X5X2X*X=X&X3X8X2X2X4X1XUX1X~.1X1X1X1XXX1X2X*X%XXX1X3X5XXX X2X~.5X2X*X%X5X5XUX1X5X5X1X3X8X2X8X5X4X4X0XK.4X;X&X&X2X>X=X.X{.P.z.-./ C C / ..R s 2 q q 2 2 q 2 2 0 2 2 q < 3 q 2 2 3 4 z t.p./.=.v U t.u.W 9 W ).Q $.D.].;X;X&X8X*X&X2X2X8X3X3X&X2X4X*X2X=X2X4X2X8X*X&X XXX~.1X2XXXXX1X%XXX%X2X2X1X1X*X2X%X1XoX%X~.%X1X1X1X%X%X5X1X X~.1X1XXX1X1X1XoX%XXX1X*X*X*X1X3X4X*X1X%X*X*X*X3X*XE. X1X2X*X9X=X8X8X1X9X1X$X&X$X=X=X-X#X&X=X%X!.=X$X!.$X=X#X%X=X-X=X0X=X=X-X=X:X0X:X7X-X=X9X=X=X:X:X9X:X9X9X,X3X=X=X1X X1X*X*X=X3X*X X1X4X4X1X3X1X4X=X1X*X=X2X%X1X2X3X1X=XXXXX*X%X=X*X&X*X1X*X*X4X3X3X1X*X1X1XXXXX=X*X*X=X1X*X*X3X1X%X1X*XXX9X3X=XXXXX X=X1X XXX=X1X*X&X3X&X1X1XXX=X=X*X=X&XXX1X4X%X%X&X XXX X%X&X*X;X;X=X&X&X;X;X;XE.#X>X&X&X;X&X&X&X;X}.&X}.}.#X&X&X}.:X&X;X;X.X{.}.oX.X&XoXXXXXXX2XXX2XoX;X[.K..XoX.X;XOXXXoX|.}.}.oX.X.X[.[.}.;X.XXX.X.X.X.X}.}.].].E..XXX[.E.oXoX[.[.[.}.[.E.[.[.oX|..X}.[..X[.[.[.[.E.}.|.[.[.oX}.}.|.&X[.[.}.}..XR.E.}.P.P.I.I.[.P.P.L.F.L.F.I.P.P.I.P.P.I.].I.;X>XI.I.P.I.I.].I.[.E.P.U.|.}.I.E.}.C.I.P.I.x.I.S.P.[.I.P.].P.P.F.[.I.P.P.P.F.].P.I.P.F.P.I.F.c.S.P.I.F.L.P.P.S.S.P.F.F.S.F.D.F.P.S.S.S.P.F.F.P.R.F.F.S.V.F.F.m.F.c.V.S.F.].F.F.S.m.c.g.].k.f.",
"jX>XjXOXOX>XOXjXiXjXOXOXOXOXOXoXOXOXjXcXoXoXL.^.l 6.6.6.~.~.-X~.{.&X{.[.D.D.D.V.[.[..XR.[.L.[.oX[.[.P.{.S.[.;X>X4X|.|.}.|.6X[.[.[.&X;X>X}.E.P.;X4X4X2X}.[.[. X}.P.E.%XXX XK.XX8X~.XXXXI.oX~.oXXX.X}.}..X X X;XXXoXP.P. X X~.P.Y.&X.X&X:X&X{.|.{. X[.;X7X>XR.{.&X7X>X:X&X4X7X}.&X{.E.{.Y.{.R.E..X:X>X:X>XkX:X>X:X8X7X:X:X;X7XlX>X4X8X;X2X5X5X2X1X*X3X3X1X1X1X2X8XzX4X2X4X4X2X8X8XlX*X3X5X8X8X8X4X3X*X*X8X4X4X&X4X3X2X*X3X2X*X4X*X6X8X1XzX8X8X8XkX3X5X8X2X4X8X2X4X8X5X5X2X2X*X4X4X2X3X;X2X5X*X&X2X1X1X5X1XXXoX~.XXoX%X1XXXXXXX X1X X~. XoX~.XX3X3X1X2X1X2X1X2X2X1X3X8X3X3X2X3X4X3X8X3X2X X&X2X X X.X.XE.V.S.l.>.d.k.x.>.Z d 2 2 q q 0 2 2 2 2 2 2 3 2 2 2 2 3 3 5 r.'./.F 9 Q t.t.7.8 9.w.U $.F.[.;X&X;X&X4X3X2X4X3X9X2X2X4X4X2X2X4X4X2X3X2X&XXX.X%X%X%XoX1X2X9XXX%X2X1X%X~.XX1X%X%X~.%X%X1XXX1X3XXX1X%X%X1X%X1X~.%X1X1X X%X%X%X1X*X9X*X*X1XXX1X=X*XXX1X3X=XXX1XXX1X*X*X1X4X1X0X4X3X4X%X1X$X$X$X-X-X{.=X$X$X-X-X$X=XE.W.=X$X=X=X-X-X=X=X=X:X-X=X=X=X=X=X0X9X0XzX:X0X=X=X=X=X9X4X&X:X*X*X=X1X4X1X%X&X&X1X1X%X3X1X8X1X3X*X2XXX*X8X!.=XXX&XXX=X*X X2X&X3XXX1X8X%X9X3X1X2X2X=X2X&X X*X2XXX1X2X*X1X1X XXX*X=X1X1X&X1X*X&X%X%X*X&X XXX%X*X1X*X&X*X*X X XXXXXXX%X%X3X4X XXX*X2X%X&X&X2X;X;X,X&X;X$X;X;XR.D.>X;X&X>X&X&X[.&X&X&X&X;X#X;X>X&X}.&X>X.X=X.XoX|.|.XX;X5X3X2X5XoX*X2XoXoXoX;XoXoXoX}..X6X;X;X4X&X4XoX;XoX}.&X>XoX.X[.oXoX.X.X.X{.oXoX.XoX}.}.;X|.}.[.}.[.|.}.[.{.}.oX.X|.}.[.|.}.[.oX[.|.|.oX}.|..X.X|.oX[.|.|.oX[.[.}.I.[.[.I.I.[.U.L.I.F.S.S.D.P.F.I.P.L.P.I.I.>X[.C.P.I.S.I.P.I.}.|.P.E..XE.R.].I.P.I.S.P.}.[.I.[.P.I.[.I.I.I.[.I.].F.P.P.P.R.P.D.P.L.].E.P.C.S.S.K.F.F.S.F.S.S.F.D.S.S.D.P.P.S.K.S.V.S.S.x.F.F.F.D.F.F.S.F.S.].F.m.F.F.V.F.F.S.m.c.G.k.k.h.",
">X>XiXOXjX>XOXjX>XyX}.OX6XoX+X}.jXjXjXnXoXVXT.6.5.I 6.6.~.~.-X-X{.{.&XR.R.}.D.h.D.[.>X=X}..X2XoX{.|.P.[..XR.|.;X2X=X>X X.X7X:X2X4XkX;XoX XE.E.;X4X4X:X;XoXP.I.2XE.|.oX|.K. XR.2XP.I.E.~.I.oXXX2X;XoX|.oX X.XE.oX;X*XoXE. X%XE.P.E.W.{..X.XR. XI.R.[.&X{.[.D.&X}.7X{.{.R.:XlX&X{.D.{.{.{.7X[.oX&X$X;X>X7X:X7X:X&X>X>X:X>X7XxX&XkX:X2XkX4X2X8X2X2X*X2X8X4X1X1X9X4X9X8X3X2X9X3X3X8X8X3X5X2X2X4X8X4X2X2X5X4X4X=X3X4X8X3X2X;X8X2X*X5X6X1XcX8X4X*X2X4X3X4X4X8X4X8X2X2X0X2X2X%X2X2X1X2X&X*X2X8X2XXX&X*X1XUXoX%X~.~.~.XXoX1X*XoX1X XXX1X0XXX~.~.oX3X4X1X1X1X5X1X1X5XXX5X3X8X4X4X2X3X*X4X8X4X X;X2X2X*X&X XE.[.P.K.K.c.S.S.D.j.` f < 2 q q 2 2 0 2 2 2 2 4 2 2 2 2 5 5 5 h F x w 9 t.p.t.U 7 { w.Y X.P.|.&X:X2X7X2X2X4X4X8X4X2X1X*X2X1X2X*X3X*X;X3X*X&X;XXXXX%X8X1X%X!.1XXX1XXX1X X*X%X%X%X*X%X%X X X%X9X1X%X~.1X1X1X%X1X1X1X1X1X~.1X1X1X1XXX*X X*X*X%XXX&X*X*X3X*X1X*X$X*XoX1X*X&XXX1XzX2X:X*X$X=X#X-X&X#XE.-X$X$X9X=X#X=X$X%X=X-X&X-X=X-X=X0X0X:X=X=X=X9X=X:X9X=X9X=X-X-X=X=X=X=X3X=X:X=X8X2X3X4X4X3X1X2X9X2X1X1X3X3X1X8X3X1X%X1XXX1X*X1XXX&X1X1XXX~.XX1X1X1X2X%X2X4X1X2X1X3X1X1X1X1X1X1X=XXX1X2X1X1X*X1XXXXX X2X1X*XXX&X&X XXX1X1X*XXXXX!.*X*X2X*X*X2X X X*XXXXX*X8X1X X&X X1X X XXX&X&X&X=X&X[.&X:X=X&X=X}.:X=X:X;X&X:X4XiX&X&X>X&X;X;X&X=X>X2X4XXX.XXX;X2X2X2X2X4X5XXX2X2XoXoXXXoX[.>XkX&X>X>X&X;X[.L.}.OX.X.XoX;X;X;X.XoX;XoX>XoXoX[..X2X;X.X.XoX|..X.X;X.X}.}.oXoX}.|.OXoXE.oX}.[.}.[.}.|..X}.XX;X|..XoX|.oX{.oXoX[.].E.}.|.|.[.|.}.[.].P.P.K.L.U.P.I.P.P.P.D.I.P.I.{.F.P.P.P.[.I.P.|.[.}.I.U.E.}.[.E.}.I.I.P.P.P.S.[.[.I.}.}.[.E.[.I.I.[.L.[.P.P.I.P.P.P.P.P.P.I.I.F.S.U.S.P.P.L.L.S.S.F.C.z.R.F.C.S.K.S.S.x.c.c.D.F.P.S.S.S.m.F.S.V.S.V.x.x.m.m.m.S.m.G.x.c.k.>.",
"jXOX;XsX>XOXOXoX.XOXOXOXOX2XUXjXUXcXsXcXXXVXT.#X6.5.J.J.~.J.~.~.@X}.&X}..XoXR.XX}.}.R.{.;X|.;X.XoX[.I.C.[.[.R.[..X>X8X&X&X.X&X>X>X=X[.I.|.[.XX5X2X[.[.R.R.E.D.S.E.T.XX~. X&XoX2XE.P.oXI. X3XUXoX&X;X{.E..X|. XXX&X|.~.E. XP.P.$X&X[.[.E.{.R.K.P.D.R.{.V.R.$X[.#X{.{..X.XzX0X#X&XD.R.@X{.&X$X&XXX:X;X:X:X:X:X>X7X=X:XkX=X>X&X:X&X8X4X4X2X4X8X9X2X*X4X8X9X4X4X5X5X2X8X4X4X4X4X1X;X3X4X1X9X2X1X4X4X4X9X2X4X*X*X4X8X5X2X&X3X4X*X2X&X9X8X8X4X9X2X2X5X2X8X3X4X;X=X2X&X2X2X2X2X1X2X2X2X4X8X2X3X3X&X2X3X1X~.1X~.I.~. X1X~.%XoX1XXX X1XXX5X1X1X3X~.0X9X X1XUX%X%XXX5X2X1X8XMX4X8X4X4X2X1X4XMX X[.1X4X4X>X.X&X.X XW.R.K.R.P.R.S.j.$.o.a V o.r 0 2 2 0 q 2 2 4 2 2 2 1 3 5 5 5 5 3 p D =.=.x n w.] Y d.P.}.;X>X;X:X9X4X9X8X4X;X2X*X*X&X*X5X2X2X2X4X2X*X.X2X1X1X1X1X2XXXXX1X1X1X1XXX%X%XXX1X*X*X X X1X1X X1X X1X%XXX5X3X~.1X X1X2X1XXX%X%XXXXX3X*X9X2X1X*X1X3XXX1X1X%XXX=XXX X*X*X*X%XXX3X0X=X=X%X1X=X=X%X$XR.{.-X$X$X$X$X$X#X=X%X=X=X=X-X=X=X=X=X0X=X=X=X=X9X-X=X9X=X=X0X=X=X$X4X-X3X=X=X&X=X3X1X3X1X1X3X3X3X9X3X4X2X3X1X XXX1X2X2X*X=X*XXX&X%X X9X*X~. X%XXX=XXX*X&X1X9X1X1X%X2X1X3X2X4X9X1XXX=X3X*X2X=X3X=X*X1XXX*X*X1X X X~.~.XX X&X*XXXoX1X1X%X%XXX%X&X%X1X&X%X1X3X9X X X%X2X&X X!. X X;X;X&X>X;X7X4X:X>X>X;X7X>X4X4X:X:X>X4X>X7X>X&X2X:X4X:X;X6X2X&X2XkX;X2X4X5XOX2X;X2X3X5XXX;X;X;X>X;X.X;X&X.XXXoX>XoX.X.XoX.XXXoX|.oXoX.X>X&X>X.X&X|.>X>X6X.X;X.X}.oX.X.XOX|.[.oX|..XoX|..X|.oX{.}.oX[.|.oX&X.X.X.X|..X;X>X}..X}.oX[.[.[.|.[.}.}.[.}.[.I.L.P.F.[.P.z.].F.I.P.I.].I.F.P.I.P.F.S.F.L.S.oXE.}.P.K.[.}.}.P.L.].[.L.P.P.F.}..X[.oXI.[.P.[.E.P.I.P.[.I.I.].R.].P.F.[.}.P.U.P.P.L.K.C.S.U.P.P.c.c.x.F.F.F.F.n.P.P.S.F.S.F.F.F.P.F.F.c.S.V.m.m.S.F.m.G.m.S.c.S.m.m.k.k.>.>.",
"6XOXOXOX>XOXOX>X>XOXjXjX>XjXUX6XcXjXvXjXjXVX~.6.^.A.A.^.^.^.-X#X&X=X&X.XXXoX*X|.&XP.[.oX2XoX*X;X}.&X[.P.S.[.{.>X6X4X2XoX>X{.{.6X|.&X[.|.oXXX5X2X*XoXE.P.}.E.L.C.P.J.E.oX[.;X{.D.K.Y.P.E. XUXcXNX5XUXXXoX XoX*X|.2XoXoX~.XX|.&X4.T.R.C.E.Z.C.P.E.S.L.L.b.>.D.{.{.{.&X;X{.8X9X XE.{.&X XR.E.~. X=X&X:X:X:X>X:X>X7X7X:XkX:X9X4X4X4X2X>X>X9X4X2X4X2X5X1XXX1X1X3XXX1X4X8X8X4X2X2X2X2X4X2X4X1X8X4X8X1X9X3X2X9X8X;X2X8X*X|.[.XX*X&X8XXX1XcX4X4X9X*X2X*X3X*X2X&X2X2X;X;X2X2X8X2X3X2XXX1X&X;X2X2X=X*X*X.X~.1XXX%X~.~.XX X~.*X XXXXX1X%X X~.5X1X~.1X5X3X0X8X8XXX2XXX1X8X5X4X8X8X*X4X8X4XXX2XkX.X4X;X;X:X&X|.;X X[.[.[.R.oXE.L.D.c.m.k.d.d.).d.y < < < 2 2 2 2 2 2 3 4 4 4 3 5 3 4 4 4 y t 5 x F F Y d.]..X;XOX*X5X2X4X4X*X*X4X*X&X3X2X8X4X9X4X2X8X2X:X*X4X7X:X7X4X1X&XXX1X1XXX~.%X1X%X1X9X1X3X1X%X X X1X1XXX%X X1X1XXX3X%X1X1X1X1X1XXX1X%X1X1XXX1X~.1XXX1X1X*X%X1X*XXX XXX1X&XXX2X X1X5X8X*X2X=X=X0X1X=X$X$XQ.&X!.%X=X%X=X=X%X$X$X=X=X:X%X=X=X=X=X=X=X:X=X=X-X:X:X9X9X9X9X9X=X,X9X:X7X&X:X*X=X=X;X3X1XXX1X3X8X4X1X3X3X3X*X4X3X3X1X=X&XXX1XXXE. X%X1X1X3X3X2X%X3X0X*X9X3X4X4X1X4X3X8X0X0X8X2X8X1X1X1X*X*X1X*X*X1X1X%X1X2X=X3X%X X XXX&X1X&X%X*X3X2X=X XXX*X X&XXXXX=X*X8X X X X*X1X*X X{.{.2X>X*X=X:X4X4X>X:X:XkX8X4X>X:X;X;X&X;X4X2X=X&X2X>X>X4X8X4X2X3X6X2XkX2X3X4X2X5X4X6X5X;X2X;X>X&X;XXX>X.X>XoXXX&X2X;X;X.X&X;X6X>X2X4X6X;X.X>X&XXXOX;X>X.X;X&X}.XX|.[.}..X}. X&XOX}.}. X.X.X.X|..X{.[.[.[.XX}.}.I.[.;XoX[.|.oX}.|.{.[.[.oXoX{.|.|.|.[.I.F.P.S.P.P.F.I.[.P.P.].P.[.P.I.I.c.P.P.E.P.F.E.].I.I.S.S.I.}.I.I.I.P.[.P.S.I.P.[.[.I.}.I.[.P.U.I.P.P.I.P.}.F.P.P.I.P.L.P.I.F.F.F.D.L.F.S.F.D.S.P.S.m.F.V.F.D.F.P.P.S.].P.F.S.S.S.F.S.m.S.c.S.c.k.m.S.S.F.x.S.S.m.V.x.c.k.f.h.",
">X>XOXOXOX>XOX>X>X>XjX>XjXjXjXcX6XnXcXcXUXVX%X%X#X^.A.A.#X-X-X-X=X>X;X|..X;XXXXXoX|.2X2XkX;X5X2X.X[.R.P.|.;X&X{.:X4X|.[.{.:X{.|.P..X[.C.|.8X5XcX5X2XR.[.[.&XE.K.T.z.C.Y.R.R.R.E.P.P.R.W.~.XX2X5XcXcX5XUX*X*X*X2X5X.X X*X*X4X3XZ.T.$XE. X XP.H.Z. XD.V.b.V.R.&X&X&X&X=X.X8XMXNXP.W..XL.*XP.E.W..X*X=X>X&X:X:X:X:X>X7X:XjX4X4X>X4X;X4X=X4X2X6X9X8X*X X1XXXoX3X1X2X1X8X8X8X2X=X4X5X3X1X4X4X2X8X8X4X2X8X2X*X4X2X3X2XE.oXE.|.*X*X;X*X4X5X3XXX2X2X2X*X;X*X=X2X=X2X9X2X2X1X*X*X*X1X2X6X*X3X2X*X.XXX&XoX~.1X1X2X*X3X1X X~.*X2X9X1X*X3X*X1X~.~.~.XX1X%XXX1X1X9X5X*XoX1X1X8X2X3X4X2X&X4X&X2XzX&X2X4X&XoX;X;X8X.X XXX&X.X X X[.}.E.F.@X].F.@XR d < < < < 2 2 2 2 2 3 4 4 4 5 5 3 5 4 3 3 2 * 6 4 i ] n.[.oX.X2X;X5X*X2X=X4X3X3X8X4X4X8X8X8X8X8X2X2X*X;X=X;X:X7X:X7X2X&X*X$X1X~.1X1X3X1X1X3X1X1X1XoXXX1X%X%X%X1X X1X1X%X%X1X1X1X%X0XXX1X%X%X%X1X1X9X%X1X1X3X3X1X X4X*X=X*X*X3X1X1X1X X*X%X9X3X=X3X1X=X$XW.E.:X&XW.$X$X$X X%X=X=X=X&X=X=X=X-X=X-X=X=X=X=X-X=X-X=X=X=X=X9X-X,X:X=X-X1X:X=X=X-X*X=X3X4X3X1X2X3X1X*X1X1X9X9X8X3X1X*X1X3X1X8X*X1X%XXX*X*X4X*X4X=X1X1X5X8X3X4X9X0X9X0X9X3X3X8X8X8X8X3X1X8X0X3X4X4X3X2X*X*X1X2X*X*X*XXXXX=X=X*X&X=XXX%X1X1X4X*X%X1XXX1X%X1XoX1X8X X X~.&X=X&X:X&X;X4X=X:X:X7X4X4X:XjX7X7X8X>X=X&X>X&X;X;X*X2X>X;X4X4X:X2X2X5X2X2X2X6X5X5X5X5XXX6X2X2XkX6X4X2X;X;X2X;X&X;XoX;X;X>X6X.X>X2X>X;XXX&X>X>X.X.X&X.XoX;XoX;X.X}..X}.|.XXoX.X.X;X;XoX.X|.|..X}..X.XoX}..X}.|.oX[.}.[.{.|.}.}.{.oX}.{.oXoXoX[.[.}.oX}.].|.].|.[.E.P.S.P.I.P.I.F.[.I.D.I.P.P.L.F.P.P.P.P.I.P.I.I.I.I.I.I.[.oX}.P.I.I.U.S.F.c.n.I.P.[.oX[.oX].I.I.].P.P.P.F.L.I.P.[.P.I.I.P.R.I.L.K.F.L.S.S.F.F.F.S.S.F.F.F.F.S.S.D.F.m.F.D.S.F.F.F.F.S.c.F.V.c.c.c.S.m.m.S.F.c.k.f.c.x.k.k.k.",
"OXjXcXkXjXjXjXyXjX>XjXjXjXcXnXnXcXbXjXjXoXNXoX~.-X-X-X@.^.#X-X#X;XkX4X.XoX.XoXXXXX8X2X5XkX2XkX2X.Xz.1.I.[..X6X:X;X>X&XE.{.}.4X6X;X2X[.|.XXlXcX2X2X2X X X|.|.|.;.Z.T.Z.V.D.R. X.X{.C.K.E.I.XXUX5XcXjXVX*XoXXX2X4XoX~.2X5X;X2X4X*X{.W.E.R.E. XE.E. XP.E.[.R.R.$X{. X[.&X X*X8X*XZ.L.E.V.B.L.E.W..X X:X&X:X:X=X>X8X>X=XkX2X4X;X;X4X2X4X2X>X1X2X4X4X*X*X*XXX X2X5X8X2X4X8X4X4X9X8X9X8X4X8X*X3X8XcX8X2X8X4X8X1X4X4X2X|.oX&X*X2X.X=X2X1X5X2X|.2XXX2X*X2X2X*X4X2X=X*XXX2X3X1X3X2X6X1X*X2XXX2X2X X2X&X&X~.XX1X%XXX2X1XXX X~.oX9X1X1X=X2X X5XoX~.oX1X%XXX~.*X1X2XoX2XoX1X2X&X3X4X=X2X&X2X6XMX7XkX4X4X&X>X;X;XkX>X2XoX X*X.X|.R.{.>XC.C j f < * < d n e 2 0 q d < 2 4 4 3 5 3 5 < 3 < , < < < , a r.U.oX5X5X2X*X5X4X4X*X8X4X4X4X2X8X5X3X5X8X8X8X4X2X7X=X>X7X:X2X&X4X*X3X=X1X%X0X1X1X%X1X1X3X1X1X%X*X1X2X1X%X X%X1X X~.~. XXX0X1X3X1X%XXX1X X*X1X1X1X1X1X2XXX=X1X1XXX X*X1X3X3X8X3X3X1XzX8X3X3X1X%X=X&X*X=X$X$X-X%X X%X%X$X-X$X-X#X-X-X=X%X-X=X=X=X-X=X:X=X-X=X-X=X=X=X=X=X=X=X=X9X:X9X4X=X9X3X9X2X0X3X3X1X1XXX=X3X0X8X8X8X9X9X3X3X4X8X3X1X*X1X3X1X3X3X*X1X*X4X1X1X4X9X3X3X8X4X4X8X9X4X9X3X=X2X9X*X4X1X3X1X4X1X1X=X3X3X3X4X1X&X3X1X*X1X1X2X3X9X1X4X2X=X1X2X2X=XXX1X*X*X X=X X2X2X2X2X=X&X:X=X&X&X:X7X8X>X4X:XlX7X7X:X4X2X4X>X*X:X2X4X;X4X4X7X2X2X;X2X2X4X2X2X5X2X2X2X2X2X4X2X6X2X8XkX4X>X>XOX;X;X>X;X;X.X.X;X;X;X;X>X;X;X2X>X;X;X>X.X.X;XXXXX;X.X|..X;X&X>X;X;X.X;X.X.X.XoXoX.X}.OX;XoX.X.XoX.X.X|.[.oX|.|.[.[.|.&X{.[.}.[.}.E.[.P.}.[.[.[.E.}.].I.F.I.P.I.I.F.I.P.S.P.F.P.I.P.P.I.I.].[.R.P.P.P.I.].[.|.[.|.}.P.P.F.I.S.C.P.P.F.I.{.}.E.I.P.R.I.[.[.P.P.U.P.P.[.P.I.P.I.I.F.P.D.F.F.S.P.D.].P.x.V.F.V.m.S.F.F.S.F.S.F.S.F.D.F.S.V.S.F.S.F.@XS.S.D.F.G.n.m.m.k.n.k.c.k.k.x.",
"jXjXjXvXjXjXOXjXyX>X6XcXmXjXjXjXcXjXcXjXUX5X~. X^.^.Q.J.^.#X-X-X&X6X2X2X5XXX;XXXoX3X.XoX2X2X2X;X>X{.h.&X{.;X4XxX=X].E.S.;X.X4X=X}.*X|.oX2X3XzX5X[.[.[. X8X|.oXZ.z.R.E.R.D.P.{. X>XL.R.P.L.oXcXcX5XUXUXI.T.~.XXXXoX[.5X2X;X2X2X2X&X X X X*X%XE.T.R. X XZ.D.E.{.{.E.{.&X4X9X2X&XT.K.P.Z.S.L.R.P.E.W. X&X>X,X>X:X:X:X7X4XkX4X:X4X4X7X4X:X4X4X4X2X5X*X4X1X3XXX1X4X4X8X8X4X9X2X4X4X8X8X5X3X8X8X8X4X3X8X2X2X3X4X*X&X&X X&X5X*XoX2X2X&X*X2X1XXX1X*X5X*X=X8X2X8X;X4X4X2X*X2X5X5X5X1X*X2X&X;X3X*X&X&X|.2XkX~. X~.~.1X%X1X3X1X X%X XXXXX~.%XXX1X X~.~.oX~.%X3XXXXX~.oX1X2X*X2X X2X2X3X=X4X4XkX;X4X4X4X4X7X2X|.&X;X;XoX*XXX&X;X.X&X{.a d < d d < < y S G D a V x < 2 3 3 4 3 5 < < 5 < < < < < , H d.P.6X2X2X2X8XMX2X2X5XzX3X4X8X8X8X8X8XzX9XkX8X8X2X8X9X4X4X:X8X X XXX X1X X1X1X2X2X1X9X9X3X5X*X%X1X=X1X=X1X2X1X1X1X%XXX1X%X~.%XXX1X%X~.~.1X1X1X X1XoX9X1X2X3X3X3X1X*X*X3X2X1X9X9X3XzX9X8X8X4X%X=X=X=X=X9X=X-X=X:X1X1X%X-X=X=X9X$X$X=X-X=X,X=X=X-X=X:X=X9X=X$X:X9X0X9X=X0X9X:X:X=X8X9X0X1X3X8X*X9X8X0X4X3X1X4X8X4X8X0X0X8X8X8X8X3X1X9X1X3X4X9X3X4X1X5X1X3X3X1X4X3X1X0X4X8X0X8X1X3X1X1X4X9X4X1X1X4X9X4X2X1X9X4X3X3X9X1X2X=XXX*X1X1X=X4X%X4X1X2X3X3X%X3X3X8X1X*X1X1X1X*X4X1X*X=X1X;X=X=X:X=X>X:X;X&X9X3X4X4XkX7X4X>X4X2X2X2X:X>X;X>X=X>X=X>X4X4X2X4X3X6X5X5XXX2X2X2X2X2XOX5X5X4X>X2X4X4X;X;X&X2XoX;X>X&XoX;X.X>X;XOX&XXXOX;X:X2X;XoX>X.XOX.XoX.XoX&XOX&X;X.X|.OXOXoX&XOX&X.X[.oX&XoX;X;XoX}.;X;XoX.X|.}.&X}.oXoX}.oX}.].[.{.oX.X|.[.[.[.[.[.[.[.].E.I.P.P.P.[.I.L.P.F.P.P.P.P.I.P.P.P.F.F.I.[.I.P.}.E.[.[.P.[.[.}.I.I.L.P.}.&XP.S.S.U.L.P.}.I.P.[.F.[.I.I.P.P.[.I.].P.[.}.[.I.I.P.[.I.P.P.S.F.P.F.F.F.@XS.S.P.P.n.F.P.S.S.F.F.].D.S.S.S.F.].@X[.F.].F.V.n.n.m.G.F.F.k.c.e.k.",
"jXjXjXcXjXUXUXUXjXjX5XnX5XnXnXcX5XcXnXcXUXzXzX%X-X^.^.^.J.~.~.%XXXXX2X4X2X2X2X|.oXXXXXP.P.E.oXoX&X;XP..X;X;X;XcX8X&XE.E.;X&X{.;XC..X|.,.XXXX5XXXoXE.S.I.5X X*XR.b.P.H.L.E..X[.:X}.E.}.#X&X;XjXnXkX2XoX6XoXI.oX XoX|.2X3X~.*X6X*X1X*X XXX XR.E.K.L. X*XK.T.E.E. X&X{.:XzX:X7XP.Y.V.B.Z.P.*XL.C.Z.P. X X&X4X>X:X:X:XkX>X:X7X&X7X4X>XkX4X;X5X4X*X;X2X4X4X9X9X1X8X4X4X9X3X5X8X4X5X4X8X3X4X4X9X3X;X2XzX9X4X4X4X:X*X2X4X2X3X4XoX*X*X|.2X|.&X=X:X4X8X8X2X=X4X=X4X3X2X9X2X*X2X4X8X2XXX;X3X;X;X&X.XoX X2X=X{.{.{.W.=X&XW.&X4XW.W.~. X&X1XXX~.~.&XXX X1X*X$XE.%XE..X2X.X&X*X3XXX4X2X4X=X2X&X8XkX7X2X4X4XkX6X;X&X>X4X&XXX*X*XXX&X*XUXh d * * d * & x V ! =.=.V H a 3 3 2 q 2 3 3 1 5 2 3 < < & e ( m.[.&X>X5X2X2X;X2X3X2X8X4X9X9X8XzX4X8X8X8XkX8X4X2X8X3X9X;X4X:X X*X*X2X*X X9XXX%X1X=X4X1X3X9X1XXX$X%X1X%X*X%X$X X%X X1X=X%X!. X1X XXX!.%X1XXX1X1X1X1X1X1X1X1X*X3X*X1XXX1X*X1X1X3X2X3X4X5X=X2X1X%X1X0X1X1X1X%X%X1X1X9X%X=X1X1X-X1X1X%X%X1X-X-X9X-X1X1X9X-X9X9X9X*X9X9X3X9X5X1X0X1X0X1X9X1X8X3X4X3X3X3X0X3X9X1X1X0XzX1X5X8X5X3XzX0X1X5X3X0X0X3X3X3X1X1X5X5X3X1X9X2X3X2X1X8X8X9X3X8X1X5X3X3X3X5X0X3X3X9X3X8X4X9X1X3X4X*X1X3X2X=X1X=X&X*X1X4X9X3X4X1X3X9X1X3X4X1X3X*X1X1X*X1X1X*X2X3X1X1X2X=X;X4X&X=X:X4X4X4XkXzX4X>X4X4X*X>X;X4X:X4X;X2X*X*XOXXX2X2X2X5X5X2X2X2X2X2X;X2X2X4X>X4X2X4X*X;X&X>X&X;XOX;X;X;X&X>X;X2X.X;X;X.X;X;X>X.X>X;XXX>X.X=XoX.XoX}.;X;X.XoXoX.X;XoX}.;XoXoX}.oXoX}..XoX.X.X.X.X.X.X.X&X[.XX.XoXoXoX.XoXP.E.P.oX|.|.[.I.P.E.[.I.[.I.P.P.S.F.I.S.K.P.I.F.S.[.].K.P.F.I.P.D.P.F.E.[.I.[.[.{.}.|.|.E.I.].I.F.P.[.I.P.I.].I.I.P.I.F.I.P.P.P.[.].I.P.R.P.E.].R.R.I.P.].I.P.D.P.P.F.F.F.].S.F.@XS.D.P.F.F.F.S.S.S.m.F.S.F.x.S.F.@XD.F.S.@XF.F.F.G.F.m.k.m.S.X.+.k.",
"sX6XjXjXjXjXUXcXjXcXcXcXcXjXcXnXcXFXcXcXUXcX5X1X-X-X-X-XJ.~.~.~.;X2X2X2X5X2X;XoXXXXX4XP.P.P.P.|.6X[.oX&XoX.XR.oXL.F.{.>X.XoXP.D.oX[.|.;X;XXX>X2X2XXXE.E.XXP.|.~.D.N.Z.V.z.P.[..X=XE.[.[.E..X&X.XcXcXXX2XXX|.oXXX[.*X2X2X3XcXcX3X|. X X XE. XE.V.b.V.%X&XP.=X4X*X.XD.&X7X:X:XC.Z.R.R.R.S. XR.L.L.~.XX&X>X:X:X7XkX=X4X7X:X7X>X&X4X8X4X7X;X>X&X*X8X*X*XXX1X4X5X2X4X3X2X3X;X4X4X5X8X2X*X=X3X3X2X3X8X8X4X3X4X*X2X8X:X8X2X*X;XoX2X3X1X8X;X2X*X4XzX2X2X8X4X5X8X8X4X4X5X4X4X*XXX2X2X2X*X*X*X&X&X.X&XE.&X&X$XW.W.W.&X XE.=X&X{.{.&X X&XE.XX~. X~. X X X*X4X XoXE.;X&X&X X2X2X2X2X7XkX4X;X&XVX2X;X7X7X>X4X&X;X;X.X;X2X&X*X&X2X*X2X5XP * d * d * * V F ) ;.>.r./ H 3 3 0 2 3 3 3 3 2 < < < < % V g.D.[.;X.X4X5X4X8X4X*X9X;X5X3X4X2X8X8X8X8X8X8X8X2X2X2X4X2X*X&X:X*X=X3X1X*X1XXXXX1X4X%X=X1X=X&X=X X1X%X1X=X1X1X X=X*X*X=X3X3X1X1X3X1X1X1XXX1X~.1X1X%X~.XX%X3X4X1X3X1X%XXX*X5X3X1X8X3X1X0X1X4X8X9X3X0X3X9X3X0X9X9X9X0X1X1X1X1X1X1X1X0X1X%X%X=X1X=X=X9X9X1X9X9X9X9X9X1X8X0X3X1X5X5X5X0X0X1X5X9X9X0X3X0X8X5X3X1X3X3X0X8X4X0X8X1X5X0X5X3X3X2X2X2X2X1X0X1X1X0X5X5X1X5X0X1X1X9X5X1X3X9X9X4X9X4X8X9X5X3X9X3X0X3X1X1X3X1X3X0X1X5X1X4X1X*X2X4X3X8X4X8X1X4X1X9X4X1X2X1X=X%XXX*X3X3X*X2X1X3X9X3X1X=X:X;X:X>X:X:X7X7X>X4X8X2X6X2X2X;X2X2X;X&X>X>X&X4X>X3X2XXXXX2X4X2XOX5X2X2X2X2X;X4X6X>X6X4X6X2X>X4X2X;X2X>X.X2X;X>XXX2X2X>X;XXX*X>X>X>X;X;XoXoX.X.X>X;X>X;XoX;X;XoX}..X.XoX;X}..X.XoX.X{..X.XoXoX.XOX.X}..X}.}.}..X;XoX;X;X.X;X}.}..X}.[.}.[.[.[.oX}.I.[.E.P.P.I.L.F.P.P.I.[.F.E.S.P.P.].P.P.P.[.[.P.[.}.[.].].P.].[.}.[.I.I.I.P.E.P.F.[.[.oX[.P.P.}.[.I.R.I.[.].{.[.P.P.F.P.].E.}.R.P.I.P.P.R.F.F.].S.F.F.F.S.S.S.F.F.F.@X].F.S.S.S.S.F.V.V.S.m.S.F.F.S.S.F.S.m.F.c.m.x.G.c.h.f.h.f.",
"UX;X2X6XjXjXjX6XjXnXcXbXcXUXcXUXUXcXnXVX5XcXzXJ.#X#X#XJ.J.J.~.J.2X[.I.oXoX;X6X*XXXXX2XXXXXXX|.I.P.D.;X&XR.&X;XR.S.I.P.}.oX{.>X.X.X&X&XoX2X;X4X;X5X;X*X~.oXE.E.E.D.2.V.V.Z.R..X.X[.[.{.{.[.;X6XR.jX5XXX2X2XoX XXX;X5X4X2X6X5X*X2X XoX2X%XE.K.L.b.H.C.P.R. X2XE. XE.E.E.W.:X:XD.D.B.z.L.R.&X~.H.K.E.&X~.E.}.=X=X;X;X>X>X:X>X>X$X=X;X7X2X;X:X&X*X2X2X&X1X2X4XzX3X1X4X5X4X2X8X8XzX9X2X3X3X3X4X4X8X4X3X*X4X*X8X4X8X8X4X*X;X*X*X4X8X2X4X;X2X:X*X4X4X2X2X*X2X2X2X4X*X*X1X*X5X4X4X=X*X*X;X&X X2X4X X.X X{.&XT.Y.E.E.P.$XW.W. X X:X X&X5X1X8X1X3X X*X2X3X4X*X.X|.|.XX&X;X4X;X8X4X:X2X;X4X&XxX8X7X4X>X&X2X=X;X;X2X&X8X;X>X;X7X8X2XkX=.* d 5 3 3 3 p L ) <.,.:.L a 0 < d 0 4 3 3 2 3 , , , < 0 ^ F.[..X>X;X2X4X2X2X2X4X2X5X2X9X&X2X4X4X2X;X1XzX9X4X3X*X&X3X;X=X&X*X~.oX1X X1X*XoX&X=X%X%X*X%X=X$X9X1X1X%X X%X1X=X X%X1X$X=X1X1XXX1X1X1X1X1X X1X%X%X1X%X1XXX1X2X2X2X3X3X2X1X4X9XXX=XzX8X8X0X=X1X3X1X1X9X9X0X9X9X1X9X9X1XXX1X1X1X0X0X1X1X%X1X=X9X9X-X9X=X9X9X9X8X0X3X0X8X9X5X0X0X0X2X0X8X1X9X1X1X3X8X0X3X0X3X8X3X9X1X9X8X0X4X0X1X0X1X1X5X0X1X5X1X3X0X3X0X0X3X1X2X3XXX2X*X1X1X3X2X9X1X1X8X9X9X8X4X9X3X3X3X1X*X1X1X1X3X8X1X2X=X1X1X1X4X9X3X4X1X2X3X9X1X2X*X*X*X1X*X2XXX1X1X8X3XXX=X9X3X3X1X3X3X:X=X4X:X:X:X4X7X;X2X7X;X2X4X;X;X4X8X2X;X:X2X4X4X5X4XXX2X2X2XXX2X2X5X4X6X5X2X>X2X:X4X:X2X;X2X;X;X;X;XOX;X;XOXOX;X>X>X.X>X>XXXXX;X&X;X.X;X;XOXoX.XoX.X.X.X;X;X}.&X.X.X|.}.}.|.&XoX.X}.}..X{.oX|..X[.}.|.oX}.oX}.|..X[.oX|.}.[.}.[.|.}.|.|.[.}.[.}.[.[.I.[.P.I.P.I.L.F.I.[.P.L.[.L.P.[.P.P.E.F.I.P.I.I.}.[.P.P.I.[.[.{.].[.E.I.[.P.E.].[.I.[.[.[.{.[.I.I.P.[.I.P.].[.P.E.I.E.}.[.[.].[.}.R.I.R.I.F.D.F.].F.F.S.S.F.F.F.F.F.@XF.m.S.F.S.m.c.m.c.S.G.S.x.S.m.k.m.m.c.m.c.k.c.c.x.f.>.",
"UXOXsXjXUXUXUXjXUXjXUX5XcXsXcXcXcXbXcXnXUXcXzX~.#X~.J.~.J.~.%X-X2X[.|.4X>X|.5X5X5X3X6XXX;X.X&XXX>X{.[.[..X}..X7XoX[.R.[.[.[.{.;X|..X.X>X>X4X;X4X5XXXOXXX X~.P.C.{.R.N.D.E.oX{.R.R.}.&X&X4X:X}.&X*XUX2X*XXX|.oX~.&X4X3X&X2XkX*XoX XE.%X XR.c.Z.S.C.z.b.~.~. XE.W.W.{. X{.>X{.{.V.P.D.K. X XT.P.E.P.~.1X:X&X;X&X;X:X&X=X:X=X&X>X*X&X2X;X{.4X*X4X=X*X2X&X4X2X1X4X2X8X9X3X8X9X5X2X&XXX;X2X*X3X3X3X4X2X*X1X8X4X5X2X2X;X4X;X2X&X3X5X2X2X8X4X4X4X3X*X:X4X2X*X5X8X=X3X2X&X2X2X*X&X*X&X2X5X2X1X2X*X%X=X X=XE.#XE.T.!.T.%X{. X&XW.&X&X|.=XoX*XoX X*X&X*XXXoX=X7X:X X;X;X2X4X8X8X7X4X7X;X&X6XNX4X4X4X:X4X2X>X=X>X=X.X2X&X;X;X:X6X8X*XZ * * * * * & w F _ <.b.l./ 3 < p c q 2 3 3 2 , < 3 & , S d.P.&X&X:X&X2X2X3X3X2X&X1X4X2X2X4X2X=X4X8X8X4XkX:X4X2X9X4X4X=X%X2X=X~.1X X1X~.1X1X%XXX1X3X1X=X&X=X=X X1X1X*X*X=X&X1X1X1X=X&X1X1X1X%X X%X X*X%X~.~.~.XXXX2X1XXX1X1X1X9X3X1X3X3X4X%X3X1X9XzX8X4X*X*X=X=X9X3X1X1X1X1X1X1X1X1X1X0X0X0X0X1X1X1X0X-X=X=X=X8X8X9X8X9X9X4X9X0X3X5X3X8X8X8X0X2X5X1X1X3X4X0XzX5X5X8X4X8X8X5X3X3X3X2X9X5X0X5XkX0X8X8X0X5X5X1X5X5X1X5X1X1X1X1X1X1X1X1X2X1X1X3X4X4X1X4X1X1X1X1X9X3X2X1X*X2X1X2X4X3X8X*X3X*XXX=X*X9X3X1X9X1X1X4X9X1X3X3X1X2X*X1X=X*X9XzX4X4X3X=X1X3X4X8X4X7X>X:X:X7X7X>XiX:X2X;X6X&X2X.X;X4X4X;X&X&X4X4X4XXX2X2X2X.X2X.XoX2XOX2X4X2X2X2XoX.X&X2X>X6X6X2X>X>XXX2XXX&X;X.X&X&X2X;X;X2XoX.X.X&XXXoX;XoXXX}..XoX}.[..XoX[..XoX.X.X|.oX[.}.|.&X;X.X.X.X}.oX.X|.oX{.oX{.&X{.oXoX|.}.|..X[.[.E.}.E.[.[.[.[.|.oXI.I.].F.P.P.P.U.P.n.U.S.C.F.P.S.U.|.oXI.I.}.I.P.].E.|.|.I.E.I.I.].].I.R.}.F.I.I.P.].R.[.P.I.R.].I.].P.I.U.P.R.].I.].P.P.].].}.@X[.].P.].P.].].P.P.F.F.F.F.F.S.F.F.S.].F.F.S.].F.S.F.S.F.n.S.S.m.m.m.V.c.x.x.x.m.c.x.c.c.x.k.k.g.d.",
"6XUXUXjXjXsXUX6XjXUX6XsXjXcXjXnXcXsXcXnXUX0XcX~.~.J.J.J.#XJ.J.-X2X6X2X>XkX4X2X2XkX2X5X|.I.|.|.XX7XP.&XI.oX>X&X:X>X&X2X2X>X&X{..X;X2X;X;X&XXX2X;X2XUX6X.XoXP.XXL.Q.}.L.&X&X&X}.&X,X8X&X=X[.&X#X&XoXP.E.:X4XXXXXE.[.2X{.{.E.R.&X>X*XP.~.&X XE.E.Z.E.R.{.[.{.R. X*X{.W.&XkX7X>X{. XE.{.{.=X&XW.E. XE.&X&X.X&X}.:X:X}.:X:X&X:X:X=X&X;X:X2X4X*X&X*X2X;X1X2X*X4XXX1XXX4X8X1X2X*X9X2X2X*XXX2X2X=X*X2X3X2X2X*X2X5X2X=X5X2X2X4X:X8X4X8X5X7X4X6X4X8X4X3X8X*X*X7X8X3X4X*X2X*X2X2X4X3X3X4X&X&X2X*X1X2X=X X X$XY.E.Q.!.Q.Q.T.$XW.E.{..X:X.X;XzX*X2X2XXX4X2XE..X.X2X2X:X4X&X;X2XzX>X:X4X:X4X4XxXlX;X4X7X7X;X&X4X4X8X3X:X;X&X4X2X>X5XkXx.* < * < * < & * H _ >.l.b...V a S ] X.n 5 < < 3 < , 3 V ~ x.[..X*X*X7X;X8X:X3X4X3X&X3X9X4X4X9X2X9X2X2X2X8X3X8X|.5X2X X*X*X3X1X~.1X%X X1X1X*X1X%X%X=X X=X=X:X:X-X%X&X$X1X%X3X%X=X%X&X=X1X X!.%X%XXX!.1X~.2XXX~.1X%X1X2XXX1X4X4X3X1X1X4X1X3X1X*X1X3X0X0X1X1X3X1X3X1X1X%X1X1X1X4X9X9X=X1X1X0X0X1X1X%X1X1X=X=X4X9X9X0X9X0X0X8XzXzX5X5X0X5X0X2X5X2X5X8X9X9X1X2X0X8X8X9X0X9X9X3X3X0X0X0X0XzX0X1X1X0X5XcX8X0X1X0X5X5X1X1X0X5X2X1X2X*X3X1X4X5X3X3X1X*X4X1X9X3X1X6X2X1X8X4X1X4X2X1X3X3X1X1X*X*X X*X1XXX%X2X*X*X3X3X3X1X*XXX*X3X*X1X3X3X4X1X8X3X*X2X=X2X3X8X8X=X:X:XzX&X>X7X:X:X;X7X:X>X;X&X,X=X&X:X&X:X9X2X:X=X2X2X4X2X2XXX.XXX2X2X2X5X2X2X2XXX6X2X>X2X2X>X;X.XXX&X6X&X|.;X;X>X2X;XOX;X;X>X6X&XOXoX.X;X.X.X;X.X=X>X>X.XoX;X.X}..X}.|..X|.|.|.oX|..X.XoX|..X|.}.{..X|.|.oX&X}.E.[.]..X}.}.oXP.}.].[.[.[.}.].[.[.[.E.[.I.>.F.S.P.L.I.F.S.[.I.K.F.I.I.P.P.P.I.E.}.I.I.[.].I.[.}.[.[.P.I.I.I.].L.].[.P.P.P.P.P.].I.].}.[.P.[.[.[.I.P.I.[.].R.].R.].].R.P.F.P.}.].R.].F.P.P.@XF.S.F.F.F.D.F.P.@XP.m.S.F.F.S.m.m.S.S.m.F.x.F.m.m.x.m.c.S.k.k.k.e.d.k.",
"OXUXjXjX6XcX5XjXUXUX5XcXjXjXcXsXUXcXcXcXUX0X5X~.#X#X-X#XJ.J.~.~.XX2XXX;X5XlX>X|..XoX.X|.E.|.|.[.4X{.I.|.=XkX4X|.{.P.{.>X7X:XkX&X&X4X4X>X6XoX}.;X4X6X5X4X*X;X XoX:X}.D.{.&X:X:X;X.X.X:X}.&X}.lX>X;X&XoX}.2XXXoXoX|.;X[.|.E.R.XX.X.X~.~.!.|.W.R.E.{.[.[.R.E.&X&X X&X=X4XcX2X>XR.P.P.&X>X&X X[. X X*X*X.X=X=X&X;X:X$X&X>X=X&X;X;X=X&X2X8X2X X.X4X3X3X&X2X2X1X2X3X2X4X2X2X*X=X4X2X X X2X;X*X2X2X*X*XP. X2X*X&X4X&X3X&X6X8X;X4X6X5X5X8X8X7X7X&X*X2X2X2X2X*X4X3X2XXX4X;X&X*X X*X&X3X2X X*X*X1X&X&XE.%X#XR.Z.Z.T.^.E.!.W.&X XW.|.=X2X4X2X*X:X*X.X*X2X2X:X4X:X;X4X3X>X6X6X7X4X4X;X;X;X:X7XxX4X7X4X4X;X4X>X4X>X4X7X&X2X>X4X:X5XoXr d < d * * < w a G ( ,.c.S.c.k.d...} ] g.h & < , 3 2 V Y $.P.[.|.&X:X2X4X&X8X1X;X3X2X*X3X5X&X2X2X4X3X8X2X*X*X8X X3X3X*X&X%X X!.1X1X1X1X3X1X%X X%X9X1X3X=X-X:X$X:X$X%X%X1X%X=XW.$X*X%X%X1X9X X X X1X1X1X1X1X1X%X1X1X2X1X1X1X0X5X3X3X3X1X3X9X*X1X3X8X0XkX*X2X*X9X1X1X1X*X1X1X1X3X3X1X1X1X1X1X1X1X%X1X1X1X9X=X0X=X=X9XlX0XcX0X0XcX8X9X5X3X2X0X0X8X1X1X3X9X3X1X3X3XzX3X8X8X1X8X5X0X5X8X5X5X5X1X5X5X1X0X8XkX5X5X0X8X5X0X1X5X1X4X*X1X1X2X9X9X2X2X4X9X8X3X1X9X9X5X1X1X1X1X*X2X%X1X1X1X2X9X2X*X3X1X*X*X*X3X3X*X1X3X9X0X1X%X%X1X4X X1X1X*X3X9X3X=X3X2X9X3X4X9X4X7X>X7X4X:X:XkX>X4X4X:X:X:X&X;X>X>X>X&X2X>X3X4X>X;X&X2X2X*X2X2X2X2X2X2X2X2X;X5X2X4X;X2X&X;X>X;XXXOX;XXX>XoXXX|..X;X;X;X&X.X.X.X>X>X X.X|.}..X}..XoX.X|..X}.oXoX{..X|.|..X|.}.|.oX.XoX|.oX[.oXI.}.[.|.|.}.oX}.I.}.E.|.[.[.[..X[.|.}.[.[.{.E.[.}.I.}.].[.E.z.n.F.D.F.K.P.P.F.P.I.[.P.P.I.P.P.P.I.>.P.I.I.[.K.P.[.[.}.P.P.P.I.[.P.P.P.F.I.P.P.P.}.R.P.[.P.E.I.].P.I.P.I.[.].R.].[.].R.].].R.P.}.R.].].F.@XP.R.F.].@XF.].].F.F.F.P.F.S.F.F.S.m.G.c.S.G.x.m.x.k.c.c.k.k.x.g.k.k.d.>.$.",
"UXjXjXjXjXjXsXcXsXcXcXcXcXvXcXcXcXvXvXUX~.0X1XJ.J.^.0X#X#X^.#X^.2XXXXX.X*XoX2XI.I.oXoX|.I.oX{.}..X XI.>X>X2XlX&X.XP.D..X.XjXcX&X.X;X>X.X.X.X.X4X2X6X2XXXXX5X5X2X:X&X@XS.>X=X&XR.D.S.}.;X>X;X&X}.4X>XkX[.oXE.*X.X&X*XXXK.[.*X2X=XoX X~.K.E.~.E..X:X:X$X&X{.].{.=X&X>XjXxX8X4X[.R.{.R.{.&XW.E. X X X X{.{.&X&X=X;X&X;X X&X&X;X4X4X4X4X&X3X2X*X2X4X5X*X2X8X8X3X2XXX;X2X4X4XoX;X4X4X4X*X7X4X*X&XkX8X.X=X&X2X*X*X&X>X4X.X4X2X5X4X4X5X;X7X;X>X4X4X2X3X=X4X=X2X&X*X&X*X*X*X|.&X2X*X2XoXXX%X*X X X{.E.E.R.Q.#XY.Q.T.E.W.E.E.E.|.=X.XXX*X8XR. X5X4X8X*X8X2X&X:X;X7X>X2X;X;X>X3X7X4X>X2X4XlXxX7X7X;X6X4X4X4X7X.X=X;X6X2X4X2X5X5X:.* * d * * 0 a G P _ ,.c.K.P.K.n.S.c.k./ n d & 5 5 * D Y ^ n.[.&X&X2X2X7X2X2X8X4X4X4X3X2X5X4X2X8X8X8XzX4X2X2X2XXXXX&XXX2X X$X%X XXX1X1X X*X X1X*X%X=X9X$X&X=X4X=X=X-X=X9X=X=X*X1X%X1X!.1X1X X%X X=X%X1X%X8X1X%XXX~.3X1X2X%X9X8X3X3X9X2X9XXX1X5X3X1X4XxX0X3X3X4X1X X1X1X=X1X1X3X9X1X3X0X9X-X1X1X-X%X%X%X0X9X0X4X=X9X=X9X:X1X1X8X1X0X3X1X1X1X5X9X3X1X1X3X5X3X3X8X9X5X8X1X3X3X9X5X8X5X1X9X9X0X5X0X5X0X0X8X5X0X1X0X5X1X0X1X5X1X4X1X1X%X%X9X5X1X1X9X9X9X3X4X4X1X1X3X9X4X3X1X1X2X=X3X3X3X1X1X=X1X3X%X9X*X1X1X&X2X1X4X4X2X*XXXXX1X=X1XXX*X0X0X3X:X2X3X1X9X:X3X4X>X:X:XiX:X>X8X:X=X>X:X;X:X>X:X7X:X&X4X;X:X>X3X>X;X*X4X;X3X2XXX.X.X5X3XOX;X5X2X2X&X5X>X2X;X;X.X.X.X>X.XoX}..XoX;X;XoX.X>X.X>X.XoX&X>X.XoXoX.X.XoX}..XoX}.}.oX.X}.{.}.oX.X.XE.E.}..X}.[.}.R.oX[.[.[.}.[.[.oXoXoX[.I..XE.[..X[.[.}.|..X[.oX[.}.|.[.[.I.P.F.c.z.P.F.P.I.F.F.I.L.R.[.[.I.I.].I.}.}.F.}.L.E.[.U.[.}.[.[.[.I.P.P.I.I.}.P.[.P.P.].[.[.[.E.[.R.].].R.I.I.I.P.I.].].].R.].].].].E.P.P.P.}.P.].@XF.S.F.F.F.F.F.@XP.].F.F.n.F.G.F.m.m.c.m.c.c.c.k.c.k.h.k.k.k.k.k.f.k.c.h.d.",
"6XvXjXjXcXjXcX5X5XcX5XsXjXcXbXnXcXcXcXcX1X-X-X^.#X-X#X^.J.Q.Q.#X%X~.H.P.|.XX2X[.[.~.I.XX.XXX.X[.&X>XR.{.4XMX8X;X].C.L.[.&X;X.X7X[.R.*X;X.X}.xX5X2X2X2X2XOXXXXX2X4X=X&X$X:X:X&X7X7X;X&X&X:X:X;X[.;X7X7XoX[.|.&XXX|.[. XP.|.P.R.&X X*XR.K.E.R. X X:X>X7X>X:X;X&X>X;X8XnXxXkX7X;XE.P.D.D. X X|.{.&X X&X XE.&X3X,X>X&X7X:X7X=X>X:X2X4X*X*X*XXX*X2X2X3X*X2X*X5X*X*X&X&X9X2X4X=X2X2X2X2X2X8X8X4X&X8X4X8X4X2X2X4X4X*X;X;X&X&X;X4X8X1X5X4X7X2X4X2X4X4X;X*X2X;X4X4X2X4X4X2X2X2X;X|.*X&X.X X&XXX*XE.{.W.E.{.T.R.W.!.!.!.!.$XW. X X*X[.XX&X;X.XP.%X2X2X8X4X=X4X4X7X2X:X4X7X4X7X&X2X4X=XkX4X2X8XxX4X:X:XkXkX8X4X6X>X.X=X4XzX2X5XI.r * * * 3 r V P | | d.,.S.K.I.K.P.P.F.x.$.0 * & * & m R ! d.P.}.2XOX*X2X2X2X8X*X2X4X*X*X3X8X2X8X3X1X4X8X2X2X*X5XoX*X1X*X1X*XXX8X9X1X1X1XXX1X X=X=X~. X%X%X=X=X-X:X:X=X=X=X$X%X=X=X1X$X1X1X!.1X X1XXX=X1X3X0X1X%X~. X X%X1X2X2X8X1X3X3X=X2X1XXX1X=X*X4X0X9X1X2X9X%X1X1X3X$X1X1X1X1X X1X9X1X=X1X1X9X1X1X0X1X=X0X=X=X9X4X7X4X1X2X1X5X1X3X1X5X5X1X9X5X3X3X3X8X3X0X3X3X0X8X3X0X3X5X1X9X5X0X8X3X0X1X5X5X0X5X1X1X5X5X5X1X5X5X1X1X3X5X%X5X2X5X9X9X1X3X2X8X3X1X1X1X1X3X5X1XXX9X1X2X&X&X3X1X3X4X*X&X3X*X*X4X&X*X1X2X4X1X9X*X1XXX1X%X1X2X=XXXoX8X3X*X=X=X*X:X:X:X3X>X7X:X:X;X;X&X:X:X>X>X&X=X:X;X7X>X:X4X:X>X:X4X4X:X;XXX2XOXXXUX2X2X2X*X2X2X2X4X;X2X6X&X:X>X>X.X.XoXoXoX&XoXXX}.;X&XOX;XoX;X.X.XoX.XoX.X.XOX.XoXoX{.oX|..X{.|..X.X|..X}.OX&X}.oX[.[.oX}. X[.}.oX}.E.I.[.[.}.}.E.|.}.|.].[.}..X[.I.[.|..XoX[.[.[.oX[.I.[.].E.].K.P.L.[.I.L.}.I.P.F.I.[.[.I.P.E.[.I.E.P.P.}.].I.I.I.[.E.[.}.I.P.P.[.P.I.S.I.I.I.P.E.].[.[.}.P.P.I.[.R.P.P.].R.R.].].[.].R.].].P.F.].P.F.P.F.S.F.S.F.F.S.S.].F.P.@XF.S.n.m.c.m.c.m.V.m.c.x.x.x.k.k.h.k.x.k.k.>.>.F.d.h.",
"jXjXjXnXjXjXjXvX6XjXjXvXcXcXcXcXcXUXjXcXI.5X5X~.#X#X^.J.J.J.^.Q. X XP.~.[.[.2X|.|.|.XX;XXXoX&XoXP.[.>X X&XxX;X=X.XP.R.I.oX{.}.&X}.{.=XF.oX].;X.X2X2X6XOX2XXXXXXX;X7X&X&X>X7X7X7XkX:X;X X>X>X[.}.4X.X>X{.@X{.{.}.&X;X[.D.{..X.X&X{.{.&X{. X{.E.oX$X}.;X7X>X>X>X:X4X8XxXxX4X4X.XE.R.R.{.&X=X&X{.:X*X X X.X}.[.$X;X;X:X:X7X9X=X&X;X4X2X2X2X&X;X=X*X2X&X2X=X;X*X2X=X2X2X*X4X2X3X X*X8X3X2X4X*X*X8X8X;X*X*X5X2X2XXX*X XXX5X5X2X1X2X2X8X2X2X*X2X2X2X:X3X3X8X2X8X2X2X8X2X3XoX&X&X*X X*X*X&X&X!.E. X&XE.W.#XQ.$XR.$X$XW.W.W. X*X:X X*X;X5X8X8X*X8XcXzX*X2X2X4X4X2X;X7X7X2X4X>X:X4X8X7X;X7X4X7XzX>X7X7X>X7X7X2X:X=X6X4X6X4X.XC * * * < V c G ` f.>.x.c.S.P.R.E.[.[.R.S.$.h R D & w F ~  .m.].$X&X2X2X4X2X5X3X2X3X8X5X&X8X&X2X;X8X2X=X2X8X8X&XXX X2X2X*X1X1X%X5X1X1X1X1X X X~.1XXX%X%X8X3X1X%X!.1X:X%X:X=X$X*X=X:X=X&X=X=X&X=XW.*X=X=X1X X%X~.1X!.1X1X1X2X9X:X:X9X1X3X2X*X1X2X0XXXXX3X4X0X2X=X4X=X*X%X1X3X1X1X3X%X1X3X=X3X1X%X%X1X1X1X1X5X1X1X1X9X1X5X3XzX5X0X0X1X2X2X1X1X1X1X1X9X9X6X3X9X5X3X4X9X8X8X9X5X9X8X0X3X3X1X4X1X3X9X5X3X0X5X0X5X3X3X1X9X8X1X1X3X9X3X1X1X1X4X8X9X4X9X1X1X3X3X3X3X4X4X3X1X2X1X3X1X2X=X3X1X8X4X1X3X=X2X1X3X1X9X3X1X X2X=X X&X*X*X3X2X1X&X2X%X4X8X=X4X9X1X4X1X1X:X:X>X;X&X.X,X;X:X:X:X:X:X:X=X:X;X&X:X&X:X>X:X7X4X4X4X;X;X;X2X6X5X5X2X2X6XXX2X2X2X>X4X>X4X;XXXoX.X.XoX[..X&X.X.X>XXX&XXX&X;XoX;X;XoX.X>X.XoXoXoXoX}.[.R..XOX.X|.oXoX{.].{.}..X}.E.|..XoX|.[.[.}.[.].}.[.oXXXOXE.}.E.[.[.|.}. X[.oX[.[.[.|.|.{.[.oX[.].[.P.P.P.P.P.P.I.P.L.U.I.I.].[.[.I.}.I.I.[.}.P.[.E.[.[.P.R.].R.|.[.[.].I.I.I.[.[.I.P.P.P.E.[.I.}.[.[.I.].}.].P.D.P.].R.P.R.[.R.F.F.].R.].F.R.].D.F.@XD.S.F.F.F.S.V.F.F.S.F.n.F.F.S.n.S.m.S.c.x.m.k.k.G.x.m.k.x.k.e.k.k.f.F.c.d.",
"jXUXjXjXjXjXjXjXcXnXcXjXcX6XUXUX5XsXoXUXv.jX5X~.-X-XQ.#X-X^.^.#XQ.E.oXE.2X*X&X&X[.{.&XXX[.&XOX&X4X2XoX;X.X4X4X;X6XoX&X.XoXP.[.R.R.[.}.R.]..X&X.X3XOX5XxXkX2X>X2X7XkX{..X.X=X:X>X&X7XkX7X:X&X$X;X;X&X&X;X[.[.E.[.{.&X}.[.}.&X X}.[.}.[.&X}..X;X;X&X&X&X>X7X&X>X4X6XlXxXnX4X8X*XE.P.R.j.j.}.:X=X:X X&X X&X&X$X=X&X>X7X:X:X3X4X&X4X4X2X2X*X;X2X&X&X;X*X2X;X4X4X;X3X X;X;X*X;X&X*X X&X2X*X4X*XXX3X5X5X3X2X0X9X1X2XXX1XXX2X1X3XXX*X%X:X:X2X*X2X3X8X:X2X3X8X*X9X4X2X*X&X4X*X*X*X2X2XXX X*X X3XW.R.E.W.#X#XQ.{.W.$XE.E. X~.2X X2X*X&X2X*X8X;X2X4XzXzX8X4X&X4X3X:X2X>X4X4X=X*X7X4XkX4X:X4XlX>XkX7X7X4X7X6X;X;X6X:X>X*X&X6Xh.= d * % V f C _ >.,.j.h.D.F.K.P.E.].].R.S.k.P F F V D ~ =.x.[.[.}.&X4X5X3X8X8X8X8X8X4X*X8X7X4X8X9X2X8X4X4X2X2X*X&X*X*X=XXX2X*X1X9X1X X X1X1X%X1X X%X X$X=X=X$X=X*X=X&X=X=X9X$X9X=X=X=X=X#X%X=X-X=X X=X%X3X-X%X%X1X1X4X$X1X X&X:X*X8X8X2X1X8X4X9X3X1X$X9X8X9X1X9X9X1X*X=X1X2X9X1X1X%X*X1X$X1X5X~.0X1X1X1X0X0X3X%X0X1X1X1X0X0XcX0X8X8X5X0X5X2X8X1X1X6X1X3X8X4X9X0X9X4X8X8X1X9X5X3X3X5X4X9X5X3X1X1X9X3X2X0X1X2X5X1X4X3X9X3X4X3X1X1X3X3X2X1X4X3X3X1X3X*X1X4X3X1X9X3X1X3X1X4X1X8X4X0X3X*X*X X&X&X1X*XXX*X3X%XXX1X*X1X3X2X%X2X9X1X8X2X1X1X X2X9X X1X2X*X*X2X2X;X2X:X7X;X{..X:X&X>X&X:X4X>X7X>X=X;X:X>X;X:X:X>X4X>X4X3X2X4X2X2X2X2X;X2XXX2X3X2X5X6X4X&X>X;X;X.XOXoXOXXX.X6X;X;X2XOX;X>X.XOXOX;X.X.X.X&X;X.X.XoX[.[.[.oX[.oX[.}.oX[.oXoX|.}.[.|.}.|.oX&X.X|.[.P.I.I.E.|.E.}.}.[..X}.}.&X.X}.}.[.|.].}.E.}.{.}.[.}.|.P.I.I.P.[.P.P.F.P.P.E.F.I.R.P.[.].[.[.[.E.}.[.}.E.].[.].I.].[.P.I.[.}.{.I.].I.I.P.P.P.[.[.}.}.[.E.}.I.[.P.P.I.I.P.}.R.].].}.}.}.].R.].[.[.F.F.].F.F.F.m.S.F.S.x.x.S.U.F.S.F.n.F.n.m.m.m.m.m.c.x.c.k.k.k.k.k.x.x.x.k.k.g.k.#.$.h.",
"UXUXjXjXcXjX6XjX6XUXUXUXsXjXjXjXUXjXUXUXJ.5XjX~.Q.Q.Q.6.Q.6.^.^.T.T. X X XXX4X;X{.}. X6XjX|.&XoX;X>X|.XXoXkX>XoX&X;X;XR.[.}.{.V.F.[..X}.{.&X.X.X;XXXkX6X4X6X4X5X7X4X>X&X.X>X:X:X>X:XkX>XzX:X&X>X&XR.&X>X}.{.}.$X&X&X{.&X:X&X}.;XR.}.}.;X=X;X>X&X,X;X;X.X}.;X&X;X8X5X8XkX4X6X*X[.P.R.C.` {.=X&X}. X&X X|.>X=X:X:X:X:X&X>X2X2X&X4X=X*X3X&X2X2X9X2X2X&X2X2X=X2XXX&X2X2XXX*X&X X*X2X&XXX*X2X4X*X5X2X XP.%X1X1X1X%XXXXX X1X2X5X1XUX2X*X3X*X9X2X8X8X&X&X4X5X*X2X2X=X4X&X&X5X=X=X*X X=X XW.E.L. X&X$XY.{.E.E.$X%XW.Q.W.$X%X&X X4X;X;X*X8X8X*X2X&X&X*X2X4X&X*X8X>X;XkX8X4X.X.X>XkXkX4X2X:XzX7X>XkX7X7X4XkX8X>X&X>X=X4X2X}.a d d = d D V P =.1.c.c.C.R.P.P.[.E.oX}.E.P.m. .X.^ ..$.k.c.D.{.&X>X>X=X&X4X7X4X4X*X4X2X*X8X2X*X1X2X*X1X4X&X8X5X4X=X*X*X1X1X1X~.1X1X%X1X%X X X1X X%X X!. X%X$XW.=X%X%X=X-X{.%X&X%XW.&X=X&X%X&X:X=X=X=X X!.&X3X~.1X X$X=X$X%X3X%X=X=X4X9X9X=X3X1X8X4X9X*XXXzX8X9X=X*X=X=X&X!.=X1X1X1X=X$X=X=X1X0X5X1X1X1X1X1X1X0X5X1X5X1X1X9X2X1X0X2X0X5X0X0X1X3X3X1X2X9X3X8X3X3X9X3X9X4X9X9X8X3X5X9X9X8X8X8X1X8X9X9X5X2X2X2X5X1X5X9X5X8X4X3X1X9X5X9X8X1X9X5X1X3X8X4X1X8X4X0X9X8X0X1X3X3X1XXX4XXX1X*X*X1X1X1X2X1X=X=X*X*XXX*X1X=X2X1X1X*X4X2X=X3X9X4X1X1X3X0XoX*X*X*X2X3X2X*X=X7X:X=X&X;X;X&X;X&X>X4X=X:X:X;X>X:X:X:X>X>X>X:X:X2X4X*X2X4X5X5X4X6X5X2X5XkX5X5XXX2X>X=X6X6XoX>X&X&X;XXX;X6XOX;X;X.XoXXX;X.XOXOX.XXX|.oXoX.X.XoX[.}.{.[.}.oXoX{.[.oX|.{.[.[.oX}..X}..X}.}.[.[.I.P.I.oX[.[.E.|.|..X|.oXoXP.[.oX}.[.I.[.[.}.|.oXI.].P.L.F.[.I.P.L.P.P.S.U.P.F.I.[.[.[.I.P.I.I.I.P.P.].E.I.I.P.P.].I.[.[.}.[.P.I.P.P.P.].].[.[.|.}.E.R.I.I.P.E.K.I.I.P.I.].P.].R.F.F.@X].}.F.[.F.D.F.F.F.S.V.m.m.m.m.m.x.F.F.m.S.x.n.S.n.n.n.V.x.k.m.k.k.k.k.x.x.x.x.k.k.k.>.k.$.k.f.",
"UXOXUXjXjXjXUXUX5XsXjXUX5X6XcXjXcXjXUXjX4.XXUXJ.Q.^.#X6.6.6.J.^.P. X&X2X|.2X X XR.}.D.R.2X|.&X;XkX{.4X>X>X2X>X;X.X>X>X6X}.;X}.&XR.E..X.XoX&XkX6X|.lX2XXX2X6XXX5X7X8XxX8X|.|. X&X:X7XkX7X,X&X&X&X>X.X.X=X&X&X&XE.{.}.{.}.>X=X>X;X=X}.&X;XjXjX6X6XOXoX}.oX}.&X}.&X6XkX4XjX3X4X2XE.|.R. X{.[.;X=X;X&X X.X&X=X&XkX:X&X&X4X7X2X&X*X2X;X2X;X=X2X*X2X2X2X2X*X3X2X XXX2X&X*X&X*X&XXX;XoXXX3XXX2X*X3X8X8X2X3X3X4XXX2X1X1XUX1X1X%XXX1X9X1X2X2X2X3X9X2X4X*X2X4X*X&X4X&XXX8X4X%X2X&X*X&X&X XR.E.$XW.T.$X=X%XR.Q.#XQ.!.T.#X$X*X&X1X&X=X&X:X;X*X*XzX2X8X2X;X*X1X4X4X2X=X;X4X4X;X&X.X;X6XMXxX&X4XNX4X7X>XjX:X>X8X4X7X;X:X4X>X>X| d * < & a V G | >.l.c.S.P.|.P.R.E.P.].S.R.L.D.S.c.S.S.D.P.D.[..X&X:X4X:X4X2X9X3X4X8X*X8X2X9X8X4X4X2X2X2X2X&X2X3X2X1X*X&X&XoX&X1X X X X~.%X1X9XI.1X9XT.E. X$X!.W.$XW.=X%X$X=X=X-X{.%X=X&XW.$X=X%X$X=X=X3X=X=X=X~.~.1X$X X$X%X=X%X$X%X=X1X1X*X1X4X0X0X4XXX1XzX0X3X3X3X=X1X%X=X%X3X1X=X=X1X*X=X9X0X0X0X1X5X0X1X5X1X0X0X3X5X0X3X1X1X2X1X3X0X5X1X5X8X3X3X4X3X1X3X9X9X3X4X0X8X1X3X8X9X3X9X1X1X9X5X9X5X8X0X8X0X3X0X1X1X2X3X3X0X1X3X*X2X3X1X1X2X1X1X1X9X1X3X9X=X1X5X4X3X4X9X&X=X2X1X1X%XXX1X*X1X4X2X1X*XXX=XXX*X*X2X=X1X4X3X1X9X4X1X8X1X1X3X&X&X8X9X1X1X=X3X3X9X=X9X;X:X:X&X&X&X>X=X:X,X4X4X>X,X:X:X>X>X7X7X:X=X;X4X7X2X6X2X2X2X5X2X2X*X2X2X4X5X5X2XXXjX;X.X.X.X2X&X;X>X;XoXOX>X&X.X&X>X;X;XXX{.;XoX;X>XOX&XXXOX&X}.[.}.oX[..X&X.X}.}.{.|.|.}.}.|. X}..X|.E.[.}.[.P.I.}.}.[.|.[.}.|.oX|.|.}.P.E.[.E.I.}.[.}.|.[.[.I.[.P.P.F.P.K.F.P.S.U.I.[.I.[.I.I.P.P.U.P.P.K.S.P.P.P.P.].P.L.].E.P.I.P.D.I.F.I.P.}.P.I.E.].[.|.F.P.].I.P.R.}.E.P.U.F.P.[.].P.].S.P.L.F.].].F.].].@XF.F.F.c.S.n.G.m.k.G.@XF.V.m.n.n.m.m.z.k.x.m.x.V.k.k.k.k.c.c.k.k.k.k.g.k.f.x.x.f.",
"OX6X2XsXUX6XUXUXUXUXUXjXjXcXcXnXcXFXjXjXK.UX~.~.#X#X6.6.6.6.J.9X1XXX*X XE.XX;X8X.X=XoXoX{..X|.>X=X6XkX4X2X2X>X&X&X[.>X&X&X[..X.X}..X}.{.oX7XcX&XoXxX5X&X;X6X{..X;X>X4X7X>X&X;X&X[.>X4X&X}.{.&XS.=XkX,X=X[.l.D.}.[.}.oX}.>X&X7X7X;X{.&XjXnXcX6X>X>X4X,X[.:X&X&X>X4X6X6XkX4X2X&X|.|.[. X|.&X&X&X=X&X.X[.&X=X&X:X:X=X&X=X7X4X:X*X;X4X4X=X4X*X*X2X3X4X*X4X2X X.X*X8X3X2X*X8X4X2X;X1X3X*X2X&XXXXX%X3X2X1X1X2XXX3X%X1XXXXX%XXXXX1X1X5X2X1X1X4X9X2X3X*X2X*X;X&X2X;X3X;X*X4X8X%X1X*X XE.&XW.&X$XW.{.%X&XT.Q.E.W.Q.Q.~.%X%X1X*X=X2X=X*X;X&X&X8X*X2X2X&X2X*X4X3XoX>X2X4X8X>X&X.X.X;X&XjXMXkXlX:X7X7X7X:X>X&X>X4X:X>X:XjXF.r d & < q V C ( -.,.c.F.L.[.&XP.R.I.P.R..X{.[.P.F.P.R.{.@XQ.{.}..X&X=X;X6X:X4X2X4X8X4X2X2X2X&X2X4X*X*X4X*X;X2X2X*X3X1X*X~.1X0XXXoX1X%X1X1X~.1XXX!.1XXX~.1X1X1X8X X$X%X#X&X$X&X=X$X$X$X$X%X$X$X=X$X=X=X=X%X=X$X$X&X$XW.$X!.9X*X1X$XW.$X X:X=X=X9X1X9X1X3X1X XzX0X4X1X9X9X=X=X=X=X=X9X=X9X9X9X9X=X1X1XUX1X1X5X5X0X1X1X1X0X2X1X1X2X2X0X5X9X1X2X2X8X9X9X9X1X3X4X4X4X8X3X4X1X1X4X0X0X8X9X2X X1X1X8X4X0X5X5X3X0X5X5X0X1X1X3X2X1X3X1X3X2X1X1X3X1X1X3X1X4X$X=XXX*X3X1X1X1X3X1X1X1X2X=X2X4X*X2X4X=X4X1X0X1X3X1XoX1X1X4X1X1X4X1X1X2X*X2X3X&X2X1X3X4X2X3X%X=X4X3X9X:X:X7X7X7X:X=X;X:X:X=X>X:X>X>X6X;X:X&X4X7X>X:X7X=X;X2X;X2X2X4X2X2X2X6X5X2X5X6X2X5X6X2X2X4X&X&X2X>X;XoXoX&X>XXX.X.X;XOX;X;X&X}.XXOX}.&X.XXX.XXX.X;XXX.X>X XoX.X.X.X;X}.oX}.[.oX}.[.[.[.[.}.[.}.I.[.[.].I.P.[.[.[.oX|.oX.X}.|.|.}.|.}.[.}.E.}.E.[.[.}.E.[.I.[.P.P.P.P.U.F.L.I.[.[.[.}.I.U.P.P.I.L.P.c.L.U.I.F.F.S.E.P.I.].P.E.[.I.P.[.I.[.I.P.P.[.E.[.P.I.P.P.P.P.].I.E.F.R.I.I.].[.[.P.F.R.F.].F.].@XF.F.S.c.c.m.c.m.S.V.m.n.G.m.m.F.m.x.S.m.x.x.x.c.x.h.k.k.k.>.k.k.k.g.>.>.k.k.f.f.k.g.",
"UXUX6XjXjXvXUX6XjXjXOXUXsXUXjXjXUXjXjXUX].nX~.~.#X-X-X6.5.6.J. X*X*X2X3X;X X X2X[.:X;X.X8X2X;X}.6X>X&XkX;X;X6X&X&X}..X.X}.[.[.R.;X}.R.{.R.].:X7X2XoX;X>X6XkXI.I.;X;XlX8X4X>X}.&X,X;X{.=X&X:XR.V.&XlXzXkX>X&X;XE.R.&X;X,X{.}.>XNX>X>X>XlXnXcXcXjX>XjXXX>X:X;X}.>X4XlXkXMX4X2X X X.X X&X&X&X:X&X:X&X&X:X&X;X;X:X&X=X4X4X4X2X*X&X:X*X2X*X4X4X2X2X8X8X3X2X9X2X4X8XzX4X4X2XXX*X*XXXoX|.2X*X&X2XXX8X*XXX%XXX2XXX1XXX2X1XXX%XXX~.~.2X%X|.1X1X1X1X2X3X3X&X*X;X4X8X2X X;X*X3X4XXX*X2X X~.&X=X&X=XW.#XT.=XQ.Z.Y.%XW.$X!.1X%X1X2X=X8X;X X4X4X4X*X2X2X&X*X5X*X4X&X&X&X;X2X>X=X>X.X.X=X>X>X4X.X,XkX>X>X:X>X:X4X7X9X;X:X:X>XK * < * * V V J X.-.h.c.C.D..X4X[.}.[.}.{.oX.XI.P.{.[.E.@X{.$XE.&X}.;X>X;X>X4X2X4X9X*X9X2X1X4XkX4X2X4X8X4X*X&X=X4X1X2XXX XXXXX3XXX!.1X~.XX X1X1X~.1X1X%X1X X~.$X X&X=XE.$X%X9X&X#X$X$X=X$X-X{.&XR.Y.%X4X&X&X*X=X=X=X=X=X&X=X1X=X$X:X&X$X$X$X=X:X4X1X4X3X1X*X1X8XzX1X3X4X=X9X=X:X=X9XzX9X9X=X9X9X9X0X5X1X0X5X0X0X1X5X1X8X1X0X3X1X2X8X0X5X1X2X0X5X0X6X1X4X1X1X9X%X8X3X1X4X9X1X4X2X1X9X5X9X1X1X5X1X9X5X0X8X0X9X8X5X1X*X2X0X3X3X9X3X8X3X3X4XXX2X2X1X2X*X8X8X&X5X*X1X X1X2X4X1XoX1X*X1X%X=X*X1X%X9X4X9X3XXX=X8X8X1X3X2X1X4X1X4X*X1X1X*X9X1XXX*X9X1X2X1X9X3X0X8XkX:X:X:X7X:X=X>X9X>X>X:X4X7X:XOX;X>X:X>X&X:X>X:X6X4X2X4X3X5X5X6X2X2X2X5XkX2X5X5X5X2X4X2X;X6X2X>X4X.X;X.X;X>X4X;X>X.X.X;XXX>X2X;X.X;XoX;X>X&X;X>X.XoX;X&XoXXX.X}.}.}.{.oX|.}.}.oX{.[.[.[.E.|.}.[.L.[.R.[.[.I.}.P.].[.[.}.|.|.{.[.|.I.I.[.[.|.I.[.I.[.].[.[.[.P.P.I.I.P.L.P.F.P.P.[.L.P.P.P.I.F.P.F.[.F.U.I.L.S.n.S.S.L.C.P.].[.P.I.R.[.I.P.S.F.P.].[.I.I.F.P.P.P.R.I.P.P.F.[.].R.].R.F.S.F.F.].@XR.R.F.F.S.m.G.m.k.k.x.F.c.n.x.S.c.F.m.x.n.S.x.x.x.m.x.k.k.x.k.k.k.h.c.f.k.f.d.>.h.k.f.d.",
"jXjXjXjX4XvXUX}.UXUXUXUX5XUXUXjXcXcXjXUXoXnXJ.XX0X#X0X6.6.6.T.~.&XE.XX8X8X2X&XoX].>X4XoX.X.X;XI..X4X&X6X.X>XoXoX>X;X;X&X;X}..X}.&X7X].=X[.L.E.>X.X>X.X;X;X4X4X[.[.:X7XzX:X&X&X&X}.&X>X:X&X7X>X[.}.kX:X>X7X&X:X&X&XlXkX:X>X;X>XkX;X>XjXxXnXVXnXcXzX7X&X&X:X>X:X&X2XkX4X6X5X4X&XoX&X X.X&X4X:X:X{.&X;X;X{.}.&X&X:X;X&X&X>X:X2X*X2X2X2X4X2X3X2X.X&X2X&X*X2X4X2X*XkX&X*X3X4X3X4X|. X*X3X X X1X4X|.~.~.2X X~.%X9XXX5X1X2XoX~.~. X%X2X*X3X3X3X1X2X*X2X3X*X2X4X*X5X*X&X*X2X2X&X=X%X X X=X XW.R.&XQ.Y.{. X$XY.!.Q.Q.#X%X&X$X3X=X>X3X X2X5X*X:X2X3X2X*X=X8X;X.X.X&X;X4X2X:X>X;X.X.X8X4X&X>X8XzXxX:X&X=X&X:X>X4X9X:XkXj.d < * * a c G J #.h.h.S.S.E.E.I.&X[.|..XoX&X;XoXE.R.E.[.&X&X&X}.{.4X;X;X;X4X7X:X7X4X8X8X;X2X8X2X*X*X2X4X9X2X1X2X4X9X8X*X%X X!.1X1X%X%X1X~.~.3X1X X%X X X X~.1X~.$X$X{.%X=X&X=X=X=X&X$X&X=X=X=X-X$X$X$X=X=X%X=X%X=X=X=X=X=X=X*X9X=X9X#X$X=X&X*X:X=X1X5XXX*X1X3X0X8X9X4X9X9X9X4X9X=X9X1X9X=X1X3X=X8X1X5X0X1X0X0X1X0X5X1X5X1X0X3X1X5X0XxX3X5X9X8X3X0X2X1X1X9X3X1X1X1X1XXX1X1X8X3X2X&X1X5X5X8X1X1X1X8X3X3X3X8X1X9X5X1X5X1X1X2X9X3X1X1X3X0X=X1X*X*X*X1X1X*X1X%X3X*XXX1X4X3X9X*X*X=X*X*X*XXX=X1X*X1X3X1X9X3X9X2X4X4X9X1X1X9X4X9X1X1X3X1X4X1X*X1X9X4X1X*X=X*X8X8X4X9X7X:X:X:X=X>XiX7X:X>X4X:X&X,X;X;X&X:X4X7X4X:X2X4X2X2X*X;XXX.X;X4X5X2X4X5X4X4X5X2X6X5X>X&X&X>XOX;XOX.XXX;XXX.X2XXXoX.XOX2X.X.XXX&XOX.X>X;X;X.X>X.X;XoX.XoXoX.X|.{.}..X.X}. X.XoXoX}.[.[..X|.|.[.}.I.].P.I.|.I.[.}.|.|.|.oX}.[.[.}.E.].].E.[.].[.I.}.I.}.|.P.S.S.K.K.F.F.K.P.P.U.L.I.P.F.F.P.P.I.[.P.S.P.P.P.P.U.I.E.P.I.I.P.F.F.P.I.I.F.F.P.P.P.P.P.I.I.P.].I.P.P.I.F.P.R.P.F.@XF.].F.R.].D.S.].].F.D.S.S.m.c.c.k.n.m.c.m.m.c.k.m.x.x.x.m.k.k.c.m.f.f.k.k.x.m.k.k.x.h.f.h.k.f.f.k.k.e.",
"sXOX6XjXUXUXUXOXUXUXoXUXUXjXjXjXcXnXcXnXUXVX~.~.#X#X-X^.^.#XH.T.H.R.R.&X8XkX&X X4X&X&X.X&X4X;X&X7X>X|.6X2X.X4X4X;X;XjX>X&X&X.X}.;X>XF.l.oXD.&X;X&X2X>X&XXX;X>XlX:X8XjX7X:X>X7X7X:X;X4X;X>X&X9X4X[.:X:X:X.X>X>X:X&XxXlXxXkX&X>XlXlXkXcXAXVXnXPXnXxXlXkX4X>XjXlX>XoXoXjXkX4X6XXXR.;X;X X|.}.{.&X&X&X&X#X}.#X&X&X>X&X;X&X.X4X*X&X2X3X&X5X0X2X4X;X2X*X=X2XXX3XXX*X&X*X.X1X2X2X&X X2XlX;XoXE.XX3XXXoXXX2XoXT.XX~.XX%X XXX~.~.K.~.2XXX*X*X*X2X2X*X4X3X2X X2X*X*X4X:X*X*X&X X!.XXXXP.E.&XW.T.R.Y.E.T.R.Y.Y.W. X!.!.%X X$X&X%X4X&X*X2X*X2X2X;X&X2X3X:X.X*X5X|.*X&X;X4X2X=X|.&X4X8XlXlX;X;X.XlXxXzX>X>X4X>X4X7X>X7X[.f < * < < p j ! ` +.h.C.c.P.}.[.}.[.{.|.{.&XkXkX>X=XE.}.[.&X:X&X,X>X=X4X;X4X=X2X2X8X2X4X4X3X3X*X4X*X4X8X8X8X8X4X4X3X4X5XXXXX*X*XXXoX~.T.1X X3X1X3X1X3X1X%X1X9X X$X!.=X=X3X9X=X9X=X=X&X&X%X%X=X&X=X%X$X=X&X9X=X:X=X=X3X=X=X=X%X&X%X%X=X%X%X=X*X9X:X9X4X1X1X2X*X1XzX3X=X*X&X=X9X=X9X9X=X9X9X1X1X=X9X9X1X1X1X5X1X5X1XzX0X5X1X0X3X5X9X9X0X8X0X%X5X1X2X1X1X1X4X4X0XXX9X1X3XXX1XXXXX1X=X=X3X1X3X1X3X2X5X1X3X9X0X0X5X1X1X2X1X1X5X3X3X2X2X9X3X3X2X3X1X3X2X1X2X1X4X2X3X1X9X3X X1X3X*X&X&X3X1X*X*X1X2X2X*X8X4X1X2X3X9X3X1X1X3X4X8X8X1X8X0X4X0X4X3X*X0X8X8X*X*X2X9X3X:X=X=X7X7X7X:X7X:X:X:X:X;X>X:X&X=X&X=X>X&X:X>X=X>X;X;X4X5X6X2X2X2X;X2X2XXX2X5X2X3X4X5X2X5X6X;X6X&X>X;X&X2X;X;X>X>X.X;X2X;X>X&X.X}.oX.X;X>X&XOXoXOX.X&XoX}.oXoX.X.X;XoX|.[..XoX.X.XXX;XoX}.oX|.|.}.}.oX{.I.[.[.oX[.|.{.}.|.|.|.[.I.[.R.|.I.|.].[.[..X}.R.I.[.].E.U.F.S.K.I.P.S.P.P.K.F.I.U.L.P.P.[.I.[.P.P.[.[.[.I.P.S.].F.S.P.P.P.I.P.].I.L.D.I.I.P.P.I.}.P.I.P.P.P.].P.P.F.F.R.P.D.S.].[.F.F.].F.S.F.F.F.m.F.m.k.e.m.x.V.x.c.V.c.k.x.n.c.k.h.m.k.m.x.m.f.k.k.>.k.k.h.k.d.c.k.k.h.f.k.d.>.",
"2X6XOX6X6XOX6X>XjXjXOXUXjXjXjXjXcXbXcXjXoXjXU.I.I.~.1XXX1XI.T.%X=X!.|.*X2X7X4X4X&X&XP.z..X4X>X>X>X&X>X&X>X>XjX:X>X&X}.&X;X{.}.&X}.:X&X{.jX&X[.[.:X;X[.}.=X>X>X.X4X4X7X>X>X&X:X7X7X&X>X&X4XkX;X>X5XXXMX2X2XXXXXXXXX5XxXxXcXkXnXxXmXvX6XjXnXcXnXnXcXkXcXjXjXjXjX>XUX5XUXUXXX*XXXoXoX*X|.|.&X}.$X&XoX~.~.~.XX~.UX1XUX~.XXXX1XXX%XXX&X*X1X5X*X4X;X*X1XXX2X2XXX X%X2X~.XXXX1X8X5X1XoXXX%XXX~.~.0XI.L.%X~.2XXXXXXX%X1X&X8X8XE.|.*X*X2X=X*X*X3X2X*X;X3X5X4X4X*X2X*X2X2X3XXX~.&X*X*XXX%XE.T.!.Y.~.T.T.E.~.!.!.T.~. X!. XXX%X X&X*X3X*XXX2X X4XkX*X2X;X=X:X7X X.X:X7X>X=XkX4X2X&X&X>X>X&X&X.X4XlXMX5X4X2X>X:X>X:X&X` * < * & s a Z ! #.$.,.b.b.K.K.~.P.UXXXoX%X1X8X2XXX2X|.E.&X*X&X&X:X:X&X:X&X9X8X8XzX9X8X3XkXkX3X3X*X3X5X3X5X8X8X8X8X8X2X4X&X4X*X*X*X1XXXY.1X1X1XT.9X0X1X X=X&X=X%X$X=X&X=X=X9X9X=X=X&X:X=X-X:X%X X1X1X1X X X1X1X1X%X2X=X-X4X=X=X:X&X=X=X$X{.%X=X:X7X:X3X9X3X3X=X1XkX9X9X3X3X1X1X1X=X9X9X9X=X-X=X:X9X4X1X4X9X9X1X0X1X1X0XoX%X1XUX1X1X5X8X8X5X3X5X3XMX5X5X3X4X3X2X1X6X1X1X5X3X8X*X4X2X3X8X8X8X5X8X4X4X8X3X4X2X4X4X1X&X8X1X5X2X%X&X7X:X=X>X:X:X:X:X7X:X;X&X=X2X=X*X2X*X3X3X=X&X*X4X=X2X1X1X1X4X1X1X4X3X3X1X3XzX8X3X9X8X9X0X4X4X1X4X9X3XzXzX=X1X3X*XzX4X2X1X1X2X2X1X9X3X2X:X:X:X4X7X=X;X:X=X;X&X;X&X&X&X.X>X:X:X:X4XkX4X7X3X2X2X2XXX2X3X*XUX1XUX1X2XcX5XXX.XoXXX;X;XoX|.XX[.oXXXoX;X&X;X.X}.|.&XoX;X.X.XoX.X}.&XoX}..XXX{.oX{.}.oX{.oX.X|.oX[..X.XoX.X|.E.}.[.[.oXE.|.}.|.E.[.[.[.|.|..XoX.X|.|.{.oX}.E.].[.[.I.I.P.[.I.I.[.}.[.P.U.I.R.F.F.I.P.P.F.E.F.K.F.P.F.P.E.[.[.R.[.}.}.P.].K.F.c.P.F.L.I.I.I.].I.P.I.L.P.I.P.[.P.F.P.].].[.F.S.F.F.F.F.@X@XF.F.F.@XP.F.F.F.].F.@XS.m.F.c.k.x.k.k.x.c.x.m.m.c.c.k.e.g.k.k.S.k.k.k.d.k.g.c.k.f.h.>.k.k.f.>.k.>.d.>.",
">XoXOX6X6X>XjXjXjXjXUXjXjXvXcXcXcXvXjXUXn.kXUX[.UX1X*X~.1X XT.~. XP.3X3X&X[.=XkX2X|.&X.X;X6X4X$X&X&X$X}.7X:X:XjX:X:X&X;X:X&X{.C.}.&X4X|.{..X.X[.:X}.[.;X>X&X{..X&X>X7X:X>X&X&X;X>X;X,X7X4X>X&X=XUXoX2X5X1XoXI.C.>XjXkXcX5XcXnXnXIXcXjXnXAXVXnXnXnXcXcX>XOXjXjXjXcXcXcXjX6X5X2X|. XoX.X[.{.E.&X;XXX~.~.UX%X%X%X~.%X%X~.~.~.~.1X~.=XoX4X2X&X*X&X2X3XXXXX%X XXX3XXX%X~.oX1X0X5X1X%X~.~.~.XXXX X~.oX~.XX1X~.E.E.XX X*X*X*X|.K. X*X2X4X3X8X;X;X&X&X*X2X2X&X*X4X;X2X*X2XXX*X*X1X X*X X X~.Q.Q.~.Y.Y.H.$X~.Y.Y.!.!. X X~.~.&X=X*X4X2X X4X%X4XkX4X&X*X2X2X4X.X.X>X>X7X:XxX4X{.oX{.>X=X&X;X}.4XkXBX5X4X8XkX7X:X4Xh.d d < % , s C J / 3.h.S.v.K.K.P.|.~.~.J.^.<.1XVXXX2X2X X&X=X~..X X=X:X:X&X4X4X8X8X8X2X9X8X3XzX8X8X5X8XkX8X8XzX5X8X3X4X8X8X*X2X4X2X2XXX$X1X*X1X1X X~.1X3X1X%X=X:X%X=X=X%XW.=X:X{.9X=X=X9X1X=X*X1X1X0X3X1X1X%X9X1X1X%X1X=X{.=X=X-X9X9X9X=X=X%X$X&X=X=X:X*X=X=X=X%X4XMX4X9X*X=X0X9X0X9X1X4X9X=X=X:X=X=X=X=X%X1X9X5X0X5X1X5X1X1X0X0X5X0X5XzXxX0X5X5XzXxX8X9X5X8X8XXX1X6X1X2X3X2X4X4X5X4X8XzXzX4X5X8X8X8X8X8X9X4X8X2X2XzX8X1XUX2X2X4X7X:X7X:X=X&X&X=X>X8XkX8X2X:X3X=X8X1X=X3X=X*X1X1X2X3X9X1X4X9X3XoX1X1X1X9X3X9X3X3X4X1X8X4X0X3X2X3X9X4X0X8X1X=X*X3X3X1X2X2X9X9X2X=X2X4X8XkX8X,X>X:X>X;X;X:X&X&X&X}.&X}.,X7X>X>X7X>X9X4X>X2X2X2X5X6X2X2XUX5X5X4X5X*X5X2XXX&XXX2XXXXX.X|.;X.X}.oX|.oX>X2X>X;XOX.XoXoX.X.X.X.XoXoX}.&X;XoXoX>X;X.X;X.X|.|.[.}.oX;X|.|.|.}.}.E.|.|.}.}.[.}.[.[.I.}.[.}.[.oX{.}.oXoX[..XoX}.[.P.P.I.[.I.I.}.[.[.I.I.P.P.I.L.n.L.U.P.P.P.P.P.P.I.P.E.P.].P.].P.I.I.[.L.S.P.c.S.F.P.P.P.I.I.R.].I.P.F.F.S.S.K.P.R.F.D.].S.].F.P.].F.D.F.S.F.m.F.P.].].F.D.F.F.S.m.c.m.x.k.k.g.k.k.x.x.c.m.m.m.k.k.k.S.k.g.x.k.$.e.g.k.m.x.f.k.f.k.k.k.k.>.d.>.d.",
".XoX>XjX6XjXjXvXjXUXjXvXjXjXjXsXcXcX6XUX].cX5X~.5XXX~.~. XXX X3XW.P.oX2X*XL.2X2X4X;X;XkX&X8X&X;X}.>X{.}.[.,X;X;X;X:X>X;X>X>X[.c.&X&X.X&XoXR.C..X&X}.].{.&X,X}.4X>X>X7X:XkX>X,X>X>X:X7X>X4X>X4X4X1X2XXXoX2XXX2XoX|.OXjX6XUXcXnXnXnXcXnXbXcXvXjXcXnXcXvXcXnXnXcXnXnXnXNXMX6X5XUX|..X;XXX|.&X[.&X{.~.~.%X1XUX%XXX~.1X~.1X1X~.XX~.~.&X*X;X*X*X*X2X2XXXXXXXXX2X1X2XXXXXoX1X1X1X%X5X1XXXXXoXJ.%XUX~.J. XoX~.3X X=X X1X3XoXXXXX2X&X;X2X4X2X2X*X2X*X2X2X*X2X2X&X9X&X1X2X2X*XXX=X X~.1X1X&X X!.!.P.!.L.Q.!.Y.H.Y. X!.!. X XW.oX%XoX X*X&X2X*X2X0X8X*X4X2X&X;X=X.XMX:X7X>X{.&X;X;X&XoX;X$X}.;X4XxXlXkX>XlX>X>X&XF.f d < & % 2 f J ` | >.h.v.v.J.[.P.oX~.I.4.=.I 0XPXMX~.oX.XE. X X&X*X&X;X7X4X4X4X4X8X8X8X8X8X8X8X9X8X4X8X8X2X2X8X8X2X8X4X4X8XlX;X2X;X4X*XXX X3X%X1XXX1X1X1X4X1X%X1X=X=X9X4X%X%X$X9X9X9X$X%X%X X=X1XXX3X1X3X9X3X X%X1X1X1X%X%X$X$X:X$X=X&X#X9X-X&X=X&X=X=X:X:X&X=X&X%XzX9X2X2X3X1X9X=X9X9X:X=X=X4X=X=X=X&X1X3X1X1X1X1X5X1X1X5X1X5X1X1X5XzXxX0XzXMXzXzX5XzX8X8X5X4X1XzXcX1XzX5X8X4X8X8X8X5XzX8X8X8X8X8X8X5X4X4X3X3XzX2X2XkX5X1XXX1X4X9X4X8X:X:X:X=X,X:X8X8X&X=X.X=X1X2X3X2X*X3X2X4X1XXX1X1X2X9X3X9X3X1X4X3X1X5X4X0X1X1X1X3X*X*X1X1X1X9X1X3X8X3X1X*X1X9X1X1X8X1X9X=X9X8X4X=XkX>X>X&X:X:X;X7X:X>X,X;X&X;X&X:X:X>X7XkX4X7X4X:XUX2X2X2X6X6X2X6X2X6X*XUX2X2X2X2X2XXX;XXXXX*X}.]..X|..X|.;X;X.XXX.X.X;X.XoX.XOX.XoX}..X.X}.|.oX.X}.|.&X.XoXoX}.|.|..XoX}..X|.|.[.|.}.[.[..XoXoX}.[.P.].I.[.}.}.|.oXoX}.[.oXoX[.{.[.I.P.}.[.[.].E.].}.E.I.[.I.I.S.K.P.I.K.P.P.D.P.I.I.I.I.P.P.[.[.[.[.oX}.R.c.z.S.U.[.].P.[.E.I.P.S.D.P.E.P.P.S.U.F.].S.F.R.F.F.D.@XF.F.S.x.S.c.F.F.D.@XF.F.F.F.F.S.x.x.x.k.f.g.e.k.k.c.k.x.x.x.k.m.k.c.m.k.k.k.f.k.k.c.m.k.k.f.k.k.>.>.d.>.k.f.$.",
"jXOXOX6XjX4X>XOXjXjXOXjXjX6X6XOXjXUXjX6XU.NXcXcXMX6X[.cX9X8X1X%X=X8XzX2X2X4X=X4X2X2X&X.X2X3X>X>X=X>X7X;X[.S.;X.X>X:X>XkX.XD.D.R.P.L..X}.R.&X6XkX&X{.{.[.].=XOX;X>X=X7X>X>X;X.X;X&X.X:X;X&X;X&X:XXX1X1XI.UX~.UX5X6X2XjXOX6XcXcXmXnXnXNXnXnXVXvXnXcXcXcXnXVXVXIXVXVXjXVXNX6X5X8X2X>X;X=X.X:X:X;X XUXoX5X~.1X1XoX%XoX1XXX1X1XUX1XUX&XoX2X;X;X X4X3X2X1X1XXX XXX X%XXX%X*X*X1XUX~.~.oX~.~.~.J.XX%X1X9XXX1X%X~.XX%XP.[.3X X X*X&X2X4X4X*X2X*X2X*X3X*X2X;X2X*X2X4X*X2X;X*X*X&X1X&X&X4XE.&X!.W.Q.!.T.T.Y.^. XE.$X%X%X1X1X2X~.XX1XXX&X3X2X2X2X8XkX8X8X*X|.:X&X>XxX7XkXkX;X>X;X.X{.F.F.&XF.P.OX8X&X8X>X&X&X;XR.| q 2 * % q x C / #.>.z.h.b.b.I.P.L.L.L.~.6.<.^.Q.MX0X~.XX=X*XE. X*X4X=X2X9X:X8X7X8X4X4X8X8X4X5X3X4X8X4X4X5X*X8X8X2X4X4X8X4X9X8X7X3X=X*X&X X2X1X%X1X1X1XXX1X1X*X X1X3X4X=X=X-X=X=X9X$X9X=X=X=X&X%X1X1X3X3X1X1X1X1X1X5X%XXXW.&X$X%X=X=X9X=X&X=X%X{.$X$X7X>X=X=X&X X&X=XzX3X1X1X4X1X$X=X%X=X-X-X=X=X9X=X9X=X0X1X2X3X1X5X1X5X1X0X0X0X5X1X5X5X5XzXzXNXMX8X8XzX8X5X5X0X5X8X8X5X0X8XxX8X8X8XzX1X5X8X8X8X8X8X8X8X8X8X4X4X8X7X8X8X2X8X5X5X:X4X:X2X:X7X>X7X;X7X=X8X8X8X4X9X=X*X4X9X*X*X%X%X3X1X1X4X1X2X3X3X3X9X1X1X9X8X3X3X1X4X3X9X1X1X2X1X4X0X1X4X8X3X2X&X*X8XXX%X3X3X1X2X7X7X:X:X:X7X:X:X&X>X&X:X>X;X;X;X&X&X;X:X&X7X:X7X>X4X4X;X2X2X*X2X1X6X*XXX*X2X2X1XXXXXXX2X2XXXoXoXoX&X|.;X.X>X;X}..XE.>XOXOX;X;XXX.XOX>X&X.X&XoX.X;X|.|..X|..X}..XoX}.|.[.[.}.}.[.{.|.[.}.E.[.I.[.|.}.oX[.I.I.P.[.|.oXE.}.}.[.oX[.}.E..X].}.P.P.[.].E.I.P.E.E.}.P.U.P.P.L.P.K.P.I.I.P.S.F.P.I.I.I.[.I.F.m.F.I.I.I.c.h.h.S.P.E.P.P.F.].L.K.F.P.P.F.E.P.P.].P.].P.S.F.].F.@XF.S.F.m.S.S.F.n.F.F.F.D.F.F.F.F.x.m.S.l.x.x.c.k.k.m.m.F.x.c.c.x.m.k.g.l.x.c.f.k.c.k.k.k.c.x.f.h.k.k.g.>.h.$.f.f.",
">XoXoX>XjXjX6XOXOXUXOXjXjXOXjXvXcXUXcXkXI.VXUXcXcXjX2X1X*X5X8X3XXX~.|.oX*X*X&X;X;X;X7X7XkX4X;X&X{.}.=X>X:X:X>XkX7X>XzX4XkX;XR.[.[.h.{.&X>X&X4XNX:X;X&X>X.X4X&X].&X}.:X>X=X>X;X>X:X,X>X&X>X8X6X=XoX2X5XoX4XXXoX|.6XNX6X6XjXjXnXnXFXxXcXPXcXmXcXIXVXIXVXnXVXcXnXnXNXnXxXnX6X5X5XXX&X&X.X&X2X7X;X&X1XXX1X5X1X%X%X%XoX~.1X1X1X1XUX1XXX4X2X2X*X2X2XXXXX2X2X1X1XXX~.oX~.~.XX1XoX~.2X1X~.oX~.XXXX~.1X5XzX8X3X1X X1X*X~. XXX&X&X*X4X2X2X*X&X;XXX&X4X*X&X*X*X2X=X;X4X2X9X*X;X*X2X=X*X4X1X4X*X%X=X%X~.T.2.Y.!.%X%X$X=X4X9X8X4X4X=X3X=X&X2X3X=X8X8XkX8X8X*X.X X.X4XkXxX:X>XxX8X].R.k.J f o.X.K g.F.}.>X7X>X;X{.#.C & * * & a V J ( $.f.k.P.S.C.I.K.I.I.L.~.T.<.<.=.T.1X~.%X;X*X8X=X=X4X=X;X7XkX:XlX4X3X4X4X3X8X2X8X9X8X5X8X4X8X9X3X9X7X4X7X8X4X3X:X&X4X=X&X%X1X1X!.XX0X1X1X%X1X1X3X*X:X=X$X=X=X$X&X:X-X4X=X=X=X=X%X*X1X%X1X1X2X3X1X3X1X%X%X=X$X{.$X-X%X%X$X%X$X{.$X$X=X:X#X=X&X&X$X{.&X8X3X&X*X3X=X:X9X=X=X#X4X-X=X9X=X9X9X1X2X1X1X1X2X0X8X1X5X0X0X0X5X5X5X8XMXNXMXzXxXzX9X5X9XXX4XcXzX8X4X4XzX8X8X8X8X8X8X8X5X8X8X5X4X4XzX8X8X4X8X3X8X8X5X2X*X2X8X1X5X8X9X8X8X:X:X2X7X:X4X:X4X4X=X4X=X:X&X3X3X9X3X=X4X1X2X2X2X1X2X9X4X8X9X3X1X1X8X9X1X3XXX2X1X*X=X1X3X1XXX*X2X3X&X%X4X:X:X2X=X:X=X*X&X;X;X4X:X;X:X>X:X&X;X&X&X;X;X:X;X>X8X:X&X>X:X7X&X6X;X1XUX6XXXUX*X6X5XUX2X6X*XUX2X2X2X2XXXXX.X.X.XoX6X|.OX;X;X;XXX.XOX;X.X}..X{.OX.XoX}.{..X.XoX}.|.}.oXoX}.[.I.[.}.XX[.[..X[.}.|.[.oX[.}.|.oX[.[.E.[.[.[.R.I.[.}.}.E.[.].}.E.[.[.}.].P.E.[.R.}.I.P.F.K.P.].E.E.P.XXF.S.L.].I.I.P.I.I.[.P.P.I.I.}.P.z.C.S.z.S.z.>.h.P.P.E.P.E.].[.P.S.S.P.I.P.F.K.K.P.P.S.F.S.F.D.F.S.F.S.m.F.F.S.F.F.S.F.F.S.S.m.S.x.m.k.m.k.c.k.k.k.e.k.S.F.m.m.c.x.k.k.k.x.k.k.f.k.c.k.k.k.V.x.k.k.k.k.x.f.h.>.f.$.",
"OXOX;X>X>X6X6X.XjXjXOXjX6XUX6XjX5XUXsXkX|.xX4X5X2XUXoX2X~.XX~.1X2X*XR.~.*X2X8X2X.X7X4X4X4X4X>X;X.X;X6X4XiX>X:X>X8X>XkX:X:X;X;X:X}.;X{..X=X>X4X8XkX}.}.&X>XE.}.[.iX&X&X;X;X;X7X7X>X&X=X6X4X>X=X>X|.|.XX X*XXXUX*X6XxXnX6XOX6XnXVXcXvXvXcXnXnXDXcXnXnXNXVXcXIXVXVXNXxXcXnXkX4X6X1X;X;X.X5X7X[.|.=X1X1X8X2X5X5XUX%XUX1X1X1XXX1X1X1X1X4X*X2X4X3X&X&XXX1XXXXX~.oX1X1X%XUX~.XXXX%XXX~.oX%X~.~.oX~.%X~.1X9X1X%XXX1X8X%X.X2X3XXX&X&X&X2XXX.X2X8X*X*X2X&X3X&X2X4X2X2X4X4X3X2X2X3X1X X*X2X=X9X=X-X XY.T.&XW.W.$X!.9X0X=X0X=X9X3X*X*X3X2X3X2X&X*X&X9X*X2XlX7X2X4X4XkX:X:X&X;X.X}.S.C * * * < < 2 C F.OX&X:X}.h.J 2 * & & q c Z ` ( f.>.z.L.K.K.I.~.P.I.~.I.~.I.6.6.~.oX%XoX X&X*X4X X*X2X=X:X7X:X0X;X3X*X2X3XXX4X3X3X4XkX3X7X8X2X4X=X4X:X4X2X8X:X*X=X4X2X=X1X X%XXX1X X X1X X~. X1X*X-X$X%XW.=X=X:X9X9X=X9X3X=X*X1X1X=X3X1X1X0X1X3X3X1X%X1X:X-X:X&X&X4X=X%X:X%X=X$X=X=X=X:X=X#X=X$X X&X0X8X9X4X%X9X9X=X=X%X=X=X:X=X*X=X=X1X1X3X1X3X1X3X1X1X1X5X1X0X5X0X0X1XcXMXzX8X8X9X4X5X5X4X3XzX8X8X9X4X4X5X8X8XzX8X4X8X8X8X8X8X5X3X9X5X8X8X4X3X4X4X*X&XXX1XzX8X4X5X3X2X7XkX:X7X7X:X7X8X7X2X*X1X4X3X=X=X1X3X*X%X8X3X4X1X9X1X1X1X4X9X8X8X3X3X1X9X4X%X9X8X3X1X&X2X3XXX*X*X4X=X*X=X&X8X7X&X2X*X;X:X&X=X:X:X:X;X>X:X:X:X>X=X&X&X:X7X>X:X4X7X&X:X:X:X4X=X;X;X1X6X3XXXXX2XUX6X1XoXXX2X2X2XXXoXXXoXOX*XXX.XoXoX.X.X.X}.>X&X.X|..X>X;X.XOX.X.XOXoX.XoX[.oXoXE.}.[.[.P.[.[.E.[.}.oXoX[.[.|.}.|.[.}.I.oX}.[.[.[.}.[.[.}.I.E.[.I.P.|.[.[.E.}.E.[.E.[.I.[.[.P.}.[.I.S.n.P.I.S.F.P.P.I.F.F.P.U.L.P.].S.F.I.[.E.].I.[.P.K.c.S.c.x.U.[.].I.F.P.I.I.F.P.L.F.P.K.L.U.S.S.S.}.F.R.[.@XF.F.S.F.F.F.F.F.F.F.F.].F.F.S.F.S.@XS.m.k.k.k.m.k.m.x.m.k.x.m.l.x.m.k.h.k.c.x.c.h.f.k.k.x.c.x.k.h.$.g.e.$.f.>.k.f.f.",
".X>X;XOX>X>X;XoX6XjXUXjX6X6XjXjXjXUX6XjX|.nX5XcXNX9XXX~.~.XXb.XX%X|.P.|.|.XX*X2X>X:X>X7XxXkXcXkXkXxXMX&X7X;X:X$X,X;X8X>X;X>X:X>X X}.{.}..X&X&X>X:X:XjX7XlX&X,X>XlX}.&X>X7X>X>X:XkXkX4X>X:X2X.X&X XoX8X2X8X2X6X5X5X6XzXkXjXjXVXnXnXjXOXnXcXjXnXnXVXnXxXnXNXnXVXnXnX8XcXxX6X5X2XoX;X XoX X&X X X.X~.oX1X1X%X1XUX%X~.0X%XoX1X2X5X5X3X2X4X9X3X3X2X&X1XXX5X2X~.oXXXXX%XUXXX~.~.%X1X2X%X~.XX~.1X%X%XXX~.oX1XXX3X3X8X8X3X3X5X|.&X&X8X*X*X4X*X4X2X2X1X4X2X&X;X1X9X2X8X8X3X5X4X1X3X1X*XE. X9X=X9X=X%X X%X&X-X*X%X=X=X3X8XkX4X=X=X3X4X3X2X3X3X&X3X2X2X2X:X4X:X3X7X:XkX&X>XoX].S.( - < < * < 2 0 0 G x.].m.g.d.r 3 3 & & a G J | >.j.c.S.S.l.K.1.|.L.~.~.oXoXoX~.oX*X1X*X*X%X2X4X1X X9X=X&X4X4X=X7X3X8X*X4X2X4X3X4X4X2X2X8X4X4X1X X4X2X3X*X3X0X2X&X=X2X7X4X X X1X1X X1X~.~.%X$X%X1X&X=X&X#X&X%X&X=X=X=X0X:X=X=X%X%X2X1X=X9X1X0X%X X2X1X1X5X:X=X=X{.=X=X=X=X9X-X&X{.&X{.&X-X&X:X=X:X X0X8X8X&X%X3X=X=X4X:X9X%X=X-X=X1X=X9X=X1X1X1X9X3X1X1X8X1X0X5X5X1X5XcX5X8XzX1XXX8X5X8X8X5X3X5X5XzX8X4X8X8X8XkX8X8X8X4X9X8X8X8X8X8X8X8X8X8X8X4X8X2X&X:X2X*XXX4X1X3X3X4X5X7XkXkX:X:X:X7X7X:X:X&X=X=X8X:X:X9X1X3XXX1X1X*X3X3X3X2X4X1X1X0X9X1X4X6X3X4X8X4X3X4X3X1XXX1X*X1X1X$X:X4X=X=X4X:X&X&X&X X&X=X:X;X:X>X:X&X;X:X:X&X>X&X&X&X>X:X4X=X=X>X:X&X>X>X;X.X.X2X2XUX*X2X*XXXoXXXUX1X6X2X2XoX2X6XXX;XXX.X.XXXXX&X>X;XoXoX;X;XOXoX;X.X.X.XoXoX.XoX[.oX;X[..X}.[.}.[.{.}.[.}.E.[.[.}.P.I.[.[.[.I.|.[.|.[.].P.I.[.[.].].[.[.|.].L.[.I.E.}.E.I.I.}.].[.I.].P.I.].U.I.}.[.P.c.F.S.U.S.F.S.L.I.F.n.L.C.S.P.P.P.[.[.U.S.P.S.x.c.v.P.}.I.P.I.R.[.F.S.L.F.F.K.I.P.I.P.I.P.F.P.P.].F.F.F.m.F.m.F.x.F.m.m.F.S.F.F.m.S.F.F.m.G.V.k.c.k.c.c.m.k.h.k.x.x.m.x.>.d.c.k.k.k.h.k.k.k.>.k.x.c.k.f.g.f.f.f.d.d.k.d.",
"&XoX.XoX.X;X>X>X>X>XjX6XOXUXUXjXUXUXUXjXoXxXcXjX5XUX~. X%X~.b.oX1X3X XoX X.X X|.&X&X>XxXxXBXlXkX>XlX{.>XxX>X>X;X&X>X4XkXkX}.7X:X>X&X;X;X>X;X&X4X>XR.[.;X>X&X&X7XkX&X&X:X>X;X;X&X:X7X8X>X;X4X;X>XXX2XOX2X5XxXcX2X.X5X2XUXOXcXnXnXxXcXoX6X6X].jXnXcXIXNXnXcXnXNXnXnXoXcXnX6X5X5X3X*XoX X XW..XE. XoXJ.~.XX%X~.5X~.%X5XUX%X1X5X1X1X1X1X1X2X~.*X*X3X1X1XXX~.oX1X~.~.%X1XXX~.~.~.~.~.XX~.~.~.1X~.%X~.~. XXX X*X1X4X1X2X*X3X;X*X X2X*X*X9X2X4X8X8X4X3X2X4X8X2X3X;X8X;X4X8X8X9XoX XE.%X8X&XMX X%X=X*X*X$X*X%X%X!.%X=X:X&X&X2X4X5X4X8X1X&X2X4X5X4X4X=X>X=X.X{.:X:X:X>XOX}.].m.C d d < 2 2 < 2 2 2 H X.! ^ h 3 * * & p Y o.| h.h.k.V.V.S.K.K.L.[.P.L.I.T.~.XX~.XX&XXX3X8X4X8X%X1X*X:X3X&X9X:X=X>X%X*X1X2X8X8X1X1X=X1X1X9X*X1X3X3X1X%X XW.2X X=X=X&X*X:X:X~.~.%X~.%X9X X%X%X1X3X%X=X:X&X#X-XW.%X9X$X9X=X9X9X0X3X*X=X3X1X9X2X1X%X%X1X1X1X9X-X&X$X-X:X-X$X9X=X$X=X=X=X%X=X$X&X=X=X=X X3X8X0X*X=X9X=X-X=X9X9X9X4X%X=X=X9X9X=X1X1X1X1X0X1X0X3X5X0X1X0X1X0X5X1X8XzXxX5X1X4X8X8X9X4X1X8X5X8XzX8X8X8X8XzXkX8X8X4X8X8X8XkX9X4XkX8X8X8X4X3X4X8X4X X*X2XXX4X2X4X8X0X0XlX4X:X7X7X7X:X7X4X8X4X;X=X:X:X3X3X3X2X9X2X3X1X9X0X3X1X2X2X1XXXXX1X1X9X8X9X1X3X1X1X=X*X|.*X1X*X:X&X:X{.&X8X;X;X&X=X4X:X;X:X&X;X.X>X,X&X&X:X>X&X}.>X=X;X,X>X.X>X;X7X;X;X&X;X;X:X2X2X1X1XUX2XXX*X*XXXXX*XXX2X2X2XXX2XXXoXXX2X2XXX6X;X;X;X>X;XXX;X;X;X.X>X.X;X.X.X;X}..X;X.X}.{.}.|.|..X.XoX|.}..X}.I.[.I.|.I.}.E.[.[.[.[.[.P.P.I.I.[.I.[.I.[.].[.I.].I.U.|.[.I.I.I.[.[.P.E.[.E.P.P.E.].P.P.S.S.L.P.P.I.P.E.P.F.U.F.S.F.F.S.P.P.P.L.F.P.I.P.K.L.P.P.P.].P.[.U.D.F.P.S.F.P.S.P.P.F.F.D.].R.@XF.F.S.S.m.G.n.S.S.F.G.F.F.F.c.V.m.n.F.n.k.m.k.k.k.k.m.x.k.k.k.x.V.F.S.m.c.k.k.k.k.k.k.k.k.x.k.k.m.k.k.f.k.$.f.>.>.e.d.",
";X&X&X.X.X.X>X6X6X6XOX6XjXOX6X6X6XUXkX6XoXnXMX5X|.~.XX%X%X1X~.XX1X8XXXZ.XX~.5X8X=X&XXX1XkXxXcXxX4X>X[.4X6X4XjX:X>X8X=X>X}.;XkX>X;X&X&X;X>X:X=X>X;X&X&X&X;X=X>X=X4X&X>X=X=X>X7X>X>XkX8X:X>X;X>X;X;XoX;X>XkX4XkX4X;X[.OX6XlXnXcXcXkX6X&X].OXcXUXjXcXcXnXnXnXxXNXVXnXxXcXkXkX6X3X%X1XXX XT.XX*X*X%XXXL.T.~.XX~.~.UX1X0X2X5X1X1X1X2X2XXX1X1XXXXX2X1XXX~.*XXX~.XX~.J.%XXX~.~.%X~.%XoX%X%X~.~.5X%X~.~.XX X X3XXX1X1XXX2X*X&X2X2X=X&X;X&X4X3X2X8X2X2X4X8X1X8X3X4X2X2X2X8X2X4X1X*X XL.{.=X0X*X!.1X%X=X=X&X=X=X=X&XW.&X7X>X:X:X:X7X8XXX&X;X2X2X2X*X|.2XE.L..X[.;X[.[.iXoX}.f.| a 3 < < 3 < 2 0 2 < 2 0 2 & 5 3 & & w F ! _ =.m.l.b.v.K.J.b.C.[.I.P.~.I.|.[. XoX8X*X&X*X2X9X4X&X&X%X1X4X1X X1X2X1X*X*X*X*X4X*XXX9X1X4X1X2X1X=X*X&X&X&X&X*X=X&X&X0X&X=X=X$X~.%X~.1X=X1X$X3X=X1X&XT.%X=X9X$X=X{.=X=X%X&X&X=X1X3X9X9XXX9XXX2X X0XXX%X%X%X1XXX=X=X9X=X=X&X9X=X=X-X&X=X%X=X=X*X&X1X=X$X%X X0X8X1X1X3X1X9X-X1X3X4X%X$X9X=X=X=X4X=X*X-X9XzX0X3X9X0XzXzX0X5X1X5X1X5XzXzXzX8X8X1X6X4X3X4X1X4X4X0X8X7X8X9X4X4X7X8X8X8X8XxX8X5X4X5X0X8X4X2X=X2X2X2X:XXX5X3X5X0X5X2X5X:X7X=X=X>X&X:XkX4X:X:X:X7X:X&X:X1X5X1X1X*X%X%X1X1X1X*X1X1X1X3X1X1X1X1X8X2X*X1X3X4X3X1X*X&X=X*X1XXX1X&X&X=XkX>X$X:X=X&X&X&X;X&X:X:X&X;X>X,XOX&X;X&X;X}.&X,X;X;X&X;X&X:X:X&X:X>X:X2X2X2XoXXX2X*XUX6XXXXX6XXX2X2XXX2X4X2XoX&X4X6X7X2X4XOX&X2X;X;X;X&X;XoXoX.XOX>X&XoX;X&X.X.X{..X.X[..X.XoX}.oX}.[.}.}.|.[.[.[.|.[.}.oXoX}.oX[.[.P.P.E.I.].I.[.[.I.[.}.[.I.I.].I.].|.E.[.[.[.I.I.P.P.[. X}.L.L.I.S.F.F.S.P.L.F.S.C.C.z.F.K.F.I.P.I.P.I.I.P.P.P.L.F.L.P.U.P.P.I.P.F.S.L.I.U.P.P.P.[.].P.R.F.D.F.F.F.@XF.F.S.n.F.n.G.F.D.S.x.c.m.m.G.m.c.F.c.x.x.x.k.m.c.m.k.k.x.c.m.x.x.x.x.k.k.k.>.k.>.k.k.x.c.h.g.>.h.d.d.>.>.>.>.",
";X.X].;X>X>X;X.XoXjX>XOX6X6XUXOX6X6XjXUX2XxX8XcX|.1.~.1X*XXX1X X XXX5XXX XXXoXXX*XXX~.E.6X6XzX6X.X;XP.2X>X:X4X4X:X>XkX7X>X=X:X>X4X;X&X>X;X:XjX&X:X>XOX,X:XjX>X>X;X>X&X;X;X7X;X&X>X8X7XBX4X4X:X4XoX[.XX;X6X2XXX>X;X2X6XcXnXVXcX4X>X.XoX[.OXjXcXjXAXcXVXnXxXxXnXcXNXNXcXjX5XkX3XoXXX1X XXX%X X X XXXL.1XXX~.XX%X%X1X5X1X1XXX2X1X~.2X1X XoX~.1X1XXXoX*X%XoXoX1X~.UX~.1XUX~.~.~.%X1X1X~.~.~.zX1X1X1X!.=X X1X*X1X*X3X2X2X2X1X2X3X&XoX&X2X2X2X=X8X8XkX8X4X4X4X&X=X4X2X;X*X1X2X X X*X.X X:X=XW.%X=X-XW.$X$X$X X=X9X*X7X=X:X;X:X4X*X2X;X2X*X2X*X3X.X*X[.|..X{.}.F.$.d.F.d.Z 0 3 * < < 3 < 0 < 2 < 0 0 2 3 5 * * 3 H ! / =.,.v.v.K.K.K.K.C.K.~.L.~.I. XoX X X X X*X4X*X&X=X3XoX1X*X4X*X*X&X*X*X=X XXX1X3X9X1X1X2XE.1X4X9X4X8X=X=X=X&X*X=X&X X$X8XD.$X:X{. X1X3X1X3X*X%X1XT.E.T.%X=X:X=X=X&X$X=X=X:X-X-X-X1X9X3X1X1X1X%X1X%X X1X%X~.1X1X%X:X&X:X=X9X=X9X:X:X=X%X{.&X&XW.=X%X=X%X%X X1X9X0X1X=X4X*X%X9X=X%X9XW.$X=X-X9X=X=X3X9X=X9X9X9X9X3X0X1X%X1X1X1X1X5X1XcXxX8X1X9X5X4X2X3X4X2X.X>X;X4X2XxX4XzX0X8X4X4XkX8XzX0X1X5X2X8X8X2X4X2X4X8X8XzX4X%X5X3X5X8X2X8X;X7X4X7X:X=X7X7X:X;X&X9X&X>X>X7X4X3X1X5X3X1X5X5X4X2XXX1XXX4X*X*X4X4X1X*X&X3X2X%X=X*X1X*X&X1X1X3X*XoX8X;X=XkX:X=X*X2X:X>X:X:X&X>X;X=X>X=X&X&X;X;X;X:X=X;X2X:X;X;X>X&X>X>X;X>X:X7X2X.XXX2XUX2X2X2X2X2XXXXX.X2X;X>XXX2XXX2X6X4X&X2X2X>X;X2X>X;XOXoX;X>X.X;X.X>X;X.XoXoXoX}.}.oX.X|.oX|..X&XoX.X[.oX{.}.{.}.|.}.|.|..X[.|.{.[.I.I.[.I.P.[.I.S.I.}.I.I.E.I.[.P.}.I.I.[.}.}.[.I.I.[.I.I.[.|.P.K.U.S.S.P.D.S.D.S.L.F.S.S.P.L.L.L.I.U.P.D.F.F.P.[.P.[.].I.F.P.P.P.I.P.I.U.P.P.L.U.P.F.P.[.F.F.S.S.F.F.S.F.@XS.S.S.n.@XF.F.F.x.F.m.S.n.n.S.m.x.g.k.k.k.x.m.c.k.k.m.S.c.m.c.x.c.x.c.x.k.k.k.d.k.k.m.k.f.$.d.f.$.$.d.d.f.f.",
"}.&X.X>X&X;X;X>X>X5X6XOX6XOXOX6XUX6X6X6XOXjXkXcXXX|.1X2XoX~.5X1X X~.XX4X3XoX|.1X X~.T.~. X2X2X2X>X2X2XxX7X>X8X&XkX:X>XkX7X&X:X;X:X>X&X>X;X>X:X>X>X4X6X>X7X7X;X:X&X>X>X&X;X>X:X;X>X;X7X>X&X4X;X.X[.;XkX5X>X2X&X>X;X4XkX6XxXcXjXjX4X>X|.oXjX6XjXjXxXnXxXnXnXnXnX>XkXcX5X2X5X2X2XXXoX%X|.XX X*X~. XL.b.~.XX~.~.XX%X1XoXoX1X1X1X1X%XXX%X XXX%X1X~.1XXX~.%X%X~.1X~.~.XXXX1X~.~.UX%X~.~.~.~.XX1X1X1X%X%X~. X3X*X1X1X1X;XXX&X&X&X=X5X*X*X*X3X4X4X8X9X8X8X2X2X2X2X*X8X2X2X&X*X&X*X X X=X&X&X!.%X=X{.:X$XW. X:X=X=X9X9X:X=X&X&X;X*X*XMX;X|. X3X&XoXXXE..X&XR.R.m.J * q X.G q 3 3 3 5 5 5 0 2 3 3 2 2 2 2 2 < 2 w p F / ` <.1.C.K.L.P.oXv.I.I.UX~.|.P.oX X*X|.[. X|.|.oX2X3X1X=X*X%X1X X%X X$X XXX1X=X*X*X1X4X9X1X1X8X4X1X1X2X=X*X$X9X9X%X*XW.Q.3XY.#X{.$X~.*X1X1X*X9X%X!.E.W.!.9X=X9X%X{.#X:X9X:X=X$X%X4X$X1X1X1X%X%X1X1X1XXX1XXX1XXX~.%X#X$X:X=X9X=X9X-X&X%X&X-X=X=X=X=X%X X X1X~.9X0XzX4X1X9X%X=X=XT.W.$X=X-X&X=X=X-X9X9X=X9X8X9X0X9X=X1X%X~.XX~.XX2X5XcX8X0X8X5X5X3X5X4X3X2X9X2X=X7X8X1X3X8X8X4X4X7X4X5X5X4X4X8X8X8X5X3X2X3X3X8X8X8X2X1X8X5X9X5X2X8X8X;X4X4X4X&X=X:X{.&X4X:X>X:X;X>X:X5X1X3X1X1X2X9X2X3X9X9X1X2X3X1X3X1X1XXX1X3X*X=X%X*X*X&X X X8X2X*X:X.X:X:X{.:X7X:X:X&X=X;X&X:X&X:X4X>X&X&X;X;X&X:X;X;X>X:X>X4X:X;X&X>X:X;X}.;X>X4XXX2X2X2X2X2X5X2XXX2XoX*X.X2X;X4XoX5X4X2X4X4X>X2X>X&X&X;X2X*X&XOX.X6X;X>X2X>X&X.X&XoX.X;XoX.X.X}.[.oX}.}.}..XoX.X.X;XoX.XoX|..X}.[.[.|.[.|.].[.}.].E.[.[.P.P.[.[.[.}.[.E.E.}.E.[.XX}.E.[.].I.|.K.P.I.[.F.K.K.U.P.P.S.D.F.U.F.C.S.n.S.S.F.F.P.P.P.P.I.U.I.S.P.I.P.[.F.P.P.P.D.F.D.F.L.I.P.L.L.P.P.].F.F.S.F.F.F.F.F.S.F.F.m.S.m.m.S.m.m.k.m.F.S.m.m.n.m.k.k.k.>.x.x.k.k.c.c.m.m.m.m.x.x.g.k.k.k.k.k.>.k.k.x.k.e.f.>.g.e.d.>.k.$.g.",
"[.>X;X&X;X>XoX>XOX5XOXjXjX6XjXOXUXUX6XjX}.jXjXkXUXUX2X2XXX*X4X1XE.~.~.oX=XoX~.oX1X~.T.~..XXX;X>XlX4X7X2X2X6X7X;X:X>X:X>X&XF. X>X;X=X>X>X7X>X&XOX>X;X&X&X>X>X&X&X&X;X}.;X:X>X;X:XzX>X.XE..X6X6X&X>XkX5XlX4X4X;X2X>X;X;X;X>X;X>X7X X X3X[.4X2XUX4XnXnXNXkX3X6XcX2X|.2X.XUX6XXX*X~.*X X~.~. X~.~. XT.~.oX~. XXX1XXXoX~.1XoXXXXXXXoXXX X~. X~.XXoXXXXX1X~.oX%X~.UX~.1X1X1XXX1X1X1X%X~.1X~.UXXX1X1X%X%X X XXX2X*X3X%X2XW.5X4XkX4X2X5X3X8X4X8X4X2X2X8X2X8X*X8X8X4X1X*X2X2X2X X%X&X*X&X X=X&X%X=X$X:X=XW.$X=X$X:X=X9X&X;X&X.X=X*X.XzXzX&X|..X*XXXE.R..X{.F.x.( d d < 0 < 2 4 w 3 7 w 9 q t y q 3 0 q 3 < 5 3 a D ~ _ $.b.v.n.n.].~.|.I.oXoXoXL.~.oX*X~.XX4X2XXX&XoX X*X3X*X X*X~.XX*X3X X~.XX=X*X3X3X3X1X4X4X1XXX1X9XXX9X2X=X1X=X=X-X%X$X~.%X!.$X{.{.W.!.1X%XXX1X1X1X$X!. X=X3X=X&X=XT.$X:X-X$X&X=X=X=X=X=X1X1X9X1X%X9X0X%X%X0X1X1X1XXX$X:X-X%X=X=X=X4X=X$X=X%X9X$X=X=X-X*X%X!.%XXX0XMX1X X%X=X=X=X=X=X{.{.=X#X:X4X=X&X$X=X=X=X=X=X&X=XXX1X~.%X%X1X5X5X8X1X5X5X8X3X5X5X3X2X1X2X=X4X4X7X5X4X4X5X4X7X4X:X9X5X4X3X3X3X4X2X8X5X3X1X4X0XkX8X4X4X1XUX1X5X0X5X4X:X4X0XzX>X:X:X&X:X:X=X#X7X=X:X9X1X%X5X3X1XXX1X8X8X9X2X1X4X1X1X=X3X*X1X=X2XXX3X1X*X*X~. X3X=X1X=X=X2X;X&X:XkX:X4X:X:X&X-X4X>X4X:X6X,X&X&X&X}..X&X&X&X;X&X&X&X&X&X&X;X=X&X&X:X:XXXXX2X3XXX2XUX2XXXXX2X4X2X6X2X2X*X2X*X>X2X5X4X2X*X;X>X4X6X>XXX;X.X;XoX.X;XoXoX.X}.;X;X>X.XoX.X|.oXoX|.{.{. X|.}.[.oXoX X|.}.R.[.[.[.}.I.[.|.E.[.}.}.|.[.E.[.}.[.oX}.[..X}.E.[.|.|.[.}.|.{.}.}.K.].E.].F.L.F.S.F.F.S.P.R.U.S.F.L.F.L.P.F.S.P.F.I.P.P.[.P.S.P.P.P.F.[.R.F.S.P.P.S.K.S.K.F.F.F.P.I.].P.D.F.F.F.S.F.F.m.F.F.m.F.F.S.m.V.G.F.F.S.F.S.n.G.k.x.x.c.k.k.x.e.x.k.x.m.S.x.G.m.k.x.k.k.k.k.>.f.>.k.x.k.g.g.$.f.g.>.d.#.d.k.",
"}.}.$X}.oX>X.X}.2XjXOX>X>X}.UXOXoXOXUX6XUXoXXXUXoX~.L.~.I.~. X1X.X1XXXXXI.2X~.~.1X~.T. X X&X*X2X6X2X2X2X4X7X>X;X:X;X7XxX4X.X;X>X&X>X&XOX>XlX;X&X&X;X=X;X>X;X:X>X>X=X7X&X>X7X>X>XMXkX4X4XkX>X6X4X4XlX;X;X.X2X>X|.;X|.;X.X X>X>X;XL.b.;X|.|.xX5X6X6X*XkX6XXX.XXXUX*X2X2X*XoX8X4X XoX*XoX~.~. XoXXXI.J.~.1XXXXX1XXX%X1XXX1X3XXXXX%X1XXX~.%X~.~.XX%X1X1X~.~.XX1XUX%X~.~.%X1XUX~.oX~.%X~.~.1X~.1X0X0X*X1X X XXX3X1XXX&X;X X*X5X8X2X8X&X4X8X2X8X2X2X8X=X2X7X4X8X8X*X*X&X=XoX*X&X$X:X&X=X#X&X#X=X-X=X&XW.D.=XR.W.&X*X X:X.X&X:X8X;X;X.XoX;X*X*X X&XR.E.F.m.X.0 d 0 < < < 2 q t 9 s p i m N Q B p w w t 4 3 i S A ! } >.l.v.v.n.P.L.P.P.~.xXPX XR.L.P.E. X3XXX XE.XX*X3X2X*X1X1X2X*X XXX%X X XoX9X3X1X*X3X1X*X1XXX%X*X9X3X&X1X=X:X:X=X&X1X X!.E.%X!.#X X1X9X X1X%X3X=X%X=X=X$X&X=X9X$X{.=X=X=XW.9X:X$X-X%X X%X1X3X1X=X0X%X1X1X1X%X~.1X~.=X$X4X$X=X=X$X%X%X-X=X4X:X-X:X$XW.=X3X%X*X$X8XzX3X=X&X=X X&X$X%X XR.%XE.=X3X=X*X&X-X=X*X=X-X&X%X%X1X~.~.%X1XXX0X5X0X5X9X2X5X3X5X2X4XoX2X=X8X8X8X4X9X4X7X7X8XzX4X4X8X4X7X8X8X2X8X9X8X*X4X4X4X*X3X1X1X5XXX5X0X8X8X9XxX8X2X:X&X7X:X2X4X3X9X3XXX3X2X4X3X1XoXXX1X1XXX8X0XzX3XXX%X3X4X3X1X*X3X%XXX%X X*X~.%XR. X*X2X%X&X&X:X:X=X.X7X:X>X:X=X&X&X:X:X&X7X>X;X,XoX}.{.;X,X;X;X;X&X&X;X&X X>X&X&X>X;X;X2X5X5X6XUX2X6X5X6X4X2X2X6X4X3X4X2X6X2X;X2X&X4X6X>X2X2X2X4X2X*X;X.X>X4X=X;X.X.XoXOXoX}.>X.XoX.XOX>X}.;X;XoX>X|.&XoX|.[..X}.}.}.|.}.[.|.E.[.[.[.E.}.}.|.[.|.}.|.E.[. X.XoX|.I.[.}.[.XX|.F.E.[.[.[.[.[.E.[.F.P.K.].F.F.F.R.].F.R.F.F.P.E.P.F.L.P.K.].P.P.E.I.P.U.P.P.S.F.P.v.P.P.P.F.I.S.D.F.F.U.F.F.F.S.F.F.F.F.F.m.S.m.@XS.S.F.F.S.x.F.F.V.S.S.S.F.m.x.x.x.k.k.k.k.k.x.x.k.x.S.x.m.m.l.k.k.h.k.>.>.f.h.>.k.c.k.k.g.f.>.$.d.$.$.$.| ",
";X;X;X&X;X2XoX.X;X;XOXoX[..X}.}.OXoXUXjXNXcXv.oX~.XX~.2X!.~.1XXX2XkX~.;X|.~.1XoX1X%XT.~.*X2X2XXX8X4X>X3XkXxXlX.X,X>X>X4X4X;X:X&X>X=X}.&X:XkX>X;X&X>X>XkXBXkX&X>X>X>X>X;X4X>X;X4X:X>X;XXX{..X6X2X6XkXcXNXxX2X2X|.}.oX&X.X&X;X=X4X;X|. X|.&X2X5XOXUX6XUX2XXX.XoX|.XXXXOX2X~.0X5XXX~. XoX1XXX~. X X~.~.1XXX1X2XXX%XXX1X~.XX3X1X~.2X%XXXXXXXUX1X1X1X1XXXXX~.XXXX~.XXXXXX1X~.%X%XXXUX%X%X~.1XXX1X1X5X*XXX1XXX1X1XXX1X2X&X2X:X*X3X2X4X:X3X2X8X8X4X5X5X4X2X3X4X4X;XR.XX3X X=X%X&X&X=X X:X=X:X$X{.%X&X&XD.W.7X X&X8X;X&X&X;X.X{.3XXX*X2X*X*X2X1X*X.XP.|.x.%.r 0 V Y 2 2 2 4 6 q 9 9 x m U i.`.p.u.M i i u 7 c { D R } >.f.K.K.K.P.P.I.K.E.=X1X X3X|. X~.XXoX X X*XoXXX*X*X1X2X1X&X=X1X*XXX*X*X%X1X&X3X3X3X1X*X*X3X*X4X9X3X3X*X%X=X=X$X9X~. X!.1XT. X X1X*X8X1X1X$X X=X4X9X:X&X-X9X=X$X=X=X=X%X=X$X=X:X=X1X%X=X2X*X%X=X3X9X1X1X%X%X%X%X1X&X=X#X=X=X=X:X=X4X=X=X9X=X$X=X$X*X9X:X$X$X&X0X0X=X&X-X%X&XW.&X!.$X$XW.$X9X=X=X9X9X%X=X$X=X&X%X&X~.1X1X1X5X2X5X0X2XcX5X1X%X2X2X2X2X3X4X3X2X&XkX9X4X4X7X7X2X4X&X7X3X0X>X9XkX*X2X%X4X8X&X2X=X=X2X4X1X4X1X3X8X8X5X8X5XxX8X4X7X:X:X:X2X=X4X9X2X3X2XXX3X1X%X1X1X2X1X1X3X8X3X8X%X*X=X8X3X3X*X3X=X1XXX*X*X2X X X=X3X1X3X4X=X4X;X{.[.lX:X&X:X>X=X:XkX>X;X7X:X=X:X;X&X&X:X>X;X;X&X>X;X&X>X=X.X&X*X4X=X7X>X*X8X5X1X2X2X5X2X6X1X2X2X;X:X3X2X4X4X>X6X;X;X2X;X;X;X>X>X6X>X&X>X;X6X;X.X;XoX}..XoX.X{..X.XoX}.&XoXoX.X;X.X[.|.}.|.}.oXoX.X&XXX|.}.[.|.}.}.[.[.].[.].I.[.}.[.].[.}.|.oX}.[.}.[.[.}.oX[.I.[.}.[.[.P.P.[.E.S.S.P.S.D.D.F.P.[.F.[.F.U.P.F.P.P.P.P.P.F.I.].I.F.I.L.P.I.L.P.P.F.P.P.P.F.F.F.F.I.P.U.C.P.F.P.P.F.@XS.F.c.S.S.F.m.m.S.F.S.S.F.m.m.S.F.F.F.m.k.c.c.k.f.x.m.x.c.c.m.S.x.c.k.k.k.k.k.k.g.k.k.k.k.k.k.c.k.k.$.$.$.$.$.f.$.$.",
">X;X&XOX;X>X.X;XoX>X.X}.}..XUXOXUXXXUX5XnX5X4.oX~.2XUX~.2X X5X%X8X:X*X2X*X*X~.XXE.~.*X3X4XxXkX8X&XlX4X7X7XlXkX4X4X7X7X&X>X3X;X:X:X&X&X&X;X&X,X;X&X=X;X:X8X4X&X{.&XiX7X;X7XlX:X7X:X*X;X2X.XoX.X.X4X2X>XkX8X>X.X;X>XXX}.;X&X&X;X>X&XoX;X XXX[.|.2X2XXXcX2XXXP.|.oX.XXXXX5XoXzX1XoX~. XoX*XT.~.~.oX~.~.XXXX5X1X1X1X5X*X~.XX1XXXXX X%XXX%X X4.oXXXXXXX~.oX1X~.XX%X~.~.%X~.UXoX0X~.J.~.UX%X1XoX1X1X2X1XXX1XXX2XP.XX1X2X&X*X2X X2X=X2X2X2X8X2X4X*XkX4X*X2X*X4X8X8X1X&X=X&X2X%X#X7X:X=X=X;X&X{.Q.{.=X&XL.[.[.=X:X8X X&X X|.&X>X=X&X2XoX&X2XXXXXK.P.L.v.$.f q 0 S S 2 2 4 q q y 9 h m B t.i.tXtXwX(.t./.r.T c y.9.D L =.,.v.U.K.E.I.oXP.P. XE.XX%XXXoX X X=X=XXX%X4X3X%X4X9X1X=X%XXX*X*X1X&X XXX1X*X1XXX4X X4X1X1X0X1X3X3X1X1X1X=X3X9X4X X X1X~. X8X1X8X1X1X X1X1X9X9X0X=X9X$X9XMX9X:X=X:X9X=X=X$X=X=X:X*X%X9X%X=X=X9X3X1X1X!.%X%X1X XXX$X$X-X=X4X=X&X=X-X4X=X9X&X9X=XW.=X=X-X$XE.$X1XzX X#X=X&X=X-X%X%X$X%XE.=X-X9X=X9X=X=X=X&X&X=X-X:X5X%XUX0X0X5X5X5X0XzX8X5X5X5X5X9X4X4X1X5X*X3X3X:X2X:X:X:X:X3X4X=X8X7X*X8X7X3X2X1X2X=X8X1X*X=X2X*X1X1X1X5X3X3X2X9X9X3X4X1X4X=X:X&X*X4X7X7X1X:XcX1XXX1X8X1X1X1X1X2X1X%X9X XP.1X*X*X0X3X1X*X1X*X*XXX*X1X X*X1X&XXX1X*X.X*X7X XE.kX=X&X>X;X>X>X>X:X,X:X;X7XjX>X4X:X>X:X6X;X>X&X.X=X>X4X4X>X4X>X7X8X4X4X4X4X4X2X2X6X2X2X2X2X2X>X4X6X4X>X6X&X2XOX>X;X*X2X4X>X2X6X;XXX2X>X;XOX.X.XoX.X.XoX&XoX4X.XoXXX.X}..X|.|.|.oX[..X;X.X|.oX|.|.&XoXP.P.[.oXoX|.|.E.[.I.[.[.[.}.[.[.}.oX}.}.P.I.I.I.P.[.I.P.I.P.F.P.I.].}.P.F.F.S.F.F.].P.].P.].F.D.P.].I.P.I.P.K.P.K.P.F.K.L.P.P.F.P.P.I.P.F.P.P.F.P.F.F.F.F.S.P.F.F.D.F.[.F.F.F.F.F.F.F.m.F.F.S.x.m.m.S.m.m.F.@XF.F.F.c.x.k.x.m.m.c.m.m.c.c.m.c.f.k.x.k.k.e.k.>.g.k.x.k.k.k.k.x.g.$.$.d.$.$.d.$.$.",
"{.}.}.&X&X X>X6X>XoX>X6X>XoX6XOXoXoX6XUXNXcX~.5XUX~.1X%X3X3X1X X4X2X6X2X2X4X%XXX~.XXkX*X%X8XoXkXkX>X7X7X4X4X.X.X&X;X2XlX4X4X4X6X>X:X7X>X;X&XoXOX>X&X>X>X>X:X;X>X:X&X>X7X>X:X>X7X>X4X2X4X4X;X;X}.&X>X7X2X;X2X2X>X4X&XkX2X>X;XXX&X;X.X;X;X&XoX X2X2X|.2X2X3X2X2X*XoX5X5X6X~.5X3XXXXX XoXoXoXoX~.~.T.K.XX1X1X5X1X2X0X5X3XXX1X1X1XoXXX1X5X~.~.1X1XXXXX1X1XXXXX~.~.1XXXXX~.1X%X2XXXJ.6.b.~.UXXX~.XX1X3X3X3X*X1X3X X=X&X2X4X2X7X2X2X*X2X4X=X2X*X5X3X*X2X4X8X4X*X=X*X&X3X=X3X X=X$X-X=X=X:X{.E.$XZ.=X&X&X&X&X{.=X>X[.;X=X;X&X=XXX&X*X8XXX1X4XXXE.L.K.l.C d q 2 0 2 2 2 6 q t u z m B u.t.a.pXeXpXpXpXpXaXtXq.T w.U N ) ,.l.U.I.P.|. X2XE.~.P. X X=X=X2X1X1XXX X*X3X2X1X*X*X3XXX*X2X=X*X*X*X*X*X1X2X1X1X1X3X8X3X3X3X3X9X8X4X2X9X9X1X1X1X1X%X1X1X~.9X1X8X4X1X1X9X0X3X8X9X=X9X$X$X0X9X9X9X0X:X=X&X&X-X=X7X9X=X9X9X=X9X=X0X*X=X~.!.1X1X3X1X9X&X=X9X=X=X=X=X$X=X=X#X&X-X%X$X{.%X:X=X$X#X$X=X9X3X:X$X=X&X=X=X=X&XW.=X=X&X=X=X:X9X=X=X9X=X=X4X1X1X1X1X1X5X1X1X8X2X5X5X8X1X3X5X4X9X2X3X2X4X8X8X9X3X:X:X4X4X=X4X4X4X>X=X:X7X2X*X%X3X*X3X2X3X*X1X*X1X8X8X1X3X5X9X8X1X9X1X3X*X4X:X8X7X7X*X*X7X1X5X1X1X2X2X3X2X8X1X5XXXXX3X1X4X8X1X3X*XoX*X*X3X3X9X3X&X*XoX~.[.*X*X9X*X&X&X;X:XkX:X:X=X:X:X:X:X:X:X&X;X:X7X4X7X7X7X7X7X2X=X;X;X6X7X4X6X2X4X7X7X7X4X4X4X6X5X4X5X4X2X2X2X2X3X:X4X>X6X2X6X>XoX;XOX;X>X:X>X.X7X;X.XOX;X&X6X;X.X.XoX.X&XOX.X}..X.XoXoXoX&X.X.X[.}.|.}.;X.X|.}.I.[.I.}.[.[.}.[.I.].E.oX}.|.}.[.[.[.E.}.|.[.E.[.I.I.I.U.P.I.P.P.P.I.P.[.F.P.E.R.F.P.P.P.].].F.F.R.@X].].].].F.P.F.U.P.I.C.U.P.L.P.P.P.P.P.P.F.F.S.P.].P.P.P.F.F.P.@XF.F.F.].F.@XR.@XF.F.S.S.@Xx.S.F.m.S.S.m.F.m.F.F.n.n.x.S.m.m.m.c.c.S.F.m.m.k.x.c.x.k.k.k.k.x.k.g.k.k.k.g.h.k.x.x.k.e.k.g.d.$.$.d.$.$.d.",
"R.}.}.|.;X&X.X>X;X;XOX>X6XoXjX6XoX}.OXlXxXjXI.&X&XXX*XXX%X1X3X5XVX5X5X6XkX2X&X X X1X8XXX2X8X1X3X1X*X4XXXoX%XXXXX2X8X>X.X.X>X;XoX;X;X&X}.}.;X&X>X7X>X;X:X;X;X3XXX&X;X&X&X&X>X2X2XXX2X5XkX.X4XjX&X2X6X*X>X2X2X>X=X>X&XkX>X4X*X{.[..X.X4XxX7X{.&X;X}.&X4X4X4X2X4X2X.X;X4X7X>X:X2X&X.XXX X|. X&X X~.=XE.1XXX X2X%X1X3X1X1X X1X1X8X9X3X1X2X1X*X%X1X3X2X%X1X3X3X3X X1XXX~.XX~.1XXX%XoXXXXX*X*X1X1X%XXX1X1X1X*XXX3X1X*XXXoX1X2X2XXXXX%X2X2X1X2X4XXXXX1X*X*X4X*X4X1X X*X=X=X=X#X:X{.9X-X=X=X=X:X4XE.9XT.E.{.{.[.:XkX&X}.&X3X*XoX&X2X&X5X;X2X XoX*X*XP.-.r d q 3 3 t 2 q w t y i m m Q p.p.a.eX_.wXHXhXfXhXrXhXp.v 8.T D X.e.S.|.E.XXE.XXXXP.P.~.~.&X&X*X*X=X*X=XXX3X=X3X3X=X3X*X*X1X*X*X*XXX3XXX1X*X*X2X2X3X1X3X3X3X4X9X3X8X1X3X1X1X1X1X1X3X3X3X1X3X1X1X1XoX1X2X1X1X1X1X:X9X9X=X:X=X9X=X9X9X0X=X-X=X4X0X=X=X=X0X=X9X:X0X:X-X&X$X:X&X=X=X9X9X=X*X-X*X=X=X%X&X=X{.W.&X$X=X=X X{.%X9X$X=XMX-X9X=X-X=X X=X=X$X&X:X%X=X=X:X=X=X3X9X-X=X4X=X9X7X0X=X0X3X3X5X&X8X9X9X8X7X7X>X7X7X7X7X:X9X7X4X:X#X4X:X9X:X2X*X4X=X=XXX1X*X1X*X2X2X3X1X2X9X9X4X$X-X:X7X:X2X9XzX4X5X%X1X3X3X1X5X0X1X8X4X4X4X:X9X:X:X*X%X3X1XoX1X5X1X1XUX1X1X%X1X1X*X X*X*X1X8X0X3X1X&X=XXXR. X=X4X:X:X&X&X=X;X7X&X;X;X,X;X7X:X>X:X7X>X:XkXlX7X&X4XlX6X4X4X4X>X4X4X7X:X4X7XkX4X;X2X4X2X4X&X2XXXOX2X3X2X;XOX*X5X6X6X;XOX>X>X.X.X;X>X;X.X>X.X;X>X&XXX2X;X>X;X&X.X}.oX&X;XoX.X&XoXE.|.oX.X{.}.}.{.oX;XoX}..X|.{.[.[.[.oX}.E.[.[.[.oX[.I.[.I.R.[.].I.|.E.}.P.E.].P.P.].P.P.P.I.[.P.P.I.I.I.}.P.L.P.P.F.P.].F.].P.P.].].].].P.P.P.P.F.P.[.I.F.I.I.I.D.I.P.R.].P.F.P.[.P.].@XF.S.S.@XS.F.F.S.F.F.F.S.F.F.S.S.x.F.S.m.@XF.F.m.F.m.m.V.n.F.n.m.m.S.V.x.c.x.k.k.k.m.c.c.k.k.k.k.k.e.k.g.h.g.f.k.k.m.x.x.k.f.f.>.$.>.>.d.>.g.",
"P..X.X{..X>X;X.X>XOX;X;X6XOX6X>XOXOXOX>XxXMX;X4X2X*X1X1X4X2X4XVXxX8XMX5X5X5X4X&X~.~.3X|.oX%XXXXX~.oXoX1X%XoX|.XX2X>X&X&X[. X&X&X&X:X;X;X=X&X:XkX:X>X7X>XXX;XXXI.].&X}.{.&X;X2X4X2X3X2X;X*X>X4X;X&X2X4X>X4X2X6X4X:X>X4X4X&X&X;X|.;X;X:X6X4X>X;X.X.X2X2X2X4X2X4X6X:XkX4XlX7X7X4X&X*X.X*X*XE. X X~.*X;X3X1X1X1X1XoX%XXX|.XX1XXX~.XX%XXX1X2X*X1XoX1XXX1XXX2X1XoX~.oX1XXX~.~.~.oX1X1X1X~.XX%X2XXX1X1X1X3XXX1X XXX%XXX2X1XXX1XXX1X2X2X2XXX1XXX3X2X1X4X4X6X2X1X X3X=X=X$X=X&XY.$X4X=X=X=X&X:X&X=X,X3X9X7X.X{.{.$X7X:X&X3X2X1XXX2X*X*X5XXX&X XXXoX|.K.( d 0 3 q i ~ p 2 4 t t i v m W u.s.s.qXtXhXfXfXhXfXfXhXrX8.M 8.U ~ g.v.E.P.[.[.E.~.K.!.XX X&X~.&X3X4XXX X1X%X*X1X*X%X4X*X*X*X3X*X=X%X*X*X%X1X~.*X1X X=X4XzX9X1X9X8X9X X9X1X1X4X%X1X4X1X9XXX0X1X%X1X%X1X%X1X3X1X0X0X9X9X=X=X=X=X=X=X=X=X9X9X=X-X=X=X3X*X=X=X9X9X=X-X:X=X#X&X=X&X$X:X-X=X=X&X=XW.%XW.%X&X=X%X$X=X=X=X$X=X$X&XW.9XzX=X=X&X$X:X=X=X9X=X#X%X=X=X9X=X=X%X=X%X=X9X=X$X9X9X:X:X:X9XzX*X9X4XcXzX4X4X9X:X7X7X7X7X0X8X0X=X9X7X:XMXzX4X=X=X=X9XE.~.%X*X*X X=X&X=X X*X8X3X:X=X4X=X=X:X2X1X3X1X3X3X5X2X1X2X5X5X3X4X*X:X:X=X4X:X9X4X8X1XXXXX1XoX1XoX1X~.5X1X5X1X=XXX&X1X=X4X4X3X*X*X X*X X*X%X*X:X:X>X=X&X$XkX:X&X;X;X:X:XiX:X&X:X:X:X:X4X4X;X;X;X:X4X>X&X:X:X3X4X:X2X2X>X.X;X6X&X>X3X;X2X5XXX2X4X2X3XOX;X2X2X>X;X&X;XoX;XOX.X.X;X;X.X;X.X.X;X>X;X;X.X.X.X.X}.oXoX|.}.[.}.}.}.}.}.|..X.X.XoX{.oX&XoX}.[.}.[.[.oX[.|.[.[.I.I.I.].I.].].I.[.P.}.I.].[.[.[.I.I.E.[.I.I.[.I.[.I.P.P.L.U.[.].P.I.F.S.P.F.D.F.P.F.F.D.P.P.P.P.L.].P.L.P.I.I.P.P.P.I.P.P.S.F.I.].].F.F.S.F.F.F.F.F.F.].F.@XF.F.F.D.F.S.@Xm.x.F.S.m.m.m.n.F.n.S.F.@XF.F.n.n.x.x.m.k.x.k.k.x.x.m.S.m.m.e.c.k.k.d.g.>.>.f.$.h.h.k.f.e.x.k.f.f.d.d.d.>.e.k.",
".X&X.X;X|.>X>X;XOX6X2X;X}.}.[.].oXOX}.OXxXxX|.*XT.!.~. X%X%X1X5X8X8XcXcX2X2X;X2X1XXX*XXX%X%X~. X2X X1XXXXX2X4X2XXX&X;X.X&X&X.XXX[.>X&X>X.X&X>XkX7X>X:X4X>X4XXXXX].}.>X;XjX>X;X5XcX2X|.XX&XXX:X;X;X>X*X2X&X;X;X;X4X4X:X>X&X;X.X;X>X&X&X;XkXMXlX=XoX4X4X5X2X2X;X;X4X&X;XzX7X;X:X2X X X|.;XW.K.R.&X&X*X3X3X1X1X|.XX*XXX&X.X1X%X2XXX2X1XXX1X2X2X%XXX%X1X%X%X%XXX X1XoX1XXXXXoXXX1X2X2XXX2X3X1XJ.L.XX~. XXX X%X X*XXXXX1X5X5X1XXXXXXXXXXX*X3X4X2X1X2X1X4XXX2X&X=X*X X:X$X=X#X$X-X=X4XQ.{.$X:X[.=X=X#X7XxXMX7X8X4X7X:X4XP.*X*X*X&X2XXX*XXX4X*XoXR.b.Z d 0 3 3 a ! Y 4 4 w t i m m T i.eXqXeXtXwXhXhXhXhXwX`.+X(.T B 8.F } x.L.P.E.E.|.~.2X1X X X%X%X3X1X=X X1X X3X4X9X*X X1X1XXX%X3X&X|.%X=X X*X X*X2X2X=X%X9X3X X3X9X1X1X1X3X1X1X1X1X9X1X1X3X5X0X5X1X%X~.%XXX1X1X9X1X:X9X9X0X0X9X=X=X&X=X:X=X4X=X#X%X9X=X9X=X*X:X=X=X&X%X&X{.=XW.$X=X3X&X:X9X=X$X=X%X&X$X$X=X:X#X=X4X1X%X=X=X$XW.0X8X&X-X=X$X%X%X=X3X=X%X=X=X=X=X=X=X=X*X1X1X-X3X=X9X:X$X9X:X9X7X4X3X*X4X4X8X4X7X:X7X;X:X:X8X:X=X=XzX:X7X:X4X=X4X=X1X*X X!.$X X%X*X&X&X&X=X=X1X*X=X$X=X=X-X:X1X1X1X8X3X1X1X%X1X2X0X1X2X8X9X4X:X:X&X>X1X2X3X*X1X1X3XoX1XXX5XXX0X~.1XXX X=X3XXX*X1X X=X2X=X~.*X XzX*X&X&X:X=X}.}.{.7X;X;X:X;X>X>X:X=X;XkX=X>X:X;X;X>X;X;X4X4X4X;X;X2X4X;X>X4X*X4X.X;X{.|.;X2X;X6X*X2X2X2X2X.XXX2X;X>X4X>X>X;X;X}.OX&X}.oX;X>X;X}..X;X;XOX;X}.oX&X.X|..X}.|.}.oXE.}..XXX[.}.|..XoX[..XoX}.oX|.OXoX[.[.].}.|.[.[.I.I.I.E.[.[.R.I.P.[.].[.|.[.[.].P.P.E.}.I.I.E.[.[.F.].[.P.[.[.P.U.S.n.P.F.].].F.].P.P.S.F.F.F.P.P.R.P.[.P.S.].P.P.P.I.}.F.P.S.P.R.F.[.P.F.F.F.S.V.F.].@X].[.F.F.F.F.F.].F.m.x.m.F.F.F.F.V.F.S.F.F.S.F.F.S.x.x.l.k.h.k.x.c.c.x.m.m.x.x.m.x.x.k.k.k.f.f.$.d.>.k.k.k.k.k.d.$.$.>.>.$.f.g.g.",
"].].F.}.XX;X>XOXXX6XOXUXP.OXOXOX}.OXOX6XNXjXC.E. XP.~.1X XT.~.XXXX8X5X5X5X2X5X8X3X8X1X4XXXXX1X X%XoX*X5X3XoX.X2X&X;X&X:XkX.X>X*X&X7X[.}.&XOX&XkX>X7XcXNXkX&XoXI.&X&X;X;X:X&X*X>XlXxX[.oXoX4X7X>X>X;X;X6X>X>X;X6X4X4X4X&X6X;X&X2X;X;X{.;X;X=X>X>X[.*X;XXX|.&XoX2X7X}.&XkXkX;X;X=X2X2XXX&XP.R. X=X*X1X2X2X1XXX%X X%X&X X=X2XoX%X*XXXXX1X2XXX%X X1X1X~.XXXXXX%X~. X~.~.1X1X~.~.~.XX1X%X*X*X1XXX X1X2XXX%X1X1X2X%X2XoX1X5X2X2X2X2X1XXX1X1XUX1X5X2X2X2XoX%X1XXX*X$X%X&X=X&X&X-X9X:X=X:X=X$X&X;X&X=X=X$X.X7XMXMXxX7X&X2X2X2X1XkX2X=X*X&XXX=X2X~.L.;.a 3 0 4 3 2 c c 2 3 9 t p x N Q _.s.p.hXs.wXs.hXhX`.wXu.s.s.7.v T U ! :.F.P.}.E. X XXXoX X XXX&X*XXXXX1XXXXX*X=XXX*XXX X1X=X3X&X*X*XXX2X1X X2X9X1X3X2X1X8X1X3X1X4X~.I.1X0X1X4X1X1X9X9X1X1X1X0X1X1X~.~.1X1XXX1X1X1X=X=X9X=X-X=X:XNX=X%X=X=X-X$X4X9X=X=X=X9X=X=X=X=X-X=X$X$X$X=X=X&XW.W.#X%X X=X*X$X=X%X$X$X$X$X%X$X$X&X$X=X=X=X8X0X=X X$X=X%X$X%X1X&X=X=X3X4X9X%X&X#X1X%X9X*X9XzX=X=X:X=X4X7X:X3X4X*X3X4X=X>X:X7X7X7X8X8X9X9X4X4X7X0X=X-X=X9X=X*X$X X$X X X&X%XXX1X&X&X:X:X*X$X%X%X$X$X=X=X1X3X1X1X3X1XXX%X5X1X1X5X:X=X7X9X7X:X7X:X3X1X*X2X1X5X1X%X1XXX1X1XXXXXXX1X1XXX1X~.1X2X*X4X1X4X&X*X1X*X1X2X:X:X&X;X$X:XkX=X:X>X&X&X:X:X>X=X6X,X:X:X>X&X=X>X=X6X4X;X;X;X=X:X;X&X;X;X=X&X.X.XoX;X2XoX;X;X*X2XOX2X2XXX;XXX;X;XOX>X>X;XOX;X.X;XOX.X;XoX;XOX.X&X.X.X|.oX;XoX[.oX.X&X[.oX[.|..X|.|.{.}.oX[.[.oX&X.X}..X{.[.I.[.I.}.oX[.[.I.].}.[.].R.].P.P.I.[.[.}.[.}.E.[.[.}.{.[.}.].P.I.I.P.P.P.oX}.L.F.L.].P.P.P.P.D.F.P.F.P.R.P.F.P.F.P.P.I.F.I.I.c.L.m.P.I.R.F.P.F.].[.P.F.F.].F.F.F.].F.D.D.@XF.].].F.].F.V.S.S.S.m.S.m.c.m.m.m.x.m.n.m.n.c.x.x.x.k.k.h.k.x.k.c.k.c.m.x.x.c.k.k.k.k.f.f.f.k.k.>.k.k.k.k.>.f.f.>.f.f.f.f.x.",
">X}.P.].>X6XjX>XOXOXOXOXOXoXOXOXOX}.|.OXxXlXE.2X1X~.~.~.~. XT.L.~.XX2X2X2X5X1X5X5X2X2XXX2X4XXXT.XX2X2X8XkXkX5X3X&X&XOX.X3X2X2X4X>X7X7X;X;X&X;X>X7X7XzXMX2XXXXX2X&XOXOX5X;X&X;X;X;X2X.X;X6X4X4X4X>X7X;X&X X>X>X=X>XNXzXMXkX8X2X6X;X.X}.}.:XlX:X&X{.>X>X}.oX&X>X;XkX7X>X7X2X&X&X=XC.;X=XXX X{. X:X:X:X&X;X6X3X%XXX:X&X:X}.9XkX&X=X XXX5X1XoXXX2XXXUX2X0XXX X*XXXXXoX~.~.oX~.1XXX2X5X1XXX1X5X X~.XXXXoX1X1X2X3X2X%XXXUX~.1X1XXX1X1X1X3X1X2X2X3X2X9X2X7X=X$X~.%X XW.E.$X#X{.=X7X=X&X-X&X:X=X#X=X=X:X-X&X%X{.%X{.$X.X%X*X=X=X9X2X*XXXXX&X.X3X|.z.Z d 0 q 3 5 2 4 6 4 5 5 p p h N u.wXhXs.s.s.s.qXeXwXeXs.t.t.t.Q T T U Y :.n.P.[.I.XX1XoX~. X&X X*X*X1XXX1X1X1XoX=X*X3X*X3X1X8XXX1X1X1X X*X%X3X=X9X5X8X3X1X*X3X2X2X1X~.2X8X1X3X3X3X1X1X X1X1X2X1X1X~.1X1X9X3X1X1X%X1X=XW.$X:X-X9XMXPXVX1X-X-X9X:X=X=X=X=X:X&X-X=X&X9X4X-X=X$X=X&X&X%X=X%X#X$X~.!.%X%X&X-X&X-X$X$X&X%X1X!. X&XXX1X0X3X&X$X!.%X=X!.%X%X%X!.$X#X-X%X-X$XT.1X=X%X=X1X9X=X=X=X:X=X0X8X*X3X*X4X3X1X7X7XkX:X7X7X:XzX9X9X2X9X:X=X:X=X:X:X:X,X*X%X!.!.!.1X%X9X4X=X9X=X9X=X=X$X=X:X=X:X&X=X=X1XXX1X1X1X1X1X1XcX3X*X3X:X7X4X7X4X8X1X5XXX2X1X1XXX%X5X0X2X1XXX1X1X*X3X1X*X1X X4X%X1X=X%X*X*X&X*X*X:X=X{.{.}.{.:X[.&X&X=X;X&X=X>X:X2X&X;X;X:X4X&X;X;X;X*X;X.X:X;X2X&XoX&X:X4X>X:X4X2X2X.X;X&X>X;X>X6XoX&X}.|.;X.XOX.X;X>X.X;X.X.X;X;X.X;X.XoXoXOX;X;X;X}.oXOX.X[.}.L.}.|.{.oXoX|.}.[.|.[.}.}. X}.|.|.E.[.[.{.[.|.[.I.}.E.I.[.[.|.[.[.[.].I.|.{.I.[.[.P.P.].P.[.].I.}.].P.F.[.I.P.S.U.}.E.U.F.].].P.F.F.F.P.S.F.F.S.F.F.F.S.D.[.S.F.P.P.F.S.z.F.S.S.R.].P.c.S.F.P.S.F.D.F.F.F.].[.].F.F.F.S.S.F.F.F.m.F.c.S.F.F.S.x.c.F.S.m.m.m.x.S.m.x.x.x.x.g.f.x.c.k.k.c.x.x.k.f.x.f.k.>.h.d.d.k.k.>.f.h.c.f.h.k.>.$.f.d.f.>.k.k.",
"oXOX].OXoX>X6XOXOXOX6XOX}.UXUXUX].}.sXjXIXNXXX3X8X*XXXXX~.XX~.oX~.~.XX2X5X5X5X5X8X5X2X2X2X2X2X2XXX3X5XoX~. X;X4X4X2X8X>X2X2X2X6X>X8X:X;X6X=X;X4X>X:X>X>XUXXXUX9X,X.XoX4X4X>X>X4X5X5X&X.X.X;X;X>XkX>X[.{.&X;X7X>X;X4XjX>X;X>X;X&X.X;X;X&X>XMX}.zXlX>X$X$X|.}.&X|.:X>X&X>X;X.X3X>X&X{.XX2X&X.X&X:X&X&X.X;XXXXX2X*X:X&X=X&X7X4X;X&XXX%X2X2X*X2XoXXXXXXXXX1XXXoX1X XoX~.~.~.XXXX1X1X1X2X1X2X%X1XXX1X1X1X2XXXXX3XXX1X1X1X%X%X~.1XXXXXXX1X1X1X3X3X2X3X3X:X;X{.!.!.$X!.$X&X$X#X$X:X=X-X#X#X#X$X=X&X:X=X=X=X=XW.#X#X{.=XXXXXXX4X3X*XXX4X*XXX X4X[.' d 0 3 0 3 3 2 3 4 4 9 5 9 p x D _.wXwXs.eXs.p.s.s.s.s.a.a.t.t.7.8.T T U } v.K.I.|.|. XoXoX X*X*X%X X=X%X8X8X3X X XXX X1X*X=X4X1XXX*X*X*X4XXX3X3X2X1X3X4X3X1X%X%X3X3X*X3X1X1X0X0X9X9X X%X0X1X2X%X1X1X X~.1X X%XXX1X~.$X$X&X$X-X9X1X0XVX=X=X=X=X=X&X=X=X=X=X-X=X$X=X*X=X=X=X=X$XW.W.W.%X%X%X%X!.$X X%X=X=X&X-X$X4X=XW.1X1X=X$X!.~.1X1X&X*X%X1X$X X!.!.!.$X%X%X%X$X=X3X=XW.#X1X1X=X9X9X:X9X:X9X9X2X3X4X2X9X8X3X:X:X:X8X:X7X=X=X=X=X1X9X9X$X$X$X$X$X=X$X!.~.%X!.%X X%X=X=X=X$X&X=X9X=X&X=X=X-X=X=X*X!. X~.oX1X2X1X2X5X1X3X4X4X4XMX:X:X:X1X2X1X2X1X1XXX2XoXXXcX1X1X1XoX1X%X3XXX1X4X=X1X4X2XXX1X X=X X2X1X&X=X&X.X&X=X>X#X:X>X;X;X;X;X;X>X;X:X;X&X:X;X{..X;X;X&X>X>X4X>X4X2X&X6X>X=X=X>X4X;X;X2X&X.X;X&X&X;X;X&XoX;XOX&X2X;X;X.XOX>XoX>XOX.X.X.X}.oX;X.X;X.X&X>XoXoXoX}.E.}.oXoX}..XXX&X}.oXoX[.[.[.|..X|.}..X}. X}.}.oX[.[.|.[.|.[.[.oX}.[.[.E.}.}.[.[.E.[.[.I.I.I.I.[.[.R.E.P.I.P.P.S.F.K.}.[.K.C.S.S.S.S.C.c.c.V.S.F.D.S.D.S.l.S.F.I.D.L.F.D.S.m.S.F.C.F.S.P.S.S.].S.S.F.F.P.P.@XD.F.F.F.].F.F.S.F.n.F.G.F.k.m.m.m.S.m.m.m.m.n.m.x.F.S.m.x.c.k.k.>.k.k.k.k.k.k.k.k.k.k.k.S.k.k.k.d.e.>.>.k.k.k.c.g.k.f.f.f.$.$.$.h.d.>.",
"lXjXjXjXcXcXnXxXcXjXcXxXjXnXcXbXjXjXmXVXIXVXNX>XcX5X3X~.XX~.~.~.~.XX2XXX2XcXzXcXkXcX5X5X4X6X2X2X%X5XkXXX;X&X4X4X4X8X;X2X2X;X2X*X>X&X;X>X6X7X4X>X>X;X;X;XUX1XXX5X6X;X>X;X2X2X2X>XBXxX;X.X,X;X>X:X=X;X&X>X.X;X.X>X;X.X&X>X4XkXkX>X>X6X&X.X:X;X>XNXVXNXkX>X&X;X;X}.:X&X8X>X4X4X9X X*X;XXX2X:X*X=X=X&X&X*X=X&X.X*X=X>X:X&X&X&X&X&X;X%X2X5X2X1X*XXX*X~.UX2X5X1XoX~. X~.~.~.XXXX1X1XXX1X1X1X1X2X2X*X%XoX%X1XXX1X1X*X%X~.1X2X1XXX1X1X5X X1X2XXX~.~.1X%X=X*X&X#X=XQ.T.$X#X#X{.W.$X-X-X&X{.$X:X$X&X$X&X=X$X&X*X%X&X%X$X{. X=X1X8X9X1X&X2X2X*X[.;XP.Z d 0 0 0 3 3 5 < 2 t D E 9 w z Q '.`.p.=.a.u.=.=.7.t.=.t.eXt.t.Q 7.7.q.D [ f.U.U.3XE.|.~.XX~. X X*X*X*X1X2X*X2X&X X=XXX*X1X X*X1XXX X*X4X*X1X3X8X9X*X%X.X*X1X9X9X*X8X3X1X3X3X4X1X1X1X0X3X1X3X1X1X%X1X1X%X1X%X~.~.~.%X=X%X{.%X#X-X=X XVX0X=X=X=X$X$X=X:X$X:X9X%X9X%X=X0X=X=X:X%X%XW.%X%XW.&XW.$X%X%X X=X&X&X9X%X-X$X$X1X X1X~.1X1X0XMX%X%X3X X%X~.!.$X1X!.1X=X1X1X-X%X1X=X$X=X-X1X*X1X:X:X=X9X=X=X~. X1X9X3X3X8X7X:X7X:X:X7X:X,X=X$X=X=X$X=X$X{.$X=X#X=X!.!.%X!.%X=X%X=X&X:X$X=X&X-X=X=X=X9X=X%X%X$XW.%X1X5X1X1X1X5X5X9X9X:X:X;X:X:X7X4X1X*X%X2X1XXX1X~.1X1X%X1X1X2X1X1X*X3X3X%X2X=X3X1X4X2X=X X{.=X:X X&X[.{.{.{.P.[.7X>X,X.X&X;X;XoX,X:X>X&X:X4X>X&X.X2X:X:X:X;X7X7X:X;X:X4X4X=X>X4X>X;X&X2X.X.X.X.X;XoXoXR.|.>X6X4X;X>X;X>X;XOX&X;X.X;XoX.X}.{.OXoX}.;X.X;X>XoXoX[.}.|.oX{.[.oX|.oX{.oX.X.X[.}.|.}.[.|.}.}.}..X}.|.}.[.[.E.].}.|.oX[.[.P.[.}.[.I.}.I.[.K.[.}.I.I.F.E.I.F.I.E.S.L.S.S.[.}.U.S.S.S.L.S.S.c.c.c.c.S.S.S.c.S.S.S.S.F.F.S.I.P.>.c.z.1.z.V.S.c.x.S.F.U.F.F.F.F.@XF.@XP.].[.[.F.F.F.S.S.G.m.F.c.m.c.m.x.c.F.n.m.m.c.m.S.m.V.x.k.x.k.k.k.d.>.k.x.k.c.f.c.h.k.x.f.h.f.f.>.g.g.e.d.f.k.k.k.d.h.d.$.g.g.d.>.>.",
"jXjXNXnXjXxXnXcXxXnXNXnXnXcXcXjXmXIXNXnXnXNXNXkXXXMXVX8X8X5X5XMXxXVXVXUXv.J.cXxX5XoX2XxXL.5X5X5XzXnXNXcXcXkXxXkXkXzXxXxXzXkX5X9XkXkX7X7X2X8XjXNXNXkX4X4X2X2X2XcX4X;XXX2X;X;X4X;X6X&X&X>X>X:X7X7X>XiX>X&X>X;X;X&X{..X6X4X5X4X6X4X>X=X&XOX>X7X7XlXVXVXMXkX>XzXcX7X>X7X8X>X>X;XlX&X&XoX&X*X;X4X4X>X&X&X.X&X&X;X&X*X&X&X&X:X.X&X X*X~.XX1XXX XoXXX1X%X*XXX1XoXoX~. XoXoX1XXX1X0X5XXXoX2X1X2X*X*X2X%X%XoX1X2X~.*X5XXXXX1XXX1XXXXX2X1X%X2XXX1X1XXX1X2X&X$X{.#XW.E.E.T.W.{.#XW.$X&X=X=X&XE.:X0X$X=X=X-X&X=X=X=X=X=X*X&X%X&X4X9X2X;X3X4X2X2X X XV.C d 3 0 2 3 3 < 5 3 i U =.h 9 9 D W Q N N Q U B B Q Q B Q i.t.7.8.7.8.q.S R :.S.[..X|.E.~.*X&X*X X X*X*X*X*X1X1X1X2X%X%X&X&X4X1X%X1X3X1X3X=X8X1X9X3X3X;X=X*X0X2X2X=X*X3X3X1X1X1X1X%X3XXX1X X0X0X1X1XXX X X X1X1X1X!. X&X$X$XW.%X-X3X=X0X0X=X-X=X=X&X9X&X-X-X$X%X=X:X=X=X=X%X=X&X%X$X*X%XW.!.W.$X%X%X%X=X=X-X4X$X&X&X$X!.%X$X%X X1X1XMX X=X%X%X#X%X!.~.$X X$X9X%X X=X!.1X1X9X1X%X=X=X=X:X9X:X9X*X X1XXX*X3X9X3X8X7X:X:X:X:X8X=X=X=X=X=X=X$X=X$X{.#X&X$X!.1X=X%X~.!.$X&X$X=X:X=X9X=X=X-X=X=X=X-X=X1X$X=X%X0X1X1X1X1X5X1X4X4X>X:X:X{.7X7X3X3X2X1X5X1X3X~.oX1X5XXXXXXX1X8X4X8X=X1XXX9X8X4X9X*X*X3X&X{. X X&X7X&X[.&X&X:X:X=X.X;X;X:X&X>X;X;X=X>X;X:X>X X.X&X4X4X2X4X4X>X&X>X2X;X2X4X>X4X4X:X&X>X&X&X;X;X2X;X*X|.].R.;X4X6X6X2X>X>X;X>X2X&X>X&X>X|..X.X.X;X.X.XoX;X{.oXP.P.P.I.[.[.}..XoX}.oX}.oX}.[.[.|.oXoX|.&X|.[.oX|.|.|.I.}.}.[.E.[.P.[.P.F.[.[.I.P.[.|.[.].I.P.E.[.I.}.].[.U.E.F.n.c.z.E.[.D.P.P.F.P.S.c.c.S.S.S.S.F.S.c.S.S.C.m.C.C.c.S.m.z.>.h.>.k.f.c.S.S.S.F.S.n.S.F.@XF.F.F.F.F.F.@XP.F.F.c.m.m.c.x.x.S.m.S.m.m.n.G.m.m.m.c.m.x.m.x.c.k.k.>.d.e.k.k.k.k.k.x.k.k.c.c.k.k.f.f.d.$.>.g.g.g.k.h.k.>.>.$.f.>.g.e.g.g.",
"OXXXOX>XOXUX6X6XUXUX6X2X|.UXoXoXoXoX+X~.~.~.J.J.J.5XXX5X1X2XXX0XNXVXVXNXcX1XXXoX~.8XVXPXVXPXxXcXVXVXVXnXcXcXxXxXNXVXxXxXxXVXNXMXMXMXxXnXVXPXVXVXNXVXVXNXNXVXVXNXxXkX8X4XkX>X8XxXNXlX7X7X4X>X>XkX4X>X7X&X=X;X;X}.4XjX:XkX5X.X;X2X;X;X;XoX.X4X4XxXzXBX7X}.jXzXkXkXlXlX8XkXkX;X4X>X=X{.=X:X:X7X0XVXkX&X&X}.}.:X&X&X&X=X&X&X$X[.P.|.oX*X*X2X1X[.oX X XXX5X2XE.~. X1X%XoXXX1XoX1X1X1X1XXX*X3XXX XXXoX~.%X1XXX~.XX1XXX~.oX~.1XXX%XoX~. XXX%X1XXX X X XE.W.W.$X$XW.E.Q.#X{.$X&X$X#X&X=X=X=X%X*X%X=X,X=X=X=XW.=X%X9X=X*X*X&X9X2X X&X2X*X2X;X&XP.Z.C 3 0 d 0 2 2 < 3 < w n E m 7 7 i m i u m m m m m D E x m W t.a.i.t.7.q.W R d.S.R.}.|.~.oX1X*X1XXXXX~.XX&X X*X8X1X&X4X&X&X&X X:X{.{.}.=X3X4X9X4X8X9X1X&X&X=X4X4X=X1X4X6X1X3X9X1X X3X%X1X1X%X1X1X1X%XXX1X%X1X3X%X1XXX1X=X=X$XW.$XW.W.=X0X&X%X%X=X%X&X=X:X$X%X=X1X%X=X9X$X$X=X=X=X=X$X$X%X%X!. X1X%X$X#X=X-X=X=X:X0X-X&X&X=XW.$X=X%X1XxX1X%X1X1X#X%X!.%X%X%X1X1X=X X=X%X!.=X=X%X&X%X%X=X9X:X*X*X&X:X3X*X*X*X4X*X2X7X>X4X:X:X:X0X,X=X-X9X=X$X&X&X$XE.Q.$X%X%X9X1X1XQ.W.W.=X=X:X%X:X=X-X=X=X-X=X=X%X%X=X%X1X%X1X1X5X5X5X5X2X3X:X=X{.>X8X7X1X3X2X*X4X2X=X:X%X%X%XXX8X1X8X9X1X9X1X2X X2X=X&X8X8X X*X X0X=XP.$X7X{.&X.X:X:X&X&X>X>X:X:X:X>X:X>X=X>X7X&X>X2X;X6X4X8X4X4X2X7X>X4X;X;X8X7X:X7X4X>X:X>X&X&X;X:X>XXX2X>X|.E..X6X;X2X>X;X>X4X>X;X>X;X;X.X.XOX.XXX>XXXS.oX.X.X}.[.P.I.I.}.*XoXE.[.[.|.[.I.|.oX|.|.oX|.|..XoX|.|.|.oX[.[.[.[.}.P.K.P.}.R.}.[.[.D.P.}.P.D.].D.[.}.[.D.[.E.I.P.P.c.h.z.x.R.}.P.S.S.S.L.I.D.S.S.c.F.C.F.D.P.].F.S.F.S.c.c.c.j.>.V.h.c.>.l.v.v.m.F.S.n.S.S.F.P.F.F.].].F.@XF.F.S.F.n.F.F.S.m.V.m.S.x.c.m.c.m.x.m.c.m.S.x.m.S.c.c.k.k.>.>.g.e.k.g.k.k.k.k.k.k.>.k.k.f.>.>.>.k.f.f.k.d.k.k.>.d.$.$.f.g.>.k.",
"}.>XXX.XoX*XXX.XoXXX6XUX~.|.UXUXUXUX~.oX~.UXUX~.1X%X~.XX~.1X~.J.5XzXMXzXcX2X2XcXNXMXMX8XMX8XcX5XkX*X*X5X5X2X3X*X2X3X*X3X1X4X5X5X4X4X7X4X2X2XkXlXcXcX5XcXMXcXNXMXnXkXcX5XlXlX8X4XlX8X8XlXlXkXkX>X7X7X4X4X4XlX4X;X7XkXzXlXzXcXxXxXlXkXjX4X>XkX4XzXNXMXzX7X:XkXiXkXlX7X:X.X7X7X4X7XjX7X>X:X:X=X7XVXMX&X&X{.&X&X#X}.{.}.{.&XP.;X,X.XXX2X5X2XXX;XoXXX X2X X2X4X X|.*X1X~.1X1X1XXX1XUX1XoX~.2X1X3X1X3X1XUX%X%X1XXX1XoX1XoXoX~.~.XXXX1X X!.XX X1X%X1X%X$XW.$X&XW.W.W.Y.#XE.$X$XW.&X-X:X=X=X%X=X X=X=X:X$X=XT.4X%X1X1X*X2X9X2X%X XoX*X&X2X&X&XE.P.P 3 3 0 2 < 0 0 2 3 3 t i 4 4 7 t y p u i u p 9 u x x i y c W q.a.t.q.q.W Y } l.].I.E.!.XX~.XXXX%X&X*X=X&X&X%X=X3X&X*X&X.X=X&X8XW.j.=XE.8X=X1X9X*X3X4X=X:X:X7X4X9X4X=X9X1X1X8X1X4X1X1X1X%X1X9X~.!.1X XXX1X1X3X%X1X1X~.=X&XE.$X&X=X!.*X=X%X$X&X$X=X=X=X:X=X:X$X1X1X%X%X*X%X&X=X=X1X%X=X1X%X!.!.=X!. X%X&X=X-X$X:X=X=X$X=X9X9X4XzX*X0X0X1X9X%X!.%X!.#X1X1X1X1X#X$XT.%X!.%X&X#X!.=XW.$X*X-X:X=X=X=X X2X=X*X*X1X=X7X8X=X:X$X&X:X9X0X9X1X=X0X&X#X#X#X=X&X#X1X$X1X1X3XW. XE.=X=X=X:X:X=X=X,X#X$X=X-X1X1X1X%X1X1X1X1X1X2X1X1X=X4X=X7X4X&X:X9X3X4X1X1X4X1X&X{.~.UXXX%X1XcXzXXX~.XX%X2X{.*X X9X1X3X*X*X&X3X3X X&X7X[.R.&X:X:X&X&X4X7X7X:XkX:X:X:X:X:X:X:X:X;X4X7X;XlX>X:X7X;X=X>X&X;X2X>X7XlX7X4X:X:X>X>X;X7X:X2X2X2X;X}.oX;X2X6X>X;X>X7X2X;X=X6X6X2X;X&XXX.X;X;XoX[.oX|.I..X[..X}.[.oX>X|.I.[.oXI.[.|.[.[.[.|.E.}.[.}.oX[.P.[.[.[.I.[.I.K.P.S.I.}.R.R.D.V.P.[.].F.D.P.P.D.F.[.}.I.P.P.P.v.z.x.h.[.I.S.F.S.F.F.P.F.S.P.L.S.S.m.S.S.D.c.C.c.h.c.c.h.m.l.m.c.c.j.K.n.c.U.U.L.S.U.F.F.S.S.F.@XF.S.F.S.m.V.m.G.F.m.m.x.m.m.m.S.c.x.m.m.x.c.k.m.m.c.x.x.x.k.k.g.g.h.k.k.m.k.x.c.c.k.m.k.k.g.h.f.>.d.g.l.$.f.k.>.k.g.>.d.f.d.f.>.k.x.",
"~.XXoX~.E.E.P.|.XX|.XX6XXXoXoXUXUXXXUX~.UXUX1X~.XXJ.~.1X~.~.UX%X3X8X1XXX1X2XXX1XXX2X4X2X1X3X1XXX X~.oX1X1X1XXX1X XXX*X*X%X5X5XXX7X.X&X$X~.|.VXVXxXNXNX5X5X2XcXcX9XcX8X8XzXzXzXkX4XxXzXzXMXzXcXzXkXlXxXlX2X>X>X=X&X:X>X:X5X4X3X4X7X7X8X7XkXlXkX8XMXzX7XlXcXzX8XkX>X7XkX:X[.;X&X7X4X:X:XkX7XkX7XMX:X&X:X&X&X&X:X:X:X:X;X>X[.&X>X>X2X8X5XXX.X&X*X*XoXoX*XoX.XXX%X XoX~.XXoXXXXX1X1XXX=X*X*X1X1X2X2X5X1XUX%X*X1X*XXXXX~.%X%XXX%XXX%X1X~.XXXXXX!.XX X X$X$XW.$X$X$X$X$X-X=X*X#X{.#X&X&X=X%X=X3X=X#X;X%X&X{.%X%X8X4X1X*X2X3X=X&X=X4X&X:X X&X[.R.I d 3 0 0 < 2 3 < 3 4 3 4 4 6 3 7 w w 6 9 t 9 9 9 9 e q t t z T q.t.t.8.W Y ..x.P.[.I.oXzXXX&XXX X X&X*X*X X8X2X0X8X=X%X[.=X:X&X:X:XzX4X*X3X3X2X2X1X2X;XkX:X7X9X9X4X7X4X3X3X0X9X%X1X*X1X1X1X X X1X*X X%X%X1X X1X1X X1X&X9X=X%X$X=X%X$X$X%X!.$X%X*X%X-X$X9X=X$X X%X%X%X1X&X=X1X1X9X1X%X1X!.Q.=X=X%X$X1X&X=X%X9X4X=X$X$X$XW.=X%X=X$X8XMX3X1X%X!.1X1X1X1X=X=X%X1X%X#XE.&X$X%X=X$XW.=X=X$X-X=X$X,X=X:X*X*X1X1X0X:X4X=X4X8X>X=X=X:X=X=X-X$X$X#X{.Y.{.&X#X=X$X=X=X-X&X%X$X-X0X=X#X=X&X$X=X$X=X=X9X=X=X1X%X1X1X0X0X1X1X1X1X5X4X=X4X=X=X>X9X:X1X8X1X8X=X2X:X=X1XoXoX5XzX1X1X4X1X3XoX1X=X[.&X=X8X&X*X&X*X*XT.E.:X7X[.&X:X>X9X&X>X7X7X>X2X;X:X:X>X7X7X:X;X4X;X2X>X=X4X4X6X>X;X;X;X=X2X8X7X:X;X7X8X:X;X;X>X=X>X:X6X2X6X;X|..X;X>X&X;X;X4X>X4X6X>X>X:X>X.XOX.X;XoX.X;XoX}.oX|.&X[..XoX|.oX.X;X|.}.I.}.|.oX}.|.|.oX}.I.oX.X}.D.[.].}.[.[.I.[.F.S.S.P.[.[.}.}.P.R.{.[.{.R.].R.].R.].P.P.L.I.P.S.c.c.h.R.[.F.L.F.L.I.P.S.S.S.S.S.G.F.S.F.S.h.h.j.k.h.c.l.x.l.S.l.c.c.v.l.x.K.U.U.S.S.F.P.F.F.F.R.F.F.F.V.F.F.F.S.m.S.F.n.k.x.x.S.F.F.m.V.m.S.G.k.m.c.k.x.x.x.k.e.h.f.f.h.x.l.x.k.k.k.k.f.>.>.f.$.d.d.g.h.k.k.k.e.>.>.>.e.$. .$.d.h.k.",
"~.P.E.XXR.P.&XoX*XUX*X5X6X*XXXXX~.oX~.J.XX~.~.~.XX1XoX%X~.%X~.1XXX1XoX~.~.1X5X%X X X*X1X%X1X1X X~.~.~.oX X XXXXX1X XoXoXoXXX4X~.&X&X[. X=XT.PXPXVXMX5X1X5X1X1X1X:X=X*X&X4X7X:X;X*X*X*X2X:X:XMXxXkXlX7X7X;X*X2X>X4X:X>X&X*X X*X X;X=X:X=X:X=X*X&X&X{.{.;X:X:X{.{.;X7X8XkX$X].&X=X&X=X:X8X:XkX7X7X:X;X7X:X9X>X:X>XlX>XcXMXzXkXkXlX6XcXcX8X2X4X;X8X2X3X2XXX4X8X;X;X5X1X1X5X1X1XXX2XXX~.*X2XoX1X1XXXoXXX1XXX*XXX*XoX%X~.%XXX%X~.~.1X*X~. X!. X*X=X%X%XW.&X%X$XW.{.$X%X=XW.$X&X&X$X{.&X=X*X&X*X=X=X#X*X:X=X X X&X3X*X*X=X1X*X2X&X9X&X X[.E.[.C.Z 3 < < 0 < 0 2 3 2 3 3 4 5 3 5 7 7 7 9 4 w 5 5 5 5 w 4 4 6 4 8 B W 7.8.U U [ x.F.|.|.|.*X*X2X=XXX*X=X*X*XXX*XoX2XzX7X;X*X&X&X4X$X:X:X1X4X2X8XxX8X9X3X:X=X8XzX7X7X:X7X2X9X2X8X9X3X%XXX2X1X1XXX X1X~.1X1XXX~.1X0X1X1X!.$X=X%X$X$X&X$XW. X=X$X=X$X9X=X1X%X9X%X$X%X$X X%X$X!.-X=X1X1X1X!.!.$X$X$XQ.1X%X&X=X=X&X%X$X#X{.4X=X8X%X{.~.%X9XMX9X~.1X1X1X X%X#X!.%X%X%XW.$XQ.$XW.!.=X$X=XW.W.=X-X=X$X-X-X:X9X=X=X,X:X:X4X=X0X0X:X9X=X:X=X=X$X=X$X&X-X{.Q.&X=X:X9X0X=X=X=X=X$X=X7X%X&X&X#X=X=X#X#X=X=X9X0X9X=X9X1X1X1X1X%X5X1X1X:X$X>X&X&X4X=X>X5X2XxX*X%XXX&X:X2X~.XX5X5XXX2X*X2X3X2X|.R.|.=X>XXX1X2X*X=X1XXX*X.X&X$X{.&X7X>X=X:X7X7X4X7X4XjX,X;X:X7X4X,X6X:X.X2X3X4X:X7X;X:X4X>X4X>X7X:X>X:XiX7XkX=X>X&X&X=X>X3XXX&X2X.X&X>X4X>X;X>X6X;X6X4X>X4X;X2XXX|.;XOX2X&X}.;X.X;X}.oX[.}..X6X.X}.;X&XXXoXoX|.|.XXoX~.oXE.[.|.|.E.P.I.[.[.].I.[.].L.P.P.P.P.D.].[.P.@X].E.}.[.F.D.R.R.P.P.P.].I.S.h.z.k.c.P.P.S.S.F.L.S.D.S.S.P.S.S.F.c.V.$.j.j.c.f.j.j.h.z.V.j.l.S.C.c.v.,.v.v.K.K.S.n.F.m.F.S.F.F.F.P.F.F.F.F.m.S.S.S.G.x.m.S.c.m.m.m.m.k.g.V.F.x.x.m.c.c.k.l.k.g.f.h.k.f.h.m.V.x.k.>.$.d.e.g.f.f.f.e.k.k.k.k.k.g.d.k.d.>.d.$.>.k.k.>.",
"P.E.{.:XlXE. X.XoXXXXXUXoXXX5XXXXX~.~.U.~.~.J.b.UXXXJ.K.~.J.~.I.b.~.~.~.XXXX~.XX~. XXX~. XoX~. XI.!.~.T.E.E.XX*X4X3X%X*XXX1XXX%X~.E.P.!.=XE.nXPXMX5XoXXX~.1X XI.XX9X2X&X3X=X*X*X$X%X*X%X3X;X2X;X&X;X2X4X;X.X;X.X&X.X&X&X%X X&XXX{.&X X.XT.E. X%X:X&X=X:X:X;X;X&X].#X>X:X}.;X;X&X:X=X>X:X:X>X&X:XzX:X7XkXlXkXkX7X>X7X4X4XjXkXlXjXlXjXlXjXjX>X7XkX8X5X8XzXcX8XMX8X5X8X0X5XcX8X5XcXkX8XzXxXMXzX8X2XzXzX0XcX0XzX0X8XcX5X5X8X5X1XUX2X3X1XXX1X*XXX1X1X*X*X%X1X9X&XzX8X#X,X&X$X&X#X$X$X&X&X#X=X0X,X=X&X X2X%X X X&X%X1X4X X9X*XXX1X3X:X X{.[.P.V.f * 3 0 < < 3 3 3 2 3 < 3 4 4 6 q q q 6 i A D p 4 4 5 5 4 w 5 2 4 i T 8.W D ] h.F.|.2X|..X|. X.X:X=X;X&XXX.X&X X2XzX7X X=X;X7X:X{.7X:X:X:X&X=X*X=X4X:X7X8X0X:X8X9XlX:X4X3X*X2X1X X*X2X2X%X1XXX1X~.1X1X X~.~.T.%X1X1X1X$X%X*X%X%X!.1X%X=X$X!.9X1X9X=X%X9X%X%X%X$X%X%X%X$XW.!.$X!.%X$X$X1X X!.!.W.%X X=X%X&X X$X%X=X-X&X1X=X=X$X~.%X0X0X8X3X1X1X%X~.$X~.!.%X$X=X$XW.W.#X$X=X$X=X$X-X#X&X%X=X,X$X=X:X=X=X9X0X:X=X7X9X=XlX9X0X*X=X0X0X0X=X#X$X$X-X$X$X=X$X=X~.=X-X&X:X$X{.$X%X$X&X&X=X$X=X=X:X=X9X1X9X9X9X5X%X1X0X1XXX1XXX4X=X:X=X:XkX8XkX8X0XMX2X7X4X&X4X1X5XcX5XP.8X1XoXXX*X3X1X&X2X:X&X=X3X2X8XXX2X=XoX X.XE.&X=X&X8X&X:X4X7X:X4X;X>X9X,X>X>X4X:X>X=X>X;X=X>X4X8X4X>X2X=X>X;X:X>X:X:X:X:X>X=X$X}.&X=X&X.X>X&X;X&X;X;X>X2X2X2X7X4X8X;X:X.X.X}.oXoX;XXX;X>X;X;XOX;X;X[.}.|..X;X;XXXoX;X2X;XoX[.|.|.P.|.[.P.I.oXoX}.[.|.[.E.].}.|.[.I.E.[.I.F.R.I.[.R.@X[.}.[.}.[.].P.P.D.F.P.P.S.F.C.S.>.D.F.[.S.S.F.S.S.F.F.D.S.S.V.S.c.V.D.h.h.h.j.l.c.z.h.j.j.S.S.V.V.v.l.x.v.S.K.U.v.c.S.K.n.I.S.S.S.S.V.S.m.m.V.@XV.x.c.m.m.x.c.m.S.S.m.k.m.m.S.m.c.k.k.k.e.f.k.f.k.k.$.f.x.c.c.k.f.c.k.f.h.k.>.k.k.f.f.k.>.k.k.k.>.g.$.>.>.d.g.e.x.",
"E.P.{..X{.{.[.F.K.oX[.2X XI.XXXX~.oX~.I.~.oX4.=.J.J.K.~.6.J.J.J.L.~.~.~.~.J.~.~.XX~.~.XX~.oX X~.~.~.~.~.E.~. X~. X1X1XoX1XXX~.%X~.E.T.~.=X|.xXVXVX5X~.1X1X1XT.I.~.=XXX X&X%X&X XXX&X*XXX=X;X X~.&X}..X;X.X.XXX&X>X;X.X X*X*X%XXXW.&X&X{.R.L. XXX#X[.}.}.{.$X#X}.&X$X,X X&X&X&X&X&X}.&X=X{.{.&X&X=X&X{.$X=X&X4X:X;X:XlXcXmXNXNXNXNXIXNXxXxXkXkXkX8XxXxXzXxXxXMX8XzXzX5XcX8XzXzXzXkX8XzX8XcXzXzX5XzXzX5XcXzXzXzXxXzX5XcXxXMXNXNXMXxXcXcXcXzXxXxX4XcX8XkXxXVXzXxXMXkXkX8X4XiX:X:X=XzX0X7X;X:X:X:X:X4X=X2X*X%X XXXL. X=X*X3X*X*X&X*X2XR.W.V.3.f d * * 3 < 3 < 3 2 3 2 4 5 1 4 6 6 4 4 p D 9.W p 4 5 4 3 5 4 2 4 4 c 8.T D ~ x.I.oX&X&X.X X.X=X.X&X&X4X XXXXX2X&X2X[.4X=X>X{.:X:XzX:X7X7X:X>X:XzX7X8X8X>X:X7XMX3X:X:X9X*X2X3X9XXX9X1XXX~.!.~.~.MX X%X0X1X|.J.%X4X1X~.&X*XW.W.!.$X!.%XW.=X1X1X1X%X1X%X=X1X=X=X%X!.$X%X!.Q.W.~.W.~.%X$X1X!.$XT.W.W.$X X#X$X$X$X$X%X$X$X9X X%X%X XoX1X1X0X1X!. X1X#X$X3X#X#X$X%X#XE.%X%X$X!.$X=X=X%X-X9X=X%X%X=X=X=X:X=X,X0X=X:X0X9X8X7X7X*X=X=X=X=X=X:X&X%X{.$X&X$X&X=X3X$XR.T.$X=XE.$X&X-X$X:X=X=X#X&X-X{.:X9X0X1X9X%X1X1X1X3XXX1X1X5X>X:X=X>X:X7X:X:X8X2X2X*X X7X7XNXMXcXcXMXNX5X1XE. X3XkXxX7X4X:X9X4XzX2X*X%X1X1X*X XR.[.{.;X&X8X4X;X7XkX4X;X4X>X7X:X;X:X:X:X4X4X;X>X;X;X4X4X2X.X=X;X:X7X7XkX:XkX:X>X=X;X;X;X;X;X;X4X&X;X;X;X&X;X2X2X4X>X2X>X;X;X>X.X;X[.[.oX2X>X;X;X2X&X;XXX>X.XOX&X6X>X2X&X>XOXXXXX|.|.|.oX|.[.[.|.XXE.[.oX|.|.}.[.}.|.E.I.[.}.|.[.[.P.].[.].{.[.&X[.[.[.[.].@XR.L.I.U.S.I.m.C.F.S.D.I.P.[.V.S.S.C.F.S.D.V.S.V.V.S.c.N.k.h.C.j.c.h.h.3.z.h.c.S.l.c.h.:.l.n.S.c.S.v.v.K.U.F.x.m.S.c.F.V.x.V.j.c.k.h.z.k.S.x.m.S.m.c.x.x.m.m.x.k.k.k.k.k.f.d.e.$.h.h.h.g.x.h.k.k.k.h.f.h.h.x.k.>.g.>.x.>.k.k.f.>.k.e.$.d.$.>.>.g.g.",
"R.V.E.I.S.{..X.XoX~.oX*XoXK.L.|.b.n.U.U.~.K.6.J.~.J.4.b.6.=.J.K.L.L.~.~.~.~.~.~.XXXX X~.~. X|.T.I.T.!.~.E.~.|. XXX~.XX~.oXXX1X~.oXoX1X1XT.XXcXVXMX~.XX X%XoXE.!.~.E.E.&X%XXXXX X&X X!.2X*X&XXXXX=X*X X.X|.&X&XXX:X&X&X&X&X&X%X;X X*X X XR.L.R. X&X@X[.$X$X}.;X$X&X}.[.&X&X&X&X&X[.[.E.E.{.E.{..X}.$X.XR.$X&X&X4X&X&X>XjXxXmXMXmXmXxXcXjXkX4X4X>X6X6X2X4X9X5X2X2X2X~.2X1XUX1X1X5X3X4X2X4X4X9X5X8X5X5X5X5XxXcX1XkX8XcXMXVXNXVXNXNX5XkX8XcXcXxXzX4XxXxXzX8X8XzXkX8X0XlXzXzXkXMXlXzXBXzXzXlXzXMX8XMXMX0XMX9X8X4X8X9X8X8X9X5X8X9X&X2X:X{.D.].2.V * * * < < < 2 2 < 3 < 3 2 2 3 6 4 t q y i n W U i 5 5 5 5 5 2 2 2 M W W U ~ h.U.}.[..X;X&X&X.X{.&X&X|.*X*XE.&X4X2X:X>X=X:X{.=X>X7X>X:X=X7X:X7X4X:X7X&X7X&X;X:X7X8X4X9X8X1X=X4X3X3X0XXXT.T.~.XX0X X~.4X%X~.%X$XXX1X%XW.W.9X1X$X9X X1X!.Q.$X$X%X1X&X$X%X=X%X!.!.!.E.Y.~.~.T.W.W.E. X%X#X%X1X!.W.!.W.{.{.R.W.$X&X{.$X&X$X~.!. X~.~.9X3X1X1X1X!.%X$XT.T.T.%X$X#X%XW.#X$X$X$X=X=X%X=X-X=X=X=X-X$X:X:X9X8X0X:X=X:X:X:X&X-X:X=X,X=X$X$X$X9X=X=X=X%X&X=X9X=X%X=X%X$XW.%X%X=X:X:X-X#X=X-X=X$X-X=X=X=X1X9X%X1X1X1X1X1X1X*X1X1X:X=X=X&X7X:X7X7X7X:X=X&X&X:X4X2X1X5XcXVXVXxXzX5X2X5X*X4X7X9X4X4X=X4X3X3X8X1XXX X&XW.[.:X:X>XkX:X>X4X>X4X:X>X7X7X7X:X:X:X7X:X:X;X2X2X&X;X4X3X:X2X&X2X2X:X7X7X>X8X>X;X>X:X&X;X&X>X;X2X;X6X:X;X2X6X;X>X6X6X2X;X6X4X;X}.P.[.|.|.UXXX>X>X2X&X;X;XXX;X;X.X;X>X;X2XXX>XXXoXoXoX|. X|..X.XoXI.XX*X&XoX[.[.I.|.P.P.}.}.[.P.[.}.{.[.R.}.&X{.[.].R.D.R.P.I.}.P.S.S.I.C.S.F.S.F.[.S.S.S.P.S.S.S.S.z.f.S.c.c.z.x.V.k.h.h.>.>.$.c.>.$.h.j.j.x.l.x.l.v.v.K.v.c.n.K.U.P.S.V.k.S.G.x.c.S.c.k.S.c.k.V.S.S.S.n.m.m.c.k.f.c.G.k.x.k.k.h.f.h.f.$.$.>.>.>.>.e.>.k.k.e.k.g.g.k.k.k.k.>.k.k.k.k.k.h.k.f.=.d.>.d.>.h.g.k.",
"R.L.E.{.R.V.L.[.XX[.UX2XoX~.K.[.oX].~.~.K.b.~.I.J.6.J.4.J.b.~.J.b.~.~.~.~.~.~.~.~.%X XXX XI.~.~.H.~.~.XXT. X~.2X XXX X1X~.XX~.XX X1X~.~.~.2XcXNX5X~.%X X~.~.H. XE.E.~.%X X&X X X*X&X~.oX%X2X%XXX{.>X.X X{.{.*X;X&X{.;X*X*X*X&X1X%X*X XE.R.R.L.{.{.E.#X{.}.&X=X}.=X$X}.{.&X&X&X$X&X$X[.R.[.[.{.{.#X}.&X;X.X X.X>X:X&X&X>XlXxXnXNXxXnXnXcX6XOX;X=X*XXX2XoX*X3X2XXX1XXX1XXX1X1X1X5X8X XoX*X1X*X&X&X1X1X1XXX1X1XXX5X~.~.J.5X2X5XcX8X*X%X X1XcX1X1X%X4X9X3X2X8XzX8X8XzXzXzXkX8X0X-X9X0XzXzX:X0XzXzXzX8X0XzX8XzXzX0XzX8X0X4X0XxXzXzX8X7XkX&X:XK.@.d d * 3 < 3 3 3 3 2 3 3 1 3 4 t t w t w p M Q t.t.N w w 5 5 2 2 2 E ] 8.U ] c.L.}.|.oX.X>X.X&X.X&X.X X&X3X4X2X8XzX*XzX:X:X2X=X8X8X=X>X7X:XzX:X:X:X&X&X;X&X:X7X4X7X7X4X4X*X2X1X%X3X1XXX~.H.I.1X%X%X%X1XXXXX X!.!.%XXX!. X1X=X1X9X%X1X1X!.$X%X!.%X#X=X$X$X1X!.%X!.!.Q.W.T.E.#X!.!.!.%X%X$X1X%X$X XW.$X#X$X{.$X$X$X$X$X~. XT.!.~.1X0X8X X1X X%X1X!.~.1XQ. X!. X#X*X=XW.%X-X%X%X=X=X9X=X%X9X$X$X-X=X:X:X:X0X:X:X0X:X:X-X:X{.=X9X$X#X$X=X{.Y.T.=X%X9X$XW.E.%X=X=X$X:X=X:X=X#X&X=X9X=X=X&X=X=X=X:X1X0X X%X1X~.XX1X*X*X*XXX&X&XkX7X7X:X7X&X:X4X4X4X:X&X4X7X2X5X5X2X5X5X*X5X2X*X3X3X8X:X=X>X4X:X9X4X*X1X1X X&X{.&X{.&X=X4X=X:X2X;X;X:X4X7X4X:X:X>X:X>X4X.X&X>X=X;X2X:X>X4X:X2X7X4X>X:X>X:X:X&X;X,X;X:X;X7X:X&X4X=X:X>X:X6X2X>X&X;X.X;X2X2X>X.XoXI.I.[.I.P.[.;X;X.X}.|.oX;X.X.X>X&X;X>X*X;XoXXX.XoXE.|.oXoXoXoXoXoXoX|.}.|.XX8X.X|.P.}.[.R.}.[.}.[.{.R.[.}.#X}.[.E.@X].P.S.L.P.P.S.S.P.S.P.h.V.S.F.S.F.S.F.G.S.V.D.F.G.c.c.h.>.c.V.V.,.h.j.h.G.c.f.j.S.c.V.>.l.h.>.x.v.v.S.K.S.C.K.S.S.c.c.c.x.S.x.S.c.k.m.h.k.S.m.m.F.k.G.m.S.h.k.m.m.m.z.k.h.z.$.$.>.$.#.' $.$.>.$.>.k.$.>.>.e.f.k.>.k.>.d.d.k.>.x.h.h.f.f.f.f.d.>.g.f.f.f.",
"P.{.R.P.P.Z.P.[.~.P.P.v.E.|.P.|.UXXXI.b.L.C.b.b.b.J.b.T.J.b.b.J.H.~.~.I.Y.~.~.~.~.~. X~.~.~.P.Y.L.~.~.L.~.~. X5XXXXX XXX X%X~.oX~.~.~.oX~..X6XcX1XXXT. X X~.b.L.%X XE.~.*XXXXX X!.~.&X&X!.|.|.XXoX~. XXXoX~.|.1XXX XXX*X X%X*X=X*X1X X XP.T.K.P.R. X XE.&X&X=X.X.X{.E.{.&X.X$X[.[.{.&X[.R.}.E. X X*X%X&X&X&X2X&X2X6X>X6XlXnXcXlXmXcXcXcXjX5X4X*XXX*XoXXX~. XXXXX2X&X*X*XXX1X*XXXXXXX X&X2XXX XXX.X;X&X&X:X;X&X;X;X=X4X7XkX7XMX0X1XXX!.XX%X1X=X%X=X~.!.1X X=X&X&X=X%X%X:X&X=X&X$X:X9X&X=X=X:X4X7X*X2X3X3X*X.X=X=X4X=X3X9X=X4X:X:X:X;XR.R.D.l.( 0 d 0 a t 3 3 3 3 3 2 4 4 q t y t w y p n 9.t.t.W N 9 5 9 5 5 5 E 0.w.] ] c.}.;X>X;X;X2X4X8XkX:X:X7X=X4X8X8XzXzXMX8X8X8XzX7XNX7X4X4X4X3X3X3X9X8X1X*X&X&X9X8X:X:X&X*X2X*X&X%X*XMXzX9X X~. X1XXX3X%X~.1X!.~.3X1X%X1X!.1X=X X~.=X9X=XW.!.W.$X*X%X$XQ.W.$X$X#XW.R.W.%XY.#X{.#X!.$X$X=X1X1X%X1X1X=X1X$X$X*XW.&X%X-X&X$XW.#X#X$X=X XzXMX1X%X*X X$X%X%X!.W.!.T.9X{.#XQ.$X$XW.$X=X=X=X0X=X=X$XE.#X%X=X:X=X=X7X:XzX,X9X%X=X=X:X{.$X:X=XMX:X=X$X=X=X:X9X$X&X-X=X9X=X=X$X-X9X$X=X$X9X9X0X=X=X=X:X,X0X:X=X=X:X=X=X=X:X&X*XW.&X1X&X2X*X4X4X8X3X9X>X&X=X2X3X8X7X4X4X8X2X5X3X4X3X8X*X8X*X:X;X4X=X=X4X7X4X4X:X3X4X$X&X{.&X;X&XkX=X6X4X4X;X4X4X>X;X:X:X:X=X;X;X.X>X4X>X:X;X6X7X:X:X4X9X7X&X>X.X&X;X:X;X&X.X:X:X>X;X*X>X:X&X&X&X4X>X>X;X;X:X;X>X2X&XXXXX[.K.L.P.|.*X.X}.P.[.}..X;X.X.X.X;X>X;X6XOXXX*X|.[.oX[.|.|.|.oX[.I.|.|.|.~.].|.|.~.P.I.|.I.n.S.D.}.}.[.[.R.@XR.}.R.D.R.[.D.R.F.I.P.C.S.I.P.S.c.I.[.S.S.S.D.S.S.c.D.F.S.z.z.c.k.j.z.c.h.$.j.3.h.h.G.S.c.j.h.h.c.V.x.P.S.m.c.S.F.m.c.F.S.c.c.c.x.l.x.k.c.k.V.c.x.S.c.c.c.V.c.x.V.k.k.c.k.k.j.k.j.h.>.| $.#.X.@.( ( #.>.f.>.>.$.$.h.h.>.f.k.f.d.k.k.>.k.k.f.k.k.d.$.e.d.g.>.g.k.",
"R.{.R.P.D.R.P.S.K.I.XXXXoX XP.oXXX~.~.I.oX~.J.4.b.b.b.T.I.L.T.T.Y. X X~. X%XXX~.XX~.~.~.~.~.T.~.~.I.~.T.T.~.1X~.~.~.~. XXX2X9XoXXX1X~.~.~.1X5XXXxX1X~.~.~.~.I.L.XX X X XE.E.E.~.XX~.R.W.~. X XoX|.2XXX1X2X XoXoX*X XXX*X=X1XXX2X&X*X&X*X~.P.H.E. X X|. X2X*X2X XW.{.[.&X{.&X{.&X>X-X}.$XR.{.$X{..X X~.$X X|.XX&X;X;X&X&XkXlXnXjXcXnXAXnXnXjX6X*X XUX%XXX X2X2X2X*X XoX&X&X*X=X&X8X&XoX*X1X&X X&X.X&X{.&X&X:X X&X X X=X=X4X7XkXlXXX%X%X XXX&X%X X%X$X!.~. X%X!.=X1X&X%X X*X&X%X&X:X9X=X=X=X=X9X#X&X$X=X&X3X$X&X%X%X$X&X&X&XW.R.{.&X#X{.P.D.x.k.! 0 p w.] 6 < 3 2 3 3 4 4 q t t y y w y a E 7.t.W E D p 9 5 5 5 i w.8.E ] m.&X>X7XlXlX8XxXMXxXxXxXzXlX;XlX&X2XlXxXkXMXlX7XMXMXzXzX0X8XzXMXMXMXMXxX8XzXlXzXzX8X8XkX8X0X9X4X8XzXMXMXMX3X1X1X1X1X%X1X1X9X9X%XMX X1X9X%X~.1X=X X=X%X!.%X$X$X=X=X=X#X-XW.$XW.$X XW.W.#X:X%X#X$X$XR.W.-X1X!.=X1X1X=X=X X=X=X=X=X%X%X=X{.:X-X&X&X&X4XMXMX1X%X%X1X X$X X%X=X!.!.%XW.#X#X$X%X=X%X&X9X9X=X-X$X=X-X&X=X:X=X:X=X:X:X:X0X0X:X=X%X:X-X$X9X$X=X:X=X-X:X=X=X0X9X=X7X9X=X=X=X=X4X=X0X4X=X=X=X=X&X&X=X0X9X9X8X:X:X=X:X&X:X&X:X:X&X2X4X3X&X2X7X7X2X3X4X=X2X4X8X4X9X4X4X2X4X8X8X8X4X4X&X2X2X0X4X5X8X=X4X7X7X:X&X$X=X:X>X=X{.&X&X7XjX&X:X4X:X;X;X;X;X;X>X7X;X&X;X;X;X;X:X:X6X4X;X8X2X2X4X>X:X>X;X,X=X&X:X&X$X}.>X&X,X&XoX=X:X}.}.&X&X.X;X.X>X&X2X&X;XXXOX*X|.[.K.[.XXUX|.I.P.P..X;X.X.X;XoXoX;XoXoXXXoXXXI.[.[.[.|.I.~.oX|.|.L.|.].P.K.K.K.n.P.P.I.C.v.S.D.P.R.[.R.[.].[.R.].F.F.F.S.D.S.L.P.F.F.S.c.C.S.].I.c.c.F.S.S.S.V.D.F.F.G.S.$.e.j.j.f.$.h.z.c.c.D.h.,.c.j.l.j.h.S.E.m.z.z.z.c.G.S.z.S.C.S.c.S.k.S.V.l.c.j.c.c.x.S.S.c.c.m.m.G.V.k.j.k.c.j.c.k.k.f.$.%.X.#.@.X.+.` #.f.h.$.e.$.>.>.$.$.h.>.;.$.$.>.>.k.>.x.k.>.>.$.$.d.$.f.g.>.",
"{..XD.C.L.L.{.D.b.1.P.*XoXE.E.|.XXI.I.~.~.J.<.XXK.b.b.L.J.~.J.L.!.~.E.~.T.~.~.T.!.XX*XE.K.L.~.L.~.E.T.~.~.~. XXX~.XX%X2XXX X X%X~.oX~. X1X4X8XkX8X9XoXT.~.XXL.~.P.L.P.&X%X~.R.P. X X~.R. X XoX XXX~.|.XX1XoX%XoX1XoX3X%X&X*X*X X*X=X1X*X&X%XP.T.E.E.E. X&X:X&XE. X[.{..X:X;X&X=X&X&X&X&X$X{.$X&X X1XXX X$X1X&X;X7X:X;X=X>X:XcXkXcXnXxXcXcXjX2X2X%X%X1X~.XX%X%X1X&X*X1X=XXX~.%XoX*X X X%X$X X X X X&X:X;X:X;X{.&X&X&X&X>X:X:X8XzX1X%X%X=X%X1X1X!.%X%X X!.$X%X X%X1X$X%X1X=X%X=X=X*X9X:X#X&X$X%X=X#X$X XW.=X$X$X&XW.$X*XW.$X$X-X=X&X-X{.{.P.D.c.h.X.V Y w.] c 0 0 2 3 4 q w y y y w y w y m n D D Y D D m 5 5 5 5 Y { E W k.F.[.:X&X2XXXXX4X*X3X:X X2X4X2X2XkX4XkXlXlX8X9X=X>X&X=X1X3X9X8XkX8X0X0X4XzXxXMXzX7X9XMX8XNXMXMXMXzXMXcXzXMX0X0X0XMXzXMXMXzX9X8X0X0X0XzX9X0X0X0X9X8X0X8X0XzX0X0X0X8X1X1X9X=X=X=X=X1X4X=X9XMX9X$XW.$X&X$X=X$X1XW.3X1X1X=X1X9X=X=X&X#X%X=X=X:X=X=X8XMXVXMX0X3X1X1X&XW.4X-X1X!.$XW.#X7X-X=X$X%X:X$X=X=X=X=X&X=X=X:X&X=X9X9X=X=X:X&X9X&X%X#X$X%XW.%X-X#X&X$X-X=X=X:X9X=X=X=X8X0X4X-X=X:X=X=X$X$X=X-X$X&X$X$X=X9X=X9X=X:X:X:X&X7X&X$X7X2X{.*X*X3X*X*X8X4X8X4X7X2X3X&X2X3X4X4X4X4X3X2X4X4X4X5X8X3X4XVXNX4X4X8X3X3X7X:X:X&X&X4X7X:X7X:X4X>XkX=X:X2X:X:X&X>X:X;X&X&X;X>X;X&X:X>X=X&X=X;X4X.X4X;X2X>X:X&X;X;X=X;X&X&X&X;X&X}.&X;X&X;X&X[.[.&X.XD.F.I..X&X&XoX;XoXXX2XOX.XoX~.XX[.I.E.E.oX|.;X|.|..XoXoXoX|.}.oXoXoX|.I.P.I.P.I.L.I.L.I.K.C.K.C.K.K.I.I.I.P.L.L.n.V.S.S.D.F.F.F.].].F.j.S.D.@XF.S.P.S.C.v.S.z.x.S.P.P.P.C.V.S.S.D.D.F.F.V.S.S.c.V.S.$.` #.j.j.h.h.h.c.c.$.,.z.c.C.h.c.C.G.S.D.F.z.z.j.x.S.x.C.h.c.f.m.V.S.k.l.c.c.S.S.S.m.m.c.c.c.V.x.k.h.k.c.c.G.j.$.+.+.#.+.#.( +.#.%.>.$.$.,.h.k.j.h.h.,.>.#.#.+.#.$.k.f.h.h.f.k.d.$.d.>.d.f.$.",
"D.E.R.D.c.C.P.P.K.E.Y.P.P.P.oXE.~.v.].~.1X~.T.%X~.b.L.T.H.P.J.b.!. X X!.~.E.I.~.~.!.XXT.L.T.H.I.~.~.T.~.I.oXoX~.2X%X~.%X~.XX1XoXE.~.~.~.XX3XNXVX5X1X XXX~.~.L.~.T.E.T.E. XXX X=XR.oX X1XXX1X X X*X%X1X~.XX~.1XoX4X3X2X X=XXX&X*X5X&X2X&X X XT.K.P.~. X%X X XE.E.W.E.&X:X;X&X:X}.{.}.&X$X{.{.{.&X|. X XoX X X&X2XMXjX6X.X.X;XjXjXjXjXkXnXUX5X2XXXXX%XXX X%X1X5X%X*X=X2X2XXX=X*X XXX X%XXXXX%XXX X{.&X&X:X:X:X&X}.;X.X&X&X:X:XlXzX*XXX*X1X=X%X%X1X%X X#X$X!.!.!.%X%X!.!.$X$X=X%X$X=X=X=X*X%X!.%X1X X$X=X$X*XW.#X=X1X*X$X&X=X*X%X=X-X&X=XW.Y.P.D.V.x.$.V 7.q.q.i 2 3 2 3 q w w w w q 6 w w 4 7 u m D B N E 5 3 5 5 i 0.Y Y k.@X}.}.;X;X3X1X1X%X3X4X4X4X8XkX2X7X8X4X7XkXlXxXcX7X2X=X3X%X8X3X3X9X4X3X9X4X=X4X>X:X:X7XoX1XXXoX1X=X&X9X0XxX0X0X8X8X1X0XzX0X8X0XzX9X5X0XzX0X0X0X0X0X9X0X0X9X8X9X0XMXMXzXzXMXMX0XzXMX0X0XMXzX0X0XzX0X0X9XzXMX0XMX0XzX0X0XMX0X0X0X9X0XzX8X0X0XzXMXVXMXMXMXVX8X9X1X=X=X=X:X*X=X=X=X9XMX=X=X=X:X=X-X=X$X$X-X&X-X&X#X$X%XW.,X#X{.&X$X-X$X{.&X=XR.=X=X$X#X=X=X:X0X0X:X=X=X=X:X&X=X9X=X9X0X=X&X&X%X=X4X&X-X$X-X7X=X=X:X:X7X9X:X&X:XkXkX&X4X2X2X2X8X8X5X2X:X4X4X2X2X.X=X*X2X9X5X*X=X*X4X2X2X3X2X2X8X9XMXVX4X2X1X:X>X;X=X&X>X$X:X:X.X:X>X:XkXiX&X>X4X=X>X4X2X=X&X>X=X7X>X;X:X&X:X>X6X>X2X;X;X>X2X:X&X>X&X4X.X>X:X}.;X&X}.&X;X&X;X;X.X;X[.}.[.E.}.L.[.;X;XXX;XXXXXoX.XXX2XoXXXXXoXoX|.F.I.I.[.}.[.E.}.|.XXoX|.|.|.P.I.I.v.b.n.K.n.v.v.v.v.x.K.K.K.P.I.I.P.I.U.S.b.j.f.c.S.D.D.D.D.D.G.S.D.D.D.F.D.n.P.S.c.l.C.c.x.S.P.F.S.S.S.S.S.F.D.D.D.h.j.k.c.k.` ` @.k.h.c.z.h.3.k.3.h.h.h.c.k.c.c.c.c.h.h.x.k.,.c.V.S.h.k.c.V.C.c.c.h.h.m.V.c.V.c.S.j.c.k.c.c.k.h.j.N.h.k.k.h.$.` +.+.( $.#.( X.$.$.$.h.$.j.e.j.h.$.>.>.` ` $.$.>.>.$.f.g.f.$.$.$.$.$.d.>.>.",
"E.[.P.R.S.S.E.E.|.E.oX X|.K.2.Z.b.K.~.~.J.J.L.0X1XT.$XJ.Y.J.J.b.Y.~.~. X%X~.~. X~.!.%X!.L.~.Y.!.~.~.K.~.I.~.~.oX%X5X1X~.~.1XI.~.E.~.L.J.XX5XxXMX5X1X~.~.~.L.T.~.~.P.&X X X~.XX~.XX=X~.XX=X*XXXoX XoX1X XoX~.3X%X9X1XXXXX X%X X~.1X XoX%XE.R.~.E.E.H.~. X X&X X X{.$X{.:X&X;X&X X&X}.{.#X&X&X[.&X&X|.*XE.[. X.X;XlX>XkX=X~.XX6X2X6XUXcXcXjX6XUX XXX~.XX%X~.oX2X~.%X X X%X X X&X XE.E. X X*X X XXX&X&X*X&X&X}.&X&X=X.X{.&X{.;X8XkX%XXX%X1X2X1X$X1X1X1X%X!.$X!.$X!.!. X!.%X%X=X-X=X#X&X=X=X*X$X&X$X%X9X&X-X-X=X&X{.$X&X%X=X%X$XW.H.&X=XQ.%X#XG.P.D.L.h.L S W W E < 2 < 2 q w w 6 q q q q 3 5 7 t p m n x D 9 3 5 3 t ] D Y f.].oX}.;X;X2X:X1X2X3X3X9X2X4X8X8X3X2X4X7X7XlXlX8X=X=X4X3X=X1X&X*X&X3X*X1X3X1X2X=X=X4X=X1X1X2X1X1X8X2X0XMXMX0X1X1X1X%X1X1X1X1X=X9X1X=X&X&X=X$X1X=X=X:X=X1X$X1X*X1X1X1X%X-X=X=X=X=X:X9X9X9X:X=X=X:X9X=X=XzX0X9X=X4X9X8X0XzX0X0X0XMX0XMXMXMXzXMXMXMXMXlXMXMXMXNXMXMXMXMXMXMXMXzXMXMXMX9XMXMXMXMXNXMXMXMXzXMX0XMX0X0X0X:X:X:X0X9X:X9X0X=X%X=X=X=X=X0X=X9X=X:X0X9X9X9X-X=X-X=X=X-X&X-X=X-X9X=X=X=X9XzXzX,X9X7X=X=X0X0X0X9XlX7XMXMXMXMXMXMX5X8X4X8X1X8X8X0X4X7X&X2X;X4X&X3XXX;X4X*X*X3X1X;X1X&X8X4X4XxX4X2X*X*X2X:X:X:X8X:X&X=X&X:X7X8X7XkX:X8X8X6X4X4X4X{.=X:X,X7X>X8X:X4X:X4X=X2X4X4X>X*X&X;X=X;X&X;X4X:X>X&X&X&X&X&X&X{..X[.$X}.&XC.@XD.R.&X;XoX.XXX|.XXXXXXoXoXoX~.|.oX~.[.|.I.I.oXR.[.P.].}.[.|.|.].|.[.oXI.~.K.l.l.l.x.K.b.K.v.S.P.U.E.[.|.[.C.l.S.K.v.S.C.S.R.S.S.F.S.D.F.S.c.S.c.c.S.c.S.S.F.c.S.C.c.z.P.S.L.S.S.V.S.F.D.F.S.$.>.z.c.$.#.+.( h.z.G.h.$.h.j.h.c.j.j.j.k.l.h.j.h.z.z.V.f.h.h.N.S.D.h.j.h.z.z.j.h.j.l.l.V.S.V.S.j.k.h.c.h.f.$.h.h.k.c.h.h.$.#.X.( +.>.%.%.+.` $.h.>.h.k.d.$.$.3.$.$.$.%.%. .>.d.>.k.g.d.$.#.| $.$.$.d.$.",
"[.R.@XZ.D.D.{.L..XXX&XXX|.P.XXoX~.~.oX~.~.oX%X3X2XE.H.V.H.K.Z.B.~.%XT.~.%X!.P.~.T. X~.P.J.P.Y.XX~.T.H.~.~.~.~.~.~.~. XUXoX1X1XP.oX X*X~.XX2XVXVX5X1X%X*X*X%X~.~. X~.E.%X*X%XXX X%X X X&X1X2X1XXX X XXX%X XXX1XI.~. X~.%X XXXXX X XXX&X1X!.P.R.L.P.V.1. X*X*X=X8X>X=X&X;X{. X.X X{.{.[.$X&X}.&X&X;X=X=X{.=X=X X;X=X>XjX;XoXoXOX.X6XUX6XjX5XoX X~.%X~.%X~.~.~.~.%X XE.E.P. X*X{.{.~. X XE.*X|.R. X=X|.=X&X&X&X$X&X&X;X&X&X.X.X;XkX X X1X%X%X1X1X$X%X$X%X~. X!.%X!.W.%X%X=X=X=X*X&X$X=X=X$X#X=X$X=X=X=X$X X:X=X&X$X&X-X=X=X=X=X&X:X%X&X&X$X#X$X$X{.P.z...W U W E < 2 < 0 2 q w q 2 4 3 4 4 3 4 4 6 7 M D p 3 5 3 5 7 ~ D E f.].}.XXoX.X&X=X*X*XoX*X2X2XkXzX5X5X4X5X8XxX8XkXkX>X2X:X=X*XoX=X1X X=X;X3X1X1X%X=X=X1X*X1X1X1X9X3X2X=X8XzXxX1X X%XXX%XXX X%XXX$X3X&X*X=X9X$X%X1X=X=X9X=X=X$X=X%X1X1X1X1X%X%X$X%X&X&X$X$X-X-X:X-X-X%X-X$X-X-X%X%X*X=X$X$X$X$X$X&XW.-X=X=X&X$X-X-X-X-X=X%X%X%X1X1X9X#X-X=X%X$X-X1X-X-X#X=X=X9XlX=X8X8XzXzXlX0X0XzXzXzXzXzXMXzXzX9XMXzXzX{.9XMXMX0XMXzXMXMXMXMXMXMXMX0XMXMXzX0XMXMXMXMXMXMXMXMXzXMXMX0XMXzXMX8XVXNXNXBXzXNXMXxXMX2XkX8XkXzXxXzX8X8XcXxXMXzXkXzX9X4X4X4X3X1X4X8X2X2XXX1X2X2X;X4X3X8X4X2X&X2X2X=X2X:X:X7X4X{.}.=X>X:X:X7XkX>X2X7X7X4XkXkX4X8XkXkXkX:X:XkX>X4X4X:X&X;X&X:X:X;X&X>X>X;X X&X&X&X;X,X;X:X>X&X.XoX:X:X}.$XR.].}.{.&X.X|.oXoX XXXoXI.~.I.oX|.~.oXoXI.P.P.[.P.].].S.P.[.}.E.|.I.K.K.P.K.P.K.v.C.K.v.K.I.P.L.P.I.P.P.I.I.I.S.l.v.K.1.c.S.S.F.S.S.V.V.c.x.G.S.V.F.z.S.F.z.F.C.S.F.f.P.I.F.P.S.S.S.S.V.S.P.F.P.x.G.c.$.j.#.+.( h.j.h.>.j.h.z.h.>.$.j.f.h.h.e.$.h.$.k.c.G.c.c.k.l.x.z.h.l.x.h.k.j.c.S.c.l.c.k.V.j.c.j.j.j.3.1.h.h.h.f.%.3.#.+.%.+.+.$.#.+.+.$.>.$.%.$.3.>.$.$.#.$.$.#.+.( ` >.#.$.>.$.#.$...$.d.#.d.e.d.",
"D.D.Y.{.L.E.W.P.P.E.oX2XE.*X&XE.oX|.UX~.K.~.~.%X%XL.H.Y.Y.H.B.C.H.XX1X9X9XI.~.T.E.E.!.~.K.H.T.K.~.XX~.H.~.T.~.~.XXoX3X~. XI. X~.~.~.XX~.~.UXxXMX5X1X~.oXoX~.I.b.L.R.|.E. X%X*X=X*X!.E. X1X1X%X~.~.XXXX X X~.~.XXXXoXoX XR. X~. X%X*X*XXX X~.K.P.P.L.P.T.E. XE.>X:X7X:XlX4X:X;X&X{.{.&X[.[.&X&X=X&X4X.X&X*X2X;XXX XoX&X;XXX.X*X|.|.OX[.I.UX3XXX X~. XXX~.~.~.oX X XE.S.L.E.=X:XE.R.~. X X X X~.W.{.E..X&X&X&X{.&X&X&X.X{.&X=X:XzX1X%X=X XXX1X=X1X%X#X X%X%X!.$X!.%X%X=X=X&X=X=X=X%X%X&X%X%X&X%X%X-X=X%X%X%X-X=X$X$X%X9X&X%X%X=X=X-X#X$XW.R.W.$XE.W.c.} ] q x p 5 0 2 4 q q q 4 4 3 4 3 5 5 4 6 6 t D D 7 3 5 5 5 2 i S E x.U.].OX;XOX>X:X>X4XlXkXlXkXNXlXkX5X8X8XkXkXlX2X4X:X&X=X&X3X*X&X*X X&X=X1X1X9X1X1X1X*X1X1X X=X2X=X3X9X7XzX0X1X%XXX%X1X%X&X%X1X=X1X1X=X$X=X%X*X$X%X$X=X=X1X$X$X~.!.%X%X%X-X$X&X%X=X$X{.$X&X=X$X=X$X=X!.=XW.$X%X$X X*X%X&X$X&X{.&X-X$X-X:X=X-X-X=X$X$XW.$X1X#X1X-X-X-X-X-X1X9X9X-X=X=X=X#X9X=X=X#XW.=X-X=X=X:X-X&X-X=X=X=X-X,X&X&X=X=X9X-X4X$X$X#X-X-XW.$X,X=X1X=X9X0X=X=X=X-X-X0X9X=X=X9X=X=X=X-X#X$X{.0XMX9XMXzXMXMXlX0XkX7X8XzXzXzX2X8X8XzX8X8X0XMXMXzXzXzXzXzXzXMXxXNXMXMXMXzXMXzXcXzXMXxXzXzXzX8XzX0XkXzX8XlXlX7X8XkXzX:XkXkXBXxXkX:XkXkXlX7XkX7X7XlXlXlX7XkXiX7X>X=X>X;X6X4X>X8X;X=X4X:X&X&X,X>X=X>X6X>X=X4X>X=X&X}.{.,X}.[.[.&X{.#X.X|.XXXXE.|.|.E.~.I.~.[.K.L.oX~.~.|.~.|.I.E.I.F.L.F.P.K.|.K.C.K.v.K.~.P.v.P.L.I.K.P.P.U.P.P.D.P.P.U.v.c.v.K.S.C.S.C.c.z.c.S.S.c.C.h.V.h.S.G.c.j.S.S.C.n.C.C.S.n.S.S.I.F.S.S.V.m.G.S.S.F.D.].N.k.j.c.h.h.h.h.>.h.h.j.j.#.h.j.h.h.$.3.h.h.z.h.e.f.c.j.3.f.j.h.z.f.h.c.1.z.,.h.h.c.V.S.S.z.e.h.h.h.h.,.,.h.h.j.h.$.#.$.` %.+.+.#.#.' #.h.$.$.h.1.>.$.$.#.#.$.#.+.( ` #.$.X.$.$.$.$.$.$.$.$.$.$.d.d.",
"[.E.j.R.D.|..XXX X|.R.W.R.K.P.R.XXoXXXoX~.~. X2X*XJ.K.b.Y.B.V.b.B.T.~. X!.~.T.L.~.H.XXJ.B.~.~.~.T.Y.I.E.~.I.~.~.~.XX1X%X|.~.~.L.J.~.4X~.1X9XVXVX1XXX~.~.~.~.~.T.P.C.T.*XE.E.*X X&XXX X~.oXXX*X XoX~.~.~.|.~.~.~.%X~. X~. X%X&XE. X XT.E.XX~.T.T.~.Z.N.P.E.E.Y.P.{.&X>X7X>X.X2X*X#X}.kX&X>XkX>X>X4X6X&X&X X>X8X&X&X=X6X8X3X2XI.P.I.I.].I.1.v.~.T.~.~. X~.~.XX~.L.P.|.Z.b.T.|..X{.E.R.~.E.E. X*X XR. X|. X.X$X&X:X;X{..X{.&X,X:XkX%XXX!.XX%X%X X%X%X$X$X$X1X$X%X%X$X=X=X=X=X%X=X=X*X-X=X%X*X$X%X$X{.W.$X&X%X%X X=X:X$X=X=X%X%X$X=X$X{.W.E.R.{.R.Y.S.f.[ m , < & < < 2 2 2 q 2 0 2 3 4 3 4 3 3 4 6 7 7 y 7 w 3 5 5 2 2 4 D x.].}.oX;X;X>XkX4XjXlXcXlXxXzX8X5X8X4X8XzXkX8X&X=X*X4X8X*X=X*X X=X3X=X=X1X1X1X1X1X1X%X1X#XXX=X=X*X*X:X7XzX1X1X1XXX%X1X%X$X*X=X*X%X%X%X$X&X-X=X=X=X3X=X$X#X1X%X1X1X!.%X1X%X=X=X&X=X#X{.-X$X-X=X-X=X=X*X=X-X=X=X%X$X%X$X!.#X#X=X=X=X&X$X$X=X&X#X$X-X=X-X=X1X#X-X#X=X#X-X-X-X-X-X-X$X-X&X%X%X-X%X-X=X$X&X-X-X-X:X-X=X:X=X$XW.!.&X=X-X=X:X-X,X&X#X#X$X#X&X=X#X#X=X=X=X1X=X=X=X:X-X9X=X=X=X0X=X=X=XMXzX:X:X0X9X:X=X9X0XzXzXMX0XlXzX8X3X5X8X4X8X8XcX8X8XxX8XzX8X8X4X4X8X8X0XzXzXxXkXzXcX0XzXzX8X8X8XzX8X8X8X8XxXzX8X=X:X9X7X7X:XkX7X7X9X:XkX:XzXlXxXzXkXlXlXxXzXzXkXzXkXMXzXMXxXxXxXzXkXlX8XxXkXlXjX7X>X:X:X:X4X7X>X:X:X:X,XkX7X>X;X#X}.:X>X;X&X.X>X&X XoX.XE.|.XX|.I.|.~.oXoX|.U.U.XX[.}.|.P.P.P.I.I.P.I.oX].K.K.n.K.I.P.I.I.P.I.I.I.L.K.C.V.v.v.v.c.c.S.C.l.S.S.c.S.F.G.F.c.c.S.m.F.V.m.S.V.h.x.S.S.S.c.>.c.I.F.S.S.m.G.m.V.S.F.V.V.z.j.c.h.k.j.h.j.j.V.>.,.j.>.$.1.h.c.l.j.c.c.h.$.h.c.j.$.$.h.h.h.h.h.1.h.h.l.j.h.,.h.h.h.c.V.z.h.f.f.f.k.h.$.$.e.$.$.#.#.$.>.$.#.@.X.+.#.#.>.h.%.$.h.3.$.$.%.$.#.#.$.+.+.$.$.+._ | ` | | $.| $.$.$.>.$.$.",
"R.{.j.D.D.C.L.&X&X[.{.:X{.[.R. X~.E.~.I.J.P.K.J. X~.T.T.J.J.B.J.H.E.L.T.~.~.%XI.~.J.~.~.~.~.XXT.~.1X XH.1XP.~.P.E.&X X=X:X=X$X~.T.=X XR.4X:XVX:X2XXX%X X~.~.~.I.H.I.H.~.~.~. X~. XoXE.oX X&XoXW.~.~. X~.~. X[.%X X X XoX%X&X&XXXXX XE.~.~.%XY.P.E.E.I.!.~.Y.H.H.E.W.&X2X4XcXkXkX6X;X;X;X>X;X4X;XjX7X:X>X:X;X&X:X~.~.XX*XoX~.E.P.K.K.v.v.P.E.P. X X%X%XL.E.H.T.I.D.$XB.V.N.D.#XW.E.W.W.W.W.#X{.Q.E.W.$X{.$X$X=X&X#X{.#X$X&X,X8X0X!.&X~.$X=X1X=X1X%X1X%X1X%X!.$X%X$X9X-X=X*X=X=X&X&X&X=X-X$X$X-X=X=X=X-X$X-X#X$X{.!.$X1X1X=X-X=X%X#X&XR.W.~.!.|.I.v./ / 3 < < & * < < 0 2 2 2 2 2 2 0 2 2 2 4 4 4 4 t 4 6 q 6 4 3 2 2 < a d.}.jXjXjXxXlX7XMXlXMX>XBXNXNX9X5X5X1X1X7X4X3X:X1X=X:X9X=X=X,X-X-X$X,X=X%XXX1X%X%X1X1X1X1X1X%X1X:X:X3X0XMX1X%X%X1X!.1X1X%X$X1X%X%X=X=X$X$X$X-X$X1X%X#X%X#X#X#X#X#X%X#X%X=X-X$X-X=X-X$X$X#X$X%X-X&X%X#X#X%X#X=X$X=X-X=X=X:X=X$X=X=X=X$X=X$X=XW.-X=X%X-X$X-X#X#X=X$X-X$X$X-X-X#X#X$X%X%X=X$X=X-X:X$X=X=X=X-X$X$X=X=X=X%X=X=X%X=X-X$X=X=X%X&X$X-X#X$X#X#X&X-X$X&X-X=X=X&X-X#X&X=X-X=X=X=X-X-X:XMXMX=X=X9X=X:X:X0X:X:XxX:X8X8X:X4X$X4X8X8X2X2X2X9X8X8X8X4X4X4X2X3X3X3X4X8X0X8X5X8X*X3XzX8X2X3X4X4X4X1X4X2X8XMXMXzX8X7X:X:X:XlX=X7X7X7X:X:X>X=X;X2X4X&X*X8X2X:X>X=X4X7X:X=X>X=X&X&X>X:XkX:X:X,X>X:X&X7XkXlXzXlX7XkXiXjX7XkX>X;X;X>X9X4X4X6X2X;X4X.X2X4X7X>X2X4X4X4X2X4X>X7X6X5X*X2X4X2X*X6X2XUXUX1XUX3X2XXX*XUX*XoXXX;X.X.X}. XoX.X{.[.}.{.[.|.[.E.I.L.I.K.I.F.F.S.P.oX}.oXoXP.S.S.S.F.D.S.S.F.D.C.S.K.S.S.S.P.F.P.E.S.c.V.S.S.S.G.h.k.c.l.S.G.k.j.c.V.l.c.k.,.l.l.l.j.z.x.S.z.h.c.z.f.c.$.j.c.>.>.h.k.h.h.h.h.z.x.>.$.j.k.k.k.c.h.j.k.h.,.e.j.f.$.3.$.j.,.>.$.#.' +.$.+.#.$.' $.3.f.$.>.>.$.#.#.+.#.#.$.@.#.#.#.%.$.+.` } $.#.$.+.` +.#.#.+.",
"[.E.P.P.R.G.E.P.D.&X&X:X&X,X X XC.-.J.L.K.B.B.K.*X1X X~.K.~.W.~.Z.L.K.Y.T. X%X~.E.!.3X1X1X1X1X8X X!.~.H.~.~.T.T. XlXlX=X=X|. X~.&X~.E.{.%X>XMX.XL.1X~.~.~.H.H.Q.Y.L.L.~. X~. X X XE.W.%X X&X~.E. XI. X XoX~.XX&X.X X XE.*X X X~.%X~.R.~.~.~.T.J.!.E.H.Y.I.~.~.I.R.{..X*X6X4XjXkXcXkXlXzXcXlX4X>XjX>X;X}.&X{.W.R.H.~.~.P.Z.K.L.T.~.~.E.Z.C.V.K. X2X8X4X~.XX XQ.J.R.W.R.Y.T.H.Q.R.W.R.R.{.E.W.{.{.R.%XW.%X{.%X$X{.&X[.{.{. X&X:X0X$X$X!.$X%X!.!.!.#X$X$X%X%X#X%X%X%X=X%X=X1X=X-X$X-X=X#X-XW.W.&X$X$X$X$X#X$X-X=X-X%X X1X1X1X=X=X-X=X-XV.E.I.I.U.K.d.} V 3 < , < < * w 0 0 q 2 2 2 2 2 2 2 1 4 4 4 4 q 4 4 4 4 4 4 3 5 2 3 ! x.OX}.6XlXlX4XkX:XxXjX8XkX8X9X X1X1X X9X3X4X=X*X*X3X=X=X$X$X-X$X4X&X*X1X1X3X1X9X3X0X1X-X%X%X#XW.&X9X9XMX1X1X%X%X#X%X!.$X#X#X$X=X$XW.{.%X$X#XW.!.#X#X#X1X!.#X-XT.~.#XT.#XE.#X1X%X!.Q.T.#X!.%X#X=X-X=X#X#X%X%X$X$X$X%X&X=X=X-X=X=X$X-X=X-X%X$XW.=X:X=X=X,X-X=X=X$X=X#X-X=X-X%X&X=X{.%X=X=X=X$X-X$X#X$X=X$X$X=X=X=X$X-X#X-X&X$X$X=X=X%X-X-X&X$X$X=X=X-X$X=X-X&X$X=X-X=X:X=X:X:X=X$X=X:X=X=X=XVX0X=X0X9X=X:X=X:X=X,X:X:XkX7X:X4X:X=X>X7X3X2X:X4X4X=X*X2X4X8X4X5X3X4X4X2X2X9X2X9X4X8X5X4X4X5X3X4X4X2X3X3X4X8X8XlX8XkX7X9X4XkX:X:X>X>X:X:XkX4X4X8X4X2X*X*X2X*X=X;X;X;X;X&X;X.X;X&X:X>X:X,XkX;XOX;X>X&X7X7X>X4X>X&X>X:X&X:X2X;X.X.X.X[.&X.X=X:X>X>X:X.X7X&X;X>X[.&X.X{..X&XoXXXkX5X2X5X4X2X5X5X5X3X4XXX1X4X2X%XXX|.[.{..X;XoX{.[..X[.{.}.}.}.|.[.E.}..X>XoX.X.XXX&XoX.XoX.X.X}.R.F.R.].[.R.[.[.@XR.P.U.I.|.[.F.L.I.P.F.D.D.].D.F.I.I.n.G.D.].F.R.D.S.P.F.D.P.P.P.D.].R.F.].D.S.F.F.@XS.P.D.F.P.S.S.S.S.z.c.c.h.c.c.C.c.k.N.c.V.c.c.c.j.c.c.j.c.e.h.f.h.$.e.h.#.' h.,.G.$.$.#.$.$.$.$.$.%.$.#.$.#.#.+.%.#.#.#.#.#.;.$.$.#.+.+.+.X.#.( ( ( ( ( ",
"[.R.z.{.D.D.c.C.E.{.:X7X:X9X*X Xb.1.K.Y.H.|.J.J.*X$XH.Y.Z.E.Z.V.J.~.~.B.1X~.L.P.!. X3XzX8XMX0X*X%X~.!. X~.I.~.I. X X4XE. X X X XE.L.E.W.=XzXMX=Xb.I.J.L.^.V.Y.K.4.K.~.I.!.E.XX~. XR.E. X&X1XE.%X X|.~. X=X*X%X~. X=X X X&X X X X X XT.~.~.P.~.~.~.E.L.~. X~.~.!.W.R.E.R.E.&X2X.X&X5X>X.X>XlXxX>XkXkX}.[.|.|.oXT.~.~.H.P.b.L.%X3X3X3X*X4X XP.L. X1X5X1X%X X*X~.~.W.W.W.W.E.Q.Z.Z.T.$X$X#XW.{.{.#XW.W.&X XW.#X-X$X{.#X{.{.$X&X9XzXW. X X$X!.$X$X$X X1X!.$X!.1X%X%X-X:X=X=X9X-X-X=X=X$X$X-X$X$X=X-X-X-X$X,X=X=X:X$X#X=X=X%X#X%X-X$X-XE.Q.Y.K.U.n.x._ ! 3 3 < < < , V Y V s 2 q 0 2 2 2 2 < 3 4 6 4 3 6 4 3 4 4 4 3 3 3 3 3 G x.}.>XoX;X=X2X7X>X;X8X7X8XxX8X1X%X X1X1X2X=X3X:X X&X=X,X:X:X=X=X&X9X*X=X%X1X=X%X1X9X1X%X$X=X$X=X=X=X0XMX%X%X%X%X1X~.1X!.#X!.!.Q.Q.%XW.$X$X{.W.T.#X!.%X#X!.#X!.#X#X~.-X!.#X-X$XW.Q.Z.T.!.%X#XQ.%X-X1X#X-X$X$X$X#X$X=X$X-X9X=X:X=X=X=X$X-X$X=X1X#X$X$X=X%X%X9X-X,X=X-X-X-X-XW.#XE.%X$X1X=X=X$X=X-X-X#X$X&X=X-X$X#X=X=X=X=X=X=X=XW.=X$X$X#X-X$X-X&X0X&X&X{.$X#X=X=X-X=X$X$X=X:X9X%X9X=X=X-X=XMXzX0X0X0X,X0X:X=X0X4X:X=X:X&X:X4X:X=X4X8X2X4X3X3X2X;X8X*X X9X2X9X2X&X&X2X2X2X4X4X2X*X9X2X4X8X3X2X2X1X&X;X2X8X7X4X=X:X7X4X:XkX,X4X:X:X:X:X:X2X=X8X2X5X3X*X:X;X&X;X.X;X&X&X[.[.&X&X:X>X&X;X4X&X;X=X}.&X&X=X&X:X&X&X&X:X&X;X,X&X[.{.P.}.oX>X&XoX&X;X&X&X&X.X.XE.{.I.F.S.D.E.oX;X*X[.P.oX|.XXXXoXoXoXoX~.P.].I.~.I.K.I.[.R.[.I.P.[.[.R.[.R.D.P.[.].I.I.}.[.[.}.[.}.oX}.I.[.oX|.[.D.D.F.D.D.P.P.].P.P.P.P.P.I.P.I.I.].[.[.F.D.F.F.D.P.D.F.S.V.V.S.D.S.F.D.F.].F.R.F.P.P.F.F.[.D.].R.R.].D.P.F.F.S.x.c.S.S.F.D.F.S.C.c.S.S.c.c.V.k.S.z.k.S.F.c.z.F.S.G.c.F.c.k.V.S.c.c.c.c.k.V.l.N.G.k.h.$.$.h.>.>.>.$.#.>.#.#.$.#.$.$.$.#.#.` #.#.` +.$.#.( #.` ",
"D.P.R.R.[.D.E.&X}.$X[.;X7X2X2X X|.Z.L. X~.!.~.I.I.~.T.Y.B.J.H.L.Y.L.~. X~. XE.~.3X1X%X!.1X1X~.~. XXXH.XX~.T.~. X&X:X4X~.E. X X%X X~.E.{.&X7XMXxXC.L.L.T.Z.4.V.H.b.H.~.T.~. X X X~. X XXX*X%X&X X~.1X X1X X XXX X X X~. X*X~. X X X X~.T. X~.I.H.E.T.P.Y.E.~.~.Y.D.{.{.E.|.R.|. X>X6X>X7X>X.X}.;X[.>X7X[.I.E.T.P.I.T.K.<.P.8X8XzX8X1X~. XP.R.[. X~.~.XX~. X%XE.%X=X{.W.{.W.E.{.Y.W.W.{.$X{.W.W.W.$X XW.W.{.{.{.W.W.{.W.{. X&X7XkXW.W.!.!.$X!.!.#X~.#X!.!.T.#X#X%X$X=X-X-X=X-X=X-X$X$X$X$X$X$X,X$X=X$X-X#X-X=X=X#X=X$X%X$X%X-X=X-X$XR.L.S.n.x.=.L H 0 < * < < , a 0.g...G j 0 * 2 < < < 2 3 4 3 4 4 4 2 3 4 4 3 3 5 5 * 3 a d.].OX}.;X=X>X4X2X2X>X6X=X3X%X1X~.1X1X1X8X1X X X&X=X&X=X;X&X&X:X3XMX4X&X=X!.!.1X#X1X$X%X1X$X$X-X&X$X0XMX%X~.%X!.#X%X%X!. X$X%X%X%XW.$X$X-X&X$X#X1X-X#XQ.!.-X-X-X#X#X#X#XW.Y.!.Z.^.T.Q.#X$X#X$X#X=X-X%X#X#X-X#X$X-X-X-X=X:X-X-X=X=X$X-X$X=X%X!.-X:X-X$X%X-X-X=X-X=X1X,X=X%X#X&X-X1X=X%X#X=X=X-X=X:X:X&X=X=X:X=X-X=X-X$X=X9X$X$X%X9X-X$X=X&X$X#X#X=X-X#X$X$X$X-X&X#X#X-X$X=X=X0X-X=X,X$X#X=XVXzX0X:X9X0X0X:X4X4X9X8X8X7X7X4X:X4X3X9X4X2X3X3X2X4X5X4X2X2X5X2X3X4X4X3X2X=X2X2X8X9X8X2X8X8X*X&X2X8X8X*X2X2X7X8X4X=XlX>X7X4X=X:X7X>XkX7X>X7X&X3X3X2X2X3X2X&X&X;X{.&X;X{..XR.{.}.$X>X>X&X;X&X&X&X&X[.&X}.&X>X>X&X&X=X;X;X&X&X}..X|.[.E.{..X.XoX;X.X.X;X.X.XoX}.E.[.L.P.R.E.:XP.P.oX;X[.|.|.|.I.~.I.I.I.P.K.v.K.K.K.v.P.D.P.D.P.P.P.[.E.E.@XP.R.].P.D.K.P.P.P.L.U.I.E.P.I.E.I.F.F.D.S.P.F.S.c.D.F.P.P.S.c.S.K.S.D.P.F.R.F.S.S.V.S.F.S.V.c.c.c.z.k.D.S.F.S.V.V.S.c.S.F.V.F.V.m.S.V.c.V.c.D.S.l.l.c.C.S.D.S.P.S.c.c.c.m.h.l.c.c.z.c.S.c.V.c.z.c.c.l.j.h.z.h.c.G.h.k.f.%.j.$.f.h.h.j.h.h.c.S.V.N.c.G.c.h.k.f.j.$.$.>.$.h.$.$.h.$.>.h.f.h.3.h.$.$.",
"{.[.{.D.V.{.[.R.{.[.R.{.{. X&XE.P.E.~.E.I.~.1XL.Z.H.N.J.H.L.J.T.J.B.T.T.J.~.!.~.L.H.T.I.XX XT.T.%X9X%X~.~.~.~.E.&X.X X XE. X!.$X!.P.~.=X2X=XNXVXE.Z.z.Z.z.;.N.V.C.J.v.T.!.!.XX*X&XE. X&X2X&X X XE. X{. XR.T.XX~.{. XE.E. XE. XW.%X%XXXE.~. XT.T.!.H.L.T.~.P.T.H.Y.Y.E.E.Q.E.W.R.E.*X4XkX}..X}.>X&X4X6X6X2X4X8X0XXX X=X*X2X1X1X1X8X2X~.E.{.{.&XE.=XE. X X X%XW.=X=XW.W.W.E.W.Y.Y.R.T.{.W.$X{.#X{.W.{.$XW.{.$X&XE.{. X{.E.#X$X:XMX$X!.&XT.!.$X!.!.$XQ.#X$X!.Q.#XW.Q.#X-X%X$X$X#X$XQ.W.#XQ.#XQ.Q.#X,X#X$X$X=X$X#XQ.W.%X=X=X-X#X-X-XE.Y.S.:./ G * * * < * < < & 0 $.h.S.S.x.} G j < < < < 2 2 2 5 3 2 4 3 5 3 4 < 4 x y & < s / x.@XP.[..XoX&X.X*X&X=X2X3X1X1XXX%X X&X8X3X1X8XkXMX6X4X4X2X5XkXcXzX3X1X X X1X%X1X1X1X!.%X#X!.!.!.$X0XMX#X%X!.%X%X!.!.$X$X%X$XW.$X#XW.#X-XW.#X$X$X#X#X-X-X#X#X-X#X~.#X#X!.!.Q.^.Y.T.T.T.W.-X%X=X$X#X#X#X%X#X%X#XW.#X&X$X:X$X=X=XH.Z.W.$X{.Q.,X$X=X$X$X$X=X-X=X%X=X-X-X#X$X$X%X-X1X3X%X=X&X#X:X=X=X&X&X$X$X-X-X=X9X9X=X$X%X$X$X#X=X=X$X=X=X-X=X-X$X=X&X=X-X-X{.=X%X=X=X9X9X=X9X*X-X=X:X$X:XMX9X9X9X0X:X:X,X=X0XkX7X8X7X4X=X8X2X4X2X7X2X2X*X7X*X;X3X*X2X*X1X5X8X4X3X8X4X2X4X9X4X8X2X2X&X|.&X*X*X4X2X4X4X7XkX:X>X=X4X&X7X,XlX7X>X:X,X&X4X*X;X.X2X2X%X X4XXX3X2X&X.X X&X[.$X&X&X:X:X=X>X:X:X.X&X&X&X}.&X:X&X>X>X=X&X>X#X{.2X[..X.X.X&X&X.X.X=X;X.X=X>X.X X[.[.P.P.E.I.[.>X2X*X2X*XoX|.|.[.I.P.I.~.oXP.I.K.U.P.L.F.S.S.F.P.D.P.L.P.P.R.D.].R.[.[.].R.D.D.S.F.I.I.[.].I.}.P.D.V.R.F.[.c.S.G.F.P.K.P.c.K.S.K.F.S.K.S.S.v.C.S.j.V.V.S.V.c.m.S.V.m.c.V.V.m.x.S.j.m.l.m.c.S.c.S.c.c.c.S.V.k.S.V.l.k.j.S.V.].S.S.c.z.c.j.j.l.c.c.z.k.h.e.h.k.h.h.j.f.S.C.j.k.j.c.h.h.$.%.$.$.$.#.$.>.j.j.h.h.,.e.j.e.>.j.h.c.h.j.$.#.j.z.h.#.>.+.+.$.$.h.c.c.h.z.",
"{.{.{.[.D.{.{.R.j.h.V.D. XL.R.R.L.L.K.*XY.1X1XY.L.E.E.Z.H.0XY.E.XX~.E.oX|.~.T.I.H.I.L.T.E.!.~.~. X3X X~.!.T. X~.%X X X X~.~. X~.E.!.~.%X1X3XVXVX*XZ.4.H.2.2.N.2.2.L.H.P.~.!.E. X~.~. X X!.&X*X~.&X X XE.E.P.E. X X X X X XE. X&X~.~.~.T.XX1XI.~.~.~.I.T.b.Z.P.L.R.L.Y.E.{.R.H.R.D.R.{.;X>X;X.X&X4X>X;X&X.X[.oX!.~.E.P.H.R.E.K.P.E. XE.*X&X{.&XE.XX X&X&X*X2X$X$X:X&X#X&XW.W.D.T.{.$X%XW.{.Q.R.#X{.{.W.$X$XW.#X%X$X$X$X$X,X=X:XzX!.!.W.W.!.!.!.#X%X#X!.!.!.#X!.#X!.#X%X#X$X#X#X$X$X#X#X#X$X$X{.Q.Q.#X-X#X$X$X=X$X=XW.=X=X{.$X&XW.R.C.<.F ~ p < & < * * , * 3 ! x.S.].R.P.F.v...V f = < < 2 d 3 3 2 1 5 5 1 3 2 n W S < & 0 Z d.m.P.}..X{.|. X&X8X2XzX=X=X1X!.%X~.$X*X%X1XlXMXMXcX2X6XkX5XxXcXNX8X0X4X X X!.!.#X$X$X$X!.!.$X!.$X=XMX!.!.!.1X!.!.Q.$X$XW.!.#X%X!.W.{.#X#X#X$X$XQ.!.~.-X-X-X#X~.-X-X!.W.#XQ.W.Q.T.$X!.#X#X$X#XQ.Q.Q.W.!.!.!.#X#X$X#X-X-X#X&X=X#XZ.W.#X$X$X$X-X#X$X#X=X0X=X=X,X#XQ.$X$X$X$X$X$X$X=X1X-X&X$X-X=X$X-X#X-X$X-X=X=X-X-X=X9X=X$X$X&X-X&X-X=X:X9X%X-X-X-X#X#X$X-X$X$X$X$X#X$X=X=X9X=X=X$X&X#X9XVX0X=X9X,X:X:X=X9X0X0XkX8X8X7X4X8X9X2X*X7X4X2X4X4X2X4X*X*X1X4X4X1X2X4X2X9X4X=X2X4X2XkX*X*X*X*X;X4XXX2X1X2X8X:X7X4X=X=X4X&X:X2X:X=XkX>X:X=X>X*X;X2X2X:X4X2X2X4X*X5X2X2X X}.{.}.&X>X:X7X:X=X;X&X>X;X;X;X&X;X&X=X$X;X;X}..X;X}.&X{.;X.X.X;X.X;X>X.XoX;X&X&X.X.XE.[.R.S.D.F.E.6X4XXXXXXX|.E.P.U.I.P.P.P.I.oX~.P.P.K.P.S.L.L.I.R.D.R.P.].[.F.P.[.].].R.].D.].I.S.P.P.[.|.|.I.I.K.S.S.D.F.S.S.S.F.P.L.P.n.v.S.K.S.C.P.P.U.K.K.c.j.x.S.c.m.c.S.V.l.c.z.h.c.V.S.V.j.j.c.S.c.S.S.l.S.S.c.c.x.c.c.S.x.c.S.S.c.V.S.c.h.h.k.f.h.f.f.>.k.h.j.h.k.k.j.$.e.j.$.F.j.3.>.$.$.>.%.$.+.` +.#.$.$.$.+.$.$.,.$.f.$.j.>.f.$.h.$.$.j.h.>.h.h.h.>.#.$.$.3.$.$.$.#.>.",
"D.&X&X{.R.{.].D.j.D.P.[.&XL.L.P.c.L.R.%X%X XP. Xb.K.H.L.Y.$X$X!.T.T.I.Y.XX!.!. XT.~.~.H.!. X!. X!.~.~. X1X$X&XXXE.~. X X~.~.~.XX!.~.E.*X4X%X8XMX!.P.Y.L.N.3.z.5.<.<.C.L.T.|. XE. X X XP.~. X&X XE. XW. XT.E.~. XW. XW. XR.R.!.&XT. XE.E.~.T.J.~.Y.L.Y.I.L.Z.H.H.D.H.L.W.E.R.R.T.R.E.{..X.X;X4XMXOX&X|.|.2XL.B.4.N.4.Z.E.T. X$X%X XXX X X~. X*X XXX!.*X X=X=X%X*X&X-XW.$X{.R.Y.D.R.{.%X$X#X&XE.W.E.W.R.W.#X%X&X#X&X$X&X$X&X2X:XzX!.!.!.%X$XW.#X!.=X#X#X-X$X-X!.#X#X!.!.$X$X,X=X&X=X=X#X,X{.#X#X&X$X$X-X#XW.#X$X,XW.&X%X$X$X=X#XR.Z.c.` H F = & & * * < < * G x.S.R.Q.F.[.R.E.F.>.$.j % d 3 3 < < 2 , 3 , , 5 y Q W S < * & V #.S.]..X:X&X.X&X;XxXlXMX XT.1XXXT.XX X%X=XkXNXzX>XkX5XNXVXnXxXMXxX4X X1X%X=X%X%X!.~.!.~.!.!.$X-X%XMXMX-X!.%X!.!.!.!.Q.%X!.$XW.$XW.!.W.$XW.E.%X#XY.#X#X1X#XQ.#X~.#X#X!.#X=X#XQ.#X#XQ.-X#XQ.Q.#X%X#X!.Q.#XQ.Q.-X#X$X#X#XW.#XQ.#X#XQ.Q.#XQ.#X#X#X$X#X$X$X#X$X#X$X#X$XQ.E.=X%XW.W.!.=X-X$X-X=X&X=X=X#X=X$X%X{.$X-X9X0X0X=X$X#X=X#X-X#X=X=X-X$X$X&X=X$X$X=X=X&X$X=X=X=X$X$X-X-X4X=X$X$X-XQ.9XNX9X4X9X:X=X:X=X4X0XkX8X4X4X4X7X4X8X8X8X4X9X8X0X8X4X8X2X3X4X4X4X4X3X8X4X4X*X4X8X2X9X8X;X*X2X&X&X&X3X9X4X3X*X>X;X8X:X=X>X2X&X&X2X:X7X7X&X&X;X&X*X*X2X4X2X=X4X;X*X*X2X*X;X,X&X:X>X:XiX:X:X>X&X&X X,X;X&X&X&X>X=X4X&X&X&X$X.X;X;X.X&X4X>X&XoX.X&X2X;X.X;XoX.X.X}.E.}.E.D.I.[.4X4X&XoXoX|.oXoX~.I.I.P.K.P.I.I.[.E.P.C.S.F.S.P.D.F.P.D.D.R.P.D.}.R.@XR.D.F.V.C.P.P.P.E.oX}.P.P.K.F.D.F.S.P.S.D.D.F.S.C.v.S.K.K.P.K.S.v.P.S.c.S.F.S.S.V.F.S.c.c.c.G.c.c.V.m.S.S.c.j.C.x.V.c.c.C.V.S.V.m.l.j.l.m.c.V.j.k.c.m.S.c.c.h.h.h.l.j.f.>.j.h.c.c.j.h.h.>.k.h.$.@Xc.h.h.$.j.>.>.#.#.` +.+.%.#.#.+.#.$.$.$.j.$.$.h.>.%.>.#.#.$.+.#.$.>.$.#.#.+.#.$.#.+.` +.#.",
"F.&X:X:X}.].R.D.D.V.S.D.R.P.P.L.C.C.E. X3X*X=X9XE.E.E.Y.&X!.E.*X!.T.~.H.I.T.!. X~.I.~.~.oX~.!.!.~.P.~.1X%X XE.!.~.~.~. X%X~.!. X*X=XE.|. X=XNXVX1X!.H.R.P.L.1.3.5.-.2.H.~.E.E.E. XE.%X X X&XH.$XR.T.E.T.R.T.&XW.E. XW.E.W.~.E.~.E.~.!.Q.Y.L.Y.T.T.L.Q.Y.P.T.T.H.Q.{.Q.R.R.R.{.W.Z.Y.W.&X7XMXNXlX|.[.E.E.~.T.~.L.R.T.T.$X%X*X9X3X*X&X=X*X%XXXXX X X X X;X&X=X=X=X=X=X&X{.#X#XE.#X$X$X#X{.H.H.E.R.H.T.W.{.W.R.{.W.W.&XW.W.W.!.*XzXW.W. X!.!.#X#X#X#XQ.#X-X#X#X#X#XQ.#X$X=X=X-X$X$X=X-X=X&X&X$X#X#X-X=X#X$X=XW.=X%X#X%XW.%X$X$X#XR.Y.1._ n V & * 3 * < & * % ..n.[.{.E.,X%X~.R.R.S.@XX.* * * 3 3 3 < 2 , 3 3 u S 7.A 2 , , * r / x.P.}.;X&X{..XXXlXNXMX4X2X~.|.J.oX=X4XkXkXkXVXzXcXcX6XlXnXcX8X8X0X X%X1X%X#X#X1X#X!.!.#X-X$X%X-X0XMX-X!.-X#X!.1X~.#X!.W.#X$XY.^.$XW.W.Y.#XQ.W.#XW.#XQ.~.Q.#X#XQ.Q.#X#XW.#XQ.#XQ.W.Q.^.T.T.#X#X-XQ.#X#XQ.Q.-X#X#XY.#X#XW.E.#XQ.Q.#XR.#XQ.$X#XQ.$X-X=X$XQ.Q.$X#X#X#X#XW.=X!.$X$X=X%X:X-X-X-X9X-X-X$X$X=X=X$X#X=XzX1X-X#XE.-XQ.$X$X$X#X%X=X=X-X=X=X-X=X=X=X-X#X#X$X$X#X=X=X=X%X=XW.&X#X-XVXMX0X=X=X:X0X7X7X0X7X9X=X4X4X7X2X8X5X4X8X8X8X8X2X8X4X8X3X4X8X4X*X2X2X2X8X&X8X8X4X8X2X8X2X2X1X2X4X4X*X4X8X2X3X=X=X4X>X&X=X.X=X7X7X7X:X:X:X>X9X3X2X4X2X*X2X2X&X2X=X2X&X>XOX;X&X=X:X>X&X:X>X&X>X&X;X>X&X&X&X>X.X6X,X;X:X>X&X:X>X;X.X.X&X;X;X.X&X>X.X&X;X.X.X.X[.E.}.E.P.L.P.5X4XoXoXoX|.|.oXP.~.].~.I.I.I.[.I.P.K.L.C.L.P.D.D.P.D.P.R.D.P.R.P.P.D.D.R.P.S.S.F.P.P.[.I.E.K.K.P.S.S.V.V.C.c.S.C.v.c.v.C.v.K.K.P.C.P.K.S.c.C.c.c.h.j.c.G.S.S.G.k.m.l.V.m.c.c.c.c.c.k.l.c.c.c.V.m.l.h.c.j.c.h.V.V.V.m.l.S.V.S.m.V.z.k.h.h.j.h.h.j.k.j.h.,.3.z.>.>.$.h.G.z.>.>.h.$.f.#.$.#.#.#.#.$.$.%.$.f.%.$.$.3.f.3.$.>.$.#.$.| %.#.+.$.:.%.$.#.#.#.$.$.$.#.$.#.",
"R.}.{.&X>X{.R.].P.P.@XC.E.Y.R.[.[.S.D.{.:X&X&X%XXX=X~.E.=X$X~.Z.E.T.P.J.P.H.E.~.H.I. XP.!.%X~.H.E.!. X1X%XXX!. X%X~. XE.Y.~.1XXXE.E.%XXX X&XzXVX0XH.1.1.;.4.1.;.5.<.<.P.Y.~.P.T.P.R. X XE.!.W.$XE.L.T.W.Y.E.$X{.Q.Q.E.E.Q.Q.Q.R.L.Z.T.T.E.Y.B.H.E.H.Y.E.W.T.T.L.B.T.W.E.W.R.{.W.R.T.Q.&XkX7XMX7XE.{.E.Y.D.L.~.E.J.E.#X!.$X=X4X=X&XW. X&X X&X&X X&X X X*X=X&X*X=X$X$X=X=X{.Q.W.{.R.W.Q.E.N.1.Z.$.Q.R.#X{.#XE.Y.R.Q.W.$XE.[.$X=XzX#X$X#X$X%X%X#X#X-X#X#X#X#X#X-X#X#X#X-X-X0X-X-X-X-X-X1X1X-X1X1X1X$X#X,X#X=X$X-X=X=X$X*X-X-X$XW.Q.b.;.( e 4 * * < * < * < % r.P.{.Y.R.W.E.W.%X{.[.oXn.a * * < < 3 3 5 3 3 u E W M 0 2 < 0 0 * C m.].oX>X*X&X&X:XVXxXMXXX;X&XcX8X3X7X8X4XMX=XxXxX>XMXkX7XNX3X1X-X0X~.#X1X%XQ.1X#X#X#XW.$X$X-X#X=X0XMX#XW.W.=X-X-X-X%X%X#X#X#X-X#X#X#X!.#XQ.W.!.-X!.$X#X$XQ.#X^.Y.Y.#XW.#XY.Q.#X#XY.#X6.#X^.#X#X#X#X^.^.^.#X#X#X#X^.Q.#X#X#X-X#X#XQ.Q.Q.#X#X#X#XQ.Q.#XQ.#XY.#X,X#X#X$X#X$X$X$XW.$X!.%X9X1XE.-X$X=X=XQ.#X&X{.=X$XW.%X-X$XQ.Q.!.%X!.#X,XW.$X&X$X$X-X$X9X1X-X9X%X#X%X%X%X=X=X=X#X-X$X&X*X&XMX9X%X=X:X9X:X:X0X:X4X4X9X4X:XkX8XlXzX8X9XkX8X9XkXkXkX8X3X4X4X4X4X3X3X0X4X=X8X3X=X4X4X3X3X4X8X4X4X4X3X1X*X2X*X2X3X4X&X:X&X=X>X:X=X>X:X:X>X&X2X2X8X;X*X2X2X=X&X*X4X&X}.:X:X}.&X:X;X>X:X:X&X}.:X7X;X;X;X>X:X:X>X;X>X=X7X=X;X;X;X;X;X;X>X=XXX>X;X;X;X;X6X;X&X;X[.P.{.R.P.D.R.:X4X|.R.|.E.I.|.P.K.K.U.I.[.P.I.~.R.D.S.S.S.S.V.D.S.D.@XS.S.L.S.P.P.I.I.I.I.K.K.I.C.P.K.K.L.K.U.K.F.C.S.S.c.S.D.S.S.v.K.K.v.K.K.S.K.U.K.S.D.c.x.l.m.S.V.c.G.c.z.k.S.S.S.l.c.c.c.c.c.c.C.k.h.S.S.S.F.S.S.S.S.V.c.c.c.l.V.S.S.S.V.c.x.z.1.f.h.h.>.f.h.z.h.h.$.$.>.>.,.,.S.k.,.$.h.$.f.>.>.%.+.#.%.j.#.#.+.+.#.#.$.3.$.%.h.3.,.#.$.$.#.#.#.+.#.$.#.$.j.$.$.$.$.$.$.$.",
"[.&X&X}.[.oX{.&X[.{.$X&X{.@XE.&X{.{.:X&X{.=X&X*X%X&XW.~.E.P.Y.R.Y.E.P.Z.Y.T.~.~.~.I.~.J.T.~. X~.I.~.!.~.~. X%X~.~.~. X~.~.!. X%X%X~.T.E.$X4X8XNX9XB.J ' @.+.<.C.K.4.z.b.J.C.K.L.1.b.P.Y.Z.E.$X!.W.L.Y.L.R.R.Q.E.$X{.Q.E.R.R.H.E.Y.L.Z.Z. XZ.L.T.!.Y.Y.!.T.W.L.E.Z.L.R.Y.W.R.{.T.Y.E.Z.E.&X$X:X>XR.E.R.Y.Y.Z.W.$XT.E.T. XE.$X%X%X&X X X X X X~. X~.&X X*X&X X$X=XE.E.=X%X&X-X&X#XY.Y.W.R.Z.3.j.4.D.Q.$XR.R.Q.{.Q.&X$X$X$X#X#X&XkX#X#X%X$X#X%X#X#X#X#X-X#X#X#X-X#X^.-X-X-X-X-X0X-X0X-X1X-X#X#X#X#X#X#X$X-X=X$X$X%X%X%X=X=X$X{.W.Y.C.b.-.H * & * * & * < , * k.R.{.{.%X$X%X=X&XW.[.[.I.' * * 3 < 5 2 3 w 4 M D i t q 2 2 2 < 0 e ` ].oX&X&X.X.X4XlXcX8X2X5XkXNX5XkX:X>XMX9X8XlXBXkX;X>X7X0X!.-X#X0X!.!.#X!.#X1X#X-X$X!.-X#X$X-X-XzXVX=X-X=X=X=X-X=X#X$X#XT.!.Q.#X#X!.Q.#X!.-X#X$X#X$X$X$X#X#X#X#X#XQ.^.#XQ.^.#XQ.Y.6.#X6.#X#X#X^.^.^.#X^.^.#X^.#X#XQ.^.Q.-X#XQ.#X#X#XQ.#XQ.#X#X-X#X-X-X#X-X{.#XQ.$X$X{.$X,X%X$X%X$X$X#XQ.W.$X$XQ.Q.E.$X$X-X-X-X$X-X#XQ.#XY.#X!.$X#X#XQ.W.$XW.$X=X=X=X=X#X-X#X#X#X-X%X=X=X&X$X-X=X=X,X=XVX0X=X=X9X:X:X:X,X0X7X4X:X:X7X9XkXkX9X7XkX4X4X4X1X3X8X8X3X4X3X3X4X*X2X4X4X4X5X8X4X4X4X4X9X4X5X1X0X5X3XXX2X3X3X3X2X&X&X:X>X:X=X:X&X;X&X&X:X:X*X2X3X=X2X4X2X2X4X4X5X&X.X&X;X&X;X=X:X4X:X:X;X=X;X;X;X:X=X:X:X>X,X:X>X&X>X:X>X=X;X;X;XXX.X2X:X;XXX&X&X4X4X&X>XoX.X.XI.P.S.P.[.>X>X[.P.[.P.[.I.|.I.E.L.I.I.I.I.[.[.S.S.V.G.S.V.C.C.D.D.S.c.P.L.C.P.U.~.U.I.L.U.~.P.|.P.I.U.U.v.C.D.c.c.c.z.C.C.S.v.b.v.v.K.n.v.K.K.C.P.C.S.c.c.z.G.S.V.c.k.j.k.S.S.S.k.S.c.c.S.m.S.m.z.j.h.k.z.z.S.S.V.S.S.m.c.V.S.V.m.c.c.h.S.x.S.x.z.c.c.j.h.c.k.c.c.k.h.h.k.e.j.h.D.z.$.3.$.$.>.>.>.#.+.#.#.$.>.>.$.#.#.#.$.$.#.$.$.$.e.$.$.>.$.>.#.#.$.#.$.$.$.3.$.h.>.>.;.$.",
":X>X;X[.&X.X;XoX&X{.[.}.[.R.{.&X&X;X&X4X{. X:X X&XP.R.W.T.T.H.Y.L.R.T.H.E.T.E. XT.E.~.E.P.T. X1X~.~.~. X!.!. X*X XT.~.3X~.XX!. X~.~.!.R. X2X8XNX9XJ.5.6.~.H.R.W.T.z.2.;.<.2.-.3.Z.z.C.P.R.W.W.L.Z.E.N.B.L.Q.Q.R.D.Q.D.E.Q.R.R.H.Z.Z.Y.Y.H.H.Z.H.E.T.T.!.#XY.Z.W.H.L.Y.V.R.#XW.R.W.R.R.R.[.#X&X&X[.E.E.R.E.T.E.$XW.#XR.E.W.W.W. X X*X*X*X&X X&X~.~. X X&X X%X XW.%X-XW.*X:X$X{.{.E.E.$XQ.Q.{.#X#XL.D.H.R.R.P.Q.R.{.$X#X{.$X$X-XzX{.W.$X!.#X#X#XQ.#X#X-XQ.Q.-XQ.Q.#X#X-X-X-X-X-X-X-X1X-X-X-X1X1X-X-X$X$X,X=X=X-X,X!.%X!.$XW.Q.R.#XH.z.1.' a * * < & & * = C F.R.[.$X X=X#X$X$X%X%XXX|.F.p 3 3 3 < 5 3 m y y y q w w 2 2 0 < * d J ].}.>X>X&X;XkX2X4XxX~.XX4XkXzX5XlX:X=X&X=XxXzX:X=X,X1X=X1X%X-X-X1X!.-X-X!.1X#X#X-X$XW.=X-X-X-X0XNX-X$X=X=X=X-X#X%X#X-X!.#X-X1X#XW.!.#XW.!.1X1X-X$X-X#X$X#XQ.Q.#X#X#XQ.#X#XQ.#XQ.6.#X6.#X#X#X^.#X^.#X#X#X#X#X#X#X#X#X#X-X#X6.6.A.#X#X#XQ.#X#XQ.#X$X#XQ.#X#X#X$X#X#X$X$X:X=X%XQ.=X$XW.%X%XW.%X$XY.{.$X=X=XE.$X,X#XE.#XW.Y.#XQ.!.!.#XY.Q.Q.$X=X#X=X1X1X$X-X$X-X$X$X=X=X-X=X#X&X$X{.-X:XMX9X=X:X:X=X:X-X0X8X4X.X7X,X:XzX7X7X8X2X9X4X2X2X9X4X3X5X4X2X5X8X1X5X2X4X8X8X8X2X3X3X8X3X3X8XcX5X1X5X2X*X*X2X4X4X3X&X{.;X>X:X:X:X=X:X&X:X:X:X*X2X4X2X;X*X*X:X*X=X&X|.;X&X&X}.&X;X,X:X:X>X;X&X2X;X>X;X&X&X&X>X=X:X:X7X:X:X;X&X&X.X&X*X X>X;X;X;X2X;X;X4X2X;X=X.XR.P.R.L.C.P.:X=X[.P.|.~.|.oXoX|.U.I.I.I.I.[.I.[.].D.R.S.S.D.F.S.V.R.R.S.D.S.S.K.P.~.I.I.K.U.I.I.~.L.[.L.K.K.C.C.h.c.C.S.c.C.S.v.v.v.v.L.K.S.C.L.K.v.K.c.C.v.c.k.c.S.V.j.S.V.c.V.z.h.l.z.k.z.c.l.S.c.c.h.c.C.k.m.S.c.S.S.c.S.m.S.l.S.j.S.V.V.S.S.c.S.G.c.k.V.S.V.S.V.c.c.j.c.j.c.e.F.c.e.$.e.d.>.$.#.$.#.` #.$.%.,.$.>.,.>.#.$.#.$.$.$.$.h.3.>.$.,.>.#.$.>.$.f.>.3.$.$.>.$.#.+.",
".X&X[.I.{.P..X.X>X=X[.;X[.[.{.[.&X&X&X X XE.E.K.T. XT.R.Z.C.H.B.Z.Z.E.T.~.|.!.~.Y.Y.~.~. XT. X~.T. X1X XXX~.%X1X3X~.T.~.L.~.~.1X!.P.T.W.~.3X3X8X XP.~.~. X X%X*X%XY.L.J.4.K.4.<.c.<.<.Z.L.K.L.T.Y.Z.V.Z.E.#XE.E.R.Q.R.Q.$XQ.H.R.Y.V.L.Y.Z.B.V.T.Y.Y.Q.~.E.R.Y.T.Y.H.D.D.$X&XR.Y.Q.Q.T.E.{.&X:X&XW.{.E.Y.T.T.W.!.!.W.E.$X$X&XW.$X X2X%X*X1X X X X&X*X X X%X X!. XW.R.T.W.=X{.#X#X#XE.{.{.#X{.#X{.Q.D.Y.#XQ.#X[.Q.Q.{.{.#X{.#X-XzX#X{.W.E.W.#X#X#XQ.#X#X#XQ.#X#XQ.#X^.-X-X-X0X-X-X0X-X1X1X-X-X1X#X$X=X$X#X$X=X=X#X%X%X$X X{.$XQ.R.T.C.K.4.' C 0 d 0 r a C C.P.[.E.E.$X*X=X=X%X%X!.%XP.( * 3 3 3 3 2 3 S a < 3 4 q q q 0 q 2 0 & C m..XoX;X;X&X5X2XR. X~.XX1X0X1X1X:X=X=X=X3XxXzX:X=X&X1X1X1X1X-X-X1X#X!.!.!.#X#X-X-X$XW.#X-X-X-X0XVX#X-X=X=X9X9X1X!.=X%X#X-X%X#X#X#XQ.W.!.#X-X=X%X-X=X-X-X#X#X#X#XQ.W.#XQ.#XQ.#X#X#X#X#X#X#X#X#X#X#X^.#X#X#X-X-X#X-X-X-X-X^.Q.#X^.#X$X$X-X#X$X,X#X$X#X#XQ.#X$X$XW.$X#X$X$X!.$X1X=X=X1X=X!.W.$X$XW.$X$X-X$X$X#XE.#X#XY.Q.T.T.#X!.#X#XY.{.#X$XW.%X=X-XW.-XQ.-X-X#XW.$X-XW.$X-X=X-X&X=X:XMX0X:X=X=X:X8X:X9X0X8X2X=X8X:X7X7X:X;X;X;X=X8X3X3X4X4X2X0X3X8X3X4X3X2X0X4X8XzX4X5X8X8X5X4X8X9X5X6X1X*X*X;X2X2X8X4X&X&X-X4X:X:X7X>X=X:X:X>X=X%X4X4X*X2X2X2X=X;X8X2X2X;X.X&X&X&X>X>X2X>X>X&X&X&X.X,X>X&X>X&X&X&X:X>X&X&X>X;X&X,XOX>X X&X.X&X.X;X&X>X;X2X2X.X.X;X.X].R.S.c.P.:X8X[.P.P.I.I.|.|.|.I.P.I.[.|.I.[.[.R.D.P.D.F.D.D.D.S.E.V.F.C.R.P.L.I.I.I.I.K.K.I.].|.[.I.K.v.U.v.S.C.C.S.D.F.c.S.b.K.K.J.v.v.C.v.K.v.c.C.c.c.C.c.c.h.j.k.S.S.S.V.S.V.c.c.z.S.c.z.l.h.x.j.c.S.S.F.S.c.S.S.V.c.V.c.S.F.F.l.S.m.S.c.S.c.S.c.c.c.h.x.c.F.c.m.G.j.j.c.c.m.D.j.>.>.j.k.h.3.j.X.+.#.$.h.k.j.h.$.h.%.$.$.#.#.>.3.%.$.h.$.>.;.$.>.3.$.3.>.$.$.$.3.$.#.$.#.",
"|.;XoXXXoX.X&X|.=X4X.X}.{.{.{.,X X XL.|.oXT.C.Z.H.E.Y.Z.V.L.Y.K.~.L.~.~.Y.T.~.!.~.T.E.Y.L.~.~.!.~. X~.%XXXT.~.*X1X%X XT.E.!.~.~.~.Y.Y.E. X5X5X~.I.!.Z.E.%X&X$X$X1XE.E.B.J.K.B.b.j.Z.z.V.R.R.R.Q.R.R.Y.Y.Y.W.W.#X{.R.R.R.R.Q.[.Y.E.R.Y.Y.L.Z.V.Z.H.Y.T.E.!.Y.Z.Y.H.L.R.Y.#X$XT.T.Z.R.E.{.&X:X&X&X{.E.E.L.$XW.#XE.W.R.E.%X!.W.$X!.R.&X X X&X X%X X$X{.W. X#X{.{.#XW.{.$X&X$X#X#XE.,XQ.R.#X#X$X[.{.Y.Q.[.E.Q.{.{.Q.{.W.#X{.$X{.=XMX!.-X!.Q.#X%X#X#X#X#X#X#X#XQ.#X#X-XQ.Q.#X#X-X-X-X-X=X=X=X-X-X=X#X#X#X$X#X$X$X!.,X1X%X#X$X$X$X{.#XP.L.Z.Z.j.>.( ! ( $.$.l.R.E.{.{.{.{.$X-X$X$X!.!.~.-.0 4 2 2 3 3 5 5 y 3 3 5 4 5 w q 2 q 3 < * a | ].].[.{.>X&X*X.X1X%X1X*X3X0X9X=X=X&X=X#X:X7X=X=X&X=X#X-X-X0X#X-X-X9X-X#X#X#X#X!.#XQ.!.Q.#X-XzXMX#X,X-X-X1X1X1X#X#X=X#X#X1X-X#X!.=X!.#X!.%X-X-X-X=X-X#X$X#XQ.$X#X#X^.#XY.^.#X#X#X#X#X#X6.<X#X#X#X#X#X#X#X-X-X-X-X#X-X#X^.-X#X6.#XW.Q.Q.9X-X#X#X#X#X$X$X,X=X-X-X,X$XQ.$X!.%X!.%X=X-X-X1X=X-X-X-X#X#X&X#X:X$XR.#X,XQ.#X#XW.W.$X#X#X#XR.R.=X=X=X$X1X#X-X-X=X#XQ.W.W.&X$X#X:X$X$X=X-X:XNXzX-X=X=X:X:X0X0X:X:X:X:XkX9X4X4X:X2X2X8X8X9X8X3X8X8X*X5X9X8X8X5X8X8X3X2X2X4X4X9X2X8X5X3X8X1X4X8X6X3X1XXX2X4X8X4X:X=X;X:X&X=X;X&X:X=X:X>X=XXX3X;X*X&X=X:X4X3X2X>X4X*X:X&X&X>X:X&X>X:X:X,X>X&X{.$X;X.X;X>X&X>X>X>X=X&X}.&X>X&X.X;XoX;X;X>XXX&X;X;X.X>X&X{.;X;X.X{.L.D.S.V.>X2X[.E.P.P.[.oX|.[.S.K.I.E.[.}.E.].@XH.R.R.D.F.{.].@XD.c.S.S.P.L.K.I.K.I.L.K.I.K.K.P.K.n.v.c.K.v.l.S.C.S.S.F.S.c.l.v.P.J.C.S.c.S.b.v.J.v.v.l.l.c.h.l.k.V.S.S.S.S.c.j.c.c.c.c.F.c.l.x.c.S.z.c.P.c.c.c.c.V.c.V.c.l.S.c.c.S.S.S.V.c.c.x.S.C.S.V.m.S.S.S.z.z.h.$.h.z.c.c.S.h.$.j.k.j.h.$.#.+.#.$.$.>.f.>.h.$.%.>.+.#.#.$.$.$.h.>.$.3.$.3.%.>.>.%.$.$.$.j.$.#.;.>.+.` ",
"&X{.I.|.XX&XE.[.oX|.|.E.S.P.[.E.}.&X&X{.E.P.P.H.Z.K.!.P. XH.C.L.L.E.T.E.L.P.~.~. XT.P.~.~.T.P.~.~.~.T.P. X%X!.!.oX=X~. XT.Q.E.~.~.T.~.~.~.1XPXVX!.1.Z.z.H.L.Q.Q.%XE.Z.J.z.L.H.1.%.B.2.S.H.&X=X&X#XE.Z.Y.$XR.Y.L.Q.Q.Q.Q.E.Q.{.#XQ.Y.W.#XZ.Y.Z.Z.H.E.T.!.T.Y.H.E.H.R.R.{.#XR.Z.R.Y.Y.Q.Q.E.{.$X:X XW.Y.R.W.W. X{.!.$X%X3X3X&X X X!.&X&XW.~. X!.E.W.E.$XW.W.W.W.W.$X$X{.$X{.W.$X{.*X{.$X$X$X{.#X#X{.{.Q.L.W.$XW.{.&X=X$XE.$X$X=XzX!.!.#X#X#X#X#X#X#X^.#XQ.#XQ.Q.#X#XQ.#X#X#X-X-X-X-X=X9X=X=X-X$X$X#X-X#X$X-X%X$X-X-X$X{.#X$X&X$XW.T.E.E.P.D.V.1.D.S.V.V.D.Y.D.E.{.{.W.1X1X$X$X&XK.P 3 * 3 3 < < < < < 3 , , 3 3 3 q 2 4 q 3 * < a | S.@X$XE..X&X&X*X X!. X=X=X9X%X%X%X:X=X&X=X{.Y.W.E.Z.%X-X-X-X-X-X!.#X-X-X0X-X-X-X#X#X#X-X-X1X0XMX=X-X1X1X1X-X-X=X#X1X1X1X1X#X-X%X-X%X%X-X-X-X%XW.-X=X-XQ.#X#X#XQ.#X#X#X#X#X#X#X#X-X#X#X-X#X#X#X#X#X-X#X-X-X-X-X#X#X-X6.Q.#X#X#X^.#X#X#X-X1X1X%XQ.#X$X$X$X=X-X$XW.$X#X#X$X!.$XW.-X-X#X,X-X,X-X#X#X$X-X-X$X#X#X#X{.#X#X$X#X#XW.W.#X#X#X#X#X-X-X-XW.-X#X-X-X=X$XQ.#X,X#XQ.=X-X&X-X%X:XMX=X:X:X=X=X9X:X:XzX8X,X:XkX:X3X4X2X4X9X8X:X4X8X4X4X4X4X5X8X8X4X3X8X5X5X8X2X8X8X2X3X1X5X3X8X8X5X1X5X2X2X1X1X2X4X:X=X>X:X:X&X&X*X:X=X=X:X:X&X1X=X2X&X&X3X8X:X2XXX=X:X=X&X.X&X=X>X=X=X:X:X:X;X;X&X&X&X;X&X&X;X>X:X:X4X&X:X=X>X;X;X&X&XXX&X*X.X;X:X;X&X;X;X>X;X&XoX.X[.P.S.P.4X4X|.I.[.P.I.I.P.P.P.P.E.E.I.[.P.R.D.D.].R.R.@XW.Y.R.L.@XV.D.K.K.L.I.P.I.K.P.I.K.K.K.P.J.C.l.v.C.c.S.S.Z.z.C.C.C.v.v.v.K.S.c.z.z.v.P.K.v.v.v.z.v.h.j.h.c.x.z.x.c.V.m.c.V.S.C.F.L.S.S.S.c.j.m.S.n.S.l.k.c.c.S.S.S.c.c.c.l.V.V.m.c.S.l.c.S.c.S.S.V.S.c.c.x.h.h.h.h.h.c.c.h.h.h.j.j.$.$.$.%.$.$.$.3.$.$.$.h.>.f.f.h.$.$.3.$.h.>.$.$.$.$.,.>.-.$.$.$.h.$.$.>.#.#.#.#.",
"}.|.[.|..XoX|.|..XXX*X|.[.oX}.;X;XoX&X XP.Z.K.L.E.E.L.L.T.L.J.J.T.E.T. X XE.E.~.L.~.~.~.L.L.L.~. X~.!.~. X%X X X~.=X X!.1XL.E.!.Q.Y.Q.T.Q.%XVXNXoXH.4.@.5.@.3.A.1.3.<.3.4.B.H.2.j.j.j.L.L.Y.E.#X-XQ.R.Y.R.Q.Y.H.L.Q.#XR.Q.Q.H.D.H.Z.E.Z.Z.Z.Z.Y.H.W.H.!.E.T.Y.R.Q.Z.Q.Q.Q.Z.D.T.Y.H.H.Y.W.W.Q.E.R.W.T.{. X=X$X$X X&X X X X X*X*XW.T.#X$X!.%XW.Q.W.T.T.Q.R.W.Q.{.$X-X%X=XQ.R.$XQ.$X!.{.$X{.$X[.Q.Q.#X{.E.E.W.#XW.Q.Q.#X&X$XW.4XMX!.1X!.W.#X#X#X#X#XQ.#X#X#XQ.#X#X#X#X#XQ.#X#X-X-X=X-X-X-X-X$X-X#X#X$X$X-X$X#X-X$X=X#X#X#X$X#X{.Q.R.W.W.E.R.R.D.E.:X&XR. X$XE.{.{.$X#X-X9X=X!.R.j * * < < < < < < & 5 & 5 < , , < < 2 2 q 3 * * s X.k.R.P. X X&X X=X X1X1X=X&X=X$X%X$X9X$XW.&XQ.B.@.Z.Y.W.-X9X-X0X-X-X~.#X-X#X1X#X-X#X#X!.-X1X-X0XMX#X1X-X1X1X=X#X1X#X#X1X1X1X1X-X#X#XW.#X!.!.-X%X=X#X$X=X#X-X#X#X#X#X#X#X#X#XY.#X^.#X#X-X-X#X#X#X#X-X-X-X-X-X#X-X#X#X6.#X#X#XA.#XH.Q.#X#X#X-X#X#XQ.Q.$X#X-X-X%X$X$X#X#X$X=X=X=X-X-X-X=X=X$X=X=X-X$X9X-X-X#X-X$X#XQ.#X$X#X#X$X-X=X$X#X=X-XQ.#X#X-X#X$X$X#X-X#X#X#X#X=X#X#X$X-X{.$X=X9XMX7X=X$X4X9X:X0X:X0X0X:X=X:X9X:X4X3X2X*X4X4X4X2X9X8X8X4X4X3X8X5X8X5X2X5X8X3X4X8X8X8X8X8X8X5X4X8X8X8X5X2X5X2X1X2X4X4X=X&X4X:X>X&X:X3X=X*X=X&X X2X4X=X*X2X*X&X=X4X:X4X>X=X>X=X=X;X&X&X;X;X4X:X>X&X&X&X.X&X.X;X:X>X:X:X&X;X4X;X>X;X;X;X.X.X;XE.;X>X6X;X&XXX;X&X;X&X|.].R.P.E.4X4XoXI.P.P.I.~.I.[.P.S.P.].[.R.P.@XD.D.P.@XR.[.E.D.P.L.D.K.F.K.I.~.I.K.I.I.P.U.P.P.P.K.P.z.K.C.v.Z.c.l.c.C.S.C.C.C.V.v.v.C.S.F.z.v.v.v.v.U.C.V.c.h.c.V.V.h.z.c.S.m.c.c.S.F.S.F.R.D.P.D.c.c.C.S.S.F.V.h.h.k.V.h.S.c.f.>.l.k.c.c.c.c.l.h.c.V.c.k.z.c.x.k.j.V.m.l.j.h.c.S.c.h.>.h.z.$.h.f.>.,.e.3.$.h.f.3.h.3.h.h.1.3.$.,.,.,.%.$.#.#.$.>.#.-.>.$.3.$.$.%.>.;.$.#.#.",
"|.|.XX*XoX[.P.|..X[.|.|.|. X}.E.v.P.E.oX|.E.E.T.|.P.H.T.Y.K.I.Y.~.~.~.!.E.~.~.~.~.E. X~.*X!.Y.~.~.E.%X*X*X X~.~. X XT.Y.Y.T.B.Q.Q.Q.Q.Y.~.!.MXVX4XJ.W.N.;.I I 3.I @.3.@.;.4.V.R.Y.R.Q.R.R.#XQ.Y.Y.Y.T.Z.N.Z.Z.N.Z.#XQ.Q.R.R.Q.Y.N.H.Y.Z.N.2.N.B.J.R.Y.W.Q.H.B.Z.Y.B.N.R.N.Z.B.G.Z.Q.R.Q.{.E.{.W.W.R.Q.T.%X%X$X=XW.*X&X=X&X%X*X*XW.W. X XW.W.R.T.H.Y.Z.B.2.N.Y.W.W.E.W.#X&X-X-X&X$XW.$X$X$X#XR.#XQ.{.$X#X{.#XW.W.#X&X&X#X$X,X=XMXQ.1X#X#X#X#X#X#XQ.#XQ.Q.Q.#XQ.#X^.Q.-X-X-X#X#X-X-X-X!.-X=X#X#XW.#X,X-X$X#X$XQ.Q.-X$X-X#X#X$X$X$XY.#X=X=X#XE.R.R.7X;X&X&X%X{.-X$X:XW.=X$X$XXX-.= 3 < 3 3 < < 2 2 3 , 3 , 5 , < 2 < < < < 3 < < * J k.V.[.[.W.E.~. XT.!.%X=X=XQ.D.N.D.-X=XW.$X&X=XW.j.@.T.-X-X-X-X#X-X-X1X-X-X#X9X#X-X#X#X-X-X9X0XMX#X-X1X1X#X-X-X#X#X#X1X9X-X1X1X1X#X#X1X#X#X!.$X-X$X#X#X-X$X-X-X#X#X#X#X^.^.#X#X#X#X-X-X#X9X#X#X#X-X-X-X#X-X-X-X#X#X#X-X6.#X%.6.#X^.#X-X#X-X=X%X#XR.#X#X$X=X=X$X{.#X#X$X-X-X=X%X-X,X-X=X-X=X=X=X$X,X=X-X$X#X$X#X-X-X$X-X$X-X-X=X-X-X#X-X$X#X#X#X#X#X#X$X#X#X-X#XQ.$X-XY.=X$X:X-X=X9XBXkX:X:X=X&X:X=X:X:X8X8X:X:X7X7X3X3X*X4X2X4X8X2X2X3X3X4X2X8X3X3X3X1X3X8X4X4X8X3X4X8X4X5X8X2X9X5X4X8X1X5X5X2X&X2X*X*X{. X&X;X4X=X1X4X4X:X:X:X=X1X2X3X2X9X9X4X2X4X=X.X*X&X X&X&X}.{.=X>X&X;X:X;X&X>X>X&X;X=X2X=X&X4X>X>X:X;X&X2X&X;X2X;X;X&XOX&X;X2X&X;X&XoX;X&X}.oXR.[.[.}.2X8X[.I.E.[.|.[.P.E.D.I.I.R.P.S.R.L.Y.@XD.D.D.[.W.@XR.Z.@XP.P.K.L.K.P.L.P.I.I.~.P.I.~.I.I.S.C.b.v.v.v.C.C.C.C.c.V.S.S.S.K.j.S.S.z.U.K.L.U.n.S.Z.c.S.z.c.S.C.c.c.S.F.V.k.c.L.F.[.F.S.F.S.c.x.z.c.n.c.l.h.j.c.c.k.V.j.j.k.c.m.V.V.j.l.h.h.c.z.h.$.k.z.V.V.c.z.x.l.k.h.z.S.c.h.f.V.N.$.$.>.j.,.$.$.$.3.f.$.$.f.,.,.$.3.h.>.f.,.$.$.$.$.;.$.#.:.>.$.$.$.$.h.-.>.>.$.>.",
"oX[.XXoX|.oX*X6X4X2XOXoXXX2X;XP.[.{.&X{.}.E.E. X~.oX~. XE.P.E.~.L. X!. X~.H. X3X~.~.~.XX1X X X X XT.%X%X*X=XE.T. X%X~.~.Q.Q.!.!.!.Q.Q.Q.!.!.MX4XH.Y.Z.Z.3.5.@.@.@.<.4.2.4.Z.b.R.E.W.{.W.{.{.{.Q.R.T.Z.N.B.N.z.H.Q.R.T.Z.N.N.Z.Z.H.Z.Z.Z.N.$.N.N.N.Z.Y.T.Y.H.Z.H.B.N.N.Z.G.N.Z.H.D.Y.Q.E.#XQ.{.E.W.B.b.3.Z.&X%X%X*X~. X2X&X X X XE.T.Y.R.Z.W.Y.H.Q.N.2.2.N.1.Z.W.Q.#XE.$X{.$X$X{.E.%X{.#XE.Q.E.Y.#X#XR.{.#XR.R.W.$X#X{.#X#X-X=XzX#X$XQ.!.W.Q.Q.#XQ.^.#X#X#X#XQ.#X#X#X#X#X#X#X-X#X$X#X-X=X=XW.#X#X#X=X=X=X,X-X#X#X-X$X-X#X#X#X#X{.Q.W.=X%XW.$X{.W.$XzX=X$X%X X*X$X=XW.=X$X XL.a < < 2 < 2 d 2 < 2 , 5 & 3 , 5 4 3 5 3 3 5 d & < * r ` G.F.{.&X{.#X$XV.B.j.@.$.1.N.V.H.j.Z.E.Y.$X#X!.!.4.J.!.#X-X-X-X-X#X#X-X-X-X-X#X#X-X#X1X-X1X1XMX#X=X9X-X#X=X#X#XQ.#X%X1X1X1X-X-X1X1X-X#X%X%X#X#X$X$X=X%X#X#X#X#X#X#X#X#X#XQ.#X#X#X#X#X-X-X-X-X-X1X-X-X-X-X-X#X-X#X#X-X#XQ.6.#XQ.W.-X-XW.-X%XQ.%X#X$X{.-X$X=X{.W.#X$X$X$X#X-X,X-X-X=X-X-X-X=X=X0X0X$X-X$X-X-X-X&X$X-X$X=X$X-X$X#X#X#X#XQ.#X#X#X#X#X#X#X=X-X$X-X{.=X$XQ.$X=X%X$X=X0XNX9X1X3X$X&X:X=X8X9X4X8X=X2X7X:X=X7X&X4X:X2X4X8X4X3X8X8X3X2X3X4X4X8X4X9X4X4X4X5X4X4X8X5X5X5X8X9X4X9X2X8X5X0X8X4X;X;X&X;X;X:X7X3X&X1X*XXXXX%X*X4X&X2X X3X2X2X:X;X{.;X;X&X.XR.[.L.D.$XE.}.&X=X>X;X>X;X;X&X.X6X2X2X.X;X>X;X;X&X;X;X;X.XoX&X&X.X=XoX;X>X:X&X;X&X&XoXR.P.].R..X2X4X|.[.{.}.R.{.{.[.R.P.R.R.{.[.P.L.E.R.].@XD.R.R.R.D.F.D.D.F.F.L.U.P.I.U.~.U.I.~.I.L.L.K.v.K.C.v.v.S.C.K.V.C.b.z.h.C.S.S.S.S.I.c.C.K.I.K.K.v.v.v.K.b.l.c.c.c.v.n.G.n.S.S.P.P.S.z.F.L.F.C.v.c.c.C.l.V.j.k.l.l.c.c.l.h.k.S.l.l.c.m.l.h.c.j.h.k.c.j.x.c.c.k.C.l.h.j.h.c.G.c.x.z.x.l.1.$.>.3.,.$.$.h.h.3.$.$.$.h.h.h.h.$.$.3.j.f.f.$.$.$.>.$.j.$.$.j.f.$.$.#.#.$.>.$.",
"|.~.oXI.L.K.oX*X2X4X2X*X3X4XXXXX|.;X[.L. X&X4X*X X~.L.L.Y.~. X~. X~.Y. XoX~.E.9X0X1X!.~.%X=X%X~. X~. X3X~.E.~. X~. X X%X!.~.Q.!.!.%X!.Q. X8XzX#XQ.#XH.N.5.%.@.2.5.2.N.2.N.R.Y.W.W.W.E.{.{.#X$X#XT.Z.Z.Z.H.Y.B.B.R.Q.Z.^.Y.Z.Y.Y.D.N.N.N.3.@.2.N.Z.Z.H.N.B.D.H.B.N.N.N.Z.Z.D.B.Y.R.Q.Y.R.R.$XE.Q.&XB.2.C.D.E.R.Y.W.*X1X*X X&X XE. X3XR.T.R.W.H.Z.6.@.3.3.@.2.Q.#X#X$X$X&X=X#X#X#X#X$X#X#XP.H.Q.$XE.{.$XQ.Q.Q.T.W.$X$X&X=X-X1X,XzX~.!.#X!.#XQ.#X#X#XQ.#X^.A.#XQ.Q.#X#X#X#X#X#X#X#X#X#X$X-X=X#XW.W.Q.,X#X=X-X$X$X-X$X-X$X#X#X{.#X#XW.T.$X-X%X#XQ.R.W.=X8X9X=X{.,X$X}.#XW. XE.V < 0 d 2 < < < 2 < 2 3 & 5 , 5 3 D y & 3 5 < 3 5 < * d Z #.S.R.&X&XV.D.B.L.Y.#X-XZ.$Xj.Y.H.$X:X$X=X=X1X1X#X#X1X#X-X-X-X-X-X-X-X-X-X-X#X#X#X-X-X-X9X9XMX#X-X-X-X-X-X-X=XQ.0X%X#X-X=X%X-X=X!.#X!.Q.%X#X#X$X#X-X-X#X#X$X#XQ.#X#XA.#X#X#X#X#X-X-X-X-X-X-X-X-X-X-X-X-X-X#XQ.#X#X#X-X#X6.~.#X-X-X-X-X=X-X#X=X-X$X#X-X%X=X-XW.-X$X$X#X-X$X$X-X=X=X=X=X,X-X-X=X:X=X=X$X,X$X=X-X=X#X=X,X#X#X-X$X#X#X#X#X#X-X-X-X-X-X-X=X-X-X#XY.Y.=X$X%X=X=X=X4X=XNXzX9X1X3X$X7X:X9X9X:X8X8X5X:X7XlX7X8X;X8XzX8X4X2X9X4X2X8X2X3X4X9X8X4X4X3X3X*X3X8X9XzX8X4X3X8X8X5X5X0X5X5X5X2X;X;X=X;X=X&X;X:X*X=X2X*X&XXX%X=X*X%X*X*X%X*X*X:X&X&X&X&X=X&X|.P.D.[.P.S.{.&X}.=X&X:X:X:X;X.X.X;X>X;X.X;X&X.X4X>X&X&X X.X.X;XoX&X|.;X2X2X;X;X&X}.oXoXR.E.E..X&X4X|.[.oXE.].].R.].R.[.}.}.oXR.].@XR.R.E.D.R.@X[.R.F.D.D.D.@XK.[.~.I.~.K.I.U.U.I.[.P.P.P.K.K.J.K.S.Z.K.C.z.v.C.S.G.z.V.l.S.S.z.z.l.L.K.K.b.c.v.v.v.v.v.l.v.c.c.S.C.F.c.S.F.L.F.S.U.P.C.F.c.n.S.S.m.S.c.h.c.h.h.V.c.c.S.V.h.c.S.c.l.k.k.j.k.l.V.V.S.V.S.c.V.k.k.j.j.c.c.c.h.h.l.f.$.$.#.$.$.$.$.3.h.$.h.$.$.h.3.$.>.h.$.$.e.>.f.3.$.e.$.$.3.>.h.h.j.3.#.$.;.>.;.$.",
"XXoXoX|.[.K..XkX5XkXcX8X5XkX4X.X[.|.[.|.2X=X4X*XXX~.C.H.H.I.~.~.~.~.E.~.!.!.%X%X~. X XXXE.~.~.~.~.1X1X0XXXQ.E.~.~.XX!. X%XQ.T.T.!.Q.!.Q.$XkXVXVX:X#XV.N.z.3.@.@.3.<.2.B.Z.W.R.Q.W.W.W.E.#X{.W.R.Y.Q.B.Z.Y.H.R.A.H.G.H.W.Y.H.Y.R.R.Q.Z.Z.Z.@.3.2.Z.Y.Y.Y.R.^.L.Z.B.L.N.Y.T.Y.H.Z.Q.^.R.#XD.$XE.$X!.=X#X[.T.R.W.Z.N.=X*X*X*X XE. XW.{.E.W.Y.R.Y.Z.N.@.N.2.3.B.Y.Q.R.E.Q.#X=X$X$X{.R.R.#X{.E.Z.N.N.Z.H.H.Y.D.Z.G.Z.Z.G.Y.Q.-X=X=XMX%X%X#XQ.Q.#XQ.#X#X#X#X#X#X#X#X^.#X#X#X#X#X#X#X#XQ.Y.W.Q.Q.Y.Y.Q.$X$X#X$X#X#X$X,X,X-X$X,X,XR.{.#XE.#X*X%X$X$X&X$XW.&X0X0X0XzX$X$X$XE. XP.C < 0 2 < < < < < d < < , 3 , 3 2 5 ^ n 3 3 5 & 3 3 < < > r ( c.@X$X&X=X-X{.&X~.{.$XQ.L.W.&X9X=X9X:X:X0X1X1X1X%X1X1X1X-X#X#X-X-X#X#X-X-X#X#X-X1X-X9X0X0XVX#X-X#X$X#X#X-X1X!.#X#X#X#X#X!.#X!.#X#X!.%X%X#X#X!.#X%X#X$X#X#X#X#X#X#X#X#X-X-X-X-X-X-X-X-X#X#X#X#X#X-X#X-X-X#X-X#X#XQ.-X#X#XQ.#X#X#X#X$X9X=X#X-X$X$X-X$X&X=X-X-X$X$X=X#X-X#X=X$X$X-X,X#X=X$X=X=X9X=X-X#X#X-X-X=X,X$X-XW.#X$X-X$X$X,X$X#X$X=X=X$X-X-X#X#X-X-X$X=X&X=X:X$X=X-X=X9X0XNXzX3X9X0X4X-X,X:X=X4X:X*X3XkX7X7XlX2X X4X4X3X2X9X8X8X&X*X4X3X3XkX4X8X9X2X4X8X8X8X4X8X8X8X3X4X4X8X5X8X5X5X5X4X=X;X2X&X;X&X$X&X=X&X*X X XP.E.E.&X;X{.&X%X&X:X=X>X>X=X;X;X|.=X.X&X$X{.;X&X>X;X;X=X&X;X>X;X2X:X X;X.X&X=X&X;X;X=X&X.X.X.X>X;X>X;X|..X;X;X&X;X&X&X.X[.[.[.[.}.;X7X.X{.[.E.R.[.E.I.I.E.[.R.P.R.P.R.D.D.D.].[.R.R.P.D.I.L.D.S.P.I.P.K.I.I.I.I.L.I.U.L.K.L.Y.J.K.v.S.S.K.P.C.C.S.C.F.D.D.C.D.S.F.C.v.v.v.v.v.K.K.K.v.x.c.c.v.x.v.c.P.U.F.C.S.P.U.F.F.L.D.S.C.c.F.K.D.m.c.c.V.m.V.S.c.c.c.S.c.S.V.S.V.c.c.c.c.V.S.m.V.c.c.c.V.h.f.j.c.c.h.h.h.h.h.,.%.h.$.#.%.#.#.1.$.$.h.h.z.h.h.$.>.3.>.h.$.j.$.h.$.j.h.>.>.$.3.h.h.>.>.,.>.$.>.>.",
"*X2X2X2XoXUX.XkXkX5X5XkXlX8X4X;X|.[.E.E.&X:X XW.W.E.C.K.J.J.Y.T.E. XY.~.XX!.~. X%X~.%X%X X%X1X X XL.P.!.*X~.~.~.~.!.%X1X!. X~.Y.Q.W.~.!.E.$XPXPX>X#XH.N.2.A.N.2.z.2.4.z.Z.Z.Y.Y.Y.{.{.{.Q.{.Q.#XQ.Y.N.Y.L.G.Y.Y.Q.D.Y. XW.W.Z.Y.Q.Q.H.H.A.G.B.6.Z.R.G.Z.$XW.Q.A.Z.Y.Z.Z.Z.Z.B.B.Q.L.Y.Q.Q.Q.{.$X,X:X$X=X=X$XW.D.Y.R.1X~.3X3XE.L.Y.Q.H.Y.E.Q.H.Z.N.3.6.B.Z.N.Q.R.#XQ.Q.$X&XE.=X-X$X#X{.Q.$XE.L.G.Z.L.Y.=X$XR.E.Z.L.Z.Z.R.E.-X-XMX$X$X$X!.#X#X^.#X^.#X#XQ.#X#X#X#X#X#X#X-X$X#X#X#X#XQ.Q.#X#X!.W.#X#X$X#X#X#X$X-X-X-X#X$X$X$XQ.#X{.Y.W.$X=X4X-XR.W.#X$X=X:XMX9X=X$X$X,X X( d 0 2 < 2 2 2 < < 2 < < 5 & 5 & < 3 F D 3 3 3 3 < < < 3 < 0 J x.R.[.{.$X$XW.%X$X=X=X=X:X:X9X$X-X&X=X=X-X1X%X0X%X1X1X-X9X-X#X-X#X-X-X-X-X-X-X-X#X#X#X1X9XVX-X-X-X#X-X#X=X#X%X=X-X#X=X#X#X#X!.-X!.#X!.#X#X!.#X!.!.Q.-X#X-X%X#X<X-X#X-X-X-X-X-X-X-X#X#X-X#X#X#XQ.-X#X-X-X#X-X#XQ.#X#X-X#X#X!.#X$X#X=X#X#X1X=XW.E.W.#X$X{.$X=X-X9X,X$X-X,X#X=X-X-X=X9X=X-X=X,X-X,X-X-X-X$X$X#X$X#X-X-X,X$X-X#X#X#X$X#X,X#X=X-X-X,X#X-X-X=X-X=X%X#X=X$X&X-X%X-X,XVX:X=X9X4X1X3X3X&X=X4X7X4X5X7X7X:X7X8X;X4X9X*X2X5X2X4X3X3X8X4X3X&X5X8X8X*X8X8XkX3X8X8X8X8X8X8X4XkX9X5X2X1X1X*X XXX,X&X=X:X>X=X&X.X=X X X~.1XE.E.&X X X*X*X;X&X:X:X=X;X&X;X&X{.&X2X,X;X;X,X;X=X>X}.&X&X&X;X>X.X;X;XoX;X4X>X=X;XoX[.>X.X.X=X.X>X;X;X&X.X.X.X>X&X{.{.}.R.I.R.;X>X|.}.{.}.E.[.@XP.[.E.R.R.[.I.P.L.R.D.@XR.D.E.D.D.D.S.L.D.D.D.I.I.I.I.U.I.~.I.I.~.I.U.I.P.K.K.v.V.z.V.C.v.b.c.z.c.S.V.S.S.G.V.c.v.K.U.L.K.K.v.b.C.l.l.c.v.l.C.v.C.S.F.|.}.L.P.P.D.P.F.F.F.C.S.K.S.S.S.c.S.S.D.m.S.S.c.l.c.S.V.m.c.c.k.c.S.c.S.c.S.x.S.x.m.j.h.h.h.c.F.c.f.h.j.h.$.$.j.h.l.f.#.$.$.h.h.$.h.>.j.$.k.$.$.h.$.$.j.$.,.,.$.3.$.f.h.$.>.f.f.>.>.>.>.1.",
"XXXXoX2XXX2XOX4X7X:XkX;X;X.X{..X[.{.&X;XE.T.K.T.E.R.E.!.T.P.Y.L.~.~.=X3X!. X~. X=X X X~.XX%X&X*X~.~.~.~.~.~.~. X%XE.E.~.!. XQ.T.Q.Q.!.!.{.=XNXNX{.W.T.j.2.2.N.N.6.N.3.N.Y.B.R.R.Y.E.$X#X{.Q.$XE.R.Q.R.W.Y.H.H.H.D.Q.Q.&XY.H.W.W.Q.Z.Z.D.R.W.N.Z.Z.A.D.Y.W.#XL.R.Z.Q.D.Q.W.H.Z.z.#X{.Y.W.R.$X$X#X#X&X#X=X#X{.Y.Q.E.T.T.H.&X%X$X$XW.W.Y.W.$X#XQ.D.Y.Y.G.B.2.2.Q.W.R.Q.$X,X-X{.%X=X{.#X{.#XW.W.R.Q.W.Z.W.&X$X{.E.$X&XE.E.Q.E.#X-XzXW.$XT.$XW.#X#XQ.#X#X#X#X#X#X#X#X^.#X#X#X#X#X#X#X#X#X#X#XQ.^.#XQ.$X$X$X-X$X-X-X-X$X$X#X#X$X#X$XQ.Q.-X-X,X$X-X{.$X$X{.-X:X-X{.,X&X&X XG.d q 2 0 2 < 3 3 2 3 2 < 2 2 2 > < w i D D * & 3 3 5 * 5 3 2 * V $.G.R.#X$X$X$X{.%X,X$X$X:X=X9X1X3X9X9X=X=X1X-X1X%X-X-X-X-X-XQ.#X#X-X#X#X#X-X-X-X#X-X1X1X0XMX#X1X1X=X#XQ.W.Q.#X#X#X%X#X1X#X%X#X#X#X#X!.#XQ.#X=X#XW.#X-X-X#X-X-X#X-X#X#X$X-X-X9X0X-X-X9X#X^.#X-X-X#X#X-X0X-X1X-X#X-X#X#X#X~.!.Q.#X1X#X#X=X1X9X-XW.W.W.$XE.Y.#X$X-X$X$X#X=X=X=X-X-X=X-X$X-X=X9X0X-X-X,X=X=X=X-X=X-X-X#X$X=X=X$X-X#X#X-X#X#X#X-X$X-X$X-X-X-X=X%XW.#X=X$X$X$X&X-X=X0X9X1X0X1X2X1X1X4X=X*X1X2X9X5X9X4X4X2X4X=X*X2X*X8X8XkX3X3X2X4X1X3X5XzX2X2X8XkXzX3X2X4X2X1X3X9X*XXX%X1X X1XXX*X*XXXXX=X&X>X=X:X:X=X&X X>X*X X:X X&X;X X;XXX&X:X&X;X=X;X;X=X&X&X;X2X8X:X&X&X&XiX2X>X:X&X;X;XoX;X>X4X=X&X;X&X6X&X.X X>X.X;X.X&X&X&X>XoX&X;X;X&XoX;X}.[.R.R.I.>X*X[.[.R.}.$X&X[.].E.R.].{.{.{.R.@XP.Q.@XP.@XE.#X[.K.K.S.K.n.K.I.P.U.I.K.U.I.I.I.|.P.K.P.L.D.C.V.K.l.V.v.S.z.C.C.G.S.C.S.S.S.c.S.v.n.C.v.b.l.b.b.C.x.c.z.V.c.l.c.C.F.L.|.|.U.C.n.S.F.R.P.S.S.S.S.C.S.S.S.S.S.m.V.S.V.c.S.m.c.c.c.V.c.f.V.c.V.c.c.m.c.V.V.N.h.h.f.1.f.V.V.j.h.>.j.h.f.j.h.j.%.#.$.$.h.h.h.$.j.h.$.h.3.3.$.%.h.h.>.j.3.f.$.>.f.h.>.>.>.f.f.:.:.,.:.",
"2XXX2X2X2X3X5X*X6X>X6X>XoX.X.X4X;X;X.X;X.X X XXX X X~.E.~.L.~.%XT.&X=X X%XXX1X%X X X~.~.T.~.~.%X1X1X X~.!.T.~. X XE.T.~.~.Q.%X~.Q.Q.!. X$X:XNXMXY.Z.2.2.j.2.N.1.3.4.N.D.R.Q.Y.Z.Q.R.E.$X{.L.Q.Y.H.Q.W.Q.E.Y.Q.Y.Z.B.Y.Q.Y.Y.E.#X-XW.W.Y.N.Z.G.N.H.Z.H.Q.R.R.Q.Y.Y.H.G.Q.Q.Y.R.Q.W.T.$XQ.R.#X X,X$X{.#X=X$X#XZ.D.Y.R.{.#X$XW.%XW.W.W.#XE.$XW.Y.Z.Q.#X#XL.2.N.W.{.$X=X%XE.{.&X=X=X$X{.$X&X=XW.#X{.R.$XG.Z.R.$X$X#X$XH.E.E.Q.E.=X8X%X%X$X$X$X#X#XQ.#X#X#X6.6.#X-X-X#X#X#X#X#X#X#X#X#X#X#X#XW.#XQ.^.$X$X#X,X-X$X$X,X=X$X-X=X$X#X#XQ.Q.$X$X$X-X$X$X$X=X$X#X=X$X&X$X$X{.[.$.d 2 2 0 2 2 3 2 3 2 3 3 4 3 2 < < i R Y A * 3 3 3 3 5 d * < < r X.S.R.}.&X&X&X$X,X=X=X=X=X=X$X=X=X=X=X=X-X%X%X0X0X1X-X1X-X-X-X-X#X-X#X#X#X-X-X-X#X-X-X9X0XVXQ.#X-X=X-X#X%X!.-X%X1X#X%X#X#X#X%X%X#X%X#X#XW.#X#X$X#X#X=X$X#X%X#X-X-X-XQ.Q.#X#X-X-X-X-X-X#X#X0X-X-X-X#X#X#X-X#X~.#X~.#X~.-X#X$X#X%X#X$X-X#X-X-X-XW.#XW.$X-X#XQ.$X,X$X-X=X=X$X9X,X,X-X-X-X,X$X9X-X9X=X-X-X=X-X-X$X$X-X$X$X,X-X-X#X#X#X-X#X#X-X#X-X-X-X#X-X#X-X=X-X=X$XW.=X-X$X9X=XMX0X1X4X9X0X3X8X8X3X9X1X3X9X9X3X9X3X4X4X8X5X8X8X2X4X8X3X*X2X2X4X5X8X8X8X8X&X*X1XXX*XXX*XXX2X%XoXXX1X1X2X1XXXoX*XXX=X;X&X=X;X&X>X&X&X&X=X;X&X.X=X{.&X&X=X:X,X:X=X;X;X&X2X*X;X&X4X3X2X4X:X&X&X;X;X&X7X&X>X;X.X&X2X;XoX*X>X;X;X.X:X.X X&X&X.X;X2X;X&X&X>X.X;X.XoX{.|.[.I.I.P.;X7XE.E.F.{.}.$X}.R.E.R.[.E.@XF.D.Z.L.P.P.P.R.].[.E.L.P.S.I.K.K.J.K.I.I.I.U.K.I.I.P.P.L.C.S.D.F.c.v.z.Z.c.v.c.S.L.S.S.S.V.C.l.z.v.v.b.n.K.v.v.l.f.z.h.v.v.j.k.x.S.P.F.I.}.S.L.S.F.S.F.F.C.S.S.S.c.m.S.m.S.S.V.F.S.S.l.m.c.C.S.C.c.x.V.S.S.S.m.c.c.c.S.V.S.V.h.h.j.j.m.S.F.l.k.k.h.%.$.>.$.f.$.$.h.3.$.$.$.h.h.h.$.f.>.f.f.h.h.h.$.$.$.$.h.h.>.j.,.1.>.>.>.>.>.:.<.",
"2X6XoX2X5X>XkX;X7XlXlXcXkX6X;X>X4X6X>X:X|.*X1X1X3X X|. X~.T.T.~.E.~. X%X~.%XXX X X!.~.~. XE.T.!.XX X%X XT. X=X~.!.~.E.T.Q.Y.E.Q.W.W.W.W.&X7XNXMXE.E.Y.Z.^.Y.Z.N.2.Z.N.Z.Z.Q.D.Z.H.{.Q.E.W.#XQ.W.H.#X{.W.^.Z.T.H.Y.Y.Q.L.R.#X$X$X=X$XY.E.Z.Z.H.N.Z.Z.Y.Y.Y.Q.W.Y.L.B.z.Y.Q.E.Q.$X$XR.R.W.$X{.E.W.$X#X=X=XW.T.Y.T.$X&X{.{.W.&X=X#X$X&X%XW.#X#XH.W.#XQ.H.B.z.T.W.$X$X%X&X%X$X$X&X=X&X=X-X-X$X&X$X{.{.#X$X$XQ.R.#X{.Q.3.2.Q.W.W.=X9XW.=X%X#X#X#X-X#X#X#X#X#X#X#X-X-X#X-X-X#X#X#X#XQ.#X#X#X#X#X#X#X#XQ.Q.#X-X#X,X=X-X-X$X,X-X#X#X#X#XQ.$X-X-X$X=X$X%X#X$X-X$X{.%X&X{.$X[.X.* 2 2 2 < < 3 3 3 3 < 3 3 3 t x 2 q S E x < 3 3 3 3 * 3 * 3 3 e ( j.R.$X{.$X-X$X=X-X=X#X=X=X=X,X=X=X:X=X#X-X1X-X1X0X-X-X-X-X-X-X#X-X-X-X-X-X-X#X#X-X9X1X0XMX#X=X0X%X%X%X#X%X%X%X#X%X%X=X-X%X#X=X%X#X!.$X%X$X%X#X#X-X#X-X#X#X-X-XW.Q.W.#X#X#X#X#X#X-X#X#X#X#X-XQ.-X#X#X1XQ.~.~.-X%XQ.#X~.#X#X#X%X#X#X!.%X$X-X=X=X#X$XW.=XW.#X#X#X$X-X$X,X$X9X-X=X-X-X$X$X=X-X=X-X-X$X=X=X$X,X-X-X$X-X-X#X$X,X#X-X#X#X#X-X#X#X-X-X$X#X-X#X#X!.%X-X%X&X-X&X%X=X=XMXMX1X1X3X8X8X1X1X9X4X3X1X3X4X0X8X8X&X*X4X2X9X3X4X8X2X2X8X1X4X2X3X3X8X8X=X>XXX*XXX*XXX*X2X*X*X%X2X2XXX1XXX~.1X*X=X*X;X&X:X:X:X&X:X:X:X&X:X&X>X&X.X X;X&X&X}.;X&X;X=X.X X*X.X2X=X2X*X>X4X:X:X;X&X&X>X&X:X&X=X&X;X.X&X;X2X;X;X;X;X.X6X&X.X>X.X2X;X.X&X&X.X{.oX{.[.E.R.I.I.[.;X4X|.E.E.@XR.{.{.[.D.@X{.[.{.D.P.R.R.R.].[.E.@X#X|.I.~.K.L.K.U.v.K.J.~.K.K.v.J.I.K.C.K.C.C.C.C.C.v.b.V.z.v.V.P.K.c.c.V.h.j.S.v.v.v.K.c.n.v.v.l.1.h.z.l.C.l.h.h.S.[.P.oXOXS.F.L.S.S.S.S.S.S.c.S.S.C.S.S.l.S.S.S.S.c.S.S.m.c.c.c.c.l.k.k.c.c.c.h.c.V.V.S.S.c.k.$.>.h.c.S.S.c.j.N.h.h.j.h.>.,.$.$.$.$.h.j.h.j.h.j.$.$.$.>.3.1.$.,.,.$.j.j.h.h.3.h.,.h.,.f.>.,.f.>.:.",
"oX2XXXXX&X;X4X2X4XkXlXOX;X;X=X4X&X&X&X|. X1X X8X*X X~.E.~.P.~.E.~.%XE.~.~.%X X!.~.!.!.1X X~.~.XX%X*X~.!.I. X!.%XXXE.T.~.~.!.!.!.!.#X$X&X%X4XMXMX$XQ.R.H.V.N.N.N.B.N.N.Z.B.H.Z.Z.Y.L.D.Z.R.Q.R.Y.L.Z.R.W.Y.Z.E.Y.G.$X:XQ.B.{.#XQ.$XE.#XY.N.Z.Y.Y.B.H.{.Q.Q.R.Q.#XY.Z.H.Y.H.R.=X-X9X#XW.Q.-XW.Q.E.E.Q.R.Y.H.Y.Q.T.W.W.#X$X&X X,X$XQ.&X$X-X&XZ.L.Y.{.Y.Z.Y.2.{.$X=X$X=X=X%X=X9X=X=X:X-X$X=X:X#X{.#X#X$X[.#X#X$X{.{.#X-XE.#X%X$X-XMXW.=X-X%X%X%X-X#X#X#X#X#X#X#X-X-X#X-X-X#X#X#X#X#X#X#X#X#X#X#X#X#X#X#X#X$X#X#X$X$X-X$X#X#XW.,X#XR.Q.$X$X$X=X#X=X#X$XW.W.{.-X$X$X#X{.D.f < 2 2 0 2 2 3 2 2 3 3 2 4 4 y U x q y V 2 * 3 * 3 5 3 3 5 * * 0 X.k.R.E.,X$X=X&X=X=X*X&X$X=X%X#X-X-X=X:XC.6.1X%X1X-X~.-X-X-X#X#X#X-X-X-X-X-X-X#X-X-X-X9X9XMX#X%X-X-X$XW.#X$X#X#X=X#X-X#X1X!.#X%X#X!.#X%X#X#X#X$X#X$X#XQ.Q.#X#X#X#XQ.#XW.Q.#X#X#X#X#X-X#X#X-X-X-X-X#X~.#XQ.Q.-X#X-X#X~.Q.-X%X#X#X!.#X=X-X=X=X$X-X%X$XW.$X%XQ.#X$X$X#X#X=X-X=X-X-X-X#X#XQ.$X$X=X-X-X$X=X-X-X$X#X#X#X,X-X$X$X#X$X#X#X#X$X#X#X-X#X$X#X#X#X#X#X$X%X=XW.#X=X=X=X=X9XVXMX5X9X8X8X8X3X8X9X0X3X3X9X4X3X8X3X3X4X3X8X4X4X4X0X4X2X8X3X4X3X4X2X4X4X;X7X3X3X2X*X1X*X*X*XXX1X2X%X1X2XXX%X*X1X3X2X:X:X&X&X;X:X=X>X:X&X2X7X&X&X=X=X&X>X;X&X=X&X=X}.=X&X;X;X4X4X4X2X&X:X>X:X&X>X7X&X&X>X6X;X&XOX&X;X:X>X4X.X;X&X.XXX;X;X*X[..X&X.X|.>X.X[.[.[.[.}.R.[.{.[.4XkXoX}.E.R.{.[.[.[.[.[.{.{.[.[.G.Q.@XR.[.R.@X[.$XoXI.K.U.C.K.I.v.I.].I.K.I.K.U.U.K.K.S.S.S.C.C.C.c.c.b.v.z.P.V.V.z.c.D.C.c.S.v.v.v.b.b.k.b.b.l.l.h.h.l.c.c.c.c.S.E.}.oXE.S.h.K.v.c.l.S.S.c.c.S.S.S.S.S.c.S.S.V.S.c.S.j.c.l.l.x.c.j.c.j.h.c.c.k.j.k.k.V.F.V.h.f.j.j.k.D.S.k.k.j.f.$.h.$.$.3.>.3.$.$.$.j.$.f.h.h.k.j.j.h.f.j.f.>.>.$.$.f.h.>.f.h.>.>.f.f.>.:.:.>.-.",
"oXXXXXXXXX6X2X5XkX>X2X4X}..X;X2X4X[.oXP.R.*X4X%X XE.~.~.E.E. X%X~.~.oX~.%XXX%X~.~.~. X1X X X!.~.!.XX X!.~.!.!.~.~.~.T.E.~.Q.!.!.#X$X%X%X3XzXVXNX XT.T.T.W.Y.^.V.G.N.N.N.Y.H.Y.D.Y.W.Y.T.Y.^.Y.Q.Q.Q.Z.Y.D.Z.Y.Q.H.Q.E.R.Y.Y.#XW.R.Q.Y.Y.B.H.Q.Y.G.Y.Y.T.Y.Y.Q.T.E.Q.T.W.Y.H.$X=X=X$XR.{.Y.W.W.$XR.Y.Y.^.Z.W.#XR.W.#X$XR.R.$X$XR.W.W.#X$XR.N.Y.Q.Z.Q.R.Z.Y.-X$X=X=X=X=X=X$X9X-X:X$X&X{.:X$X$X&XY.$X$X{.=XQ.&X&X$XR.Q.{.R.#X%X-X0X{.{.#X#X#X#X#X$X#X#X#X#X-X#X-X-X-X-X-X9X-X-X-X-X#X#X#X#X#X#X#X#X#X#X#X#X,XQ.Q.#XW.$X=X#X$X#X#XQ.W.#X#X,X$X-X&X=X$XW.-X=X$X$X#X,XW.1.* 2 < 4 3 5 3 3 2 3 2 3 < 3 4 t S m q q 4 2 2 0 3 < 3 < 3 3 5 < & P >.K.Q.$X$X=X{.=X=X=X-X=X$X#XW.$X=X9X=X$.6.N.D.#X@.N.j.%.@.H.$X$X$X#X#X-X#X-X1X-X-X=X1X0XVX#X-X#XQ.!.Q.%X#X1X$X#X1X=X#X#X$X$X-X#X$XQ.#X#X$XQ.!.W.#X#XW.Q.Q.Q.#X!.W.!.T.#X#X^.!.Q.-X#X#X~.-X#X-X#X X%X~.~.!.!.~.Q.!.%X%X#X$X$X$X#X#X$X-X#X!.#X#X!.!.%X=X#X,X#X$X-X#X#X=X-X-X,X$X$X$X$X#X$X-X=X=X$X-X$X-X$X$X#X#X,X#X$X#X#X#X#X#X$X-X$X-X#X#X$X#X$X#X-X$X#X%X%XE.=X%X%X1X9X1X1XVXzX5X5X1X5X4X9X3X1X5X5X1X5X5X1X5X5X5X3X0X5X3X2X8X8X8XzX8X8X2X7X8X9X7X:X:X7X2X2X&X&X2X X;X=X1X2X4X1X1X1X1XXX2XXX3X2X3X2X&X2X=X;X4X2X;X=X;X:X4X4X4X&X;X4X&X:X:X:X:X=X;X&X;X:X;X=X:X=X;X;X;X;X;X=X4X;X;X=X.X;X>XXX.X;X;X;X;X>X|.[.&X.X.XE.{.{..XoX.X}.E.|.[.E.}.[.[.[.}.{..X7XkX{.[.R.{.R.[.|.}.[.[.E.}.E.L.Z.{.R.R.].@XP.R.R.[.R.D.Z.D.D.D.D.U.I.K.I.U.K.U.I.K.K.v.K.S.C.D.V.V.L.v.C.C.C.c.D.c.V.V.S.V.c.S.V.V.m.l.l.S.l.j.h.1.k.z.c.j.S.m.c.K.U.I.C.v.x.v.c.v.l.c.c.c.c.n.F.S.c.S.S.S.c.c.n.z.x.h.j.c.z.x.z.c.c.k.N.j.c.c.j.h.c.V.F.h.k.h.h.f.h.K.S.c.c.l.x.>.,.$.>.#.$.h.$.3.$.>.h.h.j.f.f.j.f.j.f.$.1.h.3.$.f.h.>.>.>.>.e.>.>.k.d.>.>.:.$.",
"oXoX.XoX.X*X2XXX6X2XkX6X;X;X;X[.[.L.I.K.E.E.E. X%X XE.R.E.~.%X X1X%X1X1X1X*X%X X~.XX1X1X1X X~.~.!.~. X1X~.oX~.E.Q.P.~.^.!.~.~.!.$X#X!.%X3X4XMXzX!.Q.Y.Y.Y.R.Z.B.H.Y.H.Z.H.H.D.Y.R.E.R.^.Y.R.R.Y.R.H.T.T.T.H.B.B.N.D.Y.Q.Z.H.Y.{.W.$XE.Q.Z.Z.H.Z.W.R.T.Y.Z.Y.E.W.Y.T.Y.W.Y.Y.#XE.$X#X#X$XR.Q.W.[.R.Y.R.Y.R.#XW.Q.W.$XR.W.R.#X{.$X-X$X#X{.#XZ.Y.R.^.#X$XZ.L.=X#X$X=X=X$X=X:X=X#X&X-X$X$X#X$X#X#X#X&XQ.Y.$X$X$X#X$X#X$XR.$X%X-X%X0X{.#X#XW.#X#X#X#X#X#X#X#X#X#X#X-X-X-X-X-X-X-X-X#X#X#X#X#X#X#X-X^.#X#XQ.R.Y.Q.#X{.W.,X-X-X,X$X#XY.R.#X#X#X=X=X=X$XW.-X#X&X&X{.&XW.E.( * < 2 3 5 3 3 2 3 2 3 2 3 3 p m T c q 2 2 q x q < 3 3 3 * 3 & & & h ` P.#X$X{.,X&X=X:X$X#XE.Z.1.2.$.Z.:XD.N.9XW.2.9Xj.R.j.>.&X9X=X-X#X#X-X#X-X-X-X1X9X-X-XzXMX-X-X-X#X%X!.!.!.Q.%X%X#X-X#X=X$X$X#X#XW.E.W.W.Q.#X$XQ.Q.W.Q.Q.Q.Q.Q.Q.Q.Q.Q.#XQ.!.!.~.~.~.~.%X-X#X-X#XT.~.#X~.Q.Q.~.~.!.#X#X#X#X#X!.#XQ.!.#X%X1X=X$X#XW.#X#XE.$X#X#X#X#X#X,X$X#X-X-X$X$X-X#X-X-X=X,X$X=X$X#X#X#X#X#XW.=X#X$X$X#X$X$X-X-X=X#X-X#X#XQ.Y.Q.#X=X$X$X$X#X$X~.~.%X1X5X0XVXMX0X5X1X0X3X1X4X3X1X5X0X0X0X1X1X3X3X3X2X5X4X4X4X9X8XkX4X9X2X4X2X2X:X>X:X7X3X2X>X;X.X X X:X*X*X1X1XXXoX1X2X2X1X9X4X1X5X3X*X>X=X&X=X&X7X;X&X:X:X&X=X&X:X&X{.[.#X}.:X:X;X4X=X=X3X4X4X;X&X:X4X;X;X;X=X&X2X;X.X&X;XoX;X;X&X|.&X{. X{.}.{.}.}.}.{..X{..X[.}.[.{.{.[.I.E.R.R..X4X4X].R.R.[.[.{.|.[.R.[.{.{.E.}.R.[.[.@XC.[.C.R.P.@XP.P.P.].@XI.D.U.~.I.~.K.I.K.K.J.n.K.J.D.V.S.c.Z.C.C.v.j.S.S.V.h.D.S.S.c.l.c.c.V.S.S.j.C.c.h.j.l.z.c.z.x.S.l.V.v.S.c.x.l.K.c.c.n.c.c.c.v.c.c.C.c.v.v.v.v.S.S.v.c.c.z.h.c.z.z.x.c.c.V.c.c.l.m.h.f.j.j.V.V.f.f.z.h.l.S.S.c.l.l.h.h.h.$.$.h.$.3.h.h.h.>.k.h.h.f.1.>.f.j.f.$.h.$.h.$.$.>.>.>.>.d.>.>.d.>.h.>.d.;.$.",
" XoX~.oXXXoXUX2X5X;X>X6X;X;X;X*X|.E.E.I.V.<.@.V.E.W.E.E.W.&X=X=X1XXX~.~.~.1X%X%X!.~. X X X1X1X9X X~. X%X1X1X%XXX~.P.Q.~.T.W.!.!.1X%X%X X X8XVXxX XT.L.T.Z.B.B.H.L.Z.Z.Y.H.Y.T.Y.Y.Z.E.Y.Y.W.Q.[.H.Z.G.B.N.Z.Z.z.Z.N.6.2.Z.^.Z.#X#X$X#XZ.L.N.H.D.Q.W.H.H.H.R.W.Y.Y.Z.Y.{.Q.Y.Q.E.R.Q.Y.R.Q.W.W.Q.#XQ.#XY.{.{.Q.Y.{.Y.Q.W.Y.Q.#X$X{.=X%X$XG.Y.A.^.R.Q.Q.Y.#X&XW.{.#X&X=X$X&X#X$X%X&X#X{.{.$X$X$X{.Q.{.#X{.Q.{.$X#X&X$X#X$X#X#X1X0X#XW.$X$X#XQ.#X#X#X#X#X^.#X#X-X-X9X-X-X-X-X-X#X-X-X9X,X#X#X#X#X#X#XQ.Q.Q.Y.W.$X$X$X#X=X-X#X#XW.Y.{.#X#X$X-X=X=XW.#X$X$X-X=X-X{.R.R.J < 3 3 3 3 3 3 3 2 3 3 3 3 0 x B U c q 0 2 y Y c < < 3 3 3 3 3 3 * e _ c.E.$X&X#X-X-X-X3.E.E.I W.=X,X+.3XW.@.$X&X@.-XV.@.Z.P.2.Q.=X-X$X#X-X=X1X-X-X9X9X=X-X=XMX#X#X#X%X#X#X!.#XQ.#X#X#X#X#X#X#X#XQ.Q.#XE.W.$XQ.T.#X!.#X#X-X!.Q.^.Q.#X^.^.^.Q.!.^.~.~.~.#X~.~.~.~.Q.6.J.~.~.~.3.4.J.~.T.!.Q.Q.W.#X%X~.!.!.Q.$X%X$X$X$X#X XQ.W.W.E.$X-X$X#X$X-X$X$X$X#X$X-X=X$X=X=X=X-X$X$X$X$X$X#X#X#X$X,X-X#X$X,X-X-X-X-X-X#X$X#X#X%X=X$X-X-X=X$X#X%X%X X%X2X1X2XVXMX5X1X5X0X9X5X9X3X1X1X5X0X5X2X8X3X9X8X8X5X8X8X8X5X4X9X4X4XlX8X8X4X:X7X7X:X4X3X;X=X;X=X=X&X2X*X1X3X1X1X1X1X1X1X4X4X:X7X3X=X*X:X;X=X;X4X:X;X7X:X>X&X$X>X:X.X>X&X;X#X:X>X=X&X.X4X:X>X>X&X4X7X>X&X;X>X>X&X>X:X;X6X4X&X;X|.}..X;X.X;X}..X&X X X.X X|..X X X X|.E. X[.{.R.}.{.>X7XR.D.[.E.[.E.[.{.{.R.[.&X.XP.E.[.R.R.D.D.Z.@XD.D.P.D.H.D.S.S.P.I.K.U.~.K.J.K.K.K.v.v.K.S.S.C.S.C.V.S.c.c.V.j.x.V.S.G.j.l.z.j.h.S.V.S.V.l.h.j.j.h.z.S.c.S.V.V.V.z.S.c.C.S.C.v.v.S.c.c.v.n.S.S.C.S.v.v.x.c.v.c.c.n.z.x.h.l.x.h.h.c.h.x.k.j.c.c.c.c.c.c.V.c.j.j.k.l.v.K.v.h.h.l.1.$.j.j.$.$.>.3.$.$.,.h.e.h.>.1.j.j.j.f.>.3.h.>.>.j.f.$.z.>.>.>.,.h.e.>.h.:.:.:.:.",
"XX|.I..X.X2XE.|.oX;X;X>X.X>X2X&XE. XZ.Z.Y.6.2.V.W.T.T.T.R.T.E.=X1X1X%X2X%X%X X~.%X~. X X~.~.1X~.1X X~.~.~.~.!.Y.E.~.E.P.R.T. X!. X=X!.1X=X2XnXxX XT.Y.Y.H.A.V.L.Z.E.Q.L.A.Y.T.H.H.Q.G.R.Y.{.$XQ.H.H.B.D.Q.Y.H.Q.Z.B.Z.N.H.R.R.Q.R.Y.D.G.Z.H.Q.H.R.#XZ.Z.Q.Q.R.Q.T.Q.H.Q.L.R.Q.Q.Q.$XQ.Q.R.#XR.Q.Y.R.R.W.Q.$XQ.Q.$XQ.R.Y.R.Y.R.Q.W.$X{.W.W.Y.R.#X#XY.N.Y.&X#XY.,X#X#X$X#X=X&X#X=X#XW.#X&X$X$X{.N.Q.E.$X{.Q.#X$XR.#X&X$XQ.#X#X-XMX#X#X$X#X#X$X-X#X-X#X#X#X#X#X-X=X-X#X#X#X-X-X,X-X9X-X-X$X#X#X#X#X^.#XQ.#X#X1X,X$X=X-X$X&X=X%X#XT.#X$X$X$X&X=X-X#X{.E.$X$X#X{.#XW.L.V < < 4 3 < 3 3 < 2 < < 3 < 4 c U U c 2 < 0 x Q U * < 3 * 5 p m 5 3 3 J f.D.$X$X-X&X&X=X1.I K P ( h.Z.+.:X9XV.N.Z.o.%X4Xz.G.Z.&X&X&X=X=X=X=X=X-X-X-X#X9X&XY.#X9X6.#X#X$X#X#X%X#XQ.W.#X!.#X!.#X#X#X#X#X#XQ.#X#X%XT.#X#XQ.#XQ.Q.Q.Q.^.!.T.^.K.H.~.J.~.~.I.J.v.'.+XU.u.].t.=.p.u.'.+XM.b.V.T.L.Q.W.$X!.Q.W.Q.W.&X#X=X$XQ.W.W.T.Q.E.Q.#X#XQ.#X-X-X-X9X-X#X=X,X-X=X#X$X$X$X-X-X$X#X-X#X#X#X#X#X#X-X$X#XQ.$X-X-X,X-X-X%XW.W.#X$X$X9X=X%X!.E. X8XXX2X2XzXVXMX0X5XzX0X3X9X1X4X1X5X1X5X1X0X5X3X5X5X8X0X3X8X4X1X4X8X8X8X4X7X4X9X>X&X=X=X=X&X=X:X;X&X=X=X1X1X6X1X1X4XoX1X1X2X1X6X:X2X2X;X*X;X2X4X;X&X;X=X=X.X:X:X&X&X&X&X&X&X:X4X:X:X>X=X;X&X>X=X;X&X.X2XkX7X&X>X2X;X&X.X4X*X>X&X;X.X{.;X{.oX;X&X}..X.XR.[. XE. X{.E.{.{.[.E.E.P.R.$X{.7XkX{.{.R.R.{. X XR.{.R.L.[.L.P.E.P.D.R.L.P.D.Z.R.D.R.R.@XP.P.L.P.U.I.~.I.K.K.v.n.n.v.v.v.V.c.V.V.S.c.c.C.V.V.c.G.c.c.c.z.l.c.G.c.c.V.D.V.V.k.S.V.c.c.c.z.V.x.V.c.c.z.c.S.v.v.v.v.C.S.C.v.v.S.v.c.v.l.z.v.c.c.v.h.k.h.h.z.v.l.c.j.h.k.j.j.f.h.h.x.k.h.k.c.f.>.h.j.b.f.v.v.h.h.l.h.h.$.j.j.f.%.h.$.j.z.k.j.h.1.f.>.j.$.>.h.h.$.$.h.h.3.h.j.f.,.h.h.>.>.h.h.>.>.#.+.",
".X.XOXXX2XXX|.2X4X;X;X.XoXXXXXP.K.B.N.J.Z.L.E.!.!.W.!.$XW.$XW.$X X%X~.XX%X X~. X~.~.XX~.~.!.~.XX~.XX~.I.~.~.Y.~.~.E.Z.T.T.W.W.$X X1X$X XXX5XVXcXE.L.!.W.Z.H.J.H.A.Y.T.Y.{.R.^.W.Y.N.W.R.Y.#X#XR.Q.Z.D.Z.R.G.Z.B.N.6.Y.Z.Z.Y.H.Y.R.T.H.Z.Y.Z.Y.Q.H.R.Q.Q.Q.Q.Y.R.^.N.{.Q.Y.Q.Q.$XQ.R.$X{.{.Q.D.Q.#X#X{.Q.#X{.R.#X$XQ.[.R.Y.Q.Q.R.W.W.{.W.R.#X#XG.Q.#X^.$X#X#XY.Y.[.#X#X$X$X{.#X&X$X&XW.Q.{.{.#X{.{.#XW.#X#XE.W.#X$X=X*X$X%X%X1XzXW.$X#XW.#X#X#X#X#X#X#X#X,X-X#X=X-X$X-X$X-X=X-X,X-X-X#X#X#X#X#X#X#XW.W.$X=X=X9X-X#X&X=X#X-X$X{.Q.$X$X$X%X-X=X$XW.{.$X$X}.$X{.W.W.c.a 3 3 < 3 3 < 2 < < < 5 < 3 4 z y S M z < 2 p Q U & * , 5 * z n 4 3 * Z $.N.R.$X=X$X$X=X=XY.#X XI 3.1.j..X:X4X$Xj.' :X:X=X=X=X=X&X-X=X$X9X=X9X1X#XD.T.T.=X@.-X0X2.#XW.#XQ.=XQ.#X-X#XQ.Q.Q.#XQ.#XQ.Q.#X#XQ.W.W.#XQ.Y.Y.T.W.!.Q.Q.^.Z.H.P.P.v.j.=.} r.x.n.'.wXrXpXhXfXhXfXfXfXfXhXfXSXfXM.r.J.J.J.~.Y.~.#XW.T.#X!.-XE.Q.E.Q.Q.!.#XQ.#XQ.#X#X,X$X#X#X#X,X#X$XQ.,X$X$X-X=X,X=X-X-X#X-X-X#X#X#X-X#X-X-X$X%X$X$X$X=X#X%X$X$X#X%X=X1X=X%X%X=X1X1X8X1X5X0XVXzX0X5X0XcX3X3X1X1XXX%XoX1X9X3X0X5X5X5X5X3X2X5X5X8X4X9X8X4X9X8X7X7X7X>X:X:X4X7X:X:X=X:X:X:X1X1X1XXX1XoXXX%XXX1X*X1X2X3X*X2X;X2X*X*X;X;X*X2X=X4X2X*X;X X2X=X&X&X>X=X4X:X>X=X;X2X2X:X7X;X>X:X>X7X4X;X;X:X&X=X:X&X&XoXoX|.oX{.}.[.&X>X&X{..X{.{.[.{.W. XE. X~.E.E.[.~.{.E.{.7X:X[.R.R.P.W.E. XR.E.R.E.E.H.P.E.D.D.L.P.D.R.P.R.D.F.D.D.P.D.P.I.I.K.K.K.K.K.S.K.K.b.v.x.C.v.S.V.S.V.G.z.S.l.h.j.V.S.l.G.V.S.c.V.G.l.S.S.S.V.V.c.c.c.c.j.c.l.j.j.S.S.c.c.z.c.K.v.K.K.v.v.C.v.S.C.b.v.l.c.v.z.v.c.z.k.l.k.c.h.j.1.j.h.1.h.,.h.m.l.m.h.c.h.1.h.j.,.b.x.K.K.v.l.v.1.e.$.h.f.>.$.$.h.$.$.$.j.>.h.$.$.$.>.>.,.h.>.>.>.$.>.>.h.1.h.f.3.k.h.$.$.d.e.$.>.",
"I.I.*XXX2XXX[.XXlX2X4X5X*XUX2XT.Z.2.H.Z.Z.Z.Y.!.T.W.&X$X XW.*XW.!.!.%X~. X X%X~.XX%X1X~.~.XX X~.~.1X~.~.~.~.!.~.R.T.P.E.Y. XE.W.#X~.~. XoXcXVXxX X!.T.T.H.H.K.Z.Z.Z.T.W.#XH.G.R.R.Y.R.W.E.E.$XR.E.Z.H.H.Y.H.Z.T.Z.L.R.E.H.H.L.H.H.Y.Z.N.Z.Y.Z.H.Q.H.H.R.R.Y.H.Q.D.Y.Y.Y.Q.R.Q.E.Q.R.Q.Q.Q.R.Q.R.,X$XQ.#XR.#X#X{.R.$XR.#XR.R.R.#XQ.{.$X$X#X{.R.R.R.G.G.Q.R.W.#XQ.E.#X$XE.{.#X%XR.{.W.$XW.#X$X$XQ.&X#X#X{.E.%X#XW.$X-XW.~.!.$X-XzXW.#X$X$X#X#X#X#X#X#X#X#X#X-X#X#X-X-X#X$X-X-X=X-X-X#X-X#X,X-X#X#X$X$X&X:X=X9X=X-X-X=X=X=X=X=X$X{.=X,X%X%X=X=X%X$X#X#X#X#X{.{.Q.D.P * < 3 4 < 3 3 3 2 3 5 3 < 3 5 q q A M z < 2 i W M 3 3 3 3 5 p p 4 3 & a X.V.D.Y.-X$X:X:X=X9X0X4XV.f ( $.#.&X&XZ.D.N.=X9X&X=X=X&X#X:X=X%XE.Y.&X@.3.-X&XN.&X#.Q.MX6.#X#X%X#X$X$X#XW.#X#XQ.W.#XQ.#XY.#X#X#XQ.W.W.W.Y.Y.T.Y.Q.Q.T.^.Q.E.4X].M.`.wX`.wXrXtXhXfXhXHXHXGXGXGXLXGXFXHXHXfXHXfXSXaXsXU.[.K.Y.~.{.#XW.T.&XW.T.Q.^.W.^.Y.Q.#XW.Q.#XY.#X#X#X$X$X#X$X$X$X=X#X#X$X,X-X#X#X#X$X-X#X#X,X=X$X#X$X#X=X,X-X#X$X#X$XW.$X-X$X%X1X%X1X%X&X$X2X%X8X5XzXzXVXzX5X5X1X1X9X5X5X2X1XXX*X1X5X8X9X5X3X3X1X5X1X8X5X5X4X4X8X8X8X9X7X7X=X:X:X>X=X:X=X:X&X=X&X:X1XXX1X*X1X*XXX1X2X*X4X5X4X4X&X*X;X*X2X2X4X2X*X*X2X2X2X*X2X;X|.&X{.&X4X4X4X2X2X:X*X;X3X4X2X4X:X7X7X&X:X>X&X>X>X>X:X>X;X=X&X;X&X{.{.$X}.&X X&X&X&X{.[.{.E.~. XE.oX XE. XW.{.[.{.;X7X[.R.D. X%XR.E.R.Y.L.L.L.P.L.L.P.R.D.H.D.R.R.P.D.D.D.S.D.S.K.P.K.K.K.v.v.U.b.K.U.v.v.b.v.C.c.C.V.V.z.c.V.c.S.N.S.S.c.z.l.S.z.S.z.j.l.S.S.k.N.c.V.h.h.c.c.j.k.c.j.S.C.n.v.v.K.S.v.K.l.v.v.v.v.n.U.C.x.b.l.v.v.v.z.c.l.f.j.1.1.j.h.,.h.>.>.l.z.x.l.x.z.h.h.h.1.h.,.l.K.v.l.l.l.f.,.h.%.$.$.3.$.3.j.h.h.j.h.>.$.3.>.,.>.h.>.>.$.>.>.>.h.k.,.h.$.>.j.$.h.$.$.$.$.>.",
"|.*XXX2X;XoXXXOX;X>XlX6X2XXXXX*XA.2.B.5.<.b.Y.!.W.R.T.D.D.Y.T.T. X X!. X%X X%X~.~.~. X%X~.XX1X~. X%X~.E.~.~.~.~.!.E.!.~.{.#X XW.~.~. X%X1XUXNXcX X=X~.E.L.L.H.H.H.L.Y.Q.Y.Y.Y.Y.L.Q.Q.Q.L.#X{.Q.Q.L.Z.D.Z.Y.L.Y.N.Z.Y.#XB.Y.H.B.B.H.E.Q.T.Z.G.Z.Y.Y.Q.Q.Y.H.Y.T.Y.Q.W.R.Y.H.R.Z.R.Q.Q.Q.Q.#X$XQ.R.{.#XY.#X#XR.Q.Q.Q.Q.H.G.#XY.R.#X{.W.#X#X#XY.$XZ.Z.#XQ.#X{.#X#X#XE.Q.#XY.{.#XE.W.Y.W.$X,X{.$X$X#XQ.E.$XW.$X=X$XW.&X$XW.W.$X1XzXQ.W.W.#X#X#X#X#X-X#X#X-X$X-X#X#X#X#X#X-X,X#X-X-X$X#X-X=X#X#X#X-X#X-X-X-X=X=X-X-X=X=X-X=X$X$XE.#X=X%X$X=X=X=X=X$X#X{.{.Q.#XZ.D.( d 3 2 5 3 3 5 2 5 < & 3 , 5 3 w 4 y A c i * , p E x 5 5 5 5 3 * 3 4 3 < 2 G e.S.E.$X:X=X-X:X:X9X%X X;..X&X:X8X{.G.P.W.&X:X&XB.Z.z.W.R.:X@.Z.G.z.R.V.=X:XY.E.#X=XMX#X#X-X#X%X#X#XW.#X#X#X#XQ.#XQ.Q.#XW.W.Q.W.W.#XT.$XY.T.Z.H.Z.|.P.+X).'.`.hXpXfXfXfXSXSXHXfXHXfXHXGXLXHXHXHXfXhXfXhXHXhXhXSXHXhXsXUXU.x.Y.E.E.J.W.W.T.^.Q.Q.E.Q.W.Y.#XQ.Q.#X{.#X#X#X$XQ.P.{.#XQ.Q.Q.#X$X#X#X#X#X$X-X-X-X#X#X#X#X$X-X$X#X-X-X,X#X=X-X=X1X1X=X=X1X=X0X=X=X1XMX0XMXMXMXVXzXzX1X5X1X8X1X1X0X1X1X5X1X3X0X8X5X8X5X5X5X1X6X9X4X1X5X1X5XkX7X7X:X:X:X7X=X:X:X:X:X:X&X9X=X*X1X3X1X*X3X1X2X1X3X9X8X8X4X2X:X*X3X4X3X&X&X*X;X;X3X&X2X.X X&X.X=X;X;X=X4X=X>X=X*X2X4X9X4X4X.X.X&X>X;X>X;X&X&X=X2X.X&X>X.X&X.X|.{.&X}.=X&X{.{.}.{.E.E. X&XE. XR.E.R. X[.E.R.E.:X7XE.R.W.~.E.E.P.Y.P.E.R.~.C.Y.K.R.P.R.@XL.D.R.L.F.D.L.P.K.K.P.K.K.U.I.n.K.v.v.I.I.K.b.K.v.v.z.c.V.c.N.c.c.V.N.c.S.z.c.S.j.k.c.G.S.S.C.S.G.j.G.f.j.h.z.G.c.j.c.c.f.c.j.S.v.v.c.v.c.v.l.v.l.z.v.b.l.n.z.n.v.n.b.x.z.l.c.l.h.h.,.h.h.h.j.h.l.h.z.z.c.c.c.l.l.,.>.>.>.1.P.v.b.l.l.,.>.f.$.$.$.$.$.$.$.3.$.$.3.$.j.h.>.>.>.$.>.>.;.>.$.j.h.>.>.>.h.>.$.f.>.>.$.$.$.$.",
"|.UX2XXX.XoX|.[.2X;X5X2X2X2X|.oXB.Z.B.2.4.2.J.Y.T.!.L.W.Y.Y.!.P.Q. X~.Y.~.~.~.~.~.1X~.XX X~. X%X%X~.~.~.I.~.!.XX~.~.%X*X=X:X*XW.~.~.~.XXXXcXFXVX;XE.T.H.E.T.H.H.B.B.B.D.L.Q.Q.R.Q.R.W.R.H.Q.D.N.Z.Z.Z.T.Z.Z.H.Z.B.N.G.D.H.H.N.Z.Z.H.Z.Z.Z.R.Z.H.H.R.R.H.E.Q.Y.Z.G.Z.Q.#XR.H.H.Y.Q.R.Q.{.Q.P.Q.H.Q.Q.R.{.@XQ.Q.{.{.Q.R.{.R.#X#X#X{.#X{.#X#X$XY.R.W.Y.Q.Q.Q.R.Q.H.E.Q.{.#XQ.$XG.W.#XE.Y.Y.T.&X#XR.Y.Q.$XW.#X$X,X-XW.&X$X#X$X$X1X0X#X#X#XW.#X#X#X#X-X#X#X#X-X-X#X-X#X#X-X-X-X-X#X#X-X$X-X=X-X-X#X-X=X&X=X=X=X=X-X&X$X-X=X=X$X$X{.#X-X=X-X=X=X$X-X%XW.,X#X{.Q.Q.h.e * 3 3 3 5 3 3 5 5 , 5 i 5 3 5 x z z c n z < 2 q m 4 3 5 d 5 * 5 x z 3 < % V >.].#X:X=X#X:X:X9X,X=X:X.X=X8X:X7X$X=XL.=XR.&XZ.R.N.W.H.=X&X@.j.Y.( Y.' 2.E.=X:X=X:XMX#X0X#X=X!.$X!.#X#XQ.W.#XW.#X#XQ.#XQ.-X#X#X#XW.Q.#XW.Q.N.H.R.x.+X+XaXpXCXHXCXHXHXHXHXHXHXHXHXHXHXHXGXGXHXfXHXfXhXfXhXfXfXHXHXHXHXCXbXE $.C.Y.L.Y.T.T.T.Y.Q.Y.Y.Y.Q.Y.#XW.Q.#X#X#XQ.#X#X<X$X#X#XQ.R.Q.#XQ.#XY.#X#X#X#X#X-X-X#X#X#X-X#X#X#X$X#X#X-X$X=X-X1X1X%X%X=X9X=X=X0XMXVXVXMXVXVX0X5X5X0X5X0X2X5X5X8X8X5X5X2X2X9X5X5X1X5X3X9X4X2XUX*X1XXX4X7X7X7X:X:X>X=X=X,X:X:X:X:X:X=X=X*X3X3X3X3X1X4X1X1X3X3X4X2X4X*X:X2X*X2X;X*X*XXX;X&X:X*X>X=X.X&X&X$X>X:X;X=X3X;X=X2X;X3X8X8X2X>X2X&X=X*X:X>X;X;X>X;X:X;X.X.X.XoX}.{.{.{.}.&X&X{.{.{.{.~.|. X~.E. XE.E. XE.R.{.oX4XkX[.{.L.E.E.P.E.H.R.R.L.~.H.K.v.R.D.Z.C.R.].Z.@XS.D.S.L.D.P.P.P.K.~.U.I.J.K.K.K.K.v.K.v.K.J.K.b.S.V.c.V.V.C.S.S.S.j.V.S.C.C.c.c.h.l.S.S.c.z.j.z.j.j.z.k.c.c.j.j.c.j.j.c.v.v.c.l.v.v.K.v.l.l.l.n.c.l.l.b.v.v.v.x.x.l.c.l.h.h.h.h.,.j.f.j.h.h.f.h.k.z.l.l.1.>.>.1.>.,.I.v.l.f.1.,.j.h.3.$.$.3.h.#.h.$.#.$.f.f.h.$.$.h.1.>.>.>.:.>.>.3.3.$.#.>.$.$.3.f.$.$.$.f.>.$.",
"2X3X2XoX|.|.|.L.I.oX;XOX|.XX.X XY.B.A.B.b.2.<.z.Y. X!.L.H.Y.E.T.H.E.T.P.!.E.T.~.~.W.~.&X9X!.=X X*X!.W.K. X~.~.P.E.T. X~.~.$XW.&X!.1X X X*XkXnXVX|.~.E.Y. XY.z.Z.Y.Z.Z.A.R.Q.T.Y.Q.{.R.W.{.Z.Y.Z.R.Z.G.R.Z.D.E.Z.H.N.2.N.Y.Z.A.Z.B.Z.Y.Z.Z.B.H.Z.Y.Z.Q.Q.E.E.$XZ.Z.D.Q.W.T.Y.H.Y.T.E.W.W.Q.Q.Q.D.W.Q.Y.W.$X{.#X&XQ.{.Q.{.$XQ.R.{.{.{.$X{.Q.R.#XQ.R.G.Q.#XQ.Q.#X#XR.Q.Q.Y.E.L.Q.Q.#XW.Q.W.W.Q.Q.{.Q.#XE.W.R.Y.$X$XQ.$X%X!.#X#X1XMX$X#X$X!.!.#X#X#X#X#X-X#X-X#X$X#X$X-X#X,X,X$X#X#X#X#X#X,X#X$X#X#X-X#X&X&X-X=X$X-X=X=X=X-X-X{.Q.#X&X{.&X=X$X$X$X$X$XW.#XE.{.B.f 0 d 3 3 5 3 5 3 3 5 3 6 a 4 3 3 c M n M m z , 2 5 3 4 4 3 3 3 5 t S Y y 2 > f | D.$X-X=X:X=X=X4X-X&X&X{.=X7XkX=X:X3X%X,Xz.%XH.2.Z.9X9X=X=X{.j.D.c.$X$X,X0XzX0X0XMXNX#X$X$X%X,X$X$X#X#X#XQ.#XQ.Q.Q.Q.Q.Q.#XY.Y.Q.Y.~.^.T.H.~.J.L.+XsXSXHXHXGXHXHXfXsXHXhXaXHXsXfXhXSXfXHXHXfXSXSXhXhXfXfXfXHXfXHXHXhXfXSXhXz =.z.L.#XY.Y.E.Y.Y.Q.E.#XQ.#XW.Q.#X#X#X#X#X-X=XQ.#X#XQ.G.Q.B.Y.#XY.#X^.Y.Y.#X#X#X#X#X#X-X^.#XQ.W.#X,X$X,X%X9X$X%X=X%X3X=X1X=X=X8XkXMXMXVXMXVX0X0X0X1X5X3X5X5X1X3X5X3X3X0X5X5XkX8X5X0X5X4X3X3X1XXX1X2X4XkX:X:X:X:X>X:X&X0X:X=X7X:X&X-X&X=X$X=X:X=X=X*X2X3X%X1XXXoX2X1X1X*X4X3X1X2X&X*X*X2X4X2X=X2X;X|.&X&X.X.X.X:X:X:X4X2X*X=X6X4X;X;X;X>X;X&X>X:X&X=X&XoXoX&XOX&X&X&X}.}.{.}.$X}.}.$X{.[.{.&X X XR.~. X{.{. X[.{.[.-X>X:X{.E.R.R.P.Y.P.L.P.L.P.T.L.C.b.D.R.R.D.P.R.[.R.S.D.P.R.P.D.P.I.P.P.U.U.K.K.K.I.K.S.K.c.C.C.S.Z.D.R.L.S.S.C.K.Z.G.c.V.C.V.C.V.c.C.V.S.S.S.j.V.k.V.V.j.h.h.j.h.j.l.c.l.v.v.v.v.v.v.v.v.v.v.c.v.S.v.l.1.b.x.v.c.v.n.l.l.l.f.,.1.l.<.f.1.,.1.1.l.f.z.z.l.h.>.;.>.,.1.l.I.v.b.f.,.:.,.h.>.>.$.>.>.<.f.$.3.h.l.h.f.,.,.>.>.>.>.f.1.>.$.$.#.#.>.$.$.3.>.>.$.>.$.h.>.>.",
"oXoXoXoXXX|.|.|.[.[.oXE..X X{.E.H.4.2.N.J.4.B.J.H.Y.Y.H.L.L.N.Z.H.Y.Q.P.~.!.T.~.E.E.E.~.%XE.E.%X X!.E.T.~.T.T.R.~.P.E.~.~.E.W.W. X%X XQ.|.5XVXcX~.Y.T.J.!.T.H.H.Z.N.Z.L.Q.E.Q.Y.R.#X#XQ.R.R.Y.Y.H.W.Z.N.6.D.Z.W.H.Z.Z.B.Z.L.Y.R.Q.R.H.Z.N.Z.H.H.Y.D.Z.Z.Z.Q.^.T.Y.Z.Y.#XG.R.Z.^.D.Z.Q.W.R.Q.{.#X{.W.W.E.W.#X#X$X#X{.#XQ.#X{.{.Y.{.Q.Q.W.{.Y.#X#X#XW.Q.R.Q.Y.Y.Y.Q.Q.Q.Q.Q.G.#X#X$X#X$X#XR.Q.Q.Q.$XQ.#XW.#XQ.#X$X~.!.#X%X#X#X#X0X#X!.#X#X#X%X#X-X#X-X#X#X,X-X-X$X$X#X-X$X-X-X$X$X-X$X#X-X-X#X#X-X$X-X-X=X=X=X-X$X$X=X-X&X=XQ.E.#X#X#X-X#X$X$X-X=X$XW.{.#XQ.j.s 0 < 3 3 3 < < 1 3 * 5 3 4 4 2 4 x x i x m i < < 2 3 1 1 3 3 3 3 y S T S y , q X.F.&X=X=X:X=X9X=X:XR.z.{.{.:X:X:XE.j. XL.D.3X1XD.3.E.1X9X=X{.@.N.R.&X=X=X=X=X9X=XMXMXG.$X$X#X{.#X#XQ.#XQ.Q.Q.#XQ.#X#X#XQ.Q.#X^.$XL.!.~.T.~.U.m.nXfXGXGXHXLXLXHXLXHXCXfXaXfXCXhXsXfXhXfXSXHXHXHXHXHXCXhXhXfXhXHXhXfXfXfXfXfXpXu.R l.B.Z.Q.Y.Z.H.Y.Q.#XW.Q.Q.#XQ.Q.W.W.#X#X$XQ.Q.Q.H.Q.$XQ.Q.^.Q.^.Y.Q.#X,X#X#X#X#X#X#X#X$X#X#X#X$X$X-X=X=X-X#X=X%X0X!.$X1X$X0XMXMXMXMXMXVXzX1X1X1X5X5X1X0X5X0X8X0XzX5X0X0X5X5X1X5X1X4X3X1X3X*X1X5X1X:X8X:X:X:X:X-X&X7X0X8X9X=X&X:X=X=X&X:X4X4X.X1X3XXX1XXX2X2X1XoXXX2X2X;X*X;X*X8X*X*X2X;X*X.X=X=X&X;X=X;X&X>X:X:X:X2X=X:X7X7X;X;X&X;X&X>X:X;X:X>X;X>X.X,X}.&X}.[.[.{.,X$X[.&X}.&X$X{. X X XE.R.E.R.E.W.{.W.{.E..X7X>X&XE.E.R.L.T.E.L.L.T.E.E.K.L.L.R.R.D.L.D.R.F.R.D.@XR.R.].E.I.[.P.~.U.J.C.K.U.L.P.L.S.S.S.V.S.C.C.D.C.S.C.Z.S.S.V.c.S.C.z.V.V.c.c.S.C.V.V.V.N.k.c.N.V.c.j.h.h.z.z.z.v.z.v.l.v.v.K.v.v.K.v.b.v.l.l.l.c.c.x.b.v.v.v.v.f.,.l.,.1.l.1.<.m.l.f.<.l.l.l.x.l.l.l.>.;.;.,.1.].K.l.l.,.,.>.>.1.-.>.-.;.;.$.3.>.$.<.:.;.,.,.h.,.h.<.:.>.<.h.$.#.#.>.$.$.$.$.3.f.>.3.$.$.h.",
"oX|.I.I.|.I.oXP.I.I.I.[.[. X~.E.6.2.B.B.4.4.L.J.J.B.B.B.J.B.B.L.b.T.Y.J.Y.Y.T. X$XE.R.E.~.W.R.T.~.L.L.~.~.T.Y.~. XE.!.~.~.E.E.E.!.|.~. X2XzXnXnX!.E.Y.H.^.J.J.Z.N.B.G.Z.Q.Y.D.Y.Z.R.{.$XQ.#XR.Y.Z.R.Z.Y.L.B.H.E.Q.Z.Z.N.Z.G.Z.H.H.Z.B.@.I B.B.Z.Q.H.B.Z.L.Z.R.Z.D.H.Z.R.Y.Y.Y.B.H.H.Y.Q.Q.R.Q.$X&X#X#X{.W.R.#X$XR.#X#X[.{.Q.$XW.Y.R.L.P.L.Y.G.&X#X#XQ.Q.G.Y.Q.#XQ.Q.#XQ.Q.Y.^.#X$X$XQ.^.G.Q.#XQ.#XQ.^.#X#X#X$X#X!.#XT.Q.#X#X#X0X$X$X#X#X#X1X-X$X-X#X$X#X$X#X$X-X,X#X-X$X-X=X$X-X=X-X-X$X$X$X,X=X-X=X&X-X=X=X=X=X=X9X&X$X#XE.{.-X#X$X-X#X$X$X-X:X-XW.W.{.Q.#.e < < 3 2 3 3 3 3 3 5 < 5 y p 3 4 4 q 4 x x < 3 < 3 3 3 2 < < 3 3 5 A 8.U S q > Z g.}.@X{.=X:XD.[.,XR.{.3.,X9X:X0X=XY.E.L.{.4X$XD.T.$X=X%X=X$X=X=X;X:X:X:XzX:X:X=XzXVX#X$X#X#X#X$X#XQ.#X#X#XQ.#X#XQ.^.^.#XQ.H.^.Q.#X0X!.~.P.+XSXSXSXCXGXGXGXfXHXLXGXFXfXfXhXhXhXfXhXfXhXfXhXhXhXhXfXfXhXhXfXfXfXhXhXhXhXfXfXfXfX`.{ / j.Z.E.Q.Y.Y.T.#XT.Y.W.W.W.H.Q.$XQ.Y.W.{.Q.L.Q.^.Y.#XQ.^.#XQ.Q.^.Q.#X#XQ.Q.#X#XQ.#X#X#X#XQ.#X-X-XW.W.=X=X~.!.$X%X%X=X*X-XMXzXMXVXMXVX0X5X5X5X0X0X5X5X9X8X9X9X9X0X5X0X2X5X1X1X1X3X1X=X2X*X2X2X1X=X:X:X=X=X=X:X&X:X0X:X=X=X&X&X:X=X&X*X=X%X=X2X1X4X1X9X2X2X2X1X2X5X2X3X*X*X2X*X2X2X*X*X4X*X*X&X:X&X&X=X.X&X&X&X&X;X&X;X&X&X&X;X;X.X;X=X>X:X;X>X:X&X4X&X&X&X&X&X}..X&X}.[.,X&X{.[.&X X X&X&X XE.R.[. X{.{.E.R.{.:X4X{.R.R.E.P.~.R.P.T.E.~.T.P.Y.Y.@XW.E.[.D.Y.R.R.R.P.P.P.E.P.P.P.K.U.K.K.K.C.v.K.P.C.C.C.B.C.K.C.C.V.C.c.V.C.Z.V.V.c.V.V.c.z.j.V.c.C.C.z.c.j.j.N.z.k.G.k.V.j.j.h.j.z.x.v.v.v.x.v.v.v.v.v.c.v.|.v.c.l.v.v.c.v.c.v.v.v.l.l.l.1.f.l.l.l.l.1.1.<.l.1.1.1.h.l.<.1.,.>.:.1.I.v.l.l.:.1.>.>.;.>.;.-.=.-.3.>.$.h.,.;.<.:.>.l.>.,.>.;.>.l.,.3.>.$.>.$.#.$.$.$.>.3.j.$.$.#.",
"~.oXI.~.oX|. X|.F.S.E.[.E.E.Y.L.J.4.2.2.4.J.J.~.T.T.Y.B.L.L.Z.J.V.B.L.J.T.L.Y.T.T.&XQ.{.~.W.E.E.!. XE.T.R.~.~.=X~.E.H.H.T.Q.L.E.!.E.~.~. XcXVXMX~.T.H.H.J.Z.H.J.Z.Z.N.L.R.Y.Y.H.Z.Y.Q.Q.#XD.Y.G.Z.Y.T.E.B.G.H.Z.Z.Y.R.Y.Y.Y.Z.H.Z.Z.%.D.2.3.D.Z.D.H.Y.R.G.B.Z.Q.Z.Z.^.Y.H.D.Q.Y.Q.Y.Y.Y.[.#XQ.$X#X#XE.W.R.#X$X$X#X$X#XR.#X{.#XQ.#XQ.Q.Q.Q.{.Q.Q.#X{.$X#XW.^.Y.Z.^.^.Z.Y.Q.Y.#X#XQ.Q.^.R.#XQ.#XR.Q.Q.#XY.#XY.Y.#X!.#XQ.^.T.#X9X0X$X$X%X=X-X#X=X-X#X$X$X#X-X-X$X-X-X-X$X-X#X#X#X9X-X$X-X-X=X#X#X-X=X-X=X=X&X=X-X=X=X:X-X-X#X{.W.W.{.W.$X$X$X=X=X=XW.R.Q.Y.N.J < < 3 2 3 3 3 < 2 3 5 3 2 i x 3 6 q 2 t x i 2 2 2 3 3 3 3 2 3 < 3 3 2 S ] U y < 2 o.c.#X&X{.j.G.&XD.:XQ.R.=X9X9X=X$X#X{.=X:X=X=X=X=X&X=X=X=X:X&X$X=X=X=X:X0X:X0X,X0XMX^.$X$X$X{.#X#XQ.#X#XQ.Q.W.#XW.#XY.Q.#X^.Y.Y.Q.Y.H.[.v.fXfXfXHXfXfXwXGXGXHXGXHXHXhXhXHXfXHXHXfXfXhXhXHXHXHXhXfXhXfXhXhXhXhXhXHXhXgXhXhXhXhXhXgX`.0.>.Z.^.Q.^.Y.^.Q.Z.H.Q.T.Y.Q.Y.Q.W.#XQ.Q.Y.Q.H.Y.Y.Q.Y.Q.Q.#X#XQ.#X#XY.#X#X#XQ.#X#XQ.#XR.#X$X%XW.W.E.T.$X%X$X$X%X1X$X-X=X4XMXzX0XMXzX0X1X5X1X0X3X8X8X4X9X3X9X2X0X3X1X1X2X1X1X3X3X2X=X2X1X1X1X:X:X:X{.=X=X$X=X$XzX:X,X#X&X=X-X*X X&X&X X*X3X3X3X%X3X2X2X2X*X%X3X*X2X2X4X1X&X2X4X2X2X3X4X6X&X&X}.&X{..X;X;X&X&X=X&X|..X&X&X}.;X;X{.&X=X&X;X:X:X4X}.&X>X&X&X&X&XoX[.[.&X.X&X}.&X&X X X&X X XE.E.E.W.E.R.R.[.{.7X:XW.R.R.E.R.R.T.E.E.E.P.P.~.Y.P.R.E.E.R.P.P.R.P.R.P.R.P.I.F.L.P.K.~.P.n.K.n.K.K.K.S.C.D.L.S.C.Z.C.V.C.Z.N.V.c.b.B.C.C.V.V.N.V.c.C.c.S.C.V.V.c.c.h.e.j.j.V.j.j.j.1.h.l.b.v.K.b.v.v.v.v.v.c.K.v.v.v.v.v.v.v.v.b.n.v.L.c.,.,.1.l.l.l.l.b.x.b.f.1.1.1.<.1.<.,.,.;.-.-.;.b.v.b.l.l.1.h.>.>.>.>.>.-.:.>.$.>.>.>.>.l.;.>.,.-.-.-.;.,.,.h.$.>.h.f.2.$.,.3.$.$.$.$.$.j.1.",
"XX.X[.[.oX|.|.oX{.|..X[.R.P.R.Q.J.2.4.6.J.b.J.L.H.T.Y.L.J.K.J.H.B.H.T.Y.~.Q.T.~.&X XR.T.E.$X$XY.Y.E.!.W.~.~. X&X~.T.I.T.~.P.~.~.T.T.~.~.XX8XVXMX XT.^.T.J.H.Z.H.V.2.2.G.N.B.D.Z.Q.Q.R.D.E.Q.R.Y.H.Y.R.W.#XZ.Z.Y.L.D.Y.T.Y.H.Y.Y.Y.V.R.N.@.2.B.G.H.Q.E.Y.H.H.Y.Z.Y.Z.Q.{.#XY.Y.Q.R.Y.Q.R.H.W.#X{.H.E.R.B.N.{.$X$X,XE.#X$X$XR.R.Y.#XY.R.#X#XE.Q.#XQ.<X&XW.G.#X#XY.G.Q.Q.H.Y.^.Q.^.Y.^.A.Y.Q.Y.Q.Q.^.#XQ.#X#XQ.Q.#X!.!.Q.Q.#X$X=X0X$X$X!.-X-X-X=X-X#X#X,X#X-X-X-X,X-X-X$X-X#X$X$X,X-X,X-X$X$X-X$X=X=X=X=X9X=X-X&X$X=X=X=X=X$X#XQ.$X#X-X&X-X$X=X-X$X$X$XR.Z.j.V d < < 3 3 2 < 3 2 3 , < 5 5 c d 3 4 2 y n x 4 3 < 3 3 3 < 5 < < 3 3 4 i W W c 3 % V k.[.D.z.D.>.R.N.:X=X:X=X:X9X9X4X9X:X9X:X:X=X9X9X=X=X=X$X3X=X:X=X:X:X:X:X$X-X:X0XVX-X<X#X,X$X#X#X#XW.Q.Q.#X#XQ.#XQ.^.Y.Q.T.T.Q. X2X5X:.`.fXSXhXfXfXfXhXCXHXCXHXpXhXhXfXfXfXhXHXfXHXfXSXfXhXhXfXfXfXhXfXfXfXhXhXhXhXhXgXhXhXfXgXhXpXtXS j.C.Z.Z.Z.^.Y.Y.Y.^.T.Y.Y.W.^.Q.W.Y.Y.H.^.G.Q.Q.Q.Q.Y.Q.G.^.#X^.#XQ.^.#X$XY.#XY.^.#X#X#X,X$XW.#XE.#X{.%X%X1X1X$X%X#X&X=X7X5X0XNXzX5X5X5X8X5X1X5X3X1X2X=X3X1X4X1X9X1X1XXX3X&X&X=X*X=X>X&X,X:X#X{.#X&X=X*X-X$X&X:X:X&X&X,X&X%X$X&X7X*X3X8XzX8X5X0X3X4X5X6X4X2X2X&X2XkX*X5X4X8X=X5X:X&X&X.X&X{.$X{.;X}.4X{.{.&X:X&X&X&X&X&X,X>X;X;X&X&X&X>X;X=X&X{.[.&X{..X&X&X&X#X&X|.}.$X&X&X.X$X*X X~.R.E.E.E.E.R.R.R.{.>X2XR.T.E.E.E.E.E.~.E.~.E.E.~.P.E.{.R.R.R.R.E.E.].P.R.P.P.P.P.P.I.P.I.K.K.v.L.K.U.I.K.v.Z.V.Z.K.b.V.c.B.z.V.C.C.V.V.V.S.b.z.V.V.b.c.C.C.C.V.c.j.c.1.j.j.j.1.j.c.j.j.l.l.C.S.m.b.c.v.v.b.v.n.v.l.n.c.v.l.v.v.v.v.c.c.v.b.l.f.1.,.,.f.:.l.1.,.<.<.<.<.<.-.<.;.,.;.-.-.,.K.v.x.l.h.<.1.h.h.,.>.>.;.-.>.>.>.1.,.h.>.;.,.,.<.>.,.-.>.,.>.$.;.>.>.>.$.;.$.>.#.$.3.$.#.$.",
"|..X|.*X6XoX|.~..X{.[. X|. XE.H.6.6.T.J.2.b.4.J.H.J.H.T.H.B.B.K.J.T.E.Z.H.E.Q.E.W.Y.W.W.W.$XE.W.W.~.E.W.$X!.!.~.~. X%X~. XT.E.E.I.~.T.~.~.5XFXcX XT.J.T.J.H.B.Y.Z.N.N.N.B.Z.Y.Y.{.#XL.Y.Q.R.Z.G.Y.Y.Z.W.Y.Z.D.Z.B.Y.N.B.Q.L.Y.Z.N.N.Y.B.N.N.Z.Y.R.Z.R.Z.Y.Y.H.B.Z.B.R.Y.#XY.R.Z.Z.Q.E.Z.B.Y.Q.{.{.Q.Q.Z.Q.R.@X#X{.E.R.{.$X$XW.R.R.Y.R.R.$XR.#XR.W.Y.{.#X#X#XY.H.N.^.Q.Q.#X#X#X#X#X#X#XQ.Q.Z.Y.Q.#XQ.Q.Q.#X#XQ.Q.#X!.!.#X$X#X%XMX%X#X#X=X#X#X-X-X#X#X#X#X$X#X$X-X-X#X,X$X$X$X=X=X=X=X,X$X-X-X-X$X=X=X=X=X=X=X-X-X-X-X&X-X&XQ.Q.$X$X$X{.-X=X=X-X&X$XW.Y.D.j.r < 0 3 2 1 3 3 2 3 3 5 3 3 < x q q 4 4 p c c 4 < < < 2 3 3 3 < 3 3 3 2 y S 7.7.A < e X.F.oXG.R.C.=X=X=X7X8X:X=X=X=X:X:X:X:X=X=X4X=X=X=X*X&X=X%X,X:X&X=X=X:XkX9X9X:XMXVX#X-X#X#X#X#XW.#X$X<X#X#XQ.#XR.Y.^.Y.Q.Q.T.E.oXxXx.y.aXfXfXSXfXfXfXHXhXHXfXCXSXHXhXfXfXhXhXfXfXHXfXhXhXhXHXfXhXhXfXfXfXfXhXHXhXfXhXfXhXfXhXpXhXpXpX7.Z z.B.Z.^.Z.^.T.Y.Y.T.Y.Y.$XY.Y.Q.Y.Y.A.Y.^.^.^.^.H.^.#XY.Q.Q.#X#X#XQ.Q.#XQ.#X#XQ.G.Q.Y.R.#X#XQ.{.L.#X=X=X=X=X#X*X&XW.&X&X1X0XMXzX1X1X1X1X1XXX*X*X X2X2X8X1X3X3X1X1X1X%X%X=X=X%X=X%X$X$X#X-X$X{.$X&X$X&X&X:X$X$X&X{.{.=X=X%X&X&X&X=X=X4X*X9X8X2X2X5X5X*X1X2X=X.X3X2X&X4X*X2X&X X X XoX|.=X&X{.#X}.#X=X&X[.&X&X&X&X}.&X].oXoX,X.X>X>X&X.X,X}.&X$X&X;X}.&X&X&X&X}.}.&X;X{.{. X X|.{. X X X|.R. XE.P.P.R.E.7X3XoXP.E.~.E.Y.P.E.I.E.E.E.~.~.E.P.D.[.P.D.L.R.P.K.P.K.L.L.P.P.I.K.~.I.P.K.K.v.K.K.K.C.z.C.Z.C.C.B.C.Z.V.b.B.V.b.V.Z.V.V.V.N.V.c.b.V.z.c.j.c.l.G.j.j.j.c.j.h.j.j.C.j.V.x.b.v.l.x.c.v.x.S.l.b.b.v.v.v.v.v.l.l.l.l.v.l.l.x.l.,.l.l.b.,.1.<.-.<.<.-.<.-.<.<.,.,.<.-.;.;.K.v.v.c.l.1.;.>.,.-.;.>.-.-.1.,.>.>.>.;.>.;.>.>.f.,.,.,.>.>.$.3.>.>.,.$.>.$.>.#.$.3.>.$.>.$.",
"XXoX|.oXoX|.|.oX;X>X|.}.{.E.R.B.4.J.^.J.B.b.4.4.4.J.J.T.Y.B.J.Z.C.b.H.L.L.H.E.~.W.W.Y.Q.$X$XE.$X X$X$X$X%X XI.E.T.P.!. X~.!.%XT.~.T.~.~.%XcXVXcXT.~.J.J.N.N.N.A.H.Z.Z.Z.Y.D.Z.H.Z.Q.Y.Y.T.Y.Z.Y.E.Q.H.Y.G.Z.V.Z.2.3.V.Y.H.Z.Z.D.N.Z.Z.H.Y.Y.Z.H.Z.Z.Z.^.Z.Z.B.B.B.D.Y.Q.{.{.Y.H.Z.{.Q.Q.Y.L.Q.Q.#XQ.H.B.Y.R.^.Y.Q.{.Y.$X#X$XR.{.R.#XQ.#XR.#XW.#X#X{.#XQ.Q.^.^.#XZ.#XW.#X#XY.Q.Q.Q.Q.^.^.G.#XQ.^.Q.Y.Q.Q.Q.Q.Q.!.!.Q.!.%X#X!.#XMX-X%X#X#X$X#X#XQ.#X#X#X#X-X$X-X-X&X#X#X$X#X-X$X=X-X-X$X$X$X-X$X-X&X=X=X=X=X=X-X$X$XW.Q.W.#X#X{.$X&X-X-X$X%X$X-X%XW.Y.L.S.+.q < 0 3 5 3 3 3 5 3 < < 5 < 5 c p 3 2 2 y V x 2 , < < 3 3 3 3 * 3 * 5 2 y U v W S 2 > Z c.}.>X>X&X;X=X:X:X:X=X:X,X=X9X0X:X9X=X0X=X=X=X=X=X=X&X:X=X:X=X9X=X0X:X,X0X=XzXVXH.-X-X{.$X#XQ.W.W.Q.#XQ.Y.Y.Q.Q.Q.Y.^.Y.R.I.kXr.z rXfXfXfXgXfXhXCXHXfXHXHXHXHXfXHXHXfXfXhXSXfXfXHXfXHXSXfXSXfXhXSXHXhXfXfXhXhXfXhXhXfXfXhXhXhXtXpXtX7.( B.N.A.Z.E.Q.Q.Y.W.^.Q.Q.Q.Y.Q.Z.Z.Y.Z.N.Z.#X^.^.Q.Y.#X^.Q.#XQ.Y.Q.Q.G.Y.Q.,XQ.R.#X#X#X#X$X#X#XW.#X&X$X%X$X%X&X=X=X:X9X1X5XMXzX1X0X1X5X1X1X*X1X X*X1X*X1X2X9X1X1X1X%X X$X&X$X$X$X$X#X}.{.$X$X}.{. X,X[.#X$X#X{.W.$X=X.X X%X~.&X1XXX=X&X5X1X1X3X0X*X4X3X2X&X2X;X1X2X4X*XXX|.=X&X|..X&X.X{.&X[.#X&X{.}.&X[.{.{.}.:X.X&X{.&X=X:X>X.X;X&X&X&X$X}.[..X{..X;X;X&X{..X}..X.X{.{.|. XXX XR.~.E.~.E.T.~.R.R.{.4X2XW.E.P.P.~.P.L.L.T.L.E.E.E.Q.E.P.R.L.R.R.L.R.P.P.K.P.P.P.U.K.I.].I.P.L.L.v.K.K.K.v.v.C.v.V.C.b.K.V.Z.v.C.V.V.b.Z.v.b.C.Z.V.V.C.V.c.j.C.j.c.z.j.j.j.j.c.j.j.z.j.V.V.h.j.c.l.c.l.b.x.c.v.x.b.v.v.v.v.v.v.v.b.x.l.l.v.v.l.l.l.l.x.l.l.<.,.l.<.-.<.<.=.;.<.;.=.<.;.;.,.U.v.v.v.1.:.<.>.>.>.,.,.:.,.h.1.>.-.#.-.>.f.;.;.>.,.>.,.,.>.,.f.1.>.>.k.>.$.#.>.$.$.$.$.>.>.",
"|.~.|.[.~.XX|.|.&X&X XE.E.E.R.A.<.4.4.4.4.4.4.6.B.J.K.A.H.L.H.Z.z.b.J.Y.Y.Q.!.!.$X{.{.T.Y. X&X XW.T.L.W.=X!.~.!.!.~.I.!.E.E.~.~.%X~.~.~.XX5XnX5XH.H.J.J.N.2.3.B.Z.B.N.2.N.^.Y.L.R.W.Y.Y.E.R.Z.H.Y.{.D.Q.R.Z.Z.H.%.@.@.V.B.Y.Y.Q.Y.Z.N.Y.Z.H.B.B.G.N.Z.N.N.Z.Y.N.H.Q.H.Y.Q.Q.Y.Q.Q.R.Q.R.Y.Q.Q.E.Q.{.{.Y.N.R.W.#XR.Q.Q.#X$XR.#X#XQ.R.R.$XQ.Q.R.Q.#X#XQ.#X#X#X#X^.^.Y.Y.Q.#X#X#XY.Q.#X#X#X^.#XY.Y.W.#XQ.W.Q.#X#X#X!.T.!.#X#XQ.#X0X!.-X#XW.W.#X#X-X#X#XW.#X#X$X#X#X#XQ.#X#X,X-X-X$X-X$X#X-X-X,X#X$X$X=X-X%X=X-X-X{.$XW.Y.E.W.W.#X&X#X-XW.&X$X=X{.#XR.T.D.G.J d < 2 2 5 2 3 < < < 5 3 < 3 5 c i 2 2 w z c y , , 2 2 1 3 3 3 3 3 3 5 6 q 8.w.S S 2 , a $.[.;X,X:X>X7X:X:X=X#X-X:X:X:X=X:X:X=X:X=X=X:X=X=X=X=X=X&X-X:X=X0X,XzX9X=X0XzXNXY.#X#XQ.Q.Y.Q.#X#X#X#XQ.#XQ.^.^.Y.Y.^.Q.E.iXyXS p.dXfXfXhXpXhXfXfXhXhXHXHXfXHXHXHXhXfXhXhXhXhXfXhXfXfXfXHXSXfXfXSXHXHXHXfXHXhXhXfXhXfXSXgXtXhXhXpXhXhX`.` N.Z.^.Y.E.Q.Q.Y.W.A.Q.Z.^.H.A.#XZ.Q.^.#X^.Q.^.^.#X^.#XY.Y.Y.Q.#XQ.Q.Q.Q.Q.Z.#XQ.Q.R.#X&X#X[.R.W.9X=X%X1X=X=X=X=X3X=X1X0XMXzX5X2X1XXXoX~.%XoX~. X2X1X=X X1X%X!.~.%X1X&X$X$X$X-X&X$X$X$X#X{.Q.$XW.W.$X[.$XR.W.W.E. X X XW.&X X X~.&X&X1X2X2X3X5X1X2X6X2X7X*X&X&X2XXX&X X&X}.|. X.X X&X.X{.{.}.&X}.{.#X}.$X[.&X&X&X&X.X&X{.&X>X&X$X&X&X}.}.}.$X.X{.oX}.,X&X{.}.$X{.{.{..X X~. XE.~. X|.E.R.T.P.R.{. X;X:X XI.T.E.E.!.E.L.Y.P.P.R.E.~.P.R.D.D.R.P.L.L.P.P.K.P.E.P.L.U.P.P.P.L.K.K.S.K.U.K.v.Z.v.Z.K.v.Z.Z.K.Z.v.V.V.V.C.K.Z.b.V.c.N.c.C.V.c.c.V.V.j.j.j.j.c.j.j.z.c.c.j.j.V.c.c.v.v.c.b.v.v.v.v.v.v.v.v.v.v.v.v.v.n.b.v.c.v.l.l.l.l.<.,.l.>.l.1.1.<.<.<.<.<.<.-.-.<.,.>.-.1.P.K.C.v.h.h.h.l.l.l.,.;.;.<.j.h.-.>.>.>.;.,.l.f.<.,.l.>.,.,.3.>.>.$.>.j.h.$.$.$.#.$.#.>.3.h.",
"~.~.~.~.L.I.~.~.~.~.oXJ.P.J.L.b.2.4.B.B.4.N.6.N.B.Z.B.6.N.4.N.B.Z.J.Y.Q.~.~.~.~.~.~.~. X~. X$X!.~.E.~.~. XR.T.L.E.1X$X{.Y.E.W.W.!.T.~.%X X5XxXcX^.^.6.b.2.B.N.3.N.Z.z.2.3.Y.H.Z.Q.R.W.{.Q.Y.H.L.W.Q.D.Y.Y.Q.E.Z.Y.;.%.A.H.Y.D.Y.L.N.N.Y.Y.Y.V.Z.Z.B.Z.j.6.H.D.Z.Z.Y.Y.Q.W.T.Y.Z.W.D.^.Y.Y.Y.Y.R.T.Y.E.T.^.Y.W.#XQ.Y.L.#X{.$XE.#X#XG.E.W.W.W.Y.#XQ.$XW.Q.W.Q.Y.Q.A.Q.H.Q.#XH.Y.^.#XQ.Q.W.Q.Q.^.Q.#X#XY.Q.#X#X#XY.Q.#X^.G.^.#X#X0X-X#X#X<X#X#X#X#X#X$X-X#X#X#X-X$X-X$X#X$X#X#X$X$X$X-X,X$X$X#X#X$X$X#X,X$X=X,X$X#X&X#XY.{.Q.Y.W.$X$X$XW.{.$X$X#X&XE.E.j.#.f < 3 3 3 3 3 < < 3 3 3 5 2 4 4 x a 2 2 i c x y , 2 2 < 2 2 2 2 2 2 < 2 0 2 U 9.A 6 , < 3 ! F.&XOX&X7X}.,X{.&X=X;X&X=X=X9X=X=X=X9X9X9X-X=X=X-X=X-X=X$X=X:X:X0X:X:X:X0XzXMX^.#X#X#XQ.Q.#X#X{.Q.Y.Z.^.#XY.Y.^.Y.Q.W.&XjXrXs.fXhXhXgXfXfXhXhXhXfXhXhXHXfXHXHXhXfXfXfXfXhXSXhXSXfXHXHXHXHXGXHXHXHXHXHXHXSXfXfXHXfXfXhXhXhXhXhXfXhXfXhXp.=.b.D.Y.W.Y.Y.Y.L.Q.Q.Q.W.H.Z.Y.B.Z.Z.Y.T.Z.N.N.^.#X#XY.Q.^.#X#XQ.Y.G.Q.Q.Y.Q.#XQ.W.$XQ.Q.$X-X=X=X$XT.%X%X$X%X%X=XW.%X9XMX0X-X&X X{.{.R.H.L.R.W.$X$X$X$X{.{.-X#X&X#X$X$X#XQ.#X$XW.#XR.#XG.Q.Q.#X#X#X#XY.Y.#XQ.#XQ.{.#X{.{.R.$XW.&X{.&X=X=X2X:X6X;X=X;X;X1X1XXX=XXX X&X&X}.&X{.}.{.$XE.{.$X{.=X X2X~.{.{.$X{.|.E.E.|.&X&X*X&X=X&X&X{.[.{.$X{.$X{.{.$X}.}.#X[. X X X XE. XE. X XR. XE.T.P.P.K.L.!.~.4X:X{.L.P.E.T.E.T.P.P.Y.P.T.|.E.P.D.R.R.C.P.D.@XD.@XR.D.D.D.D.S.P.P.P.P.U.L.K.I.P.P.K.C.K.C.v.J.v.C.V.Z.V.V.z.v.C.V.C.C.b.z.N.c.V.z.z.V.z.j.j.2.3.<.2.h.j.b.j.j.j.N.c.V.c.b.z.V.z.c.K.v.v.K.v.v.v.v.K.v.v.v.v.x.b.v.v.b.l.x.x.z.1.,.f.1.>.<.l.l.>.<.1.,.l.-.1.,.,.,.,.K.K.C.v.l.l.b.v.c.,.:.;.-.-.>.;.;.,.,.,.,.,.,.>.h.,.1.>.>.,.,.>.$.3.$.1.,.$.;.$.#.#.$.%.#.#.",
"~.I.~.~.~.~.I.I.~.I.oXJ.J.L.J.^.4.4.B.4.2.4.N.Z.Z.Z.A.6.4.6.J.Y.!.Q.Y.W.E.!.~.T. X XE.Q. X!.~.P.~.!.~. X~.T.R.T.#XE.W.W.Y.W.W.R.Q.~.E.W.&XkXnX8X~.b.6.b.2.6.2.N.2.N.N.Z.N.B.Y.Z.D.Z.Q.W.R.Q.Y.Q.W.Y.Q.Z.Z.Q.E.Y.T.4.5.$.N.T.Z.N.Z.B.N.N.H.H.Z.Z.H.Z.B.B.L.G.Y.H.Y.W.E.H.Y.Y.Z.Y.Q.#X$XR.R.#XY.Q.Y.Q.$XY.R.R.Q.R.Q.R.Q.{.$X#X#XE.E.Q.W.Q.H.H.Q.Y.Y.W.W.#XQ.!.#X#XY.Q.Q.Q.#X#X^.Y.#XQ.Q.<XQ.T.Q.W.Y.^.#X^.Q.Q.Q.Q.#XQ.#X#X#X#X#X0X-X#X#X#X#XQ.#X#X#X#X#X,X#X#X$X#X$X#X#X,X$X-X$X,X$X#XW.#X#X{.#X#X$X#X-X$X$X$X#X-X$X$XQ.Q.W.{.#X-X$X{.#X#X$XW.Y.R.E.D.V.( d 2 3 < 3 3 3 3 < 5 < 3 5 3 4 4 z c 4 4 x x x 0 < < 2 2 < 2 2 0 2 2 0 2 2 < 5 E E 2 5 < , H S.[.}.F.D.$.V.Y.R.{.&X:X=X-X=X9X=X=X=X9X=X-X9X-X-X-X=X=X=X=X=X=X=X,X:X0X,XzXMXQ.W.$X#XY.Q.Q.Y.Q.#XY.^.Q.#XY.Y.^.T.R.{.D.0.(.hXhXhXeXhXhXfXhXpXrXhXfXfXSXfXfXSXSXfXHXSXgXSXHXHXHXHXHXHXHXGXHXLXLXHXLXGXHXfXfXfXhXfXHXfXfXhXfXfXhXhXfXhXeXr.=.c.V.H.R.N.Q.Y.Z.H.Z.Y.Q.A.Q.H.Q.H.Q.T.6.N.2.G.^.Q.#X#X^.Q.G.#XQ.Q.Q.Q.Q.Y.#XG.Y.R.{.#X$X#X$X=X=X%X%X1X!.!.!.%X=X$X-XMX0X{.#X#XR.$XR.W.W.R.W.R.W.=XE.W.#X#XE.$XE.{.$XE.Q.Q.R.#XY.#XY.Y.Y.^.#XY.Q.Y.G.Y.#XQ.Q.#XW.{.#XQ.#X#X$X#X-X!.*X&XW. X&X=X:X2X*X&X X X&X XE.&X$XW.&X,X$X{.[.E.W.R.W.E.P.T.T.R.{.E.R.~.T.[.W. X&X{..X|.{.:X.X{.{.[.}.[.{.R.$X$X{.{.&X X&XR.R.oX~. X~.~.R.P.T.E.E.T.L.T.I.E.4X;X{.E.R.R.R.E.P.L.E.I.H.L.T.T.P.R.F.L.@XD.D.P.L.D.D.@XD.F.D.S.U.K.C.P.K.I.L.K.L.P.K.C.n.C.C.K.K.K.V.v.K.C.B.b.H.C.V.b.V.b.z.b.V.z.V.V.b.j.b.j.h.l.j.b.z.c.z.3.z.1.V.z.j.c.c.c.V.z.b.v.v.n.C.z.K.v.v.v.v.z.v.v.v.c.l.z.f.l.z.l.x.l.,.>.>.l.l.l.l.,.>.>.,.>.,.,.,.f.l.v.S.n.v.v.l.l.l.c.,.,.>.-.-.,.>.>.<.,.>.>.,.,.>.;.,.f.1.,.>.>.>.>.>.h.h.h.$.$.#.#.#.>.#.$.$.",
"~.XX~.J.L.~.I.~.oX~.~.I.K.J.L.J.4.B.V.6.4.4.6.A.B.N.B.2.4.4.N.N.B.~.!.!. X~.!. X%X%X X XT.T.~.~.!.~. X~.Q.T.E.T.W.T.W.%X$XW.{.W.~.~.~.~.*XkXnXNX~.J.J.J.2.2.3.2.2.N.N.N.Z.Z.N.H.H.Y.Z.Y.Q.#XL.H.D.W.W.H.Z.N.G.Y.Y.Z.H.H.N.Z.Z.Z.N.B.Z.N.Z.Y.^.Z.N.B.B.Z.^.Z.Y.Q.Z.Q.W.Y.Q.{.E.^.Q.R.E.$XQ.{.Q.$XE.Q.,X$X#XQ.#X$X{.#X$XQ.#X{.&X$X#X$XQ.Q.T.$X#XW.Q.T.Y.%X$X#X#X#XY.#XQ.Q.H.#XQ.Q.#XQ.Q.#XY.#X#XW.#X#X#X#XQ.#XY.#X#X#X#X#X#X#X-XMX#X#X#XQ.#X#X#X-X#X#X#X#X-X-X#X#X#X#X#X#X-X$X$X#X#X#X#X#X#XQ.$X#X-X-X$X-X=XW.$X-X$X$X{.#XQ.{.#X{.W.&X$X{.E.$XR.T.D.V.1.J * < 2 0 3 3 2 2 < 3 < 3 4 5 4 2 t c 4 q y c c 2 < 2 2 2 2 2 2 q q y 2 2 2 3 2 4 ] n w 5 < a >.@Xh.{.F.}.&XR.&X X=X:X:X=X=X=X=X=X9X=X-X=X-X=X&X-X=X:X:X=X-X-X:X:X=X9X=XzXNXG.Q.#X#X#XQ.#XQ.#X#XQ.#X#X^.Y.^.Y.^.Q.h.a F tXgXhXhXhXhXgXhXhXhXfXHXhXhXhXhXSXfXHXSXHXHXHXSXHXHXHXHXHXHXHXHXHXHXGXLXHXGXLXHXHXHXHXfXfXfXHXHXhXhXfXhXhXs.rX_.L k.N.B.D.D.Y.Z.Z.Z.A.Z.H.Y.^.Z.Q.Q.Q.Q.^.^.N.A.H.^.#XQ.#X#X#X^.Y.#XY.#XQ.#X#X$X$X#X,X#XR.$X=X-X$X~.E.W.W.!.!.L.4.Q.9XMXzX&X&X$XW.W.P.W.W.W. XR.W.%X{.E.R.#XR.$XD.#XE.Q.E.R.R.Y.R.#X#XQ.^.^.Q.A.Y.Q.Y.Y.Q.R.W.Y.R.Q.{.Q.Q.$X&X&X&XW.!. X=X&X4X>X4X4X*X1XoX%X&XE.W.$X,X&X{.&X{.[.#XQ.[.T.L.R.Z.R.P.Z.R.W. XE.K.E.E.~.E.E.E.E.{.[.{.Q.&X&X$X{.{.$X{. X&X{.E. XE. XE. XE.R. XP.R.E.E.T.E.L.H.H.E.~.4X4X XE.P.E.E.R.T.J.I.Y.I.R.P.L.L.P.R.D.P.L.@XD.@XD.D.D.F.D.D.F.L.P.K.K.L.P.P.C.P.K.P.K.J.v.v.v.C.z.C.C.C.L.B.C.C.V.z.b.V.Z.v.b.V.N.z.C.V.j.z.j.1.l.2.j.z.1.2.j.z.z.j.1.z.j.z.j.c.v.K.C.K.v.v.v.v.K.v.v.v.v.v.c.c.v.v.l.l.l.l.l.v.l.l.1.f.,.,.l.l.l.1.>.;.>.,.,.:.,.l.L.l.l.v.b.f.l.l.f.;.,.<.-.-.:.<.;.:.1.,.>.,.;.-.>.#.-.,.$.;.$.3.>.$.f.3.$.>.>.;.;.$.>.:.f.h.",
"J.L.T.T.I.~.J.I.oX~.I.b.oXI.L.b.4.4.4.4.N.Z.N.Z.^.A.A.B.A.J.6.B.H.Q.E.!.!.~.~.%X X=X X~.oX~.!. XT.E.|.T.E.R.W.E.$XE.R.$X-X{.Y.E.L.J.~.%XXXkXVXcXJ.J.b.b.6.6.B.N.2.N.Z.H.Z.G.D.Z.Q.H.Z.{.W.Y.{.H.Q.Y.#XY.Z.Z.Y.Z.Y.^.B.B.Z.Z.Z.Z.B.N.H.N.Z.Y.R.Z.j.Z.Z.Z.V.Z.Y.Y.D.Z.Y.T.Y.Y.Y.Y.R.W.Q.#XQ.Y.E.Q.$XW.#X$X$XR.P.#X#X{.&XQ.Q.#X#XQ.Q.$X#XR.E.Q.Q.^.W.#X#X#X#X!.#X^.Q.Q.#X#XQ.Y.#X^.Y.#X#XQ.Q.Q.Q.A.Y.Q.#X#X#X#XQ.Q.^.#X#XY.#X#X-X0X-X#XQ.#XW.Q.-X-X#X-X#X#X$X#X-X#X#X#X#X#X#X#X#X#X$X$X#X#X,XR.&X:X,X-X-X#X$X#X9XW.{.#XQ.E.Q.$XE.Q.#X#XW.#XW.#XW.R.D.S.3.V < 0 < 3 < 3 2 < 2 2 3 2 2 3 4 2 3 4 4 2 q c c < , 2 2 2 2 2 q 2 y M o.y q q & & c x n 6 2 t $.V.c.R.G.V.D.D.,X*X:X:X:X=X=X=X&X-X=X9X-X=X=X=X:X=X=X=X#X-X=X:X0X0X9X=X0XMXMXG.#X#X,X#X$X#XG.Q.Q.Q.Y.#X#XQ.Q.G.D.F.).~ y.tXuXhXhXfXgXhXgXwXhXhXfXfXfXfXHXHXSXHXHXHXhXHXHXSXHXHXSXHXHXHXfXfXHXHXGXHXGXGXGXHXHXHXHXHXHXHXHXHXHXHXHXHXHXpXpXr.$.k.N.S.Z.B.Z.Q.Z.A.Z.H.^.Y.H.Z.Z.Z.Q.Q.Y.H.Y.Y.G.#XY.#X#X^.#XY.Q.Y.R.#XW.{.Q.#XW.W.$X$XE.#X$X=X%X!.T.T.W.$X$X3X-X9XMX=X=XW.W.Y.T.T.E.W.Q.Y.E.$X-X=XW.#XR.#X{.Q.W.{.Q.Y.Y.H.^.Y.^.#XZ.Z.Q.Y.Y.Y.A.^.A.Q.#XQ.Y.#X#X&XE.&X{.=X$X$XW. X%X$X2X%X X=X X=X*X=XXX*X{.|.&X}.=X{.{.E.#XW.R.B.R.Y.E.K.W.K.K.E.E.P.L.E.P.E.E. X[.R.E.P.{.R.@X{.[.{.].R.R.].R.Y.R.L.E.E.E.R.T.E.R.K.~.~.E.E.L.P.L.K.P.E.E.9X;XE.R.T.R.R.E.E.P.H.I.~.L.~.E.P.R.R.].D.D.L.P.H.R.P.P.D.D.P.L.S.K.P.P.v.U.P.K.P.I.K.K.K.K.K.v.C.S.b.v.Z.C.C.C.K.V.b.z.z.V.V.c.j.b.z.b.j.j.z.z.2.l.2.1.2.z.z.2.z.j.2.h.j.c.z.c.b.v.S.v.v.v.v.v.v.b.f.v.v.l.v.c.l.l.l.l.>.,.l.1.l.l.l.,.,.,.,.,.,.;.-.:.>.>.1.;.;.,.l.K.S.c.b.f.b.,.l.1.,.;.=.` -.>.,.:.,.l.,.;.>.:.-.-.-.-.;.;.f.>.,.$.>.h.$.>.>.>.#.#.#.$.;.$.3.",
"b.J.I.J.~.~.~.I.~.I.I.P.~.~.L.6.2.2.4.J.^.Y.Z.N.N.B.A.B.B.B.B.A.J.J.!.~.%X~.T.~.XX%X~.~. X X X1X X X1X1X~.%X=X~.!.$X$X X{.{.E.W.~.~.~.~.~.cXVXNXJ.^.H.H.2.4.N.B.3.N.Y.H.Z.Z.Z.Z.T.T.Z.Q.Q.Y.Q.R.L.Y.W.Y.Z.Z.P.Z.D.D.Y.T.B.A.Z.Y.j.Z.Y.Z.A.B.Z.G.N.N.G.Z.B.Z.Y.Z.Z.Y.Y.#XH.H.G.^.Y.Y.Y.T.E.H.Q.R.#XT.$X=X$X$XQ.Q.Y.#X#X{.E.-X#XQ.#XW.W.^.^.Q.Y.Z.W.W.W.Q.Q.Q.Q.Q.Q.#X^.Q.#XQ.#X#X#XQ.#X#X#X^.#X^.Q.Y.#X#X#XQ.Q.Q.#XY.Q.#X^.#X#X0X#X#XQ.Q.#X#X#X#X#X#X#XQ.#XY.#X#X#X#X#X#X#X{.#X$X#XW.#XW.#X#X#X<X$X$X$X-X#X#X,X&X#XQ.Q.L.Q.&X#X$X{.{.W.#XQ.#XE.D.c.z.` s 3 3 5 3 3 3 < < < 3 3 3 2 2 4 4 4 t t 2 2 c c < < 2 2 < 2 0 q 2 q q o.E t A y > 1 i W D y 2 / k.].}.].&X&X{.&X:X,X=X:X:X=X=X=X=X1X=X=X=X=X0X-X%X-X&X=X=X:X=X:X9X,X0X:XMXMXY.#XQ.W.#X#XR.Q.Q.H.Y.H.^.Q.Y.Z.Y.S.m.+XW _.tXhXeXeXs.tXpXhXhXhXhXfXHXSXfXfXfXHXHXHXHXSXgXSXfXfXfXSXfXHXfXHXCXHXSXLXHXLXHXGXHXCXHXHXHXHXfXHXHXGXHXHXHXfXfXhX/.[ g.c.N.H.H.Z.Z.B.Z.Z.Y.Z.Z.Z.Y.E.^.Q.W.#XY.Q.Q.^.^.#X#XQ.#XR.Q.Q.Y.^.#X#X#X{.G.#X$X#X#X#X=X:X$X~.!.&X~. XL.$X!.-X=XMX9X$X$X{.W.Y.L.{.%X&XE.Q.{.{.$X{.{.#XQ.Q.W.Q.Q.R.Q.L.Z.T.Q.Z.^.G.H.Y.^.Q.^.A.Z.Q.Q.^.R.Q.#XE.Q.W.#X{.{.#X#X&X$X!.*XW.{.{. X X*X*X&X*XW. XW.W.{.{.$X#X].#XR.R.Y.R.G.R.R.T.W.P.Y.L.L.~.~.E. X{.E.#X].P.D.[.D.R.{.].R.R.{.R.E.R.R.{.L.L. XE.T.E.P.Y.P.T.P.~.E.P.P.P.L.L.L.P.9X*XR.R.E.E.T.~.T.T.I.L.T.T.I.P.E.D.[.R.D.L.@XL.D.P.@XD.R.R.D.P.D.K.I.P.P.P.P.P.P.I.P.K.P.K.J.L.K.V.D.C.Z.Z.C.D.D.H.Z.c.D.B.C.b.C.b.V.z.j.j.z.j.z.c.z.2.z.z.j.b.j.j.c.C.z.j.j.c.c.C.c.C.c.c.S.c.m.l.l.l.z.l.c.l.l.1.l.l.h.l.l.l.l.l.l.l.l.,.l.,.l.,.,.f.1.l.>.,.>.1.l.L.v.c.c.f.l.,.,.,.;.-.` =.5.;.;.,.f.b.h.>.-.,.;.>.>.;.,.$.>.$.$.;.>.$.#.+.$.>.#.+.#.$.$.$.h.",
"K.b.l.b.L.~.L.~.~.~.J.4.J.L.J.b.4.2.b.H.J.Q.Z.N.B.N.A.B.B.B.4.4.J.T.T.T.~.~.~.H.~.~. X%X X X!.1X1X%X X X1X~.!.~.T.&X!.~.E.W. XW.~.%X~.%X%XcXFXxXH.J.A.N.4.J.N.B.G.Z.Y.B.Z.Z.N.N.G.W.W.T.#X#X^.Y.Q.Q.Q.L.Q.B.H.N.Y.Q.B.B.Z.G.Z.N.N.Z.N.N.j.2.N.N.2.N.B.Z.N.Z.A.z.1.Z.Z.A.Z.N.z.E.Y.G.Y.Y.Y.Z.Z.Y.{.#X-XW.$X$X$X{.#XR.$X#XW.#XE.E.^.T.T.Y.Y.#X#XY.Q.Q.E.#XQ.Q.#XY.Q.H.G.#X#X#X#XQ.#XQ.G.#XY.Y.Y.Q.^.Z.Y.Q.Q.#X^.Q.Y.#X#XG.Q.Q.,X0XW.#XQ.#X#XQ.#XQ.#X#XY.#XQ.#XQ.Y.#X#XQ.W.{.<XE.$X#XQ.{.<X#X#XW.W.W.#X-XQ.$X{.-X=XE.Y.H.H.W.W.=X$X#X#XQ.$XY.L.#XR.G.$.C * < 3 * 3 3 < 2 < , 3 < 3 3 4 2 4 4 y i 2 0 c V 6 2 2 2 2 2 < 2 2 q 2 2 x y Y W w 2 m w.8.c < D g.R..X,X>X,X=X:X&X=X&X-X%X=X{.-X-X-X=X=X=X-X=X$X=X&XW.$X$X-X=X:X=X=X0X9XMXMXQ.#X-XQ.Q.Y.Q.Q.#XY.Y.Y.^.^.A.Y.Z.P.M.pXeXeXeXhXeXQ Q t.wXhXhXhXhXhXfXHXSXHXSXHXHXfXSXSXfXgXfXfXSXHXSXHXHXGXLXLXGXHXGXLXGXHXfXCXHXfXfXHXHXfXfXHXfXHXCXfXCXpXwXM X.k.N.Z.H.A.Z.B.Y.B.H.Z.Y.Y.Y.Q.N.W.W.Y.Q.Q.A.Q.^.Q.#X$XQ.Y.#X#XY.Y.^.Q.Q.Q.Q.#XQ.W.{.$X$X$X$X%X$X!.T.T.!.~.=X9X=XMX9XY.$XE.T.R.N.Y.T.#X-X{.W.$X$X$X#XD.R.Y.{.D.W.Y.Y.#XY.Q.H.^.#XQ.^.Q.Q.Q.E.Y.Z.Y.Q.Q.#XD.G.H.Q.#XE.{.$X#X$XW.E.W.&X#XW.{.#X*XW.*X&X*XE. XE.{.E.{.&XR.R.D.R.Y.C.R.D.Y.K.P.~.Z.H.~.|.E.E.R. X#X{.[.R.D.R.S.R.R.R.R.R.R.P.D.P.L.K.C.D.V.Z.R.P.K.Y.P.P.T.!.P.Q.H.T.E.H.K.H.L.3X&XR.R. XP.P.E.P.Y.E.I.L.I.~.L.L.@XR.D.D.Z.P.L.L.D.D.Z.D.D.D.S.S.L.K.P.K.K.P.P.P.L.L.P.P.K.K.K.K.R.P.K.N.C.C.C.C.C.C.C.C.c.b.v.Z.V.C.C.b.b.z.j.z.z.2.c.N.z.j.j.b.V.z.z.c.z.j.b.c.z.c.v.S.c.j.z.c.l.l.c.l.l.l.h.l.l.l.l.l.>.,.,.l.1.h.,.,.l.l.l.l.l.f.,.,.b.1.l.>.1.f.v.v.,.,.>.<.l.l.,.:.-.5.' ' -.-.>.1.f.,.>.>.>.;.-.;.>.>.1.3.;.#.` ' #.#.' +.+.` #.` +.+.$.$.",
"I.I.K.K.T.~.~.~.~.oXK.S.I.T.L.b.2.1.4.4.N.A.A.N.N.N.6.B.4.6.4.6.H.J.~.T.~.T.T.L.T. X~.~.~.~.~. XXXE.XX X!.~.~.E.E. X X X X XW.T.~.~.1X~.%X5XnX0XB.H.H.Z.N.N.A.N.Z.L.H.H.H.Z.N.Z.D.Y.H.Y.@XQ.R.#XQ.L.Q.D.N.H.Z.Z.Z.Y.Q.D.Z.N.N.A.G.Y.N.N.B.2.Z.Z.Z.H.Z.2.1.B.Z.B.N.B.Z.Z.B.Z.N.Z.Z.Y.Y.^.A.Y.H.R.Q.W.E.#X#X#XQ.R.R.#X{.Q.R.Q.Q.T.Q.T.T.Y.T.Y.W.Q.W.Q.Q.Y.#X#XQ.H.Y.Y.#X#X#XQ.Y.Q.^.^.^.Y.Q.Q.^.#X#XY.G.^.H.^.^.Q.#X#XQ.#XQ.Q.-X0X$XQ.Q.#XQ.#XW.Q.^.#X#X#X#XQ.Q.Q.Q.#XQ.#XQ.Q.#X#XW.Q.E.Q.Q.Y.R.#X#X#X$X#X#X#XW.,X#X#XY.Q.W.{.#X#XW.W.Q.Y.W.Y.Y.D.c.+.r * 3 3 3 < < 5 < < < 5 3 < 5 2 3 4 q q y 3 y S n w < 2 2 < < 2 2 0 2 2 2 2 q M w.U , y T w.T w x k.].&X;X&X=X&X=X=X=X-X$X=X$X$X-XW.%X-X-X-X-X=X=X$X$X-X#X&X=X-X-X-X=X-X=XMXVX$X$XY.Q.Q.Y.Q.Q.Y.Q.Y.Y.Y.^.A.Z.L.n.rXuXuXtXeX_.Q N N B p.`.wXhXCXHXhXhXSXHXSXHXHXHXSXhXhXSXSXHXHXHXHXGXGXGXLXLXGXGXLXGXGXHXSXHXfXHXfXfXfXHXHXfXfXfXpXfXhXhXpX_.A  .c.Z.j.B.B.B.A.Y.A.A.H.Z.Q.T.Z.^.Q.Q.W.Q.Q.Y.Z.Y.^.#XQ.$X$XQ.Z.G.^.G.#XW.R.Q.Q.{.Q.E.Q.#X{.%X%X!.Q. X%X$XW.=X=XMX0X$X{.{.R.Y.Z.E.T.{.$XD.{.W.#XE.Q.#X@X$XR.W.W.#X{.&XQ.E.T.#X^.#XW.Q.H.^.G.R.Y.L.Q.Y.W.Y.Y.Y.Q.Q.R.W.W.E.E.W.T.E.$X{.$X#XE.W.E.E.~. XR.{.$XR.R.R.R.{.E.Y.R.R.Y.L.W.R.Z.T.T.P.!.T.~. X~.E.E.[.E.Z.D.D.L.D.R.P.Y.R.R.R.{.L.C.L.L.L.D.V.R.R.C.Z.L.Z.D.L.P.Z.P.P.Y.L.L.K.H.L.1XXXP.E.P.T.P.T.E.I.~.Y.Y.L.~.P.L.L.E.R.D.D.H.P.D.D.D.V.D.D.S.D.S.v.K.L.K.L.P.K.L.P.K.L.L.P.H.L.L.D.V.C.S.Z.C.C.D.c.V.b.2.3.j.2.j.z.N.V.N.z.z.z.b.z.V.z.z.j.2.2.c.z.z.z.z.b.V.V.S.c.c.c.c.z.h.V.c.b.c.l.l.l.1.f.1.l.l.h.l.,.l.l.,.l.,.l.l.l.f.l.l.b.,.>.l.f.l.,.>.l.f.P.K.l.:.,.,.,.l.;.-.' ' =.' =.-.,.l.>.;.;.-.-.` ` -.3.1.#.$.+.+.` ` +.$.$.+.#.` ` ` #.+.+.+.",
"~.J.J.b.~.L.b.I.I.~.L.L.E.~.J.v.J.5.2.J.N.H.Y.Y.Z.A.6.6.6.A.A.B.J.H.L.~.~.T.L.J.L.~.~.Y.T.~.T.P.T.~.!.!.~.XXE.!.~.E.~. X~.~.~.E.T.~.~.~.~.5XVXcXJ.J.H.T.A.Z.Y.B.Z.H.Q.Y.Z.Z.Z.D.Z.Z.H.Y.Q.Y.Q.R.#XQ.L.H.B.Z.H.B.N.Z.H.Z.j.3.3.1.Z.N.j.2.N.z.H.Z.Z.j.6.3.2.2.Z.3.N.Y.Z.Z.H.B.N.N.Z.H.D.Z.H.B.Y.T.R.{.W.W.{.#XR.Q.#X#X[.Q.Y.E.W.W.^.Y.Q.T.^.Q.Q.Y.Y.#X$X{.#XQ.#XQ.Q.Q.Z.#X^.^.^.#XQ.^.Y.#XY.^.Y.Q.#XQ.#X^.#X^.Q.Y.^.Q.#XY.#X#X#X0X#X#XQ.^.Q.#XQ.Q.#X-X#XG.#X^.^.Y.#X#XR.G.W.Q.Y.Y.R.Q.D.Q.Y.G.R.Q.Q.Y.#X$X$X#XQ.R.#X#XY.Y.R.E.<XW.{.Q.Q.W.R.Y.D.G.c.' 0 * , 3 3 5 3 , , 5 5 , 2 5 5 2 2 4 2 t z 4 z D A w 2 2 2 , > 2 2 2 q 6 q 2 2 n W w.i < x w.] z 2 d.@X}.:X:X&X&X$X{.W.$XW.{.W.W.$X&X#X-X$X$X#X#XQ.{.Y.$X&X#X#X#X-X=X=X,X-XzXMXG.W.{.Y.{.Q.Y.Q.R.Y.Q.#XY.#XG.L.].yXtXeXs.t.a._.Q D Q B =.t.`.hXfXhX_.eXHXHXHXHXHXHXHXHXHXHXHXGXGXGXLXGXLXGXLXHXGXHXLXLXGXHXHXHXfXfXfXhXfXHXhXfXfXhXhXpXpXhXpXtX(.o.c.j.j.N.B.Z.N.D.Y.Y.Y.Y.H.Z.H.T.T.Y.Q.R.Q.Q.Z.Y.Y.R.#X$XQ.#XQ.Y.Q.Y.Y.Q.#X$XQ.E.Q.Q.{.$X$X!.=XQ.W.!.!. X!.$X9XNX0X{.#X$XW.E.Y.T.$X$XY.R.#X#X$XW.E.Q.#X$XQ.&X&X=XW.Q.R.Z.Y.#XY.R.Q.#XZ.Y.Y.^.Q.Q.Q.H.Y.Q.Z.R.Q.T.W.{.Q.T.Y.E.D.W.W.W.$X$X#XE.T.!. X$X{.W.H.Y.R.{.Q.L.E.Y.R.R.W.Y.D.Y.P.L.E.L.I. X!.XXE.E. XY.P.D.Y.{.L.H.R.Y.@XQ.R.D.R.R.R.Z.L.Z.L.Z.K.N.N.b.N.C.z.V.V.V.~.K.H.K.L.Z.K.C.XX XE.~.~.E.T.P.E.T.P.I.P.Y.T.I.J.D.R.R.R.L.@XS.Z.C.D.S.D.S.S.V.F.L.U.U.L.K.K.P.H.L.F.S.Z.P.P.P.P.D.S.V.C.c.C.V.V.b.z.1.j.1.z.z.z.1.3.c.B.z.z.1.z.b.V.c.2.1.j.j.z.z.N.C.j.z.V.c.z.C.c.C.h.j.h.j.j.l.z.l.l.l.1.z.z.j.l.1.h.<.,.l.,.,.,.>.h.z.l.l.v.l.l.,.,.l.,.l.>.1.l.U.b.1.,.l.l.l.l.,.-.-.-.' I 5.;.-.;.;.-.;.;.' I +.' $.1.#.@.+.` ' +.X.+.#.` ' ( ` ` +.( X.` ",
"L.~.~.I.J.b.L.L.K.R.T.H.J.P.J.J.4.2.4.J.H.J.H.Y.H.6.6.H.^.^.2.N.B.V.H.!.~.T.~.H.b.P.E.T.E.~.!.~.I.~.~.~.%X X~.~. X X~.~.~.~. X~.~.~.~.%XXX1XVXnXY.N.A.Y.^.A.B.G.A.R.Z.B.Z.N.R.Q.H.R.H.Q.B.Y.Z.N.R.Y.L.Y.Y.G.Z.Z.G.L.R.W.H.H.N.Z.2.1.4.2.N.N.G.N.3.2.2.@.@.A.2.Z.G.N.^.H.H.Z.j.A.z.Z.Y.B.Y.R.T.T.Q.E.W.H.E.R.Q.{.Q.$X$XE.#XQ.W.Q.T.Q.H.H.Q.Y.T.W.^.Q.W.Q.Q.Q.Q.Q.#XY.#X#X#XQ.Q.Q.#XQ.^.#XQ.#XG.#XQ.Q.Y.Q.Q.Y.Y.Q.Q.Q.Q.J.^.#X,XzX#X^.^.^.^.#X#X#X#X^.#X^.H.Y.Y.Y.Y.H.#XY.#X#XG.Q.^.Y.Y.Z.Y.#XQ.Y.R.#X$X#X#X#X{.#X#X#XL.^.Q.Y.Q.Y.Y.Y.R.G.T.Z.V.V.h.^ * * 3 5 3 3 3 , , < , 2 5 < 2 2 2 4 4 t i 3 q c c 2 2 2 2 2 , 2 2 q 4 6 2 q 2 0 S w.8.< % c w.c > X.].;X&X XW.W.$X$X#X#X{.-X$X#X#XW.#X$X$X#X=X#X%X#X#X#XW.W.#X#X$X-X=X=X:X8XMXQ.W.W.Z.T.Y.Q.W.R.W.W.R.W.T.A.F.OXqXtX(.] N N m p u./.W U U _.hXeXs.t.hXHXHXHXHXGXLXHXHXHXHXGXGXLXHXLXLXPXJXGXLXGXGXLXHXLXHXHXHXHXfXHXfXHXHXSXfXhXfXhXeXgXtXeXtXeX{ g.k.z.N.N.V.N.Z.Z.L.Z.H.Z.Y.H.H.Q.R.H.Y.Q.Q.Y.Q.Q.Q.$X#X{.E.Q.W.Y.Y.Q.Q.#XR.#X#XQ.Q.E.#X{.%X~.$XQ.Q.~. X X=X=XMX0X$X&X$X{.W.}.$X{.$X#XW.&X[.#X{.#X$X$X$X:X:X=X{.W.T.#XY.R.R.R.Q.Q.E.W.E.Y.Q.R.Q.Y.Q.Y.Q.Y.E.{.Q.W.$XW.W.E.W.#XL.$X#X$X{.$X{.$X&X$X$X{.E.E.R.Q.Q.P.Q.Q.{.{.R.R.R.Y.#X@XP.Y.P.~. X X%XE.R.E.E.R.D.Z.D.Y.Y.D.Z.Y.Z.Z.R.C.D.D.D.B.D.C.V.j.V.Z.V.N.D.N.H.V.J.K.H.K.L.b.C.H.K.%X XE.R.T.P.E.~.H.I.T.I.P.E.Q.P.L.D.D.D.D.H.Z.v.C.b.Z.Z.v.V.D.D.D.P.D.S.G.D.D.D.P.F.D.S.D.F.L.S.S.D.@XZ.S.S.V.C.S.Z.C.b.B.V.V.z.z.1.#.z.z.2.b.z.b.z.C.z.z.j.j.z.j.V.b.z.z.l.l.z.v.v.C.C.S.c.h.h.c.j.V.h.j.,.j.j.j.,.1.1.>.1.j.l.1.,.,.,.,.,.h.h.c.c.l.1.f.,.,.,.l.l.l.P.K.,.1.l.l.l.1.;.-.-.' ' -.-.-.-.5.-.=.' 5.' @.I ' #.@.' ' ' ( ' ' ( @.` ' ' ` ( ( ` ' +.( ",
"T.oX~.~.~.~.oX~. X XP.P.~.Y.L.L.J.J.Y.H.L.J.^.J.Y.^.H.Z.6.6.6.2.J.J.T.Q.~.T.T.E.J.L.E.L.T.~.!. X~.~.~.P.~.~.~.~.~.!.~.~.~.~.~.XX%X%X X~.XX8XNXMXT.B.Y.Q.Z.^.2.4.Z.Z.Z.Z.H.N.Y.B.Q.Z.Y.R.H.Y.Z.Z.R.#XQ.Y.R.Y.Z.T.Q.H.Z.Z.B.6.N.B.1.6.4.2.2.N.j.6.j.N.3.3.2.2.z.Z.2.z.1.N.N.N.j.Z.2.Y.^.Y.Y.Y.Y.T.Q.W.#XE.Q.Q.#X$XQ.$X$XW.$XW.R.Y.T.Q.Y.H.^.Y.Y.Y.Q.T.!.Q.Y.W.Q.Y.Q.Q.^.Z.Q.Q.#X#XQ.#X#X#X#XQ.#XQ.#X#X#X#X#X#XQ.^.^.Q.#X#X#X#X-X0X#X#XQ.Q.#X#XQ.Z.Q.#X#X^.Q.#X#XY.#XY.G.Q.#X#XQ.W.Y.^.G.Z.Q.Y.^.^.<XR.Q.W.$XG.^.R.#X^.Z.Y.Q.G.#XY.#X^.Q.Y.D.Y.N.V.k.o.* * , 3 5 & , < 5 5 5 < 2 5 5 3 1 3 4 4 i t 4 x n 2 2 < , < < 2 2 2 4 4 q 4 0 2 t c w.Y * , ] E 2 c @X[.}.,X$X#XW.{.{.W.#XW.{.$X{.#X$X-XE.#X=X#X%X$X!.$X#X#X#X$X#X$X&X-X=XzXMX$XQ.Y.W.!.Q.E.Y.Q.W.W.T.Q.^.H.n.`.wXwXU 9 p 9 w 9 N =./.U B 7.s.t.t.a.s.SXHXHXHXHXHXHXHXHXLXGXJXPXLXLXLXLXGXGXGXGXLXHXHXHXGXHXHXHXHXfXfXfXfXSXhXhXpXhXhXeXuXgXhXwX(.~ k.j.j.N.Z.A.Z.B.Z.#XH.Y.Y.Z.Y.#XH.Y.G.D.D.Y.D.{.R.Q.Q.Y.Y.$X{.#X#XG.$X=X#XW.R.H.#X{.Q.#X$X!.E.~.Q.E.W.~.E.=XMX0X-X%X$XW.$X#X#X=X&X#X$X-X$X[.$XW.#X}.#X-X=X{.%X{.W.{.R.{.$X#XY.T.Q.#XW.Y.R.#X{.#XQ.W.$X#XR.#XR.H.%X!.W. XW.W.$X{.$X$X$X$X#X$X%XW.#XE.R.W.Q.Y.R.R.{.H.Y.R.Q.[.R.R.Q.Q.W.R.Y.!. X X%X~.XX X XR.L.Y.E.R.D.Y.@XZ.@XZ.C.R.L.G.Z.D.N.z.z.Z.C.N.R.Z.V.Z.V.B.K.P.B.K.H.P.P.K.z.XXXXE.T.P.P.L.P.L.Y.P.Y.L.L.P.H.K.D.L.D.Z.C.V.K.Z.v.K.K.v.V.D.S.D.D.D.S.F.D.P.S.D.D.S.S.S.G.c.D.V.S.C.Z.N.S.D.G.z.z.b.b.V.B.V.z.1.1.h.2.z.l.v.c.b.j.1.z.z.b.N.b.V.z.V.z.z.z.C.z.z.c.V.m.z.c.c.c.j.c.j.1.,.j.j.h.2.1.l.h.j.j.f.c.h.,.,.h.h.l.l.l.l.l.l.,.>.v.l.h.l.,.f.K.v.f.<.>.,.>.,.;.=.' 5.' ' 5.=.-.' -.<.5.' ( ( I +.+.+.@.' ' ' ( ` ( ' ' ( ' ( @.( ' ' ( ( ",
"~.L.J.K.~.T.T.XX~.~. XI.P.H.H.J.J.Y.Y.~.W.N.J.Y.T.Z.H.B.N.B.3.2.4.J.K.H.~.I.J.J.b.J.~.~.E.P.~.E.L.E.~.~.T.~.~.~. X X~.I.~. X X~.~.~.~.~.XX9XxXcXY.N.^.Y.Z.^.6.6.B.B.N.N.D.B.Y.Z.Z.Y.Q.Q.Q.D.R.Y.Y.R.Q.H.R.Y.Y.Y.Y.Y.Y.Z.N.j.Y.D.Z.A.3.$.N.N.2.2.2.2.N.3.B.2.N.%.N.Z.N.V.z.Z.3.2.Z.Y.Q.Q.Y.G.T.Z.T.W.Q.{.{.Q.Q.R.W.E.=X!.W.H.{.W.Q.Y.#XQ.Y.Q.Q.Q.Y.T.Y.Q.Q.#XQ.Q.^.Q.Z.Q.Q.#X,XQ.#XQ.#X#XW.#X#X^.^.Y.Y.Q.Q.^.G.^.Q.#X#XQ.#X^.-X0X-X#X^.#XQ.Q.#X#X#X^.Y.#XQ.Q.Q.Q.Y.Y.Q.^.#XQ.Q.Q.W.Y.Q.A.Y.G.^.Q.Y.Q.Q.$XQ.Q.Q.Q.Y.G.Z.G.Q.#XR.^.^.Y.Q.Y.V.B.C.j.d.C * < 5 & 5 , 3 , 2 , < 2 2 2 1 1 3 2 2 6 p q , 4 t 2 < 2 , < 2 2 2 2 2 q 4 2 2 < 2 v w.8.A 2 z E z 0 0.].[.W.W.$X$X$X-X$X$X{.#X#X{.#X$X$X#X$X!.#X#X#XW.W.W.T.#X-X$X$X=X%X=X0XNX-X=XW.W.Y.Q.Q.W.#X{.W.Q.Y.Y.L.m.`.'.y.p w D m 0 9 u m U M S Q 7.t.fXSXhXfXHXSXLXHXHXHXHXLXLXLXLXLXLXJXLXPXJXHXHXHXHXHXSXfXgXHXHXHXHXHXHXHXSXfXfXfXfXhXuXeXeXgXhXtXpXF f.1.N.j.N.V.B.G.Z.H.B.D.Z.Y.H.Z.Z.Y.H.Y.H.Q.Y.A.R.Q.Q.#XQ.{.Q.$XR.#X#XY.Q.Q.=X=X:X$X#XQ.!.E.Q.Q.!.T.!. X=X=XMX9X=X%XW.W.$X#X-X&X&X{.$X:X&X:X=X=X=X:X&X$X=X$X=X{.4XW.D.R.R.#XE.Y.E.W. X!.E.$X$X$XW.$XW.$X#X{.W.Q.$X&X#XE.E.#X#X$XY.$X$X#XW.%X$X$X{.W.W.{.{.E.E.$XR.Q.{.Q.R.Q.R.Y.{.L.Y.D.H.~. X~.E.E.&X X=XE.W.E.R.L.L.D.Z.R.D.D.@XD.Y.D.Y.D.G.V.Z.C.4.L.D.B.E.L.Z.Z.J.L.J.J.K.L.H.B.B.2XoXE.T.I.Q.~.T.T.~.L.L.L.L.I.L.L.C.Z.L.C.C.v.b.z.K. XN.Z.V.V.S.V.j.c.S.C.S.D.G.F.C.S.S.N.c.c.c.V.V.V.D.S.j.N.c.z.z.z.V.z.V.V.V.c.c.j.2.2.2.z.z.2.z.j.z.V.z.z.j.b.j.z.1.z.h.h.z.z.C.S.S.c.j.l.j.c.1.h.3.h.h.1.,.f.1.1.>.1.1.,.>.h.l.>.>.,.h.l.l.l.,.l.<.,.>.>.1.>.<.l.J.c.1.:.l.1.f.,.;.` ' ' ' ' ' =.I ' @.=.' ' @.I I ' I ' I ( I I ( I ( ( ' ' ` ` +.` +.( ' +.",
"T.T.~.J.I.T.I.~.~.~.~.I.~.J.b.J.4.b.2.J.J.Z.J.Z.J.J.B.6.6.4.4.3.2.z.H.J.J.L.I.T.I.K.J.T.T.%X X=X~.T.~.P.J.~.XX X~.~.~.~.~.~.~.1XXX2X*X*X%X5XVX5XH.T.N.2.N.2.6.6.Z.Z.H.V.Z.N.Z.B.Z.Z.[.#XH.Y.Q.Z.Q.Q.D.Q.T.Z.B.A.Z.Y.Y.L.N.Z.Y.H.Y.B.H.B.V.6.N.N.N.Z.Z.4.j.2.3.N.N.2.N.N.N.6.N.G.R.Q.L.H.R.Q.Q.Y.Q.E.Y.Q.#XE.#XQ.E.Q.$X{.$X#XW.#XW.Y.W.T.W.T.T.T.^.Q.Z.H.Y.Q.Q.#X^.#X#XY.Q.Q.#X#X$X#XZ.#X#X#XQ.Q.Q.#X^.Q.#XH.^.Q.Q.#X#XQ.Q.<X-XBX#X^.#X^.#XQ.Y.Y.#XY.#XY.Q.Q.Q.Y.#XQ.Q.#XR.W.$XQ.E.^.G.Y.^.Y.^.Y.R.Y.Q.Q.W.#XQ.G.H.Y.^.Z.Q.Q.Q.R.Q.Q.^.G.Z.c.j.>.X.r & < < , & 3 , 5 , 2 5 , 5 < 2 3 5 1 2 2 2 2 2 2 2 6 < < 2 2 2 < 0 2 2 2 3 2 < 2 2 w E w.W T A w.S , D k.G.[.$XW.W.E.%X{.Q.#X{.W.Q.{.-X$X$X&XW.%X#X#X%X$X#XW.$X-X&X-X#X=X=X0XMXY.%XW.E.W.T.E.#X{.W.Y.W.Y.Q.P.'.qX9.q 5 9 W N 9 9 W u.y.U 9.wXs.s.fXSXHXSXSXfXHXHXHXHXHXLXHXHXGXLXJXLXLXHXHXHXHXSXfXhXfXhXhXfXgXHXHXHXHXHXHXfXhXfXhXhXuXgXhXgXfXfXfX~ | 3.j.j.N.A.2.4.Y.D.Y.Z.L.Z.A.D.Z.Z.Z.H.H.L.B.H.Y.Y.R.Y.{.Q.#X$XQ.Q.Y.Q.W.E.^.Y.Q.Y.Y.R.T.H.L.T.T.E.W.W.$X-XMX0X&X=X*X=X=X$X=X=X=X=X:X=X=X=X9X=X&X&X$X#X$X#X{.#X-X-X#X$XR.W.R.Y.Y.T.W.R. X,X$X$XE.{.W.W.&X#X-XW.%X,X&X&X#XE.R.#X,X#X$X[.E.W.!. XW.W.W.W.{.Q.Q.$XQ.R.R.&X$XE.{.Q.E.{.&XQ.P. X~. X*XE.E.%X[.R.K.&X#XZ.L.H.D.D.Z.D.Q.R.R.R.D.Z.Z.V.Z.L.L.Z.D.Z.K.S.Z.E.K.T.C.K.L.L.v.V.K.1X~.~.~.K.b.P.P.P.P.L.v.J.L.H.H.L.C.Z.S.Z.Z.b.v.C.4.c.b.V.V.D.S.D.c.c.S.D.S.S.z.V.C.C.c.c.c.V.j.S.S.V.V.c.j.c.S.z.b.z.V.V.b.z.N.z.z.z.z.z.z.2.l.z.1.1.b.N.z.z.c.N.z.z.z.c.j.3.l.v.V.z.c.z.j.h.j.>.3.1.1.h.h.1.3.,.l.z.<.j.1.>.h.1.1.>.-.h.l.l.v.v.l.l.l.l.,.,.,.d.,.>.l.c.;.,.,.:.l.;.;.` ' =.' 5.' ' ' 5.-.5.' ( I I I I ( ( I @.' I ' ' ` X.+.+.#.` #.` X.( ( @.",
"J.I.T.^.T.I.~.~.oX~.K.J.[.J.J.b.J.J.4.b.3.N.B.B.4.B.B.4.B.B.B.4.6.B.Z.Z.K.J.~.Y.J.v.V.T.~.%X%X2X1X~.I.T.I.T.oX~.~.~.~.H.~.~.~.~.oX~.%X%X1X5XNXzXH.N.3.5.@.@.2.2.Z.H.Z.H.Z.N.H.Y.H.Z.D.Z.H.W.Y.H.A.Z.D.Q.H.Y.N.B.R.Q.B.Z.N.N.Y.Y.B.H.G.N.$.2.2.2.N.N.Z.N.A.3.3.#.6.B.6.Z.2.2.N.N.Z.Y.H.H.T.R.Y.R.W.{.Q.Q.&X#X#X#X#X$XW.W.W.E.W.T.T.T.#XQ.Y.Q.E.Q.Y.T.#X^.Z.Q.W.Q.#X#X#XQ.#XQ.#X#X#X#XQ.#X#X$XQ.Y.G.^.Q.#X#XQ.#X#X#X#XQ.#X#X#X=X0X#X#XQ.Q.#X#XQ.W.Q.Q.Q.#XY.Q.Q.#XQ.Q.W.#X#XW.Q.G.R.Q.^.Y.R.Q.Y.Q.Q.G.#XQ.R.Y.G.Y.H.H.^.N.#XY.Q.W.Q.Q.Z.B.H.V.c.;.J d < , < & < , 3 3 5 , 5 2 5 5 < 5 5 2 3 3 1 1 2 < 2 2 2 < < 2 2 2 2 2 < 3 3 3 2 2 2 2 u Y U w.S w.E 2 0 o.S.F.T.Y.#XE.R.Q.W.W.W.$XQ.{.-X#X$X#XW.#X%X#X$X$XQ.W.{.#X$X-X-X$X4X0XVXQ.#XQ.W.T.Q.W.#XY.W.Q.W.T.W.R.m.`.N p r.Y 9 =.=.b t.`.tXW (.dXhXhXHXhXhXfXSXhXfXHXhXSXHXHXHXHXGXGXGXLXHXHXHXHXfXSXfXfXfXhXgXhXhXhXfXHXHXLXHXfXfXhXfXgXhXgXgXgXSXHXHXp._ j.j.2.2.j.z.N.N.Z.Z.Y.L.H.R.C.Z.Z.B.H.Y.E.Y.Y.#XR.R.W.#XY.R.$X<X=XQ.Q.W.Y.R.Y.H.Z.J.H.L.Y.Y.L.~.!. XE.%X9XMX0X-X=X%X%X:X$X$X&X{.=X=X=X9X$X=X=X$X-X#XE.$X&X$XW.W.$X$XT.T.R.E.W.T.E.&XW.=X!.W.%X%X#XW.#X-X#X#X{.#X&X#X#X$X!.E.$X$X$X XW.!.!.W.$XE. X%XW.W.&XW.W.#XY.D.Q.$XD.{.@XE.L.L.W.H.~.E. X[.R.$X,XE.R.G.R.R.R.R.R.D.R.E.{.W.{.{.D.D.L.D.D.V.V.B.L.C.Z.D.D.Y.K.L.K.K.Y.P.H.K.K.H.=X~.I.L.L.L.L.K.K.L.K.b.K.K.B.L.C.C.K.B.2.v.K.C.C.c.Z.V.J.b.c.c.D.D.D.V.D.V.V.c.S.S.V.V.V.c.C.j.C.V.V.j.j.c.j.N.j.z.c.N.V.z.z.z.z.2.j.z.l.l.2.l.l.V.j.2.z.z.l.j.z.N.c.v.b.c.j.c.c.c.j.z.z.z.f.j.h.>.>.3.1.>.>.<.h.3.>.1.h.1.,.h.>.>.-.>.,.h.z.h.>.>.>.>.,.>.>.>.-.=.,.K.l.-.<.>.;.1.,.-.-.' ' ' I -.' @.' 5.=.I I K ( ' I ' ( @.@.( +.' ( ( ( +.%.$.#.+.+.` ` $.>.",
"~.~.P.I.~.~.~.~.~.~.K.P.I.H.K.b.J.K.2.5.5.N.B.4.2.Z.4.2.2.4.4.4.z.H.4.L.~.H.L.B.K.B.B.Y.L.E.~.%X~.T.~.T.~.L.T.T.E.oX%XE. XE.~.~.~.~.~.%X X4XNXlXH.A.5.@.@.@.2.3.N.j.^.Y.D.Z.Z.Z.G.Y.Y.T.Z.T.Y.H.Z.D.Q.A.E.Y.Z.Y.H.Q.H.H.Z.G.Z.Y.Y.H.Z.N.3.N.B.4.2.N.j.G.Z.N.3.5.3.3.z.4.B.N.N.Z.Z.Z.W.Y.T.W.W.<X#X#XR.R.$X$X#X[.W.$X$X$X!.W.T.W.!.Q.E.^.T.W.T.Y.T.Q.E.W.H.^.Q.#X#XY.#XQ.#XQ.Y.#X#X#XY.Q.#X#X#X#X#X#XQ.^.Y.^.Q.#X#X#X#XQ.#X#X-X0X#X#X#XQ.Q.Q.#X%X#X#X#XG.Y.Q.Q.Q.#XQ.R.Q.W.Q.#X$X#XG.G.W.Q.Q.W.G.Q.Y.#XR.W.#XQ.Y.Q.H.Z.A.Q.Y.R.Q.Y.H.Y.G.Z.V.z.;.C * * * * , , * , , , , , < 2 2 5 2 2 5 4 4 5 2 2 < , , > 2 < * < 2 2 < 2 5 1 2 < 2 3 z M , M w.B o.] t , w d.V.D.E.R.Y.R.Q.#XW.Q.{.#X$X#X{.Q.W.^.#X=X#X-X{.$X#X$X#XW.{.#X:X9X9XMXQ.Q.W.Y.$XW.W.Y.W.E.E.W.^.R.R.x.{ 5 5 ] W U `.t.=.z t.pXt.U qX_.eXhXt.t.hXhXhXgXhXfXSXHXHXHXHXGXGXHXHXHXHXHXfXfXfXHXfXhXfXfXfXfXgXgXfXHXLXHXLXHXSXfXSXfXfXHXHXHXGXHXaX^ %.$.j.3.N.1.N.Y.A.Z.Y.Y.^.G.Q.Y.D.Y.H.Z.Y.Y.W.Q.Q.Q.W.Y.R.W.Q.E.{.E.#XE.J.Y.B.L.L.~.Y.J.!.E.T.!.!.W.%X:X=XMX9X-X=X4X=X:X:X&X#X-X:X:X=X3X&X X X:X&X;X#X$XE.{.%X*XE.T.!.Y.Y.W.W.W.!.!.W.$X$X&X&X#X%X=X{.#X{.{.Q.$XW.#X{.$X$XY.!.&X!.$X$X!. X X!.#XW.W.$X{.W.{.W.D.{.T.,X$XR.{.#XQ.{.Y.{.Y.T.{.W.&X{.{.R.R.E.E.Y.{.R.R.Y.R.$XR.R.E.E.P.E.E.Y.D.N.L.V.Z.K.R.R.L.Y.L.H.K.H.Y.I.H.L.H.L.H.XX!.I.Y.J.I.H.J.L.T.J.J.C.B.K.K.b.V.V.V.K.J.V.B.V.Z.b.V.C.V.b.V.S.D.V.S.S.S.S.C.S.S.V.D.D.G.c.c.j.c.c.j.N.j.z.V.j.j.z.j.z.c.z.z.N.z.z.1.2.1.j.2.c.B.1.1.l.2.1.z.z.z.z.z.z.V.j.2.z.h.2.z.z.1.>.$.h.>.3.3.>.3.;.1.3.3.>.j.2.<.,.l.j.h.j.;.1.l.h.,.1.>.<.>.,.<.>.;.;.;.;.U.x.>.>.l.,.:.;.-.' ( ' I ' ' @.-.-.' ' @.@.I I @.' @.@.' $.@.( +.+.@.+.#.:.$.+.X.#.$.+.;.` ",
"oX~.~.L.T.I.|.[.|.|.I.P.|.J.K.J.v.J.L.C.H.B.Z.V.2.1.b.2.3.3.2.3.4.H.Z.T.~.H.H.Y.J.B.H.Y.L.T.E.E.~.~.~.I.E.J.E.~.E.L.I.T.I.L. X~. X~.~.%X1X*XNXxXY.Z.3.6.A.6.N.2.N.B.A.Z.Y.G.2.Y.R.Z.Z.T.Y.H.D.H.Y.Y.R.Y.Y.Q.W.Y.^.Q.Y.L.H.B.A.Z.W.Z.N.2.N.N.N.4.N.Z.1.N.Z.2.4.6.3.B.V.V.R.H.4.4.Z.D.Y.H.D.Y.Q.R.Y.{.[.#X#X&X{.Q.W.W.W. XW.$X$XY.E.Y.W.Q.E.W.W.W.T.Q.T.W.Y.Q.Y.#XQ.Q.Q.Q.#XY.#X-X-X#XQ.#XQ.#X#XQ.#XY.Y.Y.#XY.^.$X#XW.Q.#X-X#X=XzX#XY.#XQ.^.Q.Q.%X#X#X#XY.Y.#XY.G.Q.#XY.Q.#X#XQ.Q.Q.Q.W.Q.G.Q.Q.#X#X$X#XQ.#XY.Y.Q.Y.G.D.B.R.Q.R.Z.Y.Q.Q.R.B.Z.h.$.C & * , , < < < < < 3 , 2 2 < 5 < 2 5 < 2 5 2 2 , 2 < > > 2 2 2 2 2 2 < 2 < 2 < 2 2 q S y.c q ] W 2 S q < * ! f.S.R.R.D.E.T.E.Y.W.#XE.#X$X{.#XY.W.W.W.!.Q.#X$X$XE.$X#X$X$X-X-X9XMXY.Y.Y.Y.Y.E.W.E.Q.W.E.T.T.Q.F./ 5 5 D N 5 R s.N F p N wXqX8.N N Q t.=.a.eXhXhXhXSXSXfXHXHXHXHXHXGXGXHXHXHXHXhXhXfXfXfXSXSXfXSXSXfXgXSXHXGXLXLXGXSXHXGXHXHXHXGXGXHXGXZX} $.$.B.j.j.Z.N.V.B.A.D.Y.Z.H.H.B.Y.Y.Y.G.Y.Y.{.#X{.^.#X#XR.#X$XQ.E.Y.Q.Y.Q.E.Z.Y.Y.!.Q.T.Q.Y.~. XQ.~.%X=X4XMXMX=X=X=X:X&X&XW.E.{.:XW.:X=X#XW.$X%X,X=X$X{.=X$X=X%X%X$X&XW.$XW. X!.!.$X&X{.$X$X$X{.=X$X$X&XW.E.{.W.#X#X&X&XW. XW.%X=X$XW.$X!.%X X$XW.$X%X%X{.$X%XT.E. X!.#XY.Y.#XR.R.W.R.D.#X&X$X#X&X$X#XE.{.R.{.#XQ.W.W.E.R.E.E.R.E.R.T.L.D.D.D.R.E.b.K.C.B.H.D.K.J.J.K.L.T.Y.C.J.B.b. X~.L.T.J.J.I.L.H.K.L.K.K.J.K.v.J.Z.C.K.B.C.z.z.B.z.l.z.z.N.V.b.C.D.V.N.S.C.C.G.C.V.S.V.j.z.N.N.l.B.b.V.V.V.V.c.z.z.b.b.c.b.z.z.;.3.h.l.z.2.1.l.3.C.j.3.2.1.z.z.z.1.2.c.4.z.1.1.h.2.j.2.1.3.3.;.3.>.3.j.3.;.<.2.1.1.l.1.;.>.3.>.>.;.;.#.#.>.#.>.>.,.1.h.,.>.-.:.;.-.,.K.b.-.-.;.<.,.,.=.' ' ' ' ( =.@.' -.5.+.@.' ( @.I ( @.( @.3.@.( @.+.@.#.#.#.#.@.` #.#.#.>.$.",
"oX~.I.L.~.L.I.P.I.oX~.P.K.I.I.|.K.b.L.L.J.L.T.H.J.Z.4.B.4.B.V.B.B.H.L.T.E.W.H.L.H.P.Z.K.H.E.T.E.~.~.oXJ.L.T.~.~.~.T.H.H.T.~.~.~.%X~.~.XX1X|.5X7X3.A.A.N.6.G.2.A.Z.Z.D.N.Z.N.2.N.^.T.Z.W.Y.Q.Y.H.Q.R.E.Q.Y.H.W.Y.E.E.Z.R.Y.B.Y.Z.B.1.N.N.N.N.3.N.B.Z.N.3.N.6.%.N.Z.Z.H.Z.R.Y.L.2.Z.H.W.Q.L.Q.W.R.#X#X&X=X=X&X#X{.$XE.E.$XE.R. XW.$XW.#XE.#XW.#X$XE.E.Y.Q.W.#XW.#XZ.Q.^.,XQ.Q.#X#X#X#X#XZ.Y.#XQ.#X^.#X#X#XQ.#X#XQ.#X-X#X#X-X-X=X0XQ.#X^.#X#XQ.Q.<X,X#X#XY.#X#X#X#XY.,X#X$XR.G.W.#XY.Y.Y.W.Q.Q.Y.Y.Y.Z.Q.Y.Q.G.Y.Q.#XY.Y.{.<X#XQ.Y.R.H.D.H.N.G.h.#.V % < * < < < , , , 5 , 2 < 5 2 5 2 , 2 2 , 2 < 2 < y x 2 2 2 * 2 2 * 2 2 5 , 2 2 q y x 0.W 2 z U > 2 2 2 < n / m.F.D.D.R.Q.E.#XY.W.{.Y.R.Q.E.Q.!.Q. X!.W.R.R.Q.Q.Q.W.#XW.#X=XzXMXW.W.Y.W.W.W.!.Q.W.D.W.Z.E.T.C.^ p d R ) 5 p Y p z =.N 9._.eXeXa.B U a.eXeXeXeXhXhXhXhXSXHXHXHXGXGXCXwXHXfXfXfXfXhXhXfXgXgXSXSXfXfXgXgXGXGXHXLXGXGXHXLXLXLXGXHXGXGXKXDX+X:.f.>.3.2.j.j.N.N.B.A.Z.Z.H.H.Z.B.Y.Y.R.Y.Y.Q.Y.#XR.Y.W.Y.Y.Z.Z.Z.B.E.Q. X%XT.!.Q. X!.L.L.Y.!.!.$X X%X=X7XMXMX:X:X=X,X=X$X$X{.&X#X:X&X;X=X*X&X{.#X&X}.$X%X{.&X-X=X X XW.$X!.!.%X%X!.!.$X*XW.$X&XW.{.%X=X{.W.=XR.$X{.#X$X$X$XW.~.Y.!.%X$X!.=X%X$X!.{.$X%XW.%X%X{.$X XW.R.$XD.R.R.B.}.{.].{.{.&X&X,X}.{.[.#XD.,X{.{.Y.R.W.E.{.R.R.{.L.R.R.D.D.Z.E.1XP.b.N.V.Z.Y.J.K.I.J.T.L.K.C.b.K.L.%X|.L.J.H.L.L.L.Y.B.J.J.L.L.C.J.v.C.K.C.z.b.z.V.V.b.2.2.z.2.z.l.b.V.N.j.z.c.c.z.C.V.V.V.V.j.j.j.c.z.z.z.N.z.V.z.b.j.3.>.2.2.z.j.j.2.1.3.2.1.1.2.1.3.j.j.>.1.>.<.2.1.4.z.V.2.3.l.2.j.>.>.3.;.,.1.3.3.z.j.>.;.;.<.>.3.z.1.1.3.<.<.-.#.+.@.` ;.;.,.1.,.l.>.>.;.>.;.-.:.<.v.l.,.>.:.-.;.,.;.-.' ' ' 5.5.5.5.` +.5.' @.@.@.I I @.I ( ( @.@.+.+.+.+.#.#.#.+.#.#.#.$.,.-.",
"I.Y.L.K.P.L.P.~.I.|.|.P.~.I.[.I.I.P.~. X!.T.E.H.B.V.B.B.H.H.4.4.C.J.L.Y.!.T.T.E.E.T.E.W.H.Y.~.L.~.I.T.~.~.~.~.~.L.~.I.~.~.T.~. X%X X!.XX1X1XVXcX4.J.J.J.N.4.6.N.B.Y.H.Y.Z.H.Z.Z.^.D.Y.Q.Y.E.Y.H.Q.#XR.Y.Y.T.Y.Y.T.T.H.Q.L.Y.B.Z.N.N.G.2.@.N.z.N.L.Y.A.G.B.4.N.N.Z.Y.E.D.R.R. XH.P.Y.b.D.L.Z.T.E.W.T.W.W. X=X%X%X=X&X%X=X%X X%X$X{.Q.$XQ.W.{.{.#XW.$X$XW.W.G.A.#XQ.^.#X#XY.Q.#X#X#X#X^.#XQ.#X#X#XQ.Q.#X#X#XQ.W.Q.#X$X#X#X#X#X-XMX#X#XQ.Q.W.#X#X#X#X-X$X#XW.#X#XW.#XQ.<X{.#X#X#XW.W.<XQ.Q.R.$XR.#XY.Y.#XY.#XG.Y.Q.G.Y.Q.Y.G.Q.#XQ.R.H.Y.V.b.b.<.I p & & * , < < < < , 5 , 2 2 2 2 2 2 1 2 3 1 3 1 4 t S V 2 2 2 2 2 2 2 < 2 , 5 5 2 6 y M w.q.Y z 5 : & 5 & 5 w H k.F.[.].E.E.E.E.W.$X$X#XQ.#X$XW.$X%XQ.E.W.W.#XQ.#XE.#X#X$X#X$X9XMXH.#X#XY.Y.W.R.#XE.Q.R.P.T.Z.V.x.n 3 3 5 a F 9 5 =.p.t.Q Q s.eXeXs.=.t.s.s.eXeXeXpXwXtXs.sXaXu.+XCX=.N =.wXhXfXgXgXuXuXeXhXpXhXfXgXSXSXSXHXHXGXLXGXGXLXGXLXJXHXFXFXGXFXbX=.<.=.$.3.2.N.N.N.B.H.Z.R.T.H.L.Z.Y.Y.H.T.T.Y.T.R.Y.H.{.Q.R.W.Y.W.E.D.Y.{.#XW.$X~.Q.E.H.Z.H.Z.$X!.$X=X#X0XMXzX:X&X=X9X:X$X,X&X*X XW.&X&X%X=X&X{.$X$X$X$X%X$X&X=X=X{.=X%X$XW.$X$X$XW.!.$X$XW.=X,X#XW.{.#XE.:X#X@XQ.{.$XE.$XW.W.!.!.!.%X%X~.!.Q.P.~.E.!.{.$X#XW.{.&X#X$XW.W.W.W.{.R.#XR.W.{.#X$X&X[.[.Q.@XQ.R.R.$X@XR.[.#XR. X{.{.L.E.T.J.K.P.L.P.K.K.Y. XR.P.~.H.b.P.L.~.L.b.b.b.v.J.|.T.Y.L.I.J.T.J.L.z.V.b.J.b.V.b.2.b.2.z.1.2.1.l.2.<.3.2.3.j.1.h.b.j.j.V.V.j.V.N.V.z.c.c.j.1.1.2.j.S.z.B.z.2.z.l.b.2.h.3.2.1.j.j.3.>.z.>.3.1.1.1.3.2.>.;.3.2.>.2.1.1.1.1.z.j.z.1.j.z.1.3.;.#.1.3.;.3.2.z.2.3.;.3.3.1.j.j.>.;.3.#.;.#.@.` +.;.>.j.c.V.l.k.j.#.#.-.,.-.-.U.v.,.>.3.#.=.<.5.=.5.=.=.=.-.<.-.-.+.' +.@.' ' I @.+.' ' @.I @.=.I I =.I 5.5.=.5.=.` -.>.| ",
"~.~.~.~.K.J.~.oX~.oXoXI.|.|.~.E.E.~.|.*X X~.H.K.Z.B.J.B.b.Z.z.V.B.B.B.Q.!.H.H.Y.E.!.R.W.T.P.!.T.~.~.!.XX~.J.K.T.K.J.J.T.I.T.~.1X X X!. X1XXXxX8XJ.J.H.J.A.B.A.H.W.Z.Y.Z.B.z.Z.Z.Z.Q.W.W.Y.H.Z.Z.D.Q.H.H.Y.R.Y.Y.H.Y.Y.L.Q.R.Z.H.2.j.N.2.2.Z.N.N.j.N.Z.N.2.6.3.4.N.Z.R.Z.N.{.=X X X~.Z.H.P.T.W.$X=X X X=X$X=X$X X!.~.%X%X$X1X=X XQ.#X:X#X{.#X#X=XW.#X{.Q.#X#X#X#XQ.Q.#X#X#X#XY.Q.Y.#X#XQ.#XQ.#X#XQ.#XQ.$X#X#X#X#XQ.#X#X#X#X#X-X0X#X#XQ.Q.#X,X#X$X,X$X=X,X#X#X$X$X#X#X&X{.W.#XR.Q.Q.R.W.Q.Q.Q.Y.G.Q.^.R.,XQ.Q.R.Q.Y.Y.Y.Y.Q.R.R.Z.Y.T.Z.J.K.4.-.J * & 3 < < < < < 3 , < , < 5 5 5 5 3 4 4 4 4 4 4 q c U S q < , , < > < < 2 2 5 < q 6 q c M.w.w.W 9 5 & 5 5 3 & 3 ! x.F.].K.E.W.{.W.E.#XR.W.W.$X#X%X$XY.T.{.#X#XR.W.R.Q.$X&X$X#X8XMXY.#XQ.Q.{.#XQ.H.Q.Q.R.H.H.A.C._ & d 5 3 w m U =.u.p.p.p.p._._.qX_.=.U B Q t.p._.p.T t.B U U N D F N N N B a.fXhXeXeXhXtXeXeXhXhXhXfXfXfXfXHXHXJXGXJXGXGXLXLXJXJXLXJXLXFX=.<.=.#.#.2.3.j.N.N.H.N.Y.H.Z.Z.^.Z.2.Y.Z.Z.T.Q.Y.Y.H.Q.Q.H.H.Y.Y.Q.Z.Q.Q.E.L.E.Q.$XQ.z.Z.Z.T.E.$X!.*X:X:XMXzX$X&X=X:X:X$X&X=X3X,X&XN.R.&X0X&X{.E.R.R.E.&X$X{.=X1X=X%X$X$X!.$X!. XE.!.W.$X%X&XW.$X#X{.$X$X$X$X#X$X#X#XQ.T.W.Y.H.!.%X%X!. X#X~.!.^.!.!.#X{.{.#XQ.{.E.E.{.E.{.W.Q.R.<X}.R.G.Y.{.#X,X#X{.#XR.G.Q.Y.Q.Q.[.{.R.{. XE.R.~.P.L.T.H.L.I.H.b.~.T.L.L.L.Y.J.K.Y.J.L.~.T.J.b.J.~.~.L.B.v.2.v.K.b.4.z.4.V.z.b.l.2.v.z.v.b.z.b.1.4.2.;.<.3.2.3.1.b.j.N.2.j.k.N.j.z.h.z.j.N.2.>.>.2.V.j.2.c.2.1.z.z.j.1.1.,.1.z.;.3.<.j.2.>.1.3.j.j.<.;.;.2.1.2.>.>.1.1.j.2.1.2.1.1.1.3.3.>.3.<.;.1.z.l.1.-.#.;.;.;.3.>.3.2.<.#.;.+.#.+.+.;.,.>.>.1.>.j.h.>.#.;.#.;.' -.K.v.,.;.h.>.<.<.5.5.5.5.5.=.-.5.=.5.+.5.-.@.@.@.+.' @.@.+.@.=.@.5.5.@.@.=.5.5.=.I =.+.#.$.+.",
"|.~.~.E.~.~.I.*X|.XX~.|.oXXXXX~.E.|.E.E. X!.Y.H.B.V.C.Z.V.J.V.Z.H.Z.H.E.Y.L.L.T.Y.E.T.R.L.Y.~.~. XT.~.~.I.L.T.T.~.E.E.E.H.I.~. XE.Q.Q.XXXX4XVXxXW.Q.J.V.Q.B.A.Q.Z.B.T.D.G.N.Z.Z.Z.R.Y.Y.^.H.B.D.Z.Y.{.Q.G.H.Y.Y.H.H.H.Q.Y.Y.Q.D.N.B.3.3.j.Z.A.N.Z.j.6.2.3.@.@.2.R.|..XD.[.|.&X>X4X;XE.|.R.T.W.%X$X~.%X$XW.W.$X=X1X!.$XW.!.1X!.!.=X=X$XE.#X$X=X$XW.W.W.T.E.Q.#XQ.#XH.^.#X#XY.^.#X#XY.#X#X#XQ.#X#X#XQ.Q.#X#X$X$X#X,X#X#X#X#X<X-X0XQ.$X#X#XQ.E.#X$X=X-X$X$X,X#X#X,X$X#X-X$X$XW.G.#XE.Q.R.Q.N.Q.Q.#XZ.Y.E.<XQ.Q.Q.Q.Y.H.Y.Y.Q.W.W.Y.T.Z.H.B.b.l.-.h * & < < < < < < < 5 , , 2 2 4 1 3 4 4 4 3 4 4 3 2 i S S y , 2 < < < , < 2 2 4 3 x A 2 y U w.w.w.B N : & & 3 3 & p $.n.].I.I.L.E.R.$X#XW.{.Z.E.W.E.W.Q.Z.H.Y.W.R.Y.Q.E.&X%X-X,X0XzX#X#XQ.#XR.^.R.Y.T.R.T.Z.Z.Z.j.=.s 5 d w w m u.t.t.s.p.s.p.`.qX_.'.=.m h h h N n m x z x h m m z N x m m T wXhXuXuXtXwXeXeXhXeXhXtXhXpXpXfXHXHXHXGXFXFXGXGXGXFXHXaXHXbXFX6X/ =.#.3.j.3.2.2.N.N.N.N.H.B.B.H.B.K.Z.Y.R.Y.Z.H.L.Q.W.Y.Y.Y.H.Q.Y.Q.D.N.H.Y.E.~.Y.$XQ.~.W.~.Q. X X%X,X0XNX0X=X=X:X:X&X=X3X=X:X=X:X#X#X{.&X=X{.W.R.,X X=X X%X-X=X:X=X%X$X!.!.W.W.{.W.{.$X&X#X XW.#X$X$X$X,X#X#X$X$X=X{.-X&XW.$X!.%X!.W. X#X XY.E.Y.~.E.#X-XW.{.{.#XR.Z.W.$XW.#XR.#XY.H.Y.{.R.$X[.{.R.Q.{.R.R.$X#XQ.$X{.G.{.W. XR.E.E.T.P.~.~.Y.K.4.H.K.K.J.L.L.Y.H.I.L.L.C.J.v.L.~.~.E.b.v.2.C.z.1.b.b.<.4.z.z.4.2.z.C.C.z.2.1.2.1.-.' <.3.;.2.1.1.1.3.j.1.1.V.V.l.j.z.j.z.z.3.3.1.1.1.1.3.j.>.1.1.2.1.l.j.l.1.3.3.;.;.<.j.z.1.1.2.<.3.;.<.;.3.1.;.3.3.l.1.;.;.;.2.3.j.1.1.3.3.#.3.h.3.3.>.;.@.3.;.;.3.1.>.>.<.;.;.;.>.;.+.<.>.>.$.$.>.j.>.,.$.>.+.$.-.-.v.v.>.:.,.f.1.1.5.=.=.=.5.=.;.5.5.5.-.@.' -.-.' @.@.@.' ' @.@.@.@.@.5.5.=.@.=.5.5.I +.;.;.-.",
"E.P.~.E.oX X%XoXoXoX2XXX2XoX[.|.~.|.|.E.L.Y.J.J.H.H.b.H.H.H.B.B.C.L.~.!.Y.H.T.Y.W.-X XW.~.E.Y.T.~.~.~.~.~.~.~.XX X~.~.~.~.J.L.~.~.~.XX1X1X1XVXxXQ.#X^.A.^.B.N.Z.j.Z.N.N.N.Z.B.B.Y.Q.R.W.Y.Y.Q.R.Q.W.Z.Y.B.Z.A.D.H.D.Z.Q.G.Z.Y.Y.A.B.4.N.N.B.N.N.Z.Z.2.2.1.@.2.B.~.E..X2X=X4X;X{.;X8X=XE.E. X%X&X~.Q.!.$X!. X X$X1X%X*XW.#X~.~.T.Q.Q.=XE.#X#X#XE.E.R.#XW.Y.Q.Q.Q.Y.#X#X#X#XQ.Q.Q.#X#X#XY.G.Q.Q.#XQ.Q.#XW.#X#X#X#XY.Q.Q.#X-X-X-XzXQ.#XY.Q.#X#XQ.#X-X$X#X#X#X#X#XW.$X#X#XW.Q.Q.R.#X#X#XY.G.#XQ.Q.Q.Q.E.E.W.Y.Q.Q.R.^.G.Q.#XY.Q.#XY.T.B.K.L.v.b.=.s * & < < < < 2 < < < , 5 2 1 2 4 5 3 1 3 4 2 4 4 2 t n V 2 < < < 2 2 , < 1 1 3 4 n Y y t v o.8.w.Q { m 5 & 5 3 & 3 H g.n.n.P.E.R.H.#X$X#XR.#XW.W.W.{.#X$XY.Y.H.Q.H.Q.Q.&X%X=X$X9XzXQ.[.Q.R.Q.R.Q.{.Z.T.Y.Z.L.z.j.f.h d 3 3 w 9 h B T U t.u.Q E p.u.u.Q 9 9 h 9 9 p s y t 9 i u z u u m B qXtXgXs.a.s.uXwXeXeXs.t.t.tXhXhXaXfXfXfXfXCXfXhXfXfXhXhXpXpXfXbXGXLX=.Z #.1.3.3.3.A.N.6.N.N.Z.B.V.Z.B.J.L.A.T.Z.H.H.L.Q.R.Q.D.Z.B.L.Y.L.Y.Q.{.Q.H.Y.W.~.%XT.%XW.~.Q.!.$X$X9XNXzX$X=X=X%X=X=X=X:X:X&X=XR.$X=X:X:X$X{.%X X X$X1X%X%X:X%X=X$X$XE.~.$X$XW.W.{.W.{. X$XW.$X#X#X#XQ.#X$XQ.#X#X=X-X%X%X!.$X1X!.$X!.$XT.E.J.Y.!.$XE.D.>.$XW.{.W.#X%XE.R.Q.R.R.R.Z.D.Q.{.#X,X#XR.Q.@X#XQ.R.W.R.{.R.#XR.R.~.E.~.E.I.P.~.L.K.Y.J.K.H.H.L.H.Y.L.J.~.I.L.L.K.J.K.K.~.L.4.B.b.b.b.4.<.2.3.-.3.1.3.1.2.b.z.v.1.z.<.z.2.-.;.;.<.<.1.2.<.h.3.<.j.c.V.j.h.z.G.c.c.1.>.3.j.z.j.1.2.3.z.l.3.j.3.<.2.j.1.1.<.3.3.3.2.j.z.>.2.1.>.>.;.;.1.3.1.<.3.1.2.1.1.2.;.3.z.1.1.3.3.;.3.3.;.-.-.;.;.3.;.#.3.<.@.#.>.3.#.+.@.$.` $.3.2.>.>.1.1.>.+.;.+.#.;.-.l.l.l.;.3.>.1.<.5.5.5.@.5.5.;.-.-.5.@.' @.5.@.@.+.+.-.' ' +.5.@.I =.=.@.I @.I I I 5.-.-.=.` ",
"XX~.E.!.L.L.P.1X2X2X2X2X1X X|.|.XXoX~. X XE.L.H.Z.L.Z.^.Z.Z.N.Z.L.E.Y.T.$X!.Y.L.T.$XR.Y.W.W.P.P. X1X X~.E.~.~.~.~.K. X~.~.T.T.E.~.~. X=X1X5XVXcXE.!.Q.Q.B.^.Z.Y.Z.N.Y.Z.Z.V.B.N.Z.{.W.Y.Y.R.Q.Q.#XR.A.Y.Z.E.Y.H.H.G.H.Y.H.T.Z.Z.Z.N.2.1.N.B.B.N.N.Z.Z.1.@.3.j.W.E.W. XE.P.P.;X[.&X7X;X X X!. X!.~.~.~.!.~.T.%X!.-X!.!.!.T.Y.T.~.{.#X$X#XW.{.$X#XW.W.Y.#XY.#XY.#X#X#X$XT.^.$X#X#X$XQ.#XQ.Y.Q.#X^.Q.Q.#XQ.Q.Q.^.Q.Y.Q.#X#X#X#X-X0XQ.Q.#X#X%X$XQ.{.#X$X$XW.#X#XW.W.#X#X$XQ.Q.Q.#XY.Y.,XQ.Q.G.Y.Q.$X#X{.#X#X#X#XR.#XY.Y.Q.Q.Y.#XQ.Y.Z.Z.K.V.v.l./ d < < < < < < 2 < , < < , , 2 2 3 3 5 2 2 1 2 2 , 1 q z y , 2 < 2 , 2 2 > 2 2 5 4 y S 6 q z Q 9.Q N 9.t.A 5 5 & & 3 q R k.n.].].E.Q.{.#XR.Q.W.%XW.$X$XW.=XW.$XE.Y.Q.{.$X$X%X$X9X1X0XY.#XQ.#XW.Z.Y.Z.Y.Q.D.B.Z.N.h...R p 0 3 0 w e 9 9 p H n h m n m p p w 9 5 9 e t t t t 8 9 z N wXhXhXgXgXhXeX7.D t._.a.W u.T N B ] p.(._._.p._.wXrXhXhXhXhXwXhXhXCXFXLXGXLX5Xk K ;.3.3.<.1.4.4.N.V.B.B.H.H.B.H.C.J.H.K.B.Z.R.Q.W.Y.W.Y.D.Z.T.G.H.T.T.W.Y.H.!.%X!. X!.!.T.~.!.~.=X=XMXMX=X&X*X*X:X X&X:X9X9X#X&X$X$X&X$XW.T.W.$X%X%X%X=X$X1X1X1X%X$X{.%X$XW.{.R.W.W.-X{.{.$XQ.$X#X#X{.#X#X{.$X$X$X$XW.$XW.%X%X!.T.T.!.!.$X$X~.E.R.$XW.Y.{.Y.Q.W.E.#XZ.R.Y.Y.R.W.Y.R.R.R.[.#XR.#X#X#X{.W.Q.Y.Q.Q.E.~.I.T.R.P.T.Y.T.H.L.K.L.L.L.L.T.T.b.I.I.E.J.J.L.J.L.J.K.K.H. XY.Z.b.z.z.z.2.<.1.<.3.<.;.C.1.l.2.1.1.2.2.l.<.;.@.<.@.<.3.3.3.<.@.<.3.2.h.l.b.b.z.j.j.b.3.1.j.1.b.j.1.j.1.z.2.z.3.1.1.z.j.2.3.;.;.1.3.;.1.1.3.>.1.3.,.3.1.<.1.<.#.#.;.;.3.;.;.;.j.2.2.<.1.1.2.<.<.<.3.;.;.;.@.3.;.<.;.#.#.3.>.+.+.;.@.;.>.3.3.#.3.1.>.3.$.#.+.@.-.;.C.v.,.;.,.>.l.1.:.=.5.5.5.=.;.-.5.;.-.-.5.-.@.' @.+.@.@.' +.5.I =.@.@.@.5.=.5.I 5.I 5.=.<.=.",
"=X XP.~.T.K.E. XXX2X4X2XUXoX|.~.~.oX&X*X XE.T.T.Z.Z.L.Y.L.L.V.N.J.J.H.Z.H.E.H.H.W.W.R.Y.R.L.Y.Y.I.~.~.E.L.T.^.L.Y.L.Y.~.L.I.~.XX!. X&X&X2XjXNXcXT.T.Y.^.B.Z.N.6.B.B.j.j.Y.Y.H.B.Z.Y.Q.Y.Q.T.Y.H.R.Y.T.W.Q.T.Y.Z.Y.R.^.E.Z.Z.Z.Z.N.N.N.1.N.N.2.6.Z.Z.2.N.@.N.B.R.W.|.8XoX X8XoX{.oX.XE.E.R.T.T.T.Q.Y.!.!.!.!.!.$X$XW.!.#X!.~.T.T.Q.R.R.{.{.#XQ.W.W.W.#XY.Q.#XQ.#X^.#X#X<XQ.Q.Y.Q.#X#XQ.#XQ.Y.Y.#X#XQ.Q.Q.<XQ.^.^.Q.#X#X#X,XQ.=XzX#X$X#X#X<XQ.Q.#X#X#X#X#X{.Q.#XQ.#X{.#XG.Y.R.^.#XQ.Q.R.Q.Y.Q.#XQ.#XW.#XQ.Y.Y.Y.Q.Q.Q.Q.G.Q.R.Y.Y.Z.Z.K.B.b.l.P 3 < * 5 & < > < > < , 5 , , 5 5 5 5 < 5 < 1 2 , 2 2 q y t 2 , , < 2 , < , 2 , 1 1 q 2 2 2 7 N W 8.m W 9.{ i * < < * 3 a U Y g.].P.Q.#X$XQ.Y.W.E.#X#X$X#XW.{.#XW.W.W.#XQ.E.W.W.-X9XzXN.Q.Z.W.Q.Y.W.T.Z.H.H.Y.B.G.f.F r.A < * 5 5 5 9 5 3 9 y w w w p w p 9 9 9 9 5 t u t u N r.p.hXgXgXfXhXtXqXa.T n M W U i 0 4 7 9 u z N U 8.t.i._.sXhXfXhXsXfXfXGXLXDXLXLXLXPXr.V +.#.;.<.<.1.v.z.C.z.b.K.B.b.z.B.B.J.H.D.H.H.R.Y.Z.Q.Y.Z.Y.Q.Y.Z.T.Y.E.R.T.E.!.E.=X XQ.!.!. X X=X3XNX0X=X=X&X=X{.$X&X=X=X-X&X-X&X%X{.$X{.*X$X=X%X1X$X$X$X#X1X%X&XW.E.=X=X$X$XW.$XE.#X$X$X$X,X#X,XE.$X$X$X#X,X%X,X-X$X#XW.T.%XT.E.W.!.$X!.^.H.W.W.W.W.{.{.&XW.{.#XR.H.E.R.Y.R.Q.W.#X#XR.R.#XQ.R.R.R.#X{.Q.Y.@XR.Q.Q.~.~.L.T.L.I.I.~.E.J.H.L.H.Y.L.I.J.~.H.H.L.I.L.T.T.J.B.L.J.~.E.4.1.C.B.b.2.b.5.<.1.2.2.b.4.<.z.2.1.1.l.2.1.5.5.;.;.3.-.;.5.<.;.;.3.1.1.<.4.V.z.j.1.h.1.1.1.3.3.>.1.1.1.C.<.>.>.1.1.2.j.l.>.<.;.;.;.;.;.;.>.3.3.3.>.>.j.2.z.>.3.j.<.3.;.;.#.3.#.#.3.;.3.#.>.;.3.;.;.;.<.3.#.;.;.5.3.;.5.3.3.;.<.@.#.3.;.>.3.<.3.>.>.5.3.@.' +.5.-.v.Z.,.<.>.;.:.<.-.-.I =.5.5.=.-.;.5.-.5.<.-.@.+.+.@.@.-.;.@.5.=.@.@.@.@.@.I 5.=.I I I 5.>.-.",
" XXXT.P.P.T.|.XX|.XX2X*X3XXX XP.E.E.C.K.~.P.Y.H.Y.Q.G.Z.Z.B.Z.J.H.J.H.b.B.L.Y.E.W.Z.L.T.W.Z.P.T.I.!. X~.L.T.I.I.H.K.~.~.Y.~.~.3X XE.|.~.XX2XVXcXJ.Y.Q.Z.Z.Z.Z.^.Z.B.A.Q.Q.Z.Z.Z.Z.^.D.#X#XY.Z.Z.Y.Y.Q.Y.W.Y.H.B.H.H.B.H.H.Y.Y.Y.N.N.N.j.H.3.1.3.2.Z.N.N.B.6.z.Y. XK.R. X X2XMXlX;X.XE.E.E.E.Y.T.Y.T.T.Q.!.Q.^.Y.W.Y.!.!.1XT.T.Q.Y.Q.Q.Q.W.Q.L.Q.W.{.T.H.Y.Y.^.Y.^.Y.#X#X#XQ.Q.Y.Y.#XQ.Q.^.Q.#X#X#XQ.H.$XW.Q.Q.Q.#X#X#X#X#X#X-X0X{.#XG.#XW.R.Y.#X#X#X$XQ.Q.#X<XW.Q.Q.G.#XY.Q.#XG.Y.Y.Y.Q.Q.W.W.R.Q.Q.#XG.G.H.Q.Y.G.H.#X#X,XQ.Y.^.H.Z.B.J.b.l.P * < < 5 < 2 < , , , , 2 , < 2 5 3 3 5 2 5 5 , , 5 , 2 q p q , , < < 2 < 2 , 2 1 , , 5 , 5 6 i W q.U W 9.u.Q 3 3 < 5 5 i R Y H d.@X@X#XQ.#XW.Q.W.Q.$X#X$X#XW.$X#X#X{.#X#X#XW.W.=X9XzX6.T.Y.W.T.Y.E.Z.B.Z.Z.Z.V.j.$.Y M.2 2 * 3 3 5 5 w * 5 4 3 4 4 w 9 w 5 5 N R 5 Y E Q S t.'._.`.s.`.W t.W D N x w y 3 3 4 3 3 5 5 9 u m U 8.i.wXhXfXHXHXFXFXLXGXLXJXLXLXLXLXLXOXm ( ' -.-.3.<.J.2.z.N.z.b.2.2.b.b.v.L.L.C.B.D.L.Q.V.Z.Z.Z.^.Z.R.H.Q.D.R.T.H.T.T. X$X!.Y.!.!.~.1X!.1XMXzX=X{.&X{.{.&X-X$X&X=X=X{.T.W.W.W.E.$X&X$X$X X1X9X1X1X%X$X=X&X%X%X&X#XW.$X-X{.#X{.#X$XQ.$X,X#X#X{.-X-X%X$X$X#X$X=XT.T.!.$X!.!.~.~.~.T.!.H.{.W.W.W.W.%X{.{.E.Q.{.{.H.#XE.R.R.Y.Q.#X#X{.#X$XR.Q.L.Q.Q.R.R.Q.E.L.L.~.T.L.J.T.I.H.L.H.~.J.K.H.J.J.J.K.I.T.L.J.H.L.K.J.B.K.v. XXXJ.V.J.4.V.l.3.<.1.<.1.<.2.2.<.1.<.2.2.4.4.3.3.<.;.;.1.;.<.<.;.3.3.<.<.z.1.z.>.3.z.j.2.2.<.2.z.h.<.3.1.z.j.l.2.3.2.h.z.1.<.;.>.;.j.#.;.<.3.2.>.;.3.3.3.j.1.3.1.1.1.1.2.z.1.<.>.2.1.h.1.<.3.1.j.;.;.;.2.;.3.>.;.#.;.+.;.#.;.2.;.5.#.;.3.;.;.2.;.>.$.@.5.#.@.+.@.+.1.K.v.<.<.-.5.-.-.;.=.=.5.5.I 5.-.5.5.5.5.-.5.+.;.+.+.+.+.@.+.5.I =.I @.=.=.@.I I I I I ' ;.-.",
"E.E.R.L.~.P.oXXXXXXXXXoX2XoX~.P.K.P.K.~.~.T.P.Y.Y.A.B.L.Z.B.H.V.Z.P.Z.Z.2.2.^.Y.D.D.Z.Z.T.E.T.~.~.!.~.~.L.T.L.^.I.H.H.T.I.T.~.1X~.~.|.~.2XkXVXxXE.Q.^.Z.N.^.Z.N.B.N.N.Y.G.Z.Y.N.Y.R.D.#XR.Y.Z.Y.R.G.^.E.Y.R.H.H.E.E.H.Z.R.Y.N.Z.Z.Z.B.G.N.B.D.B.N.2.N.j.B.G.2.z.Z.|.%XE.2X4XL.Z.V.{.=XW.H.A.z.Y.J.Y.H.J.!.!.W.T.Y.Q.T.~.Q.!.~.Q.R.R.Q.R.Q.R.Q.H.Y.Q.{.Q.Y.Q.Y.#XQ.#XY.^.W.Q.^.#XQ.#XQ.^.#XG.#X#X^.Q.#XA.#XT.Q.Q.#XH.-X#X-X#X=XMX#XQ.Q.#X#X#X#X#X#X,XR.W.$X{.E.W.R.#XR.Q.Y.Y.Q.Q.Q.Q.Q.R.Q.G.Q.Q.Q.Q.Q.Y.#XY.Y.Z.^.H.Y.#X#XY.Q.Z.H.Z.b.b.4.<.P & < < < < , 2 , < , 2 , 2 5 5 < 3 4 4 5 2 < 2 , < , , 6 t 4 , < , , 2 2 < 2 2 2 < , 3 , < 2 y U q.W W 9.q.W D 5 < & & 5 F ~ S Y k.F.Q.R.R.E.R.W.Y.Y.Q.{.W.W.&XW.$XW.W.#XW.E.$X-X0XMXj.Y.Q.Y.E.Y.Q.H.Y.&XZ.C.Z.j.+.M.y.y 0 5 5 * 5 * * 5 5 5 3 3 3 5 w w 3 5 9 m h w./.0.y.i._.p.m N N x x h p 9 3 4 3 5 3 3 4 3 6 5 p z m T t.qXpXhXCXHXHXGXFXFXGXLXLXLXLXLXPXLXFX~ G >.;.2.4.4.z.2.b.2.l.-.B.b.z.b.C.V.Z.Z.G.B.Y.D.H.D.T.D.Q.H.Z.Y.Y.T.Y.H.W.T.R.Q.~.!.!.!.!.~.%X#X0XMX1X$X4X$X$X{.{.{.{.#X&X{.W.%X{.W.W.E.{.$XW.!.!.!.$X!.!.!.!.!.W.W.%XW.E.R.Q.#X&X#XE.{.$X$X[.#X$X$X#X$XW.E.$XW.%X{.E. XW.W.&X!.~.!.~.!.T.Q.E.$XW.&X{.#XW.W.W.E.E.Q.R.{.Q.R.Q.Y.Y.Y.@XQ.#X#X@XQ.R.Q.Y.L.Q.R.W.T.T.L.~.~.J.K.H.J.T.I.L.v.~.L.H.P.K.^.L.L.P.J.J.H.K.J.b.b.J.J.1XXXB.z.<.;.1.V.b.b.;.<.2.1.1.2.2.2.1.1.<.z.z.4.1.<.5.3.3.<.5.;.4.2.3.3.1.3.2.1.1.z.3.j.2.>.>.1.l.2.>.<.3.2.c.z.3.l.2.<.z.2.l.2.1.<.3.2.3.;.3.>.3.;.#.<.j.<.1.1.2.j.3.;.+.>.3.3.1.1.1.3.;.;.;.;.1.3.;.#.;.#.@.@.;.#.@.@.5.;.;.;.>.#.@.@.#.3.#.;.+.#.@.$.5.@.@.+.+.#.<.Z.l.<.<.-.5.=.5.=.5.5.=.5.=.5.-.-.' =.5.-.-.;.+.@.@.' I I @.@.@.@.5.@.I I @.5.I I =.' ' -.<.",
"~.L.Y.P.~.P.XX;X X%XXXI.oX~.~.oXL.K.C.~.L.K.L.L.Y.Z.Z.Z.Z.E.Z.Z.H.B.V.Z.L.H.B.L.N.D.B.D.Z.H.H.L.~.T.I.E.~.Y.~.P.~.T.T.~.~.I.~.~.~.*X&X=X2XjXVXMXE.T.Y.Z.H.N.A.Z.N.G.Z.Z.L.Z.H.H.Z.Y.Q.Y.Q.Z.H.Y.Y.L.{.Y.Y.Q.Q.Y.^.Y.Q.Z.Y.H.Z.Z.H.Z.B.Z.N.N.N.N.2.N.N.6.j.N.3.2.;.z.Y.V.L.&XR.D.T.Y.E.W.Y.H.N.T.^.Z.^.H.Q.Y.W.T.H.H.^.^.Q.Y.Q.W.Q.Q.Q.Q.R.Q.Q.R.Q.H.Y.Q.{.W.Y.Y.W.#XQ.W.^.#XQ.Q.#XQ.#X#X#X#X#X#X^.Q.Q.Y.^.#XQ.Y.#X^.#XQ.^.#X<X0X{.Y.Q.Q.#X#X#X#X#X#XW.Q.#X$XQ.W.W.R.Q.W.^.#XG.#XY.Q.R.^.Y.Q.Q.G.Q.Q.<XQ.H.R.Q.Q.Z.G.#XQ.Y.H.G.Y.Z.Z.N.2.j.>.G * , 3 < < , , 1 , , 2 , < 2 5 4 3 2 1 , , , , , < , , 5 2 , , , , , 2 < 2 5 5 2 3 t R D 4 3 4 m 8.Q B 9.9.M { D 2 3 * 5 p =.L h =.m.@X].E.W.W.Y.Q.Y.R.$X$X$XR.$X{.R.#XE.#XQ.$X-X:XMX@.R.Q.Y.^.Y.T.Y.Z.Z.K.b.c.j.I w./.8.d < < 2 2 5 5 2 2 3 5 5 5 3 5 5 3 5 < 5 t M U n ] i.9.m w w 7 w w 4 3 5 3 5 3 5 3 3 4 6 6 9 p u m Q y.wXpXSXSXHXHXGXJXJXPXLXLXLXPXPXPXLXLXP.H =.+.;.<.l.2.j.V.2.2.l.2.j.z.b.b.j.V.D.V.B.Z.Z.Z.B.D.H.Q.Y.Z.L.H.Y.Z.L.H.W.Y.Y.T.Q.E. X~.Y.!.~.1XNX1X XY.Y.D.#X$X{.Q.{.$X$X%XW.E.Q.{.#X=X$X&X$X!.%X%X X!.!.~.E.R.R.Y.Q.{.E.%X#X:X#X$X{.$X$XW.$X&X$X&X#X#X!.T.$X$X X=X!.!.~.!. X#X!.W.!.!.Y.!.#X#X[.#X{.R.Y.#XQ.Y.{.#X$XY.Q.Q.Y.R.#XR.Q.R.W.{.Y.Q.R.Q.Y.Y.Y.H.L.Y.L.T.Y.T.H.J.b.L.L.J.K.Z.C.L.L.K.J.K.K.H.L.P.J.J.K.J.v.B.K.*X~.b.b.2.z.4.z.z.2.<.2.<.4.z.2.z.2.1.1.1.2.4.b.4.2.2.l.2.<.2.1.4.4.1.;.<.1.2.j.z.j.1.2.j.<.1.1.j.j.3.3.1.z.l.h.<.3.>.j.V.z.j.j.b.j.1.3.>.3.3.1.3.$.3.3.>.3.1.>.>.<.3.1.;.1.1.j.3.<.3.h.1.3.1.<.3.3.<.;.@.+.3.@.;.5.3.3.>.>.;.-.5.;.+.@.#.@.3.@.;.<.;.-.-.5.' ' ' ;.<.K.;.;.>.>.;.=.5.=.=.I 5.I 5.5.=.' 5.=.5.5.5.+.-.' @.' ' ' ' @.I 5.@.I @.@.@.' I @.' ' ' -.` ",
"1X~.P. X~.E.|. X*X~.1XoXXX|.|.E.P.z.C.I.K.Y.Y.H.H.Z.Y.Z.4.Z.L.Z.H.z.4.2.4.V.B.H.Y.L.C.H.Z.D.L.!.~.~.~.!.~.I.H.Q.~.T.I.Y.Y.T.~.T.&X$X=X2X4XlXVX0XZ.N.^.Z.Z.N.A.Y.N.z.A.B.H.2.N.Z.Y.Z.R.Y.H.R.B.N.Z.Z.A.D.R.Y.R.Y.H.H.H.H.R.Q.R.Z.Z.B.G.N.L.B.N.N.2.Z.2.#.N.3.3.@.N.j.V.N.3.T.%XT.Z.#X,X=XH.Y.Z.H.H.Z.^.Y.H.Z.H.T.T.Q.T.T.W.Q.{.Y.Y.{.E.$XQ.{.{.#XE.Z.Q.W.E.Q.Q.#XQ.Q.#X#XG.Q.^.#XQ.#XY.#X^.Q.#XY.#XY.#XQ.Y.Y.Q.Y.#X^.Q.#X^.#X-XMX#X#XQ.Q.#XW.#XW.Q.#X<X[.W.Y.Q.Y.R.Q.Q.$XY.Y.#XY.#XQ.Q.Q.Y.Y.R.Q.Q.R.R.R.Q.Q.W.G.Z.Z.#XY.H.Y.H.H.B.B.z.1.,.` C & * 2 5 < , 2 < 2 2 , , 2 1 3 1 2 2 2 2 2 2 , , , , , & , , < 2 < , , , < 2 , 2 5 i E R t 3 5 6 i z m { W M S { z 5 5 5 & 9 0 9 m 0.k.F.[.E.L.E.Z.^.R.Z.Q.$X#X#X#X$X$X{.#XE.W.$X=XMX( [.W.Q.G.T.L.Z.Z.N.C.c.z.h./ S q.w.2 2 2 2 2 , 2 2 2 5 < 3 < 3 5 3 3 2 5 5 4 6 q t x A t 6 4 4 4 3 4 , < 4 3 5 5 5 4 6 4 6 q 9 9 9 m 7.`.pXdXfXfXHXFXGXGXPXJXLXLXLXPXLXLXLXPXDX[ ~ ` =.<.1.x.c.c.>.2.c.h.%.h.h.b.V.j.Y.Z.V.Z.j.Z.Z.Z.N.D.H.L.H.Y.H.L.H.Y.W.E.T.T.T.~.!.Q.~.E.~. XMX0X!.!.&XR.@XR.[.R.W.$XW.{.E.W.%X{.=X&X$X=X$X$X!.!.$X$X#X!.$X=X#XQ.{.#X$XW.&X#XW.$XW. X$X%X&X{.-X#X[.&X&XE. X!.!.!.!.!.!.!.T.E.~.Q.!.E.~.Q.{.{.{.#X{.#XW.D.R.R.W.R.H.Y.@XR.Q.#X#X{.#XR.#XY.{.Y.Y.{.#XY.H.Y.H.H.H.Y.E.E.L.T.K.b.J.C.Z.Z.b.Z.J.J.K.J.J.J.J.J.v.J.J.K.J.Z.H.!.T.K.b.z.z.b.V.4.b.z.z.4.4.V.<.z.b.2.<.1.l.z.v.b.2.1.b.1.2.;.3.z.<.3.;.v.z.V.z.b.z.z.>.2.3.j.1.1.1.1.h.3.z.2.2.1.z.2.z.b.z.j.j.j.j.3.j.>.2.>.j.l.3.3.3.1.1.1.3.1.j.h.j.;.1.2.2.h.3.1.V.2.j.1.1.1.z.2.;.@.3.@.;.3.>.3.3.3.;.;.@.;.@.+.+.;.<.;.#.3.2.<.5.@.+.' 5.5.+.>.P.V.;.<.<.-.5.=.5.=.=.5.=.5.' 5.5.5.5.5.' 5.@.@.@.+.@.' @.@.I @.=.@.5.I @.I 5.=.5.' 5.' ' -.",
" XXXE.E.*X1X4X1XXX X XXX XL.P.E.P.H.L.P.~.!.Y.H.Y.G.H.Z.2.2.B.Z.L.H.H.N.V.Y.L.B.Z.Z.H.Z.G.R.L.R.XX!. X!.T. XE. X~.H.H.!.!.E.~. X X*X2X>XkXVXPXMXY.A.Z.B.Z.2.N.5.N.Z.T.Y.D.N.N.G.Y.Y.R.Q.Y.D.Z.Z.B.Q.Q.#XY.Y.Y.H.Y.Q.L.Z.D.B.B.G.N.B.N.Z.N.N.Y.N.N.Y.Z.2.N.%.@.3.z.+.j.j.j.2.z.T.V.#XR.Q.L.B.B.Z.B.B.Z.^.Z.Z.^.Y.~.T.!.!.$XT.R.#X#XH.Q.#X$X{.Q.Q.W.T.T.Q.Q.Y.#XQ.Q.$XQ.Q.Q.#X^.#X#X#X#X#X#XY.Q.N.Y.#X#X^.#X#X#X#XQ.Q.Q.#X#X#X-XMX#XE.Q.Q.Q.#X#XQ.#XY.#X#XQ.R.#X#XQ.Q.Q.#X#XG.Q.R.G.Q.#XW.Q.G.Q.#XQ.Q.Y.#XW.Y.Y.Q.Z.Z.Q.Q.^.Y.Z.A.D.C.N.j.#.P s * & < 5 < < , 2 , , , , 2 2 3 2 1 3 2 3 < < , , , , , , 2 5 2 < 5 < , < 2 < 2 < 5 t i m y 3 5 w i U D B 9.W U W Y w * 5 : 5 & 5 9 Y ! =.S.R.D.Z.E.G.Z.{.W.W.#X{.#X$XW.W.#X-X-X-X9XMX%.[.H.Y.H.^.Z.Z.V.C.z.c.h.k.} W /.U 2 < 2 2 2 2 5 5 6 5 3 , 5 * 5 5 5 5 , 2 5 5 5 3 4 6 4 < , < < 3 3 < 2 2 5 5 3 4 6 6 6 t t 7 p z m U u.rXfXSXHXfXGXPXJXLXLXLXLXLXLXLXLXJXGXZXM.n C G ' -.=.h.f.@.J G Z X.@.>.>.h.h.N.z.j.D.N.z.N.N.Z.H.Z.Z.Z.Y.T.Y.Q.Y.J.T.T.I.T.!.E.!.~.T.~.~.MX1X~.E.E.W.Q.Q.E.E.{.$X$X$X$X{.#XW.&XW.{.$X!. X X$X%X%X!.$X#X{.{.E.W.&X$X=X,X$X X=X$X{.$XE.&XQ.#X&X#X&X#X%X%X%X%X%X!.!.!.$X$X!.W.!.%XT.Q.E.#X=X#X[.{.{.W.Y.E.Q.E.Q.L.Z.Q.D.Y.R.R.#X#XW.W.H.H.Q.#XG.Y.R.Y.D.L.H.I.T.Z.L.D.L.Z.b.C.C.H.K.H.J.K.J.v.b.K.T.~.H.J.E.J.J.b.K.J.1XP.B.V.z.C.b.V.V.z.b.1.2.z.z.4.z.l.z.1.2.2.z.b.z.b.z.z.B.l.V.K.4.V.z.1.2.C.j.z.N.b.2.z.z.j.1.2.,.j.1.j.1.z.z.1.j.z.V.j.1.j.b.z.2.,.>.2.<.;.1.2.1.>.;.3.h.j.>.2.2.1.1.<.3.>.j.j.z.2.j.z.j.1.1.j.j.>.3.;.;.>.;.#.;.3.3.+.@.>.3.3.>.3.>.;.<.;.@.#.;.2.<.;.-.5.+.-.-.@.;.K.<.;.>.3.-.5.=.=.5.I =.I I 5.-.5.=.5.-.5.=.' @.' @.' ' @.@.I @.@.@.@.I 5.5.5.=.' ' ' ' ' <.",
" X X~.~.|. X&X*XoXoX X|.E.P.H.I.E.H.~.L.H.Y. XY.Q.Z.Y.Z.N.z.V.Z.B.Y.Y.Y.^.J.N.B.Z.Z.Q.Y.B.B.A.Y.R.H.H.!. XT.T.!.Q.P.K.T.L.E.%X*X&X=X&X.X;XcXVXMXY.H.^.2.Y.A.Z.6.2.N.j.B.Z.Z.B.2.H.Z.Y.R.Y.N.G.N.H.R.H.H.Y.Q.H.Z.H.Z.Y.H.Z.Z.N.A.Z.H.Z.H.2.j.2.2.B.V.Z.Z.N.N.4.$.@.@.#.@.N.3.2.Z.L.B.E.H.H.Q.Y.Z.Y.G.R.Y.Y.Z.Y.Y.E.!.W. XQ.$X#X{.&X#XE.$X#X$X$X$X%XW.W.E.H.Y.W.$X#X#X$XQ.Q.Q.#X#X#X#X-X#X,X#XY.Q.#X#X#X#X^.#X#XQ.#X^.#X#X^.#X-XMX<XR.Q.!.#X#XQ.Q.#XY.^.^.H.Q.Q.#X$X<X#X#X$XQ.^.W.W.Y.G.H.Z.#X$X$X#X#XQ.Y.Q.,XZ.A.A.Y.Z.Q.Z.G.H.B.N.N.j.1.@.k * & < < < , 2 , , 2 , 2 2 1 2 5 4 1 5 1 5 1 5 5 , 5 2 , 2 2 , < , , , 2 , 2 5 , 5 5 5 6 t Y x & 5 m W { N W Q 7.8.q.N * & 5 & 5 d p Y ] Y =.S.R.R.L.E.E.Q.R.R.Q.W.#X#X{.#X$X$X=X=X=XzX' @XL.H.L.H.L.D.D.V.F.v.,.k. .w.q.M 2 < 2 < < & 5 6 n x i 5 < 3 5 5 < , , , < , 2 5 , & , , < 3 & 5 , 2 1 3 4 2 4 t 6 t t 8 7 u u n N ] /.pXfXfXfXCXCXLXGXPXLXLXLXLXLXLXLXDXFXCXyXW a w r / =.Z e = * d 0 a K ( +.( +.h.>.j.c.C.h.V.V.z.D.N.Z.L.Z.Z.E.T.H.T.Q.~.Q.Y.J.~.T.H.L.T.!.zX1X~. X XW.R.R.H.L.Y.E.W.{.W.#XR.W.T.T.#X&X!.$X!.!.!. X%X%X=X-XW.#XW.$X&X-X!. X$X!.W.W.$X=X#X$X&X{.E.#X,X=X%XW.#X X!.%X%X$X!.%X!. X X X$X!.#X&X&X#X#XR.W.E.{.E.E.R.Q.Q.Q.{.Y.#XR.$X$XY.R.Y.E.Y.E.R.Y.Y.R.Y.T.T.H.Y.D.Y.Z.Z.L.L.H.K.Y.K.Z.V.J.P.b.b.K.J.Y.K.K.K.b.c.L.C.C.1X!.V.b.C.V.z.Z.z.z.2.l.b.V.b.l.v.b.z.z.4.l.z.4.V.b.z.4.1.1.z.z.1.z.V.z.2.z.j.z.b.1.z.z.c.z.2.z.1.3.j.2.1.2.j.j.z.C.z.j.b.z.1.l.1.j.2.1.j.1.h.2.1.,.3.3.1.2.1.>.3.1.2.#.N.3.j.3.z.1.>.@.1.1.2.>.2.3.;.3.-.;.>.3.;.;.;.+.#.#.<.@.;.5.3.#.3.#.@.;.3.<.;.;.<.;.;.5.-.;.>.P.v.1.<.>.+.5.I 5.=.5.5.5.5.=.-.5.=.-.5.5.5.+.+.-.+.@.5.-.+.=.@.@.=.@.5.=.5.5.I 5.' =.I ' ;.",
"E. X~.E.%X.X X X X X!.XX|.L.P.P.P.Z.L.H.Z.V.L.Z.D.Z.Z.Y.N.B.Z.Q.Q.W.H.#XZ.Z.N.N.B.j.A.A.B.B.Z.R.Y.H.E.T.T.Y.T.T.Y.Z.Z.Y.H.L. X4X=X=X&X,X,XzXVXVXQ.N.Z.^.N.Z.A.N.G.j.B.H.N.V.Z.2.R.Q.H.Z.T.V.G.Y.Y.Z.R.Y.D.Y.G.Z.Q.Y.Z.H.Y.Z.Y.Z.G.Z.Z.V.3.1.3.@.3.2.2.2.Z.B.N.2.z.@.@.I @.@.3.;.B.Y.N.E.N.N.Q.N.^.R.Y.R.Y.Z.L.W.!.T.#XE.#X{.Q.#X$X$XR.$XQ.$X$XY.!.$X$XW.!.Q.Q.#XW.#X$X$X#XQ.#X#X#XQ.#X#X#XQ.Q.Q.Y.Y.#X#X#X#X^.G.Q.#X#X#XQ.Q.,XzX#XY.#X#X#XQ.Q.Q.#X^.Q.Y.^.^.Y.#XE.#XQ.W.#X#XR.G.Y.^.Q.G.G.Y.Q.Y.Q.Q.{.R.Y.Y.Z.G.G.Y.A.A.G.Z.Z.H.Z.G.j.j.' f = * < 3 , 5 5 , 5 , 2 , 5 < 3 4 4 4 2 5 2 5 2 5 , , 5 4 4 5 , < , , < < , 2 2 2 5 : 5 4 p T Y & 3 w D u.W W t.t.7.Q =.h : : 5 * * 5 w i U Y k.F.D.@XY.Y.E.E.Y.Q.Q.Y.W.{.#X#X#X#X$X:XMXX.@XR.D.D.S.V.D.G.S.x.h.m.k. .w.q.U 3 3 3 1 2 5 m M m x t 5 , 5 , , , , , , , , , & , : & , 2 5 , 2 5 < , 4 4 6 6 t 6 q 6 t y u i m S 0.(.`.aXpXaXbXHXFXJXLXLXLXLXLXLXLXLXGXbXsXrXr.N p 0 e e * d < d * * d q % s j ..f.c.c.k.f.j.j.V.j.V.N.V.B.D.D.H.T.H.H.Y.Y.T.L.T.H.Y.L.~.K.!.MX%XW.{.Q.#XR.G.R.Q.E.Q.W.W.W.E.R.~.Y.L.Q.%XW.Q.!.~.W.$X-X=X#X{.{.$X$X$X=X&X$X#X$X$X#X#X$X&X{.{.$X#XW.$XT.#X$X*X$X$X~.~.$X!.!.!. X!.%X!.!.~.R.#X#X#XQ.E.Q.E.#XQ.{.Y.Q.D.Y.#XG.#X#X{.#XQ.R.Y.Q.R.H.Y.Q.R.W.Z.~.T.T.L.L.H.Z.Y.H.Z.L.z.Z.Z.B.K.T.I.J.b.v.K.K.J.J.J.L.L.J.v.b.2X!.4.b.l.Z.v.V.V.l.z.C.C.v.z.2.v.z.z.b.z.V.b.b.z.c.z.z.z.z.c.z.z.4.2.z.l.z.z.2.z.z.z.1.2.z.z.z.b.1.j.b.1.j.3.z.z.z.z.z.j.2.>.2.<.1.3.j.j.l.1.3.j.3.3.1.3.<.3.>.1.2.j.3.1.1.<.1.z.c.z.b.z.2.z.1.z.j.>.3.3.;.;.<.;.;.;.#.5.5.#.@.;.#.@.;.-.;.@.#.>.>.3.#.3.;.5.;.-.5.=.1.<.>.;.;.| =.5.=.=.5.I I =.5.5.=.5.' 5.=.I ' ' ' ' -.;.<.+.@.@.@.I I =.5.I =.I 5.5.+.' ' -.",
" X X%X|.~.XX X XXXXX%X%X~.L.P.T.R.T.L.W.Y.Y.N.Z.^.T.H.Y.V.Z.B.H.H.D.Z.D.H.Z.N.2.B.A.Q.Z.Z.Z.Z.Y.Y.W.W.$XT.Y.T.E.Q.E.H.W.T.T.!.$X$X>X{.&X&XzXVXMXQ.^.N.G.Z.^.Y.Z.^.N.Z.B.B.Y.E.Q.{.{.Q.D.Z.Y.^.R.H.Y.Q.#X#XY.Y.Y.Y.Y.H.H.Y.Y.Q.H.N.B.3.2.2.2.2.@.$.2.2.6.H.V.N.1.2.3.@.I I 3.N.%.@.B.j.Z.j.H.Z.R.D.Y.Y.Z.Z.H.L.Q.!.W.E.#XQ.Q.{.#X#X$X#XQ.R.#X$X$XQ. XW.W.!.!.$X%XW.Q.Q.$XG.#X^.Q.Y.Q.#X#X#X#X#XQ.^.H.G.^.#X#XQ.#XQ.Y.Y.Q.Q.Q.#XMX#XY.Y.Q.Q.Q.#X#XQ.Q.Y.^.^.#XQ.Y.Q.#XQ.Y.#X#XQ.W.#XY.^.H.A.Y.Q.Q.W.R.Q.Q.Y.W.H.B.B.H.G.R.Y.H.H.Z.Z.N.j.1.' e = * , < 3 , , < , , , 2 , 2 1 4 4 3 5 3 2 2 < , < 2 3 5 3 4 , , 5 2 2 , , , 5 , 3 , 4 w N Q W 5 5 5 9 H U t.Q t.7.7.7.F 9 5 & 5 * 5 2 w D { G $.S.R.[.R.Q.{.Q.@X{.P.G.{.#XQ.@X#X$X=XMX/ F.R.F.D.F.S.c.F.S.m.x.m.k.} M.t.0.p 3 2 2 , 9 D M m x y 6 , 3 5 , < , , , , < , , : : , 2 : 5 , 2 5 5 , 3 2 2 4 2 4 t t 6 t x z z D { 9.r.(.sXhXhXCXCXGXJXLXPXLXLXLXLXLXPXFXJXZX+XU x s w d d < * < < d * * d < y j C D C J ( $.k.h.j.j.V.Z.D.Z.C.Z.H.Y.L.H.J.T.H.B.L.J.Z.~.T.~.zX1X X{.G.Y.R.Y.Z.E.W.R.W.R.E.H.B.~.Y.W.T.!.W.!.~.=X%X&X=X=X&X#X#X#XW.W.&X#X{.$X{.{.{.$X$X=X-X$X#X#XW.W.W.$X!.#X!.$X!.!.!.E.!.!.$XW.Y.%X%X!.E.#X{.R.{.{.Q.{.#X[.R.Q.R.Y.D.Q.R.E.Q.W.Q.{.W.Q.Q.R.R.H.R.#XW.{.T.R.T.T.D.H.Y.R.Z.L.Z.B.N.V.Z.L.~.T.H.L.J.b.K.L.K.K.K.J.L.b.J.1XoXJ.Z.C.R.b.Z.b.C.2.2.z.z.4.b.l.N.j.j.z.C.z.b.3.2.j.z.z.z.z.b.z.z.4.z.l.z.V.l.z.z.z.b.z.z.z.z.V.j.z.j.z.z.j.3.1.1.3.2.1.j.j.j.1.2.l.1.3.3.<.>.<.;.,.;.,.3.;.3.1.j.z.j.>.3.1.3.<.3.z.<.1.1.2.>.<.1.<.3.>.;.;.3.#.5.;.@.;.>.@.@.;.@.;.' @.;.;.3.3.#.@.;.;.-.5.-.5.-.<.U.v.,.<.<.-.5.5.5.5.5.=.5.5.' ' =.5.5.' 5.=.' @.' @.@.@.@.;.@.I I 5.@.5.I =.5.=.=.=.' +.+.-.",
" XP. X~.~.~.XXT.Y.T.|.XXE.P.!.~.N.L.=X:X#XD.H.B.Z.H.D.H.N.Z.N.N.H.H.H.Z.Z.2.2.V.B.Z.Z.N.Z.Z.Z.B.Y.&X=X#X!.%X!.T.T.T.Y.T.Y.R.E.$XQ.#XE.W.4X8XVXNXY.Y.N.^.N.Y.N.N.T.Z.R.Z.D.Y.#X#X#X#X&XW.Y.Z.R.#X^.D.Q.Z.W.W.R.Y.Y.D.L.Y.D.H.R.H.Z.H.4.4.4.N.N.2.2.2.2.2.N.Z.N.2.2.@.I K @.@.1.+.%.L.N.@.2.V.j.G.R.#X$XQ.W.Q.Z.Q.E.%X1X=X#X{.#X$XR.Q.{.H.H.R.Q.{.#X$X$XW.!.!.#XY.Q.Q.Q.!.#X#XY.#X#XH.#XQ.#X#X#X#X#X#X#X^.Y.#X#X#X#X#X^.#X^.Y.#XMX,X^.#XQ.Q.$XQ.$XQ.Q.G.#X#XY.Q.#X#X#XY.Q.Y.Y.G.#X#XQ.Y.Y.G.Y.H.#X<XL.Y.#XY.^.Q.A.G.Q.W.^.Q.Y.Y.Z.L.j.N.h.I e = 3 , 3 < 2 < , , < , 5 5 2 2 3 3 5 2 5 2 < 2 < , 5 2 , 5 , 5 , , , , 5 5 2 5 3 5 5 9 i U { =.h & * 9 N N B Q t.t.=.Q Q Q 9 5 * 5 5 q 6 S T D Y X. .g.}.D.Y.R.R.P.G.R.P.E.[.P.@X@X{.jXo.S.F.F.F.V.m.k.l.g.k.d.g. .] M.w.t.z 4 3 3 : 4 D A N t 9 5 , 5 2 , : , , , , , 2 2 , , 5 < 3 5 2 2 2 < < , 1 2 4 6 6 2 6 6 y i x M D T Q W t.(.rXpXsXCXCXZXPXLXPXLXLXLXPXPXLXHXHXbXr.h 9 s w d < < * < 2 2 < 2 < d < 2 q 2 2 * q H ^ f.-.S.l.S.c.D.D.C.K.J.J.Y.P.Y.H.~.Y.L.E.R. XMX=XE.D.R.R.Y.R.Q.R.L.B.Y.Y.Y.L.N.B.H.$XE.$X%X!.#XW.$X*X:X=X#X$X&X&X$X$X$X X{.#X#X$X#X$XQ.&X:X{.$X#X{.$XE.#X$X=X$X!.!.!.!.$X X!.!.%X!.!.$X!.{.{.$XQ.E.R.#X[.#X{.E.Q.{.Q.Y.Q.Q.{.Y.{.R.Q.Q.Q.Q.$XQ.R.Y.H.Q.Q. XY.!.Z.Y.Q.Z.D.R.L.Y.L.Z.D.D.D.C.K.H.H.K.J.H.J.J.b.K.L.B.J.v. X!.v.V.b.V.b.K.E.C.K.H.P.V.Z.V.C.z.z.z.j.z.z.z.z.V.j.b.2.z.z.z.4.l.<.1.1.j.z.j.2.z.z.j.1.2.c.V.b.z.j.v.z.2.>.2.;.>.3.1.2.z.j.1.1.,.1.1.2.1.;.3.;.3.,.;.3.>.<.<.3.;.1.1.<.1.>.>.#.-.1.3.<.j.1.3.1.3.>.1.3.1.;.;.+.;.;.#.-.@.>.+.+.@.+.@.#.;.@.3.<.3.@.;.3.5.' 5.=.-.<.K.l.-.<.>.-.=.5.=.5.=.I I 5.5.I I 5.=.5.5.' 5.' ` +.' +.@.' @.@.5.I @.@.=.5.5.5.I @.` ' ' +.",
"T. XE.E.E. X XP.Y.P.R.~.H.Z.~.P.C.L.D.Y.H.Z.4.N.j.B.Z.H.N.G.B.B.B.E.Z.Z.Z.2.N.2.6.N.Z.Z.Z.Y.Y.Z.W.Q.$X&XY.!.~.L.!.P.z.N.H.W.W.Y.E.E.{.{.=X4XNXzXZ.Z.N.Z.N.^.Z.N.N.T.W.H.Q.#XE.R.W.#X{.Q.R.Y.Z.W.$X$X#XR.^.Q.R.H.H.Y.Q.Y.Q.Z.Z.B.N.N.2.2.1.3.N.G.Z.N.N.B.2.3.N.z.H.3.@.I @.@.@.2.@.@.2.N.N.N.N.Z.Z.R.E.Q.Q.L.Z.Z.Q.W.Q.#XR.{.Q.#X{.W.Q.Q.R.Q.$XQ.W.$X$X$X$X#X#XQ.=X!.!.#X#X-X#XY.#X#X#X#X#XQ.#X#XQ.#XQ.^.Q.-X#X#X#XY.^.Y.^.#X-XMX$X^.Q.#XQ.Q.Y.Q.Q.#X#X#X#X#XY.Q.#XY.Y.Q.Y.Y.Q.W.Q.Q.Y.Y.Y.#XR.#X#XQ.Q.#X^.Y.^.N.B.Y.H.H.Y.H.Z.B.D.V.N.1.-.V * < < 3 , , 5 , 5 , 2 , , < 1 5 4 3 3 2 5 5 , 5 , 2 2 , < 5 , < < 5 , , < , < 5 4 5 9 a D U Q N & 5 5 N N b N Q t.t.Q 8.=.h 5 * 5 * 2 2 n E E A x Y c Z S.F.D.c.F.d.R V.@X&XP.].[..XjXo.m.m.n.F.S.m.m.k.f.d.d.g.} Y /.q.9.a 3 3 < 5 w D w m * 3 5 3 , , 5 < , 3 5 5 5 2 , & , , , , 3 5 , < , 5 5 4 4 2 t 6 t y u y i m A U E { T t.(.`.(.wXsXfXCXCXPXLXLXLXPXLXPXGXHXHXCX+XY x 9 w 4 2 < 2 2 d 2 2 < 0 2 2 < 0 q q q w w 3 a 3 Y m.m.@Xc.D.C.K.v.K.J.B.E.Q.~.Y.Y.Y.J.E.8X9X XL.Y.E.Y.D.D.G.Z.Y.R.T.R.B.L.H.B.L.T.!. X%X!.E.W.!.=XQ.[.$X$X$X$X$X%XW.,X$X#X$X&X$X$X$X#XW.W.#X=X%X%X$X-X=X~.$X%X!.$X$X!.%X~.~.!.~.!.Q.R.{.#X[.#X#X$X#XD.Q.E.{.R.Q.R.R.R.Q.Q.Y.[.Q.{.@XQ.@XQ.Q.Z.R.R.$XE.Y.E.L.Y.R.Y.W.Y.B.Y.Z.N.Y.Y.B.L.H.L.L.H.K.K.J.K.H.J.B.K.J.C.*X*XJ.z.z.V.b.H.S.K.z.Z.C.b.K.z.2.b.j.C.b.z.j.j.z.z.j.z.z.z.2.z.z.z.2.2.1.1.z.V.b.z.V.z.z.z.2.j.z.b.b.z.2.j.1.<.>.2.;.;.>.1.3.<.1.3.j.>.1.2.3.;.;.3.<.>.1.j.3.>.3.>.3.3.1.2.;.2.3.2.3.>.>.,.2.j.h.2.1.3.h.3.;.2.j.3.3.<.>.3.1.3.@.;.+.' 3.3.#.;.;.<.#.;.;.5.5.=.5.<.-.K.b.-.-.-.-.5.5.5.5.5.5.5.5.=.=.5.5.5.=.5.=.5.-.' @.+.@.@.+.=.5.I =.@.5.5.I =.I I =.' @.` @.",
"E.E.&XE.XX X*X XL.J.K.P.B.C.J.P.Y.T.H.b.V.z.B.N.N.z.N.N.N.N.N.N.N.N.Q.B.V.N.A.2.N.N.4.A.H.Z.H.D.G.E.$XW.H.Y.W.E.Y.H.N.B.B.L.Z.Y.H.R.R.{.$X,XxXlXZ.Q.N.B.N.A.Z.Y.G.Z.Y.R.W.Y.T.#X%XW.#XR.Y.L.#X{.Q.Q.{.#XQ.{.{.Q.{.Y.B.Z.H.H.H.Z.3.2.N.3.3.@.3.@.V.Z.Z.N.N.B.H.G.Z.Z.%.@.5.@.4.5.;.@.N.j.2.H.D.R.G.T.E.W.Q.{.#XY.H.Q.Q.{.Q.Q.R.{.!.#XT.T.T.D.Y.$X#XT.W.W.W.!.Q.#X#X!.!.!.#X#X1X#X%X#X#X!.Q.Q.W.-X$X#XQ.Y.Q.#XQ.Y.#X#X^.Y.^.Q.<XMX#XQ.Q.#X^.Q.Q.Q.#X#X#XQ.#X#XQ.Y.Y.Q.W.Q.Y.Q.Q.Q.#XR.R.Q.Y.Y.Y.#XY.Y.Q.Q.R.<XD.Z.N.Q.Y.Q.Q.R.D.Z.Z.z.j.$.+./ a < < > < , 2 , 2 < , 5 < 5 5 2 3 3 5 2 2 1 , 5 2 2 , < 2 < , 2 , 1 5 , , < 5 5 5 5 4 u m m U U & , 5 4 9 D m T 7.7.W W q.U 3 3 5 3 5 5 9 p M E M m b q e / x.c.g.Y Y ^ ].}.@X].}.].iX^ g.m.m.m.m.k.g.k.k.g.$.} V A u.a.u.p w 3 5 3 5 5 5 3 t m p i t t y w 4 2 6 7 q 2 6 q q 2 6 2 6 q 2 2 2 2 6 6 2 6 q 6 t t y u m N H U Q Q N Q u.p.u.wXrXHXbXFXFXaXLXLXHXFXFXCXHXCXCXaXr.H p 9 q 4 2 2 3 4 4 4 4 4 4 3 4 w t w w 9 e w e e a ) =.M.K.C.K.J.b.J.J.K.J.I.~.T.I.I.!.~.0X9X~.P.R.L.Z.Z.R.D.Y.R.Z.H.Q.R.H.G.Y.Y.Y.E.$X$XW.$XW.$X$X XW.-X&XW. X=X$X%X%X$X$X{.=X$X$X$X=X=X#X-X$X&X=X$X#X$X=X#X$X X$X$X!.%X!.!.T.Q.E.$XW.W.E.{.R.$X$XW.{.Y.{.W.Q.W.E.H.Q.#XY.E.#XR.$XY.H.Y.R.Q.j.Q.R.{.Y.{.Z.{.Q.Y.Q.L.D.Y.N.N.Z.D.Z.Z.Y.Y.K.H.E.L.H.E.J.n.J.C.l.b.C.XX%XL.z.Z.z.K.Z.V.C.Z.Z.K.K.C.V.z.c.j.z.N.v.N.V.z.V.b.z.b.z.N.z.V.z.j.z.j.3.j.b.V.c.z.z.2.l.1.2.1.v.2.z.j.z.2.1.l.>.1.1.2.3.1.3.3.j.1.3.z.1.;.j.2.<.;.1.3.j.h.2.,.h.1.j.3.;.1.>.;.2.1.<.3.<.,.2.j.1.j.3.1.j.;.#.+.3.1.#.<.@.;.;.@.@.<.;.#.3.@.#.3.;.;.<.;.#.@.@.+.;.;.K.v.1.-.-.<.;.=.@.=.I 5.5.5.5.=.I 5.=.5.5.=.5.' ' ' 5.' 5.' <.5.' +.' <.<.+.' ' ' ' ' <.<.<.",
" X[.~.E.E. X!.P.K.K.E.W.T.K.P.L.Y.K.J.C.2.2.Z.H.B.N.N.N.1.N.N.N.1.N.Y.Q.Z.2.2.6.4.N.B.G.Z.D.Y.Y.Z.Q.{.R.Q.R.Y.#X{.Y.B.D.Z.Q.H.Y.Z.Y.#X{.{.&XNXxXD.H.N.2.H.B.N.B.N.Z.Y.2.Z.E.E.W.W.W.{.Q.Q.Q.Q.Q.R.Y.Q.R.E.#XQ.L.G.H.E.W.E.Z.N.B.N.2.5.;.3.#.2.@.2.2.6.N.N.D.B.B.V.Z.$.@.@.2.2.2.3.W.E.5.j.B.Z.Q.Z.E.$XW.Q.R.Y.D.R.Q.Q.{.{.Q.#XQ.T.!.W.^.Y.W.W.#XW.W.W.!.Q.#X!.%X!.Q.Q.!.!.#X#X#X=X#XQ.T.^.#XY.Q.#XQ.Y.Q.#XQ.^.Q.^.G.Q.#XQ.#X#XMX#X^.^.Q.H.Q.Y.#X#X#X#XQ.#X#XQ.#XQ.Q.Q.#X#XQ.Q.Q.#XQ.#XG.G.Y.Q.Q.Q.Q.#X#XQ.Q.D.N.Z.Q.Y.Q.Q.G.H.Z.Z.N.N.2.h.$.! q > < , 1 , 2 , , 5 , 2 , < 5 < 5 1 4 1 3 2 5 < 5 2 5 2 5 3 5 5 2 , < 5 2 5 , 3 5 4 t u p A U p 3 5 7 x W N B t.7.q.w.9.W 9 3 & < & 5 3 5 m E E D c 3 c y a S S F E D m.F.=.X.k.F.].! :.m.x.x.d.g.f.../ / Y f p A u.p.T w 3 3 3 p F M h 5 p D A D c x z z y u u z z z z z z z y y y 6 6 q 6 q 6 6 y y 6 q z u y y x U N F Q N N =.p.=.p.hXhXsXCXCXfXLXLXJXFXFXHXFXCXfXCXaXp.N h 9 y t 4 4 4 4 4 4 4 4 5 9 t y i i m m h u i p w p L =.[ [ x.n.U.n.n.b.b.J.J.J.b.b.P.I.zX4X~.L.Z.J.D.L.D.E.D.Z.R.R.Y.{.R.R.E.!.W.$X$X&X=X!. X!.$X X-X X$XW.$X%X=X!.$X$X=X-X-X%X&X$X$X#X$X&X#X-X$X{.=X$X&XW.W.!.!.~.$X~.Q.E.~.~.!.E.R.$XW.W.$XW.#X{.W.$XT.{.{.Y.Q.R.Y.Y.E.T.W.{.W.R.L.D.Q.W.N.#XY.Q.H.Q.R.#X{.Y.R.D.H.Z.Y.Z.Z.Z.Z.L.L.H.T.L.L.J.P.H.K.J.C.C.J.J.b. X&Xc.b.Z.4.b.V.z.K.c.B.V.V.Z.N.V.j.z.z.V.C.C.V.V.z.z.b.l.z.z.2.c.z.z.2.1.1.z.l.z.2.j.z.z.v.2.3.1.l.j.3.1.z.z.z.1.b.z.z.1.;.1.;.1.,.1.>.3.3.3.2.>.1.#.@.>.1.2.l.1.3.3.3.1.1.j.1.3.1.>.1.1.j.1.1.;.3.3.<.>.j.2.3.2.1.3.3.;.#.+.` @.>.3.-.#.3.;.+.3.;.3.3.5.3.#.@.#.;.;.C.C.f.;.<.-.=.5.5.@.=.=.=.I I 5.5.I I 5.@.=.' ' ' 5.5.+.' 5.' +.' <.<.<.' +.+.I ' ' ' ' =.' ",
"P.P.E. XP. X!.~.P.T.E.L.P.K.Y.L.L.L.b.Z.4.4.B.z.N.Z.Z.T.2.j.2.j.N.2.3.A.B.1.3.3.5.6.B.A.Q.Q.#XD.Z.H.Q.Q.Y.E.R.$X$XY.Z.Y.R.Q.Q.Y.Y.H.$XP. X*XNXkXN.Z.A.G.H.Z.Z.Z.Y.Y.H.N.G.Q.Q.H.H.Q.{.$X{.Q.R.Y.Y.Q.R.Y.Q.Q.Y.Q.W.Q.W.E.T.Y.Y.T.Z.B.%.2.@.3.N.3.B.j.2.3.$.A.B.N.B.V.B.2.@.N.@.$.%.H.N.$.N.Z.D.Q.W.W.W.#X#XE.Y.H.Q.Q.$X#XQ.Y.Q.D.Y.Y.Q.!.$XW.W.W.Q.$X#X!.#X!.#XQ.Q.Q.H.Q.!.#X!.#X$X#X!.T.#X!.Q.Y.Q.Y.^.Y.^.Y.^.Z.^.#X#X#XQ.Q.^.MX#XQ.Y.#XQ.Q.W.^.#XQ.Q.#X#XY.Y.#X#XQ.Q.Q.#X,XZ.Y.W.Q.#X#XH.^.Q.Y.G.#X$X#XQ.Y.Z.G.H.H.Z.Y.$X^.G.Z.R.H.G.2.3.#.X.C 2 2 < , < 5 2 , 2 < 3 2 3 2 5 5 2 5 2 2 , < , 2 2 2 , 5 5 3 2 < , 2 < 2 < 5 , 5 3 7 7 w A E D x & 9 i W 8.B 7.7.q.q.8.9.A 5 5 < 5 * 3 w x F Y R c A E i t q q i M i ~ ) } / ..d.U.G } $.k.k.G f r d d * 0 0 e S p.t.i 3 * 5 < 9 E ] D 4 5 n Y Y S A M m c m c n n c n c c c v z c z i v y 6 2 6 8 y 6 z c c c z 9 m x N N N N Q Q =.p.sXhXaXCXHXFXCXPXJXHXFXFXfXfXhXhXhXrXQ N 9 i y w 4 3 4 7 4 4 9 w 4 t p x S r.u.Q F D m m i a F { M.U ~ m.r.U.n.b.L.b.J.L.b.I.XXcX6X|.U.L.K.Z.L.Y.D.Z.B.E.H.R.R.R.Q.E.T.~. XW.{.*X$X XW.*X#X%X%XE.W.!.!.$X%X$X%X$XW.$X$X-X$X{.$X-X$X&XE.W.#X$X$X#X{.!.%X!.!.#X%X~.Q.~. X!.!.T.W.$XW.W.$XE.W.W.R.R.T.E.Q.R.E.E.E.R.R.R.$XR.W.H.R.H.{.%.Y.H.R.G.Y.R.Y.H.R.R.#XL.Z.V.Z.R.Z.D.Z.J.z.H.L.~.H.P.L.L.L.C.C.J.v.J.~.!.4.z.V.b.V.V.V.Z.c.c.b.Z.K.b.S.C.z.b.C.K.Z.D.V.b.l.z.c.b.z.2.j.j.1.1.1.3.z.j.z.h.2.z.2.l.1.z.z.2.2.1.j.b.h.2.1.1.z.V.1.1.1.3.1.3.1.1.<.>.>.3.3.2.2.1.1.1.1.3.3.>.<.>.3.1.3.j.2.j.,.z.z.1.3.1.1.,.z.2.1.;.;.;.>.3.` @.;.#.+.@.@.2.2.@.-.#.@.#.#.#.;.#.-.+.+.@.<.#.<.P.c.1.;.1.-.' =.=.5.5.5.5.5.5.=.5.=.5.I 5.5.+.<.5.' ' ' <.I 5.I ' <.<.' ' ' +.I <.' <.' I <.",
"%XT.E.E.~.E.oXE.E.E.T.P.V.4.L.E.L.L.Z.V.Z.L.L.H.B.N.N.N.G.B.A.B.2.N.A.B.N.6.2.2.2.2.4.N.H.H.H.Z.Z.T.Y.R.Q.Q.H.R.Y.Z.H.Q.Y.Y.L.Y.Y.#XR.$X XXXxXlXY.E.Z.j.Y.Q.D.Q.Z.N.Z.Z.H.R.R.R.R.W.Q.{.$X$XR.H.#XR.Q.#XQ.R.{.Q.Y.E.Q.Q.Q.T.Y.Z.z.Y.2.2.A.B.2.N.2.%.2.B.2.N.N.N.B.N.D.j.@.4.1.3.2.@.2.N.B.Y.#XR.W.Q.H.E.E.#XQ.Q.Y.R.Q.L.R.R.Q.#XQ.!.Q.!.#X#X#XQ.!.Q.W.#X%X!.^.Q.Q.$XT.!.^.W.#X!.Q.Q.!.Q.Y.!.^.^.Y.^.H.^.#XQ.Q.Q.#X#XY.Z.Y.#X#XMX#XQ.^.#XQ.-XQ.-XQ.#XQ.Q.Y.^.#XY.E.$X<X#X#XR.Y.Q.W.Q.Q.Y.Y.#XG.Q.#XQ.W.R.Q.Q.B.^.G.Z.^.Q.^.R.L.Y.Z.B.B.2.N.N.$.( f < 2 < , , , 2 , 5 , 2 2 2 2 , 2 , , , 5 , , < 5 < 5 3 5 3 5 , 2 5 , 2 , 5 5 , 4 9 t p S D U A 5 5 p D Q 7.7.Q y.w.9.q.{ 7 * < * 3 5 5 9 t m N W ] W y 3 < 2 y B z V F Y c x e 0 * y C o.w.O.0 d < * d q 0 w 0.'.u.p 5 5 d & 5 { W D 5 5 A z E E Y E T U M c A S S M A n v S c c c c c i 2 2 z c 2 6 c c x c y z p x m N h N B Q t.hXrXhXhXhXCXCXCXHXFXHXCXaXCXCXHXHXfXfXwX=.N x y t w 7 4 4 4 4 t p p p m B 9.p.p.'.p.'.u.W D x x i R =.p.=.U m R m.l.n.K.K.K.K.|.5XXXI.J.K.Y.K.R.V.Z.D.R.D.D.R.W.$XW.T.T.E.!.T.$X{.E.W.!. X%X!.$X$X$X%X!.$X$X$X$XW.%X#X$XW.$X&X#X$X#X$X#X#X$X&X=X#X$X!.$X%X$X%X%X X!.!.!.!.Q.T.$XR.W.Y.{.W.E.E.Q.W.E.E.Y.Q.W.W.W.$XW.W.Y.Y.Y.R.Q.D.W.2.{.W.D.D.Y.Y.W.R.Q.#X{.R.H.Y.Z.N.V.V.2.V.L.L.~.Y.~.J.K.L.L.J.J.n.J.J.~.E.C.z.S.b.b.P.b.V.V.b.b.H.K.S.C.D.Z.V.V.C.V.B.z.2.2.2.z.z.z.z.c.2.1.,.1.1.j.j.2.1.l.2.h.2.z.2.v.v.z.b.l.V.2.1.<.3.1.3.<.1.z.1.3.h.1.2.1.3.1.1.3.j.j.1.<.1.<.2.>.3.1.3.<.j.1.>.z.j.2.3.2.1.3.1.2.>.3.;.;.3.;.+.<.;.<.+.@.@.@.#.2.;.@.;.@.+.;.5.@.+.3.;.;.;.@.;.;.<.<.C.C.1.-.<.-.5.5.5.' I =.=.I 5.=.=.5.5.=.5.=.<.+.' I ' 5.I ' +.' <.5.' ' +.<.<.<.' =.' ' =.<.",
"L.C.L.E.E. X X~. XXXE.R.V.N.K.T.K.T.Y.J.Z.K.B.Z.B.2.N.N.B.N.N.N.Z.Y.A.N.4.4.4.N.2.3.2.N.N.E.Q.H.Y.Z.T.Y.D.H.Q.R.Y.E.Y.@XY.T.H.T.Q.W.W. X.X&XnX0XN.Z.N.N.B.Y.V.Z.Z.Z.H.Z.Z.Q.#X&XR.Q.#XR.Q.Q.R.Q.Q.R.Q.Q.Y.R.W.Q.Q.H.H.Q.Y.Y.N.Z.Z.Z.2.@.@.%.2.A.A.j.2.N.^.G.B.4.N.N.G.Y.N.Z.T.E.T.Y.B.2.Z.B.N.N.j.Z.R.Q.#X$XY.Y.{.Y.P.#XQ.Q.Q.{.!.W.W.Q.Q.!.Q.^.Q.^.^.T.!.!.W.W.Q.!.!.T.Y.!.Q.Q.Q.W.Q.Q.W.^.W.T.#X:X#XH.Y.^.Y.Y.#X#X^.#X#X#X#XMXQ.Y.^.Q.^.<X#XQ.#XY.^.^.#XQ.#XG.Y.Y.^.Q.Q.Q.Q.Q.W.Q.#XG.Q.Y.R.Q.G.Q.R.W.Q.Z.Z.Z.Z.Y.Q.G.Y.H.Y.Z.Y.H.N.N.N.j.>.@.P a * 2 2 , , 5 < , 5 5 2 5 2 5 < , 5 & , , , 5 2 5 < 2 1 4 1 1 2 < , 5 5 , 5 , 4 5 4 w A U E S 5 5 7 m W 7.q.7.9.t.W t.t.x 5 5 5 & & 5 5 5 7 E ] w.w.p 1 & 5 4 T N m M D w w 3 w & * * * d 2 d 2 < < < 3 3 t ] /./.Y w 5 d 5 5 E n 5 < 5 4 : z M w.w.{ ] Q U T U S U S M z n S c u u v A i y y c z q c S z i y x 9 D A h N N =.eXs.eXeXwXhXsXfXHXfXGXFXGXHXCXCXCXfXfXCXdXdXpXt.D i t t 9 3 4 4 7 7 i m W r.u.a.i.t.s.s.`.eX+X/.=.U N h z u x =.9.D H D =.c.l.K.v.~.XX[.R.K.b.P.Z.P.P.H.T.E.E.{.{.W.T.W.R.E.E.$X$X$XW.$XW.&XW.&X!.!.%X$X~.!.%X$X$X$X$X$X$X$X$X#X{.&X$XW.$XQ.#X$X-X&X&X#X$X!.W.!.~.$X!.W.!.$X$X~.W.W.{.E.{.W.W.Y.E.E.E.R.R.W.R.W.Y.{.W.E.E.#XW.W.Q.H.L.Y.Q.&XY.H.T.Q.E.R.E.E.Q.Q.Y.D.H.Y.Z.Z.B.2.B.B.H.E.H.~.J.L.J.J.C.J.K.J.I.XX XH.L.K.c.C.b.S.Z.z.z.Z.D.Z.Z.Z.C.Z.b.c.N.V.C.z.2.j.1.j.z.1.1.z.1.3.;.3.3.2.1.z.1.1.2.c.z.2.z.2.z.z.j.C.z.c.2.<.-.>.;.2.3.>.3.>.3.j.2.1.;.>.;.;.1.3.3.j.<.1.3.;.;.#.3.1.>.2.1.1.1.2.j.;.<.1.3.>.3.+.#.1.<.#.3.@.<.#.;.#.;.3.<.3.<.#.3.;.;.@.@.+.#.+.@.+.<.#.#.@.@.<.1.c.3.#.@.#.=.@.5.5.I 5.5.5.=.5.I @.5.5.5.=.+.+.+.<.+.+.5.' +.I ' ' I 5.' <.5.' I =.' +.<.<.",
"E.Z.P.~.W.E. X X X X~. XE.P.~.E.Y.I.~.Q.V.B.H.H.Z.2.4.2.N.2.3.2.%.N.N.Z.N.2.3.6.N.A.Z.6.B.Y.Z.D.W.E.T.G.Q.D.Q.Y.Y.Y.H.Q.Y.R.Z.G.E.E.E.|. X|.6X4XZ.Y.Z.Z.N.Y.H.Y.H.B.Z.D.Z.Y.Q.R.#XW.R.R.#XR.R.Z.N.N.L.R.#XZ.L.H.Y.Y.D.Q.Z.Z.Z.G.2.N.3.@.3.4.N.N.D.B.3.4.N.N.3.2.1.2.Z.B.%.z.N.2.Z.Z.2.j.j.Z.N.V.N.H.Q.Y.#XR.Q.Q.Y.Z.#XQ.E.$X$X$XW.#X#XT.Y.W.!.!.W.W.W.!.Q.W.!.Q.!.^.Q.T.Q.W.Y.Q.T.!.#XT.T.Y.H.J.#X#XY.^.#X#X#X#XY.#X#XY.G.#X#XzXQ.Y.#X#X^.Q.W.Q.Q.^.-X#X#X^.Q.Q.#X#XQ.Q.Q.$XQ.Q.<XQ.Q.Q.Y.W.W.Q.#XQ.Y.^.H.G.Z.H.Y.Q.Q.Q.Q.Q.R.Y.Z.L.Z.V.B.z.j.3.#.P r < 5 < < , , 2 2 , < , < , 3 , , , , 5 < 5 < 5 , 2 3 4 1 < 5 2 , 5 5 5 5 3 4 5 7 p n A x u 3 5 9 p U w.8.7.T 9.7.i.{ z 5 5 5 5 5 5 5 w x D Y W M.z 2 , 5 u Q m w t 7 3 0 3 0 * < < < > < < * 3 5 3 3 3 q U p.i.B p < 5 < * y n t 5 1 m i N 7.8.w.y.8.W U Y W U Y U c v A c O.M y S c z S S A z c t z c y z m 9 R U h N Q p.hXhXhXfXfXfXfXCXaXHXHXFXGXGXGXHXCXfXCXaXfXhXaXsX{ n i p p p 7 w w u m ] u.u.i.i.i.t.t.s.p._.tX`.tXs.W H N m x N 0.9.{ { F =.m.n.K.P.5X|.K.P.K.H.R.E.E.Z.P.R.R.W.{.E.E.W.{.W.T.Q.$XE.W.W.W.$X$XW.T.%X XQ.%X%X$X!.#XW.%X$X$X{.&X-X-X#X#X$X$X$X{.$X$X$X$X$X%X$X~.=XE.$X!.$X XQ.Q.!.W.$X$X{.$XW.E.R.#XY.W.W.H.Y.R.#XD.Q.E.#XQ.E.W.{.{.R.H.Y.L.Y.A.Z.Y.H.W.Q.W.Q.Q.R.H.H.Z.D.L.Y.Z.L.B.v.H.L.E.I.K.J.J.P.K.v.J.b.b.XX XP.K.J.b.Z.V.Z.b.V.K.C.D.S.C.C.C.b.j.V.j.z.V.j.2.1.2.j.2.z.2.j.1.<.3.;.;.z.z.j.2.z.z.V.l.2.l.j.z.j.j.2.2.1.3.>.3.1.<.z.<.1.2.<.1.;.1.3.3.2.;.;.3.>.;.3.>.3.3.>.;.1.2.z.j.1.1.1.z.j.,.2.1.3.j.1.;.3.;.;.;.;.;.;.3.#.@.3.#.;.@.;.1.<.#.;.+.+.+.+.;.@.;.;.+.@.@.@.;.#.C.S.,.>.3.#.=.5.=.I 5.=.=.=.5.5.5.=.5.=.5.5.+.' ' ' <.5.+.' <.<.' ' ' +.<.+.<.' 5.' ' ) =.<.",
"L.H.!.E.E.~. X&X&X*XE. XE.~.~.XX~.I. XP.T.H.H.H.B.2.3.4.2.2.3.2.2.2.3.N.3.4.6.j.3.2.H.Z.Z.H.H.D.T.Z.Q.@XW.H.R.Y.Q.&X&XR.Y.W.^.^.W.E.E.E.%X2XVX8XD.Y.Y.j.N.Y.Y.T.Z.D.Z.Q.#XQ.{.#X#XG.B.Y.{.Q.Q.Q.Q.Z.Y.Q.W.H.Y.Y.H.D.Y.W.Z.H.B.Z.Z.H.N.z.@.3.V.N.Z.H.2.1.2.N.2.N.B.1.2.Z.@.@.Z.2.j.G.B.2.Z.N.6.N.D.Z.Q.Q.Q.Y.Y.@XQ.#XR.Q.Y.{.$XQ.#X!.#X#X^.Q.!.%X!.T.^.%X%X!.W.!.!.Q.W.^.!.Q.Y.!.T.T.Q.W.#XT.Y.J.N.#X#X#X#X#X#X#XQ.#X#X#X#X^.$XzX#XY.^.#XQ.Q.Q.#XG.Q.#XY.Q.Y.^.^.#X^.Y.Q.R.R.Q.,X{.W.#XY.Q.Q.#XW.Y.^.Q.Q.Q.Z.H.#XQ.Q.Q.R.Q.D.D.Y.Z.H.Z.G.Z.G.j.h.;.+.P r , , , 5 , 5 5 , , 5 5 2 , 5 , , , , 5 , , , 2 2 1 5 3 1 < , , 2 4 5 5 , 4 4 7 z D M y 3 5 5 6 t z S W q.W q.W 7.Q u 7 5 & 5 5 5 5 9 h m t c F 9 * 5 p A Q S 7 & 3 * 3 3 0 < < < < * < * * < 3 3 4 q w m p.r.m p 5 3 4 5 x ] D 7 9 W W W w.0.M.y.8.Y U U v v y S z c c M S c y c 6 y c x z S 6 z 2 6 t v A z E E N N B =./.wXhXhXsXCXsXfXaXHXFXFXLXLXLXHXCXCXCXHXHXSXHXfXt.D m i w 7 6 7 w u z ] r.W t.t.t.t.t.{ t.s.wXpXfXhXwXp.u.U N N { r.9.W { =.n.x.C.I.2XXXK.K.K.C.L.L.L.L.T.L.Z.Z.Z.R.R.E.Q.{.W.W.!. XW.$XW. X!. X$X!.$X!.!.#X%X$XW.#X=X{.-X-X=X$X$X$X&X-X-XW.#XW.#X$X#XW.!.~.W.~.!.Q.~.~.!.~.Q. XE.$X{.$XW.{.T.Q.T.{.Q.W.Y.Q.R.W.Q.D.R.Y.R.E.Q.E.E.Y.Q.P.R.W.Q.R.Y.H.L.Y.W.Y.E.G.Y.Y.H.Z.R.Z.Y.H.K.J.K.H.I.J.J.~.L.~.L.L.J.v.J.~.L.B.B.b.z.v.H.v.C.V.K.V.b.b.z.z.c.z.N.V.b.C.z.b.l.>.<.;.1.1.c.2.2.1.;.2.j.j.j.j.1.z.<.b.2.1.2.3.2.<.1.1.<.2.z.3.3.1.z.j.1.2.3.,.1.3.>.h.j.3.,.1.1.>.;.1.2.>.;.;.1.1.1.<.;.;.;.3.1.1.z.1.;.<.j.j.1.1.1.<.3.3.@.#.@.<.+.#.3.3.-.5.#.;.@.@.@.;.;.<.5.+.;.3.5.#.+.+.#.3.C.z.h.>.2.3.5.=.=.5.=.5.5.5.=.5.=.5.5.5.=.=.5.<.' ' I <.<.+.' +.' <.+.' <.' =.=.' =.=.I =.+.",
"~.K.P.P.T.R. XXXE.~.T.K.H.K.Y.P.~.H.H.B.Z.H.P.J.N.2.N.1.N.Z.j.2.6.2.2.2.6.4.4.4.6.2.A.Z.H.Z.Q.#XR.Q.Z.Z.Q.Y.D.Z.Y.$XW.Q.Q.T.R.W.$XQ.T. X|.3XVXcXZ.Q.H.2.N.Y.Z.D.H.Y.H.H.Z.R.Q.{.{.W.R.#X$XY.Y.R.Y.L.Z.R.Q.Y.E.Q.H.H.Y.Y.D.Q.D.Y.R.Y.N.6.@.3.2.N.N.B.3.3.5.Z.@.$.$.3.2.@.@.1.j.2.3.D.Z.H.W.R.Y.Z.Y.Y.H.R.[.Q.Z.Q.Y.$X{.Q.Q.Q.#X{.Q.W.T.^.Z.E.Q.!.T.Y.Q.Q.Q.Q.W.-X$X!.Q.Q.T.!.T.^.T.#X#XT.Y.W.H.H.A.G.#X#X#XG.#XQ.Q.Q.#X#X#X#X#XMX#XY.Y.Y.Q.!.#XQ.#X#X#X^.#XQ.H.Y.Y.Y.#XG.R.#XQ.#XR.H.W.R.Q.G.Q.$XY.R.Q.Z.W.Z.G.#XG.Q.Y.Y.Q.H.Y.G.R.Y.Y.Y.Z.N.c.j.>.+.` P s & , < , < 2 5 , < , 2 , , , , , < 2 , , , 2 1 2 3 2 3 5 < 5 2 3 5 2 3 5 q w i E D x 6 4 5 4 4 t i M U B Q Q 7.Q D 6 5 5 x F x 5 p { E 2 2 5 < 5 3 9 i S D m 5 3 5 3 4 2 < 2 < * 2 2 < 2 < 3 4 3 4 7 t 9.Q m w 5 3 5 , E Y z 8 B W { t.t.y././.w.T U S v 6 v y t z c A c v 2 6 c y S c 2 t 2 x 2 t t 8 7 p A N 9 N N Q =.qXwXhXhXhXHXHXsXHXHXGXJXLXLXGXGXCXHXHXHXCXfXHXwXW H x p 7 w t t p i m N Q t.t.t.t.t.t.s._.(.pXhXpXaXpXpX=.R m S E S z i m g.v.v.P..XoXP.L.b.C.V.P.P.L.L.R.D.Y.R.Y.{.W.R.Y.{.$XW.{.W.&XW.W. X%X X!.!. X$X%X$X!.%X:X-X{.$X#X$X$X&X-XW.$X&X#X&X#XW.%X{.W.!.W.E.#XT.T.Q.$X~.~.Q.~.$X{. X$X$X$X#X{.Q.R.{.W.{.E.Q.E.R.L.E.#XQ.Y.E.T.!.L.Y.G.Z.Y.Y.Z.H.R.Y.Y.D.Y.R.Y.Q.Z.Z.Y.B.Z.Y.P.J.K.P.J.J.T.L.L.J.L.L.L.J.J.K.2X!.K.H.K.C.v.Z.C.Z.b.J.V.c.V.N.V.b.c.b.C.z.V.C.N.b.z.z.1.l.2.z.;.;.;.;.>.;.1.z.b.z.l.2.>.1.,.l.j.z.z.j.1.j.l.j.j.j.1.3.j.j.l.h.2.1.3.3.1.>.<.;.1.1.3.<.1.1.3.3.;.2.1.1.1.3.3.3.>.>.3.2.1.1.3.1.j.2.z.1.1.3.;.@.;.;.#.@.@.<.>.;.+.@.;.;.+.;.<.3.;.;.;.#.;.3.#.@.+.@.#.V.c.2.>.$.$.5.5.5.5.5.I =.I @.=.5.=.=.5.5.5.' ' 5.+.' ' ' 5.+.' +.+.+.<.' <.5.@.' ' ' =.=.+.",
" X&XE. X~.P.L.~.~.E.W.K.C.E.~.H.J.V.K.J.B.E.Z.L.N.Z.Z.6.B.N.N.6.6.2.6.6.1.3.2.2.4.B.3.N.Q.Z.H.R.Q.Q.Z.Z.H.R.#X@XQ.{.Q.$X{.Y.H.R.$X#XW.E. X=XcX8XH.Z.z.L.W.D.T.Y.W.R.T.T.L.P. X$XW.{.1X~.Z.B.P.H.Y.Z.D.W.T.W.$XQ.G.#XZ.Y.D.Q.Z.B.G.T.2.2.3.2.3.2.2.N.3.1.#.N.4.N.^.A.j.@.%.V.2.B.N.N.C.R.$XW.W.E.L.T.W.!.W.E.E.T.R.Q.W.Y.Y.W.#XE.#XW.T.Q.E.T.T.W.W.T.$XT.Y.Q.T.Y.#XQ.W.$XW.Q.W.!. X!.!. X%X~.%XQ.T.#X!.!.#XT.T.#XW.$X$X{.W.{.-X0X{.Q.Q.H.Q.#X$XQ.Q.#X#XQ.#X#X^.^.Y.Q.Y.#XG.^.#XQ.W.G.Q.Q.#XQ.W.-XQ.Q.G.Q.W.Y.W.Y.Z.H.E.H.^.R.^.Y.Q.R.Y.L.z.G.z.V.j.#.+.o.C d < 1 5 , < , 2 < < , , 5 & 5 , < 5 , , < , 5 5 5 2 5 < 1 2 2 < 3 , 5 3 4 q y S U D x 3 5 5 4 7 t i N T B Q U T W m 5 5 z ] ] 9 m m u 2 1 2 2 3 5 4 9 z D A 3 4 5 5 3 2 2 2 2 q 2 2 2 < < < 2 , 2 q 6 6 z u 5 3 5 < , S Y T M Q T y.y.i.y./.w.8.T U S z c U A c M c c c y y S S c S c 4 y z t z S t 6 7 t U n z z n D =.s.eXwXhXhXfXbXfXHXCXHXJXLXJXGXFXGXHXHXFXHXHXHXCXp.D x x p 9 p t p i N { 7.t.t.t.i.i.a.i.p.s.wXhXfXfXdXfXrXW Q B x p a z N h =.m.n.oX|.K.n.b.U.F.R.D.R.R.E.[.E.P.{.{.W.{.R. X*X XR.oX X X X XE.*XW.$X%X$X$X=X%X=X=X&X$X#X$X$X!.!.!.%X$X#X#X&X$X$X!.W.!.!.!.E.~.E.E.Q.~.T.T.!.%XE.W.$X&X$X&X$X$X$XW.{.W.Q.Q.E.#XW.H.#X{.#X=X&XE.Y.T.Y.D.Y.R.Y.R.R.Y.R.R.G.T.T.Z.D.A.D.H.N.N.Z.P.L.J.J.K.E.J.P.I.J.~.I.I.J.K.J.XXXXH.K.Z.Z.v.K.K.Z.z.Z.C.V.b.c.b.z.4.V.z.l.z.z.z.c.b.j.1.j.z.3.j.<.;.>.;.3.1.z.z.2.1.2.1.z.1.1.2.1.1.z.3.j.l.>.3.2.1.z.2.1.1.2.<.3.#.;.;.3.1.3.j.2.>.#.;.2.;.3.;.2.j.>.1.1.j.3.;.1.1.1.1.>.<.1.1.j.z.j.;.;.3.;.;.#.;.;.@.@.;.#.@.@.;.;.+.;.;.;.;.3.3.3.#.+.;.#.@.#.#.D.C.,.>.1.>.5.I I @.=.5.I =.@.I @.=.5.5.=.5.I @.5.' <.' ' +.@.5.5.=.5.=.=.=.5.=.=.@.=.=.@.=.",
"~.[.E.E.E.~.T.P. X XE.T.b.b.L.C.V.l.H.H.Z.Z.Z.6.Z.$.5.5.3.4.2.2.N.H.Z.Y.Z.N.A.2.3.6.N.N.Y.B.Q.Q.Z.D.B.Z.L.#X$X#XQ.Y.R.Y.Q.{.$X$X$XW.E.E. X8XNX0XE.H.B.T.Q.T.Y.Z.E.W.W. XT.T.T.~.E. X XT.P.Y.V.T.W.B.Y.R.{.W.$XR.R.Y.R.R.R.Y.D.Y.Z.4.$.2.%.N.3.2.6.3.1.@.N.5.N.Q.Q.Y.Z.N.j.Z.N.D.j.Z.2.T.3X0X&XR.R.Y.L.!.!.Q.Y.Y.#XE.W.R.E.E.#X$X XW.R.Q.W.~.Y.$X$XW. X!.T.W. X!. X!.W.W.!.W.T.W.W.T.T.$X%X%X%X!.Q.!.E.%X%X&XW.&X$X&X:X&X!.Q.$XMXQ.Q.Y.Q.#XY.Q.Q.-XQ.Q.Q.Z.^.G.#X#X#XQ.Q.Y.#XH.Y.W.Y.Y.Y.Y.G.#XY.#X#XW.#XQ.Y.G.^.B.T.Y.Q.Y.Z.H.Z.Y.Y.Z.L.S.Z.D.D.N.$.@.+.J e , , , , , 5 , , 5 , , , , , , , , 2 5 , < , , < 5 3 3 5 < 1 < 2 5 < 3 q 4 t q q i i 5 5 4 4 t m z N U T T U y.{ U S 7 : m U N ] E h 2 2 , , , 5 4 4 u M m 4 3 3 4 3 2 2 2 2 2 2 * 2 , 2 2 2 , 0 4 4 S c 5 2 , < 5 5 6 W W W ] 8.q.t.t.y./.q.8.M U v y c n M c A c 6 M S y S S c S S c v S c z Y A D M t t y u x N D B s.eXhXhXrXhXfXfXCXCXFXGXJXLXPXLXHXCXCXCXHXfXHXLX+XW n x i p 9 w u i m 0.q.p._.a.a.i.a._.p.i._.pXfXfXCXfXaX/.u.t.E m m b =.W m N } }.].S.m.x.n.C.P.F.S.R.D.R.L.H.[.R.R.E.{.E.W.%X XE.~.=X X X X$X XW.%X X$X$X$X$X$X#XW.!.$X!.$X!.!.1XE.#X#X$X&X#X!.$X!.!.$X!.Q.~.Q.Q.!.~.~.Q. X%X&X-X$X$X=X{.E.{.W.W.{.{.E.E.W.Y.L.E.$XR.Q.E.Q.E.Y.T.Y.Y.W.R.Y.Q.R.H.R.^.L.D.Z.D.Y.H.Z.Y.D.Z.T.E.P.J.K.E.L.L.L.I.I.J.L.J.K.J.XX~.K.C.S.C.C.C.B.C.v.v.K.z.V.b.b.z.V.V.z.2.2.z.1.z.2.j.b.j.z.j.1.>.3.3.+.1.j.2.z.h.1.z.1.z.l.<.z.z.1.j.z.3.j.1.2.<.h.z.;.1.2.1.1.;.<.2.2.>.1.1.3.<.;.;.;.1.;.;.@.>.3.3.<.>.<.;.j.j.1.2.1.3.1.1.1.1.j.3.2.;.;.+.@.@.;.;.;.;.;.;.;.@.;.@.;.;.;.5.;.>.;.;.+.@.@.;.+.+.#.C.C.,.$.3.$.5.5.5.=.I 5.5.5.=.@.I @.5.=.5.' <.=.' 5.+.' ' +.I =.I I @.5.5.=.=.' @.I I 5.' @.",
"E.E.K.!.P.L.L.L.~.E.E.Z.K.B.H.4.L.T.L.!.T.z.N.z.N.4.2.G.5.6.N.6.B.Z.N.Z.H.6.1.2.N.B.B.Q.Z.H.Z.Y.Z.H.E.Q.D.Q.R.Q.Y.Y.Y.H.#XQ.$X{.&X#XR.E.E.4XzX9X XE.Y.L.N.z.R.B. XE.T.W.W.T.!.~. X~. X XT.%XW.!.{.Y.H.W.Y.E.W.T.V.Y.Q.Y.R.Q.Z.Z.Z.B.2.5.3.2.2.j.Y.z.B.3.G.2.$.Z.C.G.R.#XN.3.L.Z.j.Q.V.T.9X0X9X$XW.Y.T.~. X!.Y.Y.E.{.L.Y.$X#X%XE.W.!.Y.E.!.W.E.!.!.W.%X$X$X%X&XW.$X!.%X~.E.W.W.W.Y.B.$X!.!.!.!.~.E.Y.E.$X*X~.%X X{.=X$XW.W.#X#XMX:X#XY.Q.Q.Q.Q.,X-XQ.#XY.Q.Y.^.#XY.#XY.Q.#XY.Q.#XQ.H.Y.A.Q.Y.#XY.Q.Q.W.#XQ.Z.Z.Q.L.Q.R.Z.@XH.Z.Z.D.Z.Z.Q.Z.P.D.j.j.#.$.#.( C * % , 2 , < 5 2 , & , , < , , 5 , , < , , , 5 2 2 5 5 2 5 2 < < < 3 3 4 4 4 q 4 5 3 < 3 5 6 y M D M U U U B U W T W U 4 5 5 R 0.Q E u 5 5 3 5 , 5 5 t u D 4 5 3 4 3 0 2 q q q q 2 2 < 2 4 4 2 q 2 c r.~ , , , 5 5 5 4 v W 8.9.7.9.t.q.w.i.7.U z U b 2 1 y z t c c M S O.b c U S S U S S S c u E T Y n 6 t t u i z n N =.u.wX'.hXhXwXsXaXCXFXFXFXLXJXLXGXCXHXhXfXpXpXhXu.W E E m x p t p 9 m U 9.a._.a.a.t.q.p.t._.wXdXdXfXfXsXhXpX`._.T Y Y U =.u.W m p F.'.x.l.c.v.C.F.l.F.m.D.E.P.@XL.D.D.R.E.E.|.~.&X X X XoX~.R.$X$XT.*X=X~.=X%X1X$X!.!.!.#X#X%X$XW.#X#XE.%XW.W.W.W.E.!.!.!.!.!.!.!.$X X$X!.!.=X&X-X$X%XW.$XW.W.Q.{.{.Y.T.Q.W.E.#XQ.{.R.{.Q.R.Q.E.E.R.Y.Z.Z.H.Q.R.Q.R.H.Y.D.Y.Y.D.Q.L.Z.Z.Y.Y.E.T.L.J.J.~.T.T.P.~.K.J.L.K.K.~.2X~.v.b.b.b.K.C.J.b.C.C.L.K.Z.v.z.V.V.c.V.1.>.2.1.1.1.2.j.z.j.1.2.1.3.;.>.2.,.V.z.2.j.3.z.b.1.h.1.z.3.2.l.z.<.2.z.2.>.1.1.2.>.j.3.@.3.>.#.3.1.>.<.3.1.3.;.3.;.;.<.1.2.1.1.1.3.>.3.2.1.j.j.1.;.;.3.3.j.>.<.#.3.3.@.3.@.;.;.@.+.;.@.;.+.;.;.#.@.;.>.;.@.;.3.<.+.@.` +.#.z.z.,.$.3.>.5.=.5.=.=.I 5.I @.@.@.5.@.5.=.' ' 5.5.5.5.' ' ' 5.@.I @.=.5.5.@.@.@.=.I 5.I @.=.",
"E.XX XT.R.L.~.|.E.|.E.P.K.v.J.K.Y.E.W.L.L.H.Y.Z.N.1.3.B.2.3.2.3.2.2.3.2.A.5.6.2.2.A.B.^.N.H.H.Z.B.Y.Y.L.B.H.Y.R.Y.Y.Y.R.R.R.#X$X&X#XW.E.E.9XMX*Xj.N.Z.L.E.Z.Y.K.Y.Q.R.E.W.W.XX1XW.~.~.~.E.!.*X~. XW.W.E.W.{.{.Y.Y.N.Y.D.Y.B.B.D.N.N.N.N.N.j.N.A.N.6.%.N.N.N.A.H.D.N.Y.#XH.z.N.B.N.D.D.Q.=X$XE.$X XT.Y.$X!.!.!.!.#XQ.W.Q.%X$X$X%XE.W.$X$X$X X$X$X$X&X%X&X!. X%X$X%X&X-X3X%X%X&X&X%X XW.=X1X#X$X!.W.E.E.$X1XXXoX.X:X$XE.W.W.#X$XzX9X$XQ.Y.Q.Q.Q.#X=X#XQ.Q.Y.^.Q.Q.Y.Q.Y.Q.Y.Q.Q.G.Q.Q.Q.G.R.Q.G.Y.R.R.Q.Y.Q.A.Z.W.W.R.Q.Y.Q.Z.H.Q.R.W.D.Z.D.Y.D.D.2.%.2.@.' / f & , , , < , , , 5 , 3 , , , , , < , 2 , 5 , < 2 2 2 2 < 2 < 2 < 2 2 2 3 2 2 2 2 2 , 5 4 4 y N D M E T U U Q D U E S u 5 7 D W Q =.D 7 5 5 , 5 5 5 5 t D p 3 3 q 4 0 2 2 2 2 2 > < , 2 2 q 2 2 2 U M.r.5 < 3 : & 5 2 U w.w.8.q.u.q.q.q.q.q.S t 8 q y 1 A D c y t c U U M z S S S T D U T M z U E T u 7 6 7 9 i i n h =._.wX`._.'.wXhXhXfXCXCXHXHXJXJXPXHXfXfXhXhXpXhXp.9.t.'.W N h i p i i U _.`.a.a.a.t.7.t.t.wXwXpXfXCXfXfXaXsXsXu.{ u.t.u.u.p.u.Q N =.U.x.x.m.v.c.S.C.S.V.D.D.F.Y.R.E.E.R.E. X*X X~. X X X XE. X{.W.$X%X*X$X%X=X#X!.%XQ.Q.!.$X%X-XE.W.W.%X$X{.#X!.E.!.!.$X~.~.Q.!.E.!.!.!. X~.!.$X%X$X{.&X$XW.R.E.W.$XW.R.W.W.$XE.R.#XE.{.R.Q.E.T.!.W.H.Y.D.D.Y.Q.R.Y.Y.Z.T.R.Y.Q.Y.Z.D.Z.Z.G.D.H.E.P.L.J.K.J.I.~.K.~.L.U.L.L.XX2XJ.v.b.H.P.H.P.C.C.Z.C.Z.b.v.2.b.z.j.b.z.3.z.+.1.1.1.z.3.j.z.1.3.;.1.3.2.z.b.c.z.l.1.z.3.1.2.l.l.1.j.z.z.j.1.1.3.<.>.3.l.1.j.;.3.z.<.>.j.3.3.>.1.1.1.;.>.3.;.;.;.>.3.3.3.1.;.3.z.j.j.N.,.3.1.1.>.3.3.#.3.;.;.;.<.;.;.;.;.;.2.#.;.#.<.;.@.3.@.;.;.@.;.;.;.-.@.@.@.$.S.c.,.$.1.$.5.5.5.5.5.5.5.I I @.5.=.=.@.5.@.5.' =.+.I 5.+.' ' @.=.@.@.=.=.@.=.I @.=.' ' =.I ",
" X=X~.K.P.Q.E.T. X X XP.Z.K.P.T.L.~.~.v.Q.W.R.B.N.B.4.2.2.3.5.5.5.N.N.6.N.2.3.3.2.4.A.N.N.Z.A.N.Z.Q.Y.Z.Y.H.Y.#XW.$XY.G.R.Y.{.#XW.Q.R.Y.&X9XMX9XN.V.Z.E.H.Z.H.W.Y.Z.D.Y.L.Y.%X%X X~.~.~. X%X!.~.!.~.Y.E.W.L.T.W.D.Y.Q.E.E.Z.N.N.3.2.Z.Z.2.2.Z.R.Y.Z.N.H.H.Y.H.D.Z.N.L.Y.B.H.H.R.W.Z.Z. X$X!.&X%XW.W. XE.E.$X$XW.!. X~.!.E.%X&X!.~. X&X X%X X%X!.$X%X*XW.~.~.~.W. XT.&X!.W.*X%X%X%X=X%X X!.!. X!.T.~.|.I.XX*X.X4XjX$X{.W.&X!.3XMX$X!.T.E.#XQ.Q.#X#X#XQ.#X#XQ.Q.^.Y.^.^.Q.Q.Q.Q.Q.Q.Y.Q.Y.Y.^.Q.Y.Q.G.G.Q.Q.z.N.E.Q.#X{.G.R.Y.{.D.W.Y.Y.G.C.C.Z.j.z.%.j.$.#.( J d & , , , , , , 5 , , , , , , 5 5 5 , , < , 5 < 5 5 2 , 5 < < 3 3 3 4 3 4 3 1 1 2 3 5 4 4 t c U v U U U U U B U U Q N t z D Q Q W W i 4 4 5 5 5 5 5 t Y A < 3 4 4 2 < 2 2 2 2 2 > , < 2 2 q 2 2 w M.0.w < & 3 < 5 2 i 9.W 7.{ t.t.y.9.8.W T S z M U c U n 2 y A n U D T S U S U Y U Y T U S U T E M 7 w 7 t u i a D p.s._.s.=.t._.wXtXfXpXaXGXFXCXJXPXGXCXaXhXtXpXpXtXt.t.s.u.Q N x i p x D /.`.i.p.i.7.T t.`.rXpXfXfXbXfXsXfXaXrXW t._.wXs.(.p.p.t.W W M.k.c.x.l.c.S.S.S.L.R.D.R.E.R.P.P.R. X%X X&X X X X%X&XE.{.W.$XE.$X$X%X$X*X%X$X#X1X!.#X!.%X$X$X{.{.W.W.#X#X$X X$X%X!. X~.$X!.~.T.Y.!.!.!.%X{.$X&XW.W.%XW.W.Y.W.W.Y.R.%XY.E.Y.D.D.E.Q.Y.R.Q.Y.L.T.Y.T.W.E.H.Y. XT.Y.Q.T.Y.R.Y.Z.Y.Y.L.H.J.E.J.L.L.T.P.K.J.|.oX~.P.P.U.J.T.2X~.K.z.b.b.P.Z.K.B.z.C.C.C.C.J.B.V.l.b.j.j.j.z.1.3.;.1.3.2.z.z.j.z.2.1.2.j.z.b.z.j.z.z.j.z.h.2.2.2.1.1.z.l.3.3.h.1.3.j.l.3.2.>.;.1.3.>.2.>.3.1.3.3.;.3.;.;.>.3.#.;.3.>.3.1.1.3.1.3.1.z.j.<.;.3.2.z.3.;.>.3.;.3.;.+.@.#.;.@.@.3.+.@.+.;.@.;.3.@.<.;.;.<.@.;.;.@.' ` +.V.c.,.-.;.-.=.5.I 5.5.5.=.=.=.=.5.@.=.5.5.@.' 5.' ' ' <.' <.=.5.@.=.5.5.' =.' @.=.I ' =.=.@.",
" X~.R.E.~.|. XXX X X~.E.R.T.T.L.T.L.K.H.W.W.Z.D.N.4.3.3.3.@.6.2.3.6.2.B.N.A.N.6.4.4.G.N.Y.^.B.N.Z.R.Y.H.G.R.H.Q.R.R.Y.Y.D.Y.Q.[.{.#X$X&X XkXMX9XV.R.T.H.Z.B.T.E.R.Z.Z.Z.H.Y.E.E.I.~.~.~.*X X!.E.E.!.Y.B.T.W.L.H.W.L.R.Q.E.N.6.B.N.@.Z.2.1.Z.Y.H.Z.Y.H.Y.Y.Y.Z.Z.Y.W.Y.W.B.C.Q.7X7XE.R. X X9X X=X~.E.L.#X!.!.%XE.!.%X X$X1X=X!.=X1X=X%X-X X%X=X X=X~.$X=X1X%X=X&X&XW.E.T.!.W.!. X X=X1X!.!.Q. X$X~.E.oXoX|.OXkXkXlXkX.X{.&X#X*XMX,X~.Q.E.W.#XQ.#X-X#X^.Q.Q.Q.#X^.Q.Q.#XG.Y.W.{.=XR.Q.Q.Y.R.#XQ.Y.Y.#XY.Q.Y.N.G.Q.Q.{.Y.Q.H.T.Q.R.Y.Y.Y.R.Q.L.S.G.j.j.N.j.$.@.( f * , , , , , & , , 5 , , , < , , 5 , , 2 , 2 2 5 2 < < , , < 3 3 3 3 2 3 4 3 4 4 5 5 6 w y i D M N T U W W S T U U 9.E m F Q Q ] E x 7 5 5 a 5 5 5 t F A 3 A i 3 2 > < 2 2 0 < < , < 2 2 q 2 2 2 ] Y t 3 , & , < 3 4 W 9.Q T W B 9.N W Q T T T T S y y z 4 z A S S c S c S M v S U U E T U U U T M 8 4 t 7 p t n H p.p./.i.U t.s.wXwXpXhXhXhXCXHXHXHXGXHXfXhXfXpXpXpXwXi.i.t.W U m z i i m W i._.qX(.T B 7.(.pXaXfXaXfXCXHXaXrXu.] u.eXhX_._.i.p.r.t.M.r.r.k.l.v.x.S.S.C.S.D.R.R.L.T.L.E.P.~.E. XE.oX X X|. X XR.$X{.E.{.%XE.W.$X%X%X#X!.~.1X%X1XE.#X#X#XW.=XE.$XW.!.-X%X%X!.!.T. XT.!.Y.!.%X%X XW.#XE.$XE.{.{.W.W.R.$X{.W.Q.R.E.Y.N.T.W.D.Z.Q.R.E.Y.R.R.E.W.L.!.E.~.~.P.D.R.E.Y.Y.Z.B.Z.Z.H.R.E.L.L.T.I.T.~.I.P.L.J.J.K.P.J.I.*X%XK.C.B.V.Z.Z.v.C.K.b.V.K.v.C.K.J.Z.Z.z.B.z.1.3.;.;.>.;.<.j.c.l.1.z.z.z.z.j.b.v.z.2.z.z.2.1.l.z.2.z.z.2.z.1.1.3.>.1.z.3.h.<.2.j.1.>.1.<.>.2.1.3.;.1.3.+.@.3.3.3.<.3.3.#.3.<.>.3.<.j.C.3.<.>.1.j.h.2.3.;.#.<.;.#.@.>.;.3.;.;.@.@.;.@.+.;.;.#.3.;.5.#.#.<.@.+.@.@.@.-.Z.z.1.-.;.;.5.=.5.=.I =.I 5.5.5.@.@.=.@.5.@.+.+.+.<.+.+.<.' @.I I 5.=.5.=.@.=.=.@.I I I I ' ",
"E.E.~.P.E.E.E.*XoX X X~.L.L.B.V.z.b.L.J.Y.E.Z.Q.B.1.@.2.@.3.2.3.N.2.A.Z.A.N.N.4.6.B.6.N.H.H.Y.N.A.Y.Y.Z.^.E.Q.$X#XY.W.#XQ.Y.E.#X#X{.Q.R.Y.9XxX4XP.T.T.K.c.N.L. XE.W.Z.V.~.E.I.~.Y.Y.K.~.%X~.~. X X~.Q.P.T.~.E.L.W.R.Y.R.^.L.B.2.B.Z.L.T.Z.Z.R.Y.Z.D.T.R.Q.Y.Y.E.E.T.W.R.Z.Z.[.8X:XL.E. XE.2X=X8XE.~. XW.*X X1X X~.~.XX!.1X X=X=X%X1X%X=X&X%X=X=X X.X=XW. X1X X X$X%X X X X X~.&X=X%X*X X%X!.1X=X.XoX.XOX6XcXnXAXIXnX6X.X{.{.:XMX1X!.W.T.Y.#X#X#X#X#X#X#X#XY.Y.H.#XY.#XQ.Q.G.Q.Q.Y.Y.G.Q.Q.W.R.#XY.Q.Q.#X#X2.B.R.#X$XQ.W.Y.Q.Q.$X#XR.Q.E.R.D.G.z.j.V.V.1.$.+.o.J e % & , 5 & , , , 5 3 , , , , 2 < 2 , < < 2 , , , 2 , 5 3 3 3 4 q 4 3 4 3 4 4 4 4 4 6 6 p z A U n T U Q T U U U U W T n 9 u H Q U M t 4 5 E m 5 2 4 x p 4 S m < 2 > 2 q 2 2 < 2 , < 2 2 2 , 2 , 7 i w 5 5 , < 5 3 5 n Q U D 9.y U 6 9 6 n c v v x z t 1 2 6 t 2 q 6 y t z z z c U T T W U S T U 8 M M u 9 p t i N =.Q U U t.i.s.eXhXpXtXhXhXCXGXGXLXHXCXfXfXhXhXeXhXuXqXt.W t.B m x i p a B t.`.pX`.U B 9.rXpXpXCXfXaXsX`.p.=.] Q /._.wXpXtX`.p.u.i.sXp.] r.c.v.m.c.D.F.R.P.E.}.L.[.E.P.L.E.&X XE. X X X XE.{.E.W.$X#XW.{.-X$X&X!.!.!.1XT.~.!.Q.$X$X-XW.#X%X$XW.!.$X%X%X1X$X~.T.!.!.!.Y.$X!.$X%X#X XW.$XW.$XR.E.W.Y.{.Q.E.E.R.G.j.N.D.Z.Y.Y.D.L.~.~.E.T.T.P.P.~.$XE.T.T.R.Z.R.T.R.{.*XD.Z.Z.P.Y.L.~.~.T.~.L.I.L.L.I.^.I.~.J.L. XXXL.L.K.K.Z.L.K.L.L.S.Z.Z.V.Z.K.C.b.v.C.z.c.z.2.3.2.j.z.z.z.V.B.z.z.2.h.b.j.V.Z.z.z.z.z.z.3.l.1.1.K.z.4.z.2.<.1.2.2.1.1.z.j.j.3.3.3.1.>.>.3.<.3.3.1.;.;.>.<.1.>.2.>.3.;.3.>.3.;.1.1.>.2.;.2.h.2.1.1.>.<.2.;.#.3.;.3.;.5.;.;.@.#.;.@.+.@.@.+.#.2.#.5.;.@.@.@.+.;.-.;.z.l.l.;.5.<.5.5.I 5.5.5.I =.@.5.=.5.5.5.5.=.+.+.<.' <.' ' I 5.I ' =.=.=.5.=.=.5.@.@.=.I =.@.",
"K.K.Z.Z.Z.Z.P. XE.E.R.E.P.H.H.4.2.4.H.b.3.B.H.Z.Y.N.N.4.6.6.2.B.2.N.N.B.2.6.2.2.2.2.N.A.H.Z.H.Z.Z.D.Y.Y.Y.T.D.E.Y.#XR.Q.W.Y.E.#X[.Y.R.Q.E.xXxX7X$X XE.T.K.Z.T.T.W.Y.Z.T.Y.~.T.~.L.T.~.T.I.E.T. X1X X XE.T.P.E.E.E.W.E.W.&XW.K.H.G.L.Z.Z.A.H.Q.R.T.Y.W.T.R.R.Z.Q.W.{.#XW.D.[.$X{. X XE. X X X X X XE.W.2X=X~.%X X XW. X1X%X=X1XXX*X&XXX&X X X&XXX XE. X X XE.~.~.E.*X4X=X&X%X XE.&X&X%X*XXX%XXXXX&XOXjXmXZXAXVXFXAXIXnX6X;X}.:XzX1X!.Q.Q.#XQ.#XQ.Q.Q.#X#XY.Y.#X#XY.Y.R.#X#X$XQ.G.#XY.Q.Q.T.{.<XR.^.G.^.Z.^.G.Z.#X#X$XW.W.Q.E.E.Q.{.#XR.W.Y.D.C.Z.D.B.V.j.3.+.' I V 3 & , , : , , & , , , , , < , < , 2 , 2 , < 5 5 , < , < 5 3 4 2 3 4 3 3 3 3 3 3 4 4 4 t i A Y S S U U U W U M B B i i 9 5 N D U Y t 3 & Y m 5 5 5 5 5 4 m n < * * 2 2 0 2 , , 2 2 2 2 2 1 2 2 2 1 5 3 5 3 2 5 5 z m y U 6 t 9 7 M 1 5 6 , q 2 S S c 2 , 1 < 2 6 2 q 2 2 q 6 z S S U v 8.T U U S U z 8 4 t u i h N h U p.s.eXeXtX`.hXwXsXhXfXCXHXGXFXhXaXhXhXtXtXhXuXtXa.t.W Q m x u p u D t.`.wXs.U U t.pXpXaXdXfXfX).U B B Q Q (.qXpXwXwX_.`.p.u.aX'.9.r.M.x.x.S.c.S.[.I.E.I.I.P.E.~.L. X*X&X X X X X X XE.{.$X=X&X$X%XW.$XW.$X1X!.!.1X#X#X!.$XW.#X$X{.W.$X%X X$X$X$X X!.Q.~.Y.Y.T. X$X!.~.Q.E.&X{.Y.W.W.W.W.R.W.R.T.W.!.E.Z.&XN.V.N.N.Z.{.&X~.Y.T.P.Q.E.T.E.E.Q.E.E.T.W.E.R.R.=X0XW.C.D.E.T.~.~.~.I.J.~.I.~.L.K.~.I.P.K.I.%X XL.K.L.H.V.K.H.C.C.z.b.C.H.C.V.C.V.b.c.b.z.z.z.l.j.1.z.3.j.b.V.V.z.1.z.b.z.z.4.V.c.3.z.z.3.j.j.c.z.z.z.2.1.,.j.l.j.z.j.b.z.z.1.>.<.;.2.1.;.3.>.3.>.+.;.2.1.3.3.1.1.>.1.3.<.3.;.#.$.3.<.;.<.1.2.2.1.3.1.<.;.@.;.+.;.#.;.;.;.<.#.+.#.;.@.;.+.@.#.;.@.#.<.;.#.;.+.+.;.>.v.1.:.5.' 5.5.=.5.=.5.5.5.=.5.@.=.@.=.@.=.+.+.+.<.+.<.<.<.=.' ' @.' 5.=.5.=.@.=.I 5.' =.I ",
"1.B.v.J.I.K.P.E.L.P.E.~.W.K.T.B.Z.L.Z.L.^.Z.B.N.N.N.N.6.2.2.6.B.2.2.5.6.N.6.3.6.N.N.Z.A.A.6.V.N.H.D.H.Y.L.#XL.Q.R.Y.Q.E.Y.Y.R.W.T.E.Y.T.$X8XxX7X X!. X~.~.Y.H.T.R.E.Y.Z.T.E.~.~. XW.~.|. X X!.~.~.~.~.~.~.~.~.~.~.~.%X~.!.!.Q.$XZ.H.G.H.B.Z.W.R.R.Y.T.T.W.W.T.Z. X#X&X!.E. X3X4X~.1X~.XX1XXX&X X X X X1X1X~.oX X~.!.!. X XoX%X3X1XXX X%X~.~. X~.oX~.~.I.XX~.~. X1X3X4X*X X1X~.XX1X%X*X2X*XXX&X&X6XjXAXFXnXPXDXnXFXAXFXcX6XoX2XcX1X~.~.Q.W.-XQ.W.#X#X#XQ.Q.#XQ.Q.#X#XY.Y.#X#X#X#X#XQ.<XR.R.#XQ.Q.Y.Q.G.Q.Y.G.Z.Q.$X<X#XQ.Y.R.W.R.Q.R.W.W.G.Z.R.N.G.B.V.j.1.$.+.( J C < , % , , , , , 2 , , < , 2 < < 2 < , < < < , 2 , < 2 2 2 2 q q 3 3 2 q 2 2 3 3 4 4 6 t x S Y U U S Q q.8.B U M u t 9 5 h Q U U t 4 5 Y M 5 5 5 5 , 4 a A 2 > > < 2 q 2 < < , , , < 2 2 2 , 1 y x % , 2 < 2 3 m A 7 i 5 1 n A w 5 5 2 2 1 , t 6 2 2 , < , , 5 5 3 5 5 4 6 y z z z u U W W W Q S U U W 8.z y i a N t.`.s._.eXeXtXwXhXhXwXdXsXfXHXHXHXsXfXpXhXuXhXhXtX_.t.7.W A m p p x D t._.eXa.T 7.wXfXfXpXdXdXrXW D M B Q r.).wXqXwXqXqXqXp.i.fX_.u.W M.r.k.F.F.F.D.P.[.[.P.P.L.D.E.R. X X X X|.&X%XXX XE.$X X$X X{.{.E.&X%X$X!.!.W.W.#XW.W.!.$X#X!.%X!.$X$X!.W.Q.~.~.!.W.~.E.T.!.T.$XE.!.!.!.W.E.W.R.E.W.{.Q.[.{.Q.L.Z.[.W.N.N.Z.L.H.L.L.~.~.I.!.~.I.T.T.L.~.~.~.I.J.~.oXT.UXXX~.U.E.P.~.~.~.K.L.L.L.~.~.~.~.~.J.I.P.~.XX XK.H.K.H.K.L.J.V.C.v.H.H.K.Z.V.D.N.z.j.j.B.b.j.j.z.z.z.1.>.z.z.1.2.b.j.1.j.j.z.z.2.1.b.b.3.2.z.z.j.z.z.V.j.1.z.z.2.j.1.1.z.1.<.3.2.<.#.>.<.3.3.#.3.;.;.1.h.1.1.l.3.3.j.j.>.;.<.3.h.1.3.-.-.<.3.;.3.>.1.1.3.;.;.-.5.@.-.5.-.5.-.3.<.@.#.;.+.@.;.;.@.#.;.;.-.5.3.+.#.l.K.l.-.;.#.5.=.@.I =.5.5.5.' 5.5.=.@.5.@.5.=.=.5.I =.5.I 5.@.=.I @.@.=.@.@.@.=.=.I I I I =.",
"Y.P.I.Y.Y.E.Y.L.Y. X~.K.P.T.L.V.2.j.z.N.B.A.D.N.N.Z.N.6.N.Z.N.N.3.2.2.6.N.6.3.2.B.A.Z.Y.A.Z.Z.H.Z.Z.H.Y.Z.H.Y.#XQ.R.#XQ.Q.R.Y.Q.W.T.H.L.E.8XxX8X%X X1X!. X X~. XW.{.W.N.E.!.%X~. XXX~.~.~. X~.~.~.%X~.1XXX~.%XoX~.UX1X%X~.~.!. XR. X!.H.D.Y.Q.T.E.$X9X9XR.T.W.L.W.E.W.E.!.XX%X X|.%XXX X%X2X*X&X&X*XoX*X1X1X XXX%XE.~.XX1X1X X1XXX1X%XXXXXXX X~.C.b.L. X*X2X4X~.1X6X1X1XXX X X X XXX2X2X6X>XOX6XnXPXPXVXPXDXPXFXPXFXnXnXcXUXUXcXXX~.~.T.E.E.Q.#X#XW.Q.Q.#XQ.#XQ.#XQ.#X#XQ.G.Q.Q.R.R.Y.Y.Q.{.#XQ.Q.#XW.W.Q.Z.Q.W.{.Q.Q.Y.#XQ.$X#XE.#XR.Z.Z.L.Q.@XD.Z.C.V.j.1.#.+.@.! O.e < % , , , , , 2 , , , < > 2 > < , 2 , , , , 2 2 2 d 2 2 2 2 3 q 4 3 q 3 4 4 3 4 4 t t y x M U T q.T T B Q U t 3 * 5 9 m E Y p 4 5 Q E D 5 5 , 5 4 z S q * > , q y 2 > > , 2 < 2 2 2 2 1 > Y Y % 2 2 < 1 5 i A 5 6 : 5 y y 5 5 7 z y c 6 , , 2 2 < , 2 3 , 5 , , 5 4 5 6 5 8 t x Y T T W T W W ] 7.0.x i i x ] eXwXqXeXhXtXtXpXpXwXhXhXfXCXHXfXHXfXhXhXhXgXgXgXeXqXt.7.t.N x i z z N Q t.`.p.B { `.fXaXfXCXaX).U D D Y Q t.(.wXtXeXtXtXrXrX'.aX+Xt.r.~ M.x.m.F.S.S.S.P.R.I.{.R.E.P.E. X~. X X X XE. X X X%X X!.W.#X[.#X#X!.!.$X!.%X#X%XW.W.$X$X!.1X$X X$X$XT.$XW.!.!. X%X$XW.!.W.!.$X!.$X~.W.E.W.W.W.-XE.#X{.W.#XE.Y.Q.L.D.N.N.z.L.T.L.K.~.~.~.!.~.Y.L.Y.~.~.~.oXoX~.J.~.J.J.J.~.J.Y.~.L.P.L.I.~.L.E.I.T.L.K.L.K.I.J.~.oXXXL.H.K.v.J.K.K.K.Z.K.C.L.K.b.v.C.b.b.V.z.z.z.h.v.j.z.N.3.3.<.1.j.3.<.z.2.j.j.z.2.l.l.l.z.c.j.z.2.z.C.b.z.2.z.2.z.l.j.h.2.j.h.2.>.>.2.#.3.;.#.#.;.3.3.1.3.2.1.<.3.>.l.b.z.<.<.j.j.1.1.3.-.;.<.1.1.z.3.3.<.3.-.;.3.-.;.-.5.5.=.5.#.+.+.;.@.+.@.;.@.#.;.@.;.3.#.@.@.#.,.S.l.;.>.;.=.=.5.5.I 5.I =.<.=.5.5.=.5.=.5.5.5.5.=.@.=.5.=.' @.I =.5.@.=.=.@.@.@.@.=.@.I @.",
"L.I.I.P.H.~.E.L.~.R. XK.Z.Z.4.4.3.2.2.N.4.G.Z.N.Y.N.N.B.4.A.B.3.5.3.B.A.N.B.4.2.Z.Z.Z.Z.T.H.Y.N.6.B.Z.Z.H.Y.Q.R.H.Z.Z.Y.L.Y.W.Q.E.Y.T.H.!.kXBX*X1X1X1XXX!.XX%XXX&X$XE.Z.B.!.!.I.!. X%X1X~. X XXX~.~.1X~.~.~.~.~.~.1X%X~.~.~.~.%X!.&X{.Y.Y.Q.Y.Z.R.Y.E.R.R.H.R.W.Z.L.H.L.Q.*XR. X~.*X3X2X4X1X*X4X1X*X1X4X1XXX*X1X*XoX X1X1X~.~.2XoX~.~.%X1X2X1X1X2X3XXX%X%X*X%XoX1X2X1X1X X XXX1XXX1X2XUXjXjXjXDXPXLXPXPXLXLXKXPXVXnXbXcXnXjXxXcX&XT.E.T.E.#X#XQ.^.$X#X#XY.Q.#XY.Y.Y.W.#X#XQ.R.Q.G.Y.Y.Y.Q.#X<XQ.R.#XW.#XY.N.^.H.Q.Q.Y.Y.Q.#X$X#XQ.Y.D.Z.Y.G.L.H.R.Y.V.z.j.h.1.#.#.` J f 0 % , 2 < , , 1 , , < , 2 < 2 , 2 < q , , 2 < 2 0 < < d 2 2 4 3 4 q 4 4 3 4 2 4 4 t t 6 p i n E T 8.U U w.T 7 5 5 5 5 N E { n 7 4 D W R 7 5 , < 4 x S V 2 > 2 2 2 q < > > > > < 2 2 , , 2 ] ] t < < < 2 5 5 n , 5 , 5 4 4 5 , A Y ] ] D t 2 2 , & 5 2 2 5 , 5 2 5 5 4 4 4 6 6 7 n M U 9.8.w.U v T N u u x N W `.qXtXtXtXpXwXtXtXpXpXhXCXCXpXfXfXHXfXhXfXgXfXgXtX_.t.W T N i i i z H Q =./.t.B u.wXaXfXCXfXpX{ D S D W 9.i.aXpXpXpXtXdXtX_./.CX`.u.r.r.{ d.m.F.m.c.C.S.I.D.I.P.{.Z.R.E.E. X*X X X X1XXX X$XW.E.$X#X#X$X{.%X!.!.#X$X#X$X$X$X#X9X!.%X$X!.$XY.~.W.~.T.E.!.!.!.!.!.$X$X~.!.%X!.$X XW.W.R.Y.W.Q.E.{.R.{.E.Q.Q.N.2.j.B.E.Y.L.H.Q.I.~.~.~.T.E.P.~.~.~.XX%X~.~.I.P.~.~.K.K.I.P.~.K.L.I.~.I.P.~.I.~.I.~.K.J.I.~.I.~.K.E.L.b.v.C.2.;.b.z.L.V.V.C.Z.C.V.z.b.V.b.V.N.h.2.1.<.1.3.1.z.h.z.j.z.b.z.b.z.1.1.2.z.j.z.j.j.j.1.C.z.>.2.j.z.3.j.2.z.z.z.z.1.>.l.2.2.j.1.1.;.2.>.3.3.<.2.3.1.<.3.2.<.j.>.2.1.2.>.1.3.<.<.<.1.z.j.z.3.2.<.;.@.;.-.+.+.-.-.=.5.@.;.#.@.+.<.;.3.;.2.2.;.3.3.<.;.@.;.>.v.1.:.>.-.5.5.5.5.5.=.=.5.5.5.5.5.5.' 5.=.@.5.=.5.5.=.=.@.I =.I =.5.=.=.=.@.I I =.5.=.=.=.",
"V.b.C.L.B.P.H.V.V.H.z.z.1.4.<.-.#.2.j.3.1.3.j.N.Z.Z.j.N.2.2.6.1.3.4.B.B.B.N.N.2.2.6.Z.A.N.Z.N.N.N.N.Z.L.Z.G.H.Y.D.H.Y.D.Q.Y.E.T.^.E.H.T.$XlXNX7X XXX~.1X~.1X*X=X&X=XE.W. X!.~.~.~.%X~. XXX1X X!.%X~.XX~.~.~.1X~.~.~.%X~.~.~.%X~.Y.Y.W.$XW.R.Y. XT.T.W.T.L.H.T.~.#XE.W. X%XXX[.|.2X5X5X1X2X2X*X4XXXoX1XXXXX3X3X3X2X9X1XXXXXXX XoX~.XX1X5X2X1XXX X1X2X1X2X%X1XoX1X~.1X1XXX1X1XXXoXXXXX2XUXjXZXJXJXLXLXLXLXLXLXJXVXJXDXbXnXnXsXPXcXXXE.P.E.$XW.!.W.#XQ.#X#X#X#XQ.#XQ.Q.#XQ.Q.Q.Y.Y.Q.#XY.Y.Q.E.W.R.#XQ.^.Q.Q.Z.G.#X$X{.R.W.R.$XW.R.R.Q.Z.Z.Y.R.R.R.E.Y.Y.G.V.V.j.h.>.+.( J f d & & , , , , 2 , , < 2 > < , 2 2 y 2 , < < < 2 2 2 q q q q 4 3 3 q 3 3 4 4 4 4 4 4 w 7 u z N E T U U { 0.M 5 5 5 d p T E A 7 5 D { ~ w 5 5 5 2 t z Y n > 2 0 2 2 < > 2 > < 2 , , , 2 , U w.Y D : & , & 5 t 5 , 4 : 1 1 : 1 i U S W T Y 2 1 , 3 , 3 < , , , 2 4 5 5 5 4 4 4 t i v W W W W U z y 8 t t p m U ] q.qXqXqXgX`.pXhXpXdXpXpXSXfXfXCXhXCXhXhXfXgXgXeX_.s.t.D m i z u z N Y =.u.E E W Q `.dXaXdX+XQ B B E { 7.(.pXpXtXtXpXtXuXwX(.fX_.t.t.p.{ w.r.m.m.S.C.F.c.F.L.R.R.K.L.E.E. X X X X X=X*X~.E.%XE.E.E.Q.W.Q.~.%X!.%X!.$X1XW.W. X X#X!.%XW.$X~.!.!.!.W.!.!.!.$X~.!.$XE.!.T.!.*X$XW.E.W.W.E.T.E.Q.Y.E.Q.H.{.D.L.H.R.H.Y.~.P.R.E.Y.~.~.~.T.T.E.~.J.~.~.~.~.~.~.J.J.K.C.L.T.E.~.~.~.I.~.J.T.I.T.I.~.~.~.~.J.I.XX~.~.P.V.z.2.1.b.2.z.H.R.V.C.b.K.S.B.c.z.V.R.j.j.2.j.j.j.v.2.1.1.2.z.z.z.j.j.z.z.z.3.z.z.3.2.z.z.j.j.b.V.j.j.N.z.1.1.j.j.<.3.h.2.z.1.2.j.3.;.2.<.<.3.;.>.;.>.>.3.l.3.1.l.2.j.1.3.2.1.j.1.2.2.1.1.1.1.1.1.1.3.;.+.@.@.5.-.+.5.5.-.;.3.;.@.@.+.;.;.+.3.#.;.<.;.;.#.$.+.c.P.l.,.,.;.5.=.5.=.=.5.I 5.@.=.=.5.5.=.5.=.=.5.5.5.=.5.I 5.5.I @.5.=.5.5.5.=.@.=.I I I @.I ",
"~.P.K.B.4.v.K.L.K.b.Z.1.<.4.5.5.@.@.2.;.2.3.N.2.3.B.A.N.3.2.4.2.3.2.3.6.2.6.3.N.N.N.N.N.A.6.N.N.z.Z.H.Q.Q.Z.Z.Z.Y.Z.Y.Z.G.E.T.E.W.Q.Y.E.~.lXNXzX1X1X1XXX&X X X3X=X$X~.=X1X%X%X1X X%XXX~.~.%XXX^.~.~.~.~.~.~.XX~.~.~.%X~.%X%X~.~.$X X X$X~.E.T.W.Q.W.R.W.!.T.T.E. X$X X&X XZ.c.&X|. X2X4X:X2X2X=X*X2X2X=XXX&X1XXXXX1XXX%X1X1X~.XX XXX1X%X XoX X1X1XoX XoX%X1XXXXXXX2X%X2X%X1X3X1X X2X6XjXVXPXJXPXJXLXLXLXPXLXDXLXLXPXPXnXbXcXGXPX2X|.E.|. XE.!.Q.#X^.#X<XY.^.#X#XQ.#X$XQ.Q.#XY.,XQ.Q.Q.G.#X#XQ.#XY.G.Q.Q.Y.Z.^.Q.#X#XW.#X#X#X{.W.R.N.D.Q.Q.R.H.R.R.Q.R.L.C.C.z.z.1.$.#.( Z a d & % > < < , , , < < < > < 2 * 2 > , > 2 2 2 2 2 2 2 3 3 3 3 4 3 3 3 4 5 q 4 3 3 6 t u m M S Q B B B U i 4 5 3 5 5 U W W i 7 n { W 9 : 5 5 7 5 p E O.> 2 2 2 2 < > > > > > 2 > > > 5 & Q t.U & & * 5 $ A a i Y m 6 4 z c z v U ] W E 5 5 & , & 5 3 6 t 2 2 2 2 > 2 t 6 4 t S S U W 8.] T S c 8 6 6 i i x D U E Q qXtX(.`.pXtXwXtXtXhXhXrXhXhXfXhXrXtXpXgXuXhXtXa.Q N m i 9 9 z D E U S T 9.U /.rXaXaX{ D N D W 9.i.qXwXtXqXtXuXdXaXwXp.fXqXp./.p.r.{ W r.F.v.n.c.C.K.C.P.L.oXT.K.L.E. X X XE.;X XE.%X$XR.L.#XR.E.{.#X X$X1X X$X!.W.W.%XW.#X!.!.1X%XW.T.W.E.!.!.W.~. X XW.$X XW.Q.E.{.-X%X$X{.W.$X{.[.{.{.#XR.R.Q.#XL.D.Y.T.R.R.L.T.~.J.~.L.P.~.~.~.~.I.I.J.~.%X~.T.P.K.J.K.J.L.T.~.H.~.~.T.P.L.K.~.P.~.~.I.K.K.b.UX1X Xb.b.S.2.<.2.1.v.V.V.B.K.K.J.z.Z.v.2.V.D.C.N.V.1.z.3.l.z.;.2.2.h.z.B.V.V.V.Z.z.l.3.v.z.2.j.j.z.z.z.b.V.1.z.j.2.2.1.j.1.3.1.l.z.2.1.j.1.z.3.>.2.>.1.;.#.3.1.3.>.<.1.1.1.1.1.1.1.h.l.b.l.2.1.l.z.>.2.l.4.1.;.3.-.-.3.;.-.-.5.;.@.;.;.-.#.;.3.;.@.+.;.+.;.;.@.#.-.-.1.K.,.,.,.-.5.5.=.5.=.=.I 5.5.5.' ' =.@.5.5.@.=.5.=.=.I @.=.=.5.=.@.I <.5.=.=.@.@.=.I =.I =.",
"2.l.B.C.C.C.K.H.L.Z.1.2.2.6.4.-.3.2.2.2.N.2.2.N.B.2.3.5.2.2.3.2.6.6.2.%.6.6.3.6.6.N.Z.N.Z.2.A.Y.H.B.B.Z.B.N.B.L.^.G.Z.L.R.Q.T.E. X XT.R.W.zXVXMXXX1X1X1XXX=X%X*X=X*X2X1X XXX XXXXX1X~.XX~.~. XXX~.~.XXXX1X~.%X~.~.~.~.~.~.~.~.~.W. X X$XT.T.E.E.E.D.W.W.$X X X X$X&X&X$X&X{.c.L.*X2X2X=X4X*X4X*X*X*X2X1X*X*X=X4X2XXX~.&XXXXX~.XX1XXX~.XX%XXX1X1X%XoXoX~.oXoX1XXXXX~.*X%XXXoXXX2XXXUXnXFXLXLXDXJXLXLXLXJXDXFXPXLXLXPXPXDXnXbXPXLXnX>X|.|.E. X!.!.Q.#XQ.^.Y.#X#XY.#X$X,X-XY.Q.Y.Q.Y.Q.Q.R.Y.Z.#X#XQ.#XW.R.G.N.H.Y.Q.W.Q.{.{.#XG.Y.B.L.Q.Q.E.Q.R.Q.Q.Y.D.D.V.c.G.N.V.3.#.#.( K f 0 < > , , < , 1 , > 2 2 > > 2 < > > > , 0 d 2 q 0 2 3 0 3 2 3 3 3 3 4 3 4 4 q q 6 w p z M B Q T U U U N 5 5 & & 5 m ] Q S y 4 x Y 5 & & 5 w 4 q m z > 2 2 2 2 < < 2 < 2 > > > 2 2 : : B Q 5 3 5 & & , m n q S U D c M U S S T T o.U 5 : 5 , 5 5 , w c 1 y y > 6 2 D z t t c W W W W w.] U c t 4 6 t A y./.W N W /.u.Q u.eXwXpXtXfXaXhXpXhXhXaXhXrXtXgXhXtXSXtXs.t.U m m u z N D Q S M T ] S W '.aXt.Y B D T 9.u.wXrXtXtXrXtXtXrXwX`.p.aX`.(._.p.r.{ { D [ v.K.C.C.c.K.Z.K.P.L.R.L.E.%XE.E. XW.~. X{.W.Q.R.W.{.$X#X%X~.$X#X$X$XW.%XW.$XW.$X XW.!.~.W.T.W.T.W.~.W.!.$XW.!.{.W.W.W.#XW.{.T.E.W.$XW.W.#X#XQ.E.R.Q.R.E.H.Z.D.Z.L.H.W.W.~.~.~.T.~.~.I.L.L.~.~.~.oXI.J.I.T.I.v.K.P.I.I.L.I.E.L.P.T.I.I.Y.L.~.K.L.~.I.L.%X4XP.C.K.b.z.z.l.c.b.c.z.H.V.L.B.c.b.V.l.z.b.K.V.b.>.3.j.2.b.l.l.l.2.b.C.C.V.Z.V.Z.z.1.z.z.z.V.j.z.j.V.j.b.c.z.z.l.j.z.z.j.3.j.3.2.l.1.1.1.3.;.3.;.3.1.3.3.;.>.1.2.2.2.l.2.z.2.l.3.1.2.v.z.l.1.2.3.2.;.2.1.3.;.-.@.;.5.<.5.5.5.;.+.@.5.+.#.3.;.;.@.#.;.;.;.;.;.@.-.;.,.L.>.,.<.,.5.=.5.=.I 5.5.=.=.' 5.5.@.@.@.=.@.@.@.@.5.@.I 5.=.I @.@.=.=.=.5.5.=.I I I I I I ",
"2.z.l.L.P.H.V.K.L.H.P.b.<.5.5.3.@.5.3.3.2.N.3.j.6.N.5.3.5.5.2.3.5.3.3.2.1.N.3.3.3.N.A.N.Y.N.N.Y.H.^.B.B.N.Z.Z.N.Z.B.Z.$X#XR.W.E.W.E.$X1X#X8XPXxX1X2X2XXX|.2X2X1X:X2X*X*X XXX1X1X1X1X%X~.~.~.~. X~.~.~.~.~.~.~.XX~.~.oX~.~.I.T.~.E.~.E.T.L.L.K.L.E.E.L. X%X%XXX!. X X*X*X X.X{.{.&X.X&X4X4X2X*X&X5X4X1X2X2X2X2X2X*X*XoXoXXXoX~.~.~.2X X X%X*X3XXX2X*X*XXX1X1X1X1XUX2XXX~.%XoX6XUX4XnXJXPXLXLXLXDXPXDXJXDXFXZXDXDXPXFXPXPXnXbXPXLXAXnXoXOXoXE.~.~.Q.Q.Q.^.Q.Q.^.Y.Q.Q.W.#XQ.Y.#XY.W.Y.Q.W.Q.Q.G.R.G.#X#XQ.N.N.Y.Q.Q.Q.{.#X{.#XY.Z.N.$XQ.R.Y.R.Y.Q.R.Y.H.Y.D.Z.Y.C.V.V.j.%.+.( I C s , 2 , , > , < < < < > * , < , , 0 0 q q 2 2 2 q 2 0 0 2 3 q q 3 3 3 3 4 w w w t y i m m U U U Q U U 9 5 * 5 5 6 E w.] z 7 7 A 5 , : 5 5 4 y 5 > > 2 2 2 > 2 < < > < > > 2 < < 5 i =.Q & 5 & & & 5 q Y t 6 y t U E U T T W T 8.Q m 5 : : : & : , , y 6 t c c c W D n y x U E W W 8.F z t c t 6 t A y./.9.S eXqX{ B U u.pXtXwXpXaXhXwXfXhXfXhXpXtXtXhXuXhXtXs.t.D m z p 9 x N D S N W { S T y./.U N N D U { /.hXgXtXrXwXtXtXrXwX`.(.fXqX`.tX(.{ N =.Q N ^ n.v.c.C.S.c.K.P.C.P.K.P.~.T.P.~.P. XR.W.E.L.Q.#X{.$X[.W.$X X!.$XW.R.#X$X!.W.!.$X$X%X~.E.T.R.T.W.W. X XW.W.Q. XT. XE.W.$XW.W.{.%XR.W.R.#XE.R.{.Q.Q.Y.{.H.2.D.z.N.Z.!.Z.L.P.~.T.~.~.~.L.J.~.~.~.T.I.J.L.L.L.J.J.K.H.I.K.L.T.P.T.L.I.P.I.P.E.T.I.v.I.~.oX XE.V.K.L.S.Z.c.b.v.b.C.Z.V.C.V.V.V.z.j.C.z.2.L.z.z.2.2.l.b.4.2.v.2.v.V.V.C.v.V.c.2.V.N.V.z.z.b.j.2.V.z.b.b.z.z.z.1.2.h.z.<.j.3.<.1.>.1.1.1.;.;.;.;.;.@.3.>.;.3.1.1.1.1.1.1.1.2.j.1.<.2.1.;.1.l.2.2.1.<.3.1.-.@.5.-.-.5.5.' =.=.#.3.@.+.;.3.@.+.+.;.@.5.;.@.+.+.-.@.1.P.,.>.-.;.5.5.I =.5.5.=.5.<.<.<.' 5.@.=.@.5.5.5.@.5.=.=.5.=.=.@.@.@.5.=.5.@.I I @.=.I =.5.",
"L.L.B.K.C.V.z.C.J.K.Y.b.<.2.3.3.5.5.5.@.N.N.N.3.z.N.6.5.2.%.2.3.2.2.3.3.3.6.2.3.B.N.6.N.N.^.N.Y.H.Y.G.B.N.B.Z.Z.H.N.T.W.W.Y.R.E.T.~.!.!.-X0XPXcX2XXX1X*X&X*X:X2X*X=XXX X%XXXXX!.XX5XXXXX~.~. X1X%XXX~.XX1X~.~.~.~.XX%X%X%X~.~.~. XT.T.E.T.Y.H.Y.H.E. X X X!. XXX&X&X XE.{.R.&X|.&X=X:X7X8X2X X2X2X5X2X*XXX2X1X*X*XXX1XXX*X*XXXXXXX~.XXoX*X*XoX%X2X%XUX1X2X2XXXUX1X3X*XXXXXXXUXcXDXPXLXLXLXLXLXDXJXJXFXnXZXVXFXDXFXZXJXPXDXDXVXLXnXkX6XOX|.&X X X#X#X^.Q.#X#XQ.Y.Q.G.Q.#XQ.Y.R.Q.W.Q.Y.Q.#XR.#X#X#XR.Q.Y.B.G.Y.{.{.#X{.Q.$X#XY.Z.Q.,XR.Q.Q.Q.Y.Y.Y.Q.H.D.D.Z.z.N.Z.Z.j.j.$.+.+.J C e * & & , < < > 2 > 2 < > < 2 0 2 2 2 q q 2 0 2 0 2 2 0 3 3 3 3 3 3 3 q q 0 4 5 w 9 z m U Q Q U W U t 5 5 5 5 2 U 8.W m u 4 7 5 5 : , 3 i n 2 2 > 2 < < < < > > < > < < > > 2 3 n =.U - & & 5 & < 2 W n c i 6 A U U U W W 8.8.9.S : : : & 5 5 < 2 t 2 A U Y S Y x n c v M M Y T T c z U Y z 2 7 z Y q./.q.(.(./.N N p.tXqXwXqXfXhXsXhXfXfXfXrXhXuXhXhXtXtX_.t.Y N m x 9 u x z z v T W U W r.Y m m x N N ] /.pXwXaXgXgXwXrXtXwXtXqXfXpX_.`.i.{ D B ] W z | K.n.F.c.S.Z.K.K.C.J.P.P.E. X~.*X X XR.Y.R.{.$X[.{.$X{. X*X X$XR.#X$X%X!.$XW.!.W.W.!.T.!.T.W.E.E.$X$XW.T.R.$X{.T.{.{.E.W.W.W.E.&XW.W.$XW.W.Q.R.{.H.Y.Z.V.B.G.N.L.E.E.~.~.I.~.~.~.~.~.~.L.~.~.oX6.~.~.L.L.P.I.J.I.T.L.P.H.Y.I.~.|.Y.I.I.I.I.P.I.P.~.1XE.P.P.Z.V.V.b.Z.C.Z.V.Z.S.C.K.C.K.H.Z.v.C.C.z.2.b.z.c.z.z.C.K.Z.C.l.C.C.4.v.H.C.z.2.z.z.z.z.V.j.z.z.b.V.z.b.z.l.2.1.2.l.1.3.l.j.3.1.2.<.3.1.3.>.-.#.#.;.<.1.j.2.;.;.;.<.2.1.<.l.1.1.l.l.1.2.1.<.1.4.<.<.<.<.5.5.-.5.;.;.5.5.5.5.#.<.;.#.@.#.+.@.3.;.;.#.;.@.+.@.@.-.` ,.1.1.<.>.5.5.5.5.5.=.=.5.' +.' +.=.I @.@.@.=.=.I @.I =.=.5.@.@.=.=.=.5.=.=.=.=.I =.I @.I ",
"K.K.b.P.K.K.L.P.P.J.J.4.5.1.2.2.5.I I K 3.Z.Z.V.A.N.4.2.N.Z.2.3.A.A.B.3.6.4.N.2.N.N.Z.H.A.H.Z.H.H.Y.^.N.A.Z.V.Y.V.H.=X$X$X$XR.$XR.R.!.E.!.xXVXxX5X2X*X2XXX*X5X4X1XXX~.~.oX%X%X%X1X1X~.1X%X~.%XXX~.XX%X%X~.~.~.~.~. X1XXX~.~.!.~. XE.T. XI.J.I.Y.~.~.P.T. X X!. X X%X&XE. X~.{.[.;X:X:X:X2X=X&X2X*X2X&X.X4X&X;X.X2X3X4X2X2X2X&X&XE. X X X1XXXoXXX2XXX2X1X1X6X6X5X3X6X*XXX6X6XnXFXLXLXLXLXPXPXJXJXFXFXAXZXAXFXFXDXFXDXPXJXPXFXPXLXnXVXbXjXXX~.~.oX X!.Q.Q.#X^.Q.T.$XQ.Q.Q.Y.Q.G.{.Q.Y.Y.R.#X#XQ.Q.^.Q.W.Y.N.Z.#XE.{.Q.#X#X#X{.D.H.W.W.E.E.Q.R.Q.Y.Z.G.L.Y.L.Q.L.L.Z.j.V.N.j.h.+.@.J Z r > & < < > < < 2 > > < < < 0 2 2 2 d 2 2 q 3 3 3 3 3 3 3 3 3 3 3 3 3 3 q q 4 q w i m M T W B U B Q D 5 & 5 2 S 8.8.D y 2 < 5 : : 5 5 N m 2 2 > 2 < < < > < > < 2 > < > 2 2 , 7 { E z w : * * & 5 R y R E i 6 v S T W W ] 8.Q z A U p > , 2 , a Y 1 z A M 6 t t z i u z x S U A z z E E u w 7 p x U u.qX(.q.U D u.eXhXpXtXpXhXfXHXCXHXCXfXfXhXgXfXgXgXgXeXt.Q N m z 9 9 p z t i n N U 0.9.m z i i m U E w.tXtXdXtXdXwXtXtXwXtXrXCXtXwXqXqXp.W B B D M n n.k.c.z.v.z.K.C.C.K.D.D.R.P.R.%X!.~.W.D.R.{.$XR.$X$X{.=X=X}.#X{.#X#X-X$X#X#X%XW.!.W.~.!.E.W.{.{.{.#XR.W.E.#X{.Q.$X$X$XW.{.{.E.R.W.W.Q.W.W.W.{.{.#XD.Z.D.B.Z.K.H.H.Y.T.T.Y.I.T.~.~.~.I.~.~.~.~.~.~.I.Y.J.L.P.K.H.P.E.E.W.E.{.{.E.[.[.E.~.oXE.P.I.[..XXXL.L.L.L.L.V.Y.C.Z.b.b.K.C.C.C.K.Z.v.C.C.b.V.K.Z.2.1.z.V.H.P.K.K.Z.v.4.c.B.C.c.z.b.j.V.B.z.V.b.b.c.z.N.b.z.V.2.j.>.1.h.3.1.1.>.2.z.j.z.3.>.;.;.3.1.3.z.z.j.z.3.1.<.b.b.1.1.2.l.1.l.l.1.1.<.l.1.l.1.4.2.<.<.<.-.<.<.5.<.5.5.5.-.@.+.;.@.@.+.;.3.#.;.;.3.3.;.@.+.-.-.+.b.j.1.>.#.<.<.<.+.I 5.I 5.' +.+.+.' 5.' <.=.@.I =.I =.I 5.=.=.=.5.5.=.5.I @.@.I @.=.I =.I ",
"L.T.T.P.Y.~.R.W. XH.K.4.2.<.<.<.4.4.4.3.N.Z.N.N.N.N.2.5.2.2.4.6.6.3.%.3.3.2.6.A.N.A.H.Z.A.A.Z.Y.Z.^.Q.H.B.H.Z.H.Q.Q.Q.E.Q.D.Q.R.Y.^.W.!. XlXIXxX*X5X2XoX XXX2X2X5X1XXXXX1X3XXXXX2X1X*XXXoX~.~.~.%X~.%X~.1XXX~.~. X1X X!. X~.P.Y.!.L.~. XT.Y.L.K.T.I.Y.~.~. XXX~. X X1X XXXE.:X X=X>X&X:X X;X2X2X2X;X;X=X&X&X&X=X3X*X2X;X=X*X2X&XXX1X XoXoX1XoX1X2X*X1X4X1X4X6X*X4X5X5X4XcXFXDXPXLXLXPXLXPXPXDXZXFXDXDXDXPXZXDXPXLXVXDXPXJXPXPXLXbXFXZXnX6XUXXXI. X!.P.Q.~.#XQ.#X^.G.Q.#XQ.Q.#X#X<X#X#X#XW.G.Q.Q.Q.#X#X#XG.B.Q.#X$XQ.R.{.Q.H.H.R.Y.Y.Y.Q.R.Q.H.Y.H.#XE. XR.Q.Q.D.D.V.V.N.V.j.$.$.' J O.e & , < < < > 2 < 2 > < 2 2 0 0 2 0 2 0 2 q q 3 3 3 3 3 3 3 3 3 3 3 3 q q q 4 4 i m S Q T B ] N W D 9 5 < 1 c 8.E E z 6 2 < : : & 5 V p 5 < > 2 < 2 > > < < > > 2 > < > > , : M ] ] ~ n $ : 5 5 5 6 E W t c B v M U T w.W W M W Q z > , , 5 w D u c t z A A x 4 6 q q A c m c i c E E 9 5 4 t W p./.Q S c x u._.wXpXpXpXpXCXCXHXfXHXfXHXfXgXhXgXhXhXuXuXs.t.T N u m N D m z u t N W ] D x x z i N A U 0.qXrXtXaXtXrXtXuXtXtX`.dXtX`.qXpX`.r.Q R N n i  .F.n.m.S.K.l.K.V.K.C.S.R.R.E.R.P.~.$XR.$X#X#X&X$XR.&X$X#X{.{.{.#X#XW.#X{.&X#XR.T.W.!.W.Y.W.#X$XW.$XW.R.L.W.Q.R.{.$X{.$X$XMX-X=XW.E.{.E.W.{.#XQ.[.Y.V.2.C.Z.J.T.E.!.P.~.P.~.T.T.XX~.~.L.~.L.I.~.~.~.E.I.Y.P.T.K.E.E.E.E.P.E.R.[. X{.|.~.[.I.E.E.[.E.E.{.L.C.K.L.K.K.C.S.Z.b.Y.H.K.T.H.V.V.b.V.Z.Z.S.v.b.V.V.V.V.V.Z.b.V.b.z.b.c.V.z.N.V.z.b.z.z.z.z.z.z.c.2.j.z.j.j.1.3.3.2.2.1.3.3.h.1.j.<.3.3.2.;.3.3.1.1.3.>.1.1.,.,.1.1.<.1.1.<.1.1.b.b.<.<.1.b.z.4.4.3.1.1.<.5.5.5.<.<.<.5.5.=.<.;.@.#.+.;.3.+.@.#.+.<.;.#.#.3.5.` <.K.;.$.#.$.@.;.-.;.=.5.=.I ' +.' ' +.' +.+.5.I 5.5.5.I @.I @.5.I I =.5.=.=.=.@.@.@.I =.I @.",
"C.Y.E.Y.E.~.XX&XXXY.J.J.J.4.<.J.J.6.z.Z.Z.H.Z.N.j.4.3.5.5.3.6.2.6.@.6.2.6.2.2.Z.Z.H.Z.Q.Z.Z.B.Y.Z.H.N.A.Z.B.Z.Y.R.Q.Y.E.R.Y.$X#XE.T.W.~.W.kXVXNX1XXXoX|.|.oX*X3X1X1X*X*X1X2XXX1X1X1X8X5X5X%X~.1XoX~.XX~.UX1X%X1X%XXXXX~.!.E.P.~.E.T.T.E.~.~.H.~.~.E.E.~.1X%XXX XE. X&X&X*X X&X=X=X2X=X3X>X=X;X*X&X=X;X2X;X4X:X;X*X2X*X2X2X;X2X*X1X*X*X2XXXoX1X X3XXX.X5X2X6X6X2X*XUXjXnXVXPXPXPXLXPXPXPXFXnXFXFXnXPXLXPXLXLXLXLXLXFXnXDXPXPXPXLXZXDXFXVXnXjXUX~. XQ.L.T.Q.Q.Q.T.W.Y.Q.Q.R.#XY.Q.W.W.Y.Y.Y.Y.#XR.#X#X#XG.B.N.Q.$X$XQ.E.Q.#XR.Q.H.^.W.Q.T.Q.Y.H.H.T.Y.E.W.D.R.D.Y.Q.D.D.B.N.c.j.>.%.( J C e % > < < 2 > > < > * 2 2 2 q q q q 2 2 3 3 3 3 3 3 5 3 3 3 3 3 3 3 4 q q 4 t y z N U T { Q U U N N 5 : 5 5 W 9.] m w , 5 : & 5 5 A 4 , 2 > < > < < > < > > > < 2 > < 2 < # E D 4 R U & & 5 5 & 6 i A U S T U U T W T 8.8.T W W U m # 2 5 4 M F c t t z t c q 6 6 6 u z c u y u S U 7 w 7 u u.).i.m z T { s.hXtXpXu.t.pXhXfXFXHXCXfXfXhXwXtXgXgXeXeXhXhX_.Q N N F Q F N x z i M ] ~ x i u i i m c D E M._.qXtXrXuXuXaXrXtXwXpXpXtXqXpXrXp.u.{ E M m x d.n.U.n.v.z.c.b.S.D.D.E.E.~.P.Z.P.Y.[.R.R.[.{.Y.&X&X{.E.#X{.{.&X#X$X{.W.{.E.E.W.T.T.W.W.E.W.W.E.{.{.R.Y.{.Q.{.{.$X=X$XW.Q.Y.&XR.W.R.W.{.W.$XR.Y.L.E.6.N.L.H.R.~.T.Q.Q.E.~.~.~. X~.~.~.~.~.L.~.~.~.I.I.P.T.E.L.J.E.E. XE.E.E.R.E.[.I.|.oX[.[.E.|..X;X|.P.D.C.K.L.C.K.Z.C.P.L.L.L.K.C.Z.z.K.b.V.Z.L.b.b.b.z.V.V.Z.D.C.N.S.V.Z.b.j.z.S.N.z.V.b.z.z.j.z.z.V.V.v.z.z.1.3.;.j.3.l.j.1.>.3.j.2.1.1.>.#.1.;.>.<.3.3.1.2.>.b.b.4.,.1.1.<.1.b.1.<.1.1.l.1.1.3.4.1.-.5.3.<.;.<.<.<.<.<.=.<.-.;.#.;.@.@.+.<.;.;.@.3.#.5.;.<.@.' +.-.Z.,.3.3.#.-.` ;.-.5.I ' @.<.+.' 5.5.' ' <.5.=.I I 5.5.=.=.I 5.5.=.I 5.@.5.I I I I I I =.I ",
"1.P.~.P.E.&X*X1X*XI.v.B.J.b.4.J.J.6.Z.Z.Z.N.N.N.N.2.@.%.2.N.2.@.@.@.2.2.4.3.4.2.A.Z.Q.Y.^.H.H.Y.Z.J.H.H.Q.R.Q.W.Q.Y.Q.P.R.H.Z.R.Y.L.E.~. XkXIXNXcX5X1XXX~.E.*X2X5X5XXX*XXXoX%X5X5X2X5X8X5X5XXX~.~.1X%X1X%X1X~.~.XX~.1X1XQ.E.b.T.1X1X XE.~.T.T.XX!.!.XX!.1X~. X%X~.&XXX%X4X&X.X.X;X;X=X4X4X:X4X*X2X*X2X2X2X2X4X:X2X2X;X;X;X2X;X3X4XXX1X1X%XoX XXX3X*X1X4X2X2X2X6X6XcXVXDXPXPXPXLXDXPXJXFXDXPXFXnXJXLXLXLXLXLXLXPXJXFXbXZXZXFXFXPXnXPXJXLXPXbX5XoXoXXX~.T.W.E.Q.Q.#XW.Q.#XW.#XQ.Q.#X{.Q.Y.G.Q.Q.R.#X@X#XQ.A.G.Q.R.Q.$X$XY.R.Q.$XQ.W.-XE.E.E.E.Q.R.#XW.T.T.Z.Q.Q.R.D.H.D.L.R.N.V.1.>.+.( J C 0 % < > < < 2 < < * < 0 2 2 q q 2 q 0 2 2 3 3 3 3 3 3 3 3 3 3 3 3 3 3 3 4 4 q z z S T U Q Y B Y Y D & , 3 M 8.W E q 2 & 5 : & 7 h 5 3 2 > < 2 > 2 > > < 2 < > > < > > , * W M 5 5 & & : & : 5 3 D U D S M S U U T T W Q Q Q Y W 0.3 5 5 4 A V q q 6 y x t 4 1 6 4 z q 6 6 7 7 U D 7 4 7 m M.u.N u N ).`._._.u.t.U u.wXhXsXhXHXHXfXHXu.Q 8.hXtXhXuXhXeXeXu.Q B U N U D z z i D ] U i c x u i m V U 8.(._.(.wXqXyXaXuXtXwXtXtXtXqXtXpXrXwXwXi.r.W D V c =.n.v.x.c.v.z.z.C.D.C.].E.Z.S.P.G.Q.Q.@X{.#XR.[.=X&X{.W.{.#X#X{.#X$X{.#XW.$X%X$X~.!.!.E.R.#XT.T.Y.#XQ.E.{.H.=X$XW.{.Y.Y.W.{.Q.T.R.W.R.$X{.#XY.L.{.Z.T.L.Y.E.I.E.~.E.E.~.oX~.~.~.~.~.~.~.XX~.~.~.H.Y.H.P.L.L.Y.~. XXX X XE.[.P.[..XoX~.E.E.|.[.;X;X[.L.D.C.K.Z.Z.L.K.L.H.L.K.H.K.C.J.V.V.z.z.V.K.V.V.z.z.z.j.z.z.z.b.v.Z.v.b.V.C.C.b.V.z.c.j.1.2.2.1.b.V.b.z.2.1.2.;.#.3.<.1.1.3.h.3.2.z.2.#.3.<.3.3.;.1.1.;.1.2.1.l.4.1.b.1.<.,.l.1.4.1.1.1.l.b.2.l.z.<.<.-.;.5.<.5.<.<.<.<.5.5.;.;.3.;.@.;.;.3.3.;.5.#.#.<.;.#.;.@.-.v.3.>.;.;.5.5.' @.@.=.I I ' 5.<.+.' ' I <.5.I 5.=.=.I I 5.I =.=.5.I =.=.=.=.5.=.=.=.=.@.@.",
" X XoXE.|.oXE.2XXX~.L.P.K.b.b.4.Y.~.K.4.V.z.N.B.N.6.2.@.N.4.2.2.6.3.2.2.4.3.2.4.Z.A.Q.#X#XQ.Y.H.Z.Z.Z.Q.Y.H.Y.Q.Y.L.W.#XT.R.Y.R.T.Y.E. X X8XVXxX5X8X4X*X*X*XXX1X1XXX1X3X5X5X1X3X1XUX1X5X1X%X~.1XXX1X%X%X1X~.1X~.~.1X%X~.~.T.P.Q.!. X~.E.I.K.T.~.E.~. X1X1X X%X1X!.!. XXX3X%X*X X|.=X*X3X4X9X4X:X;X*X2X8X;X7X4X:X4X7X;X4X:X&X;X>X2X4X4X2X5X5X6X6X*X2X4X6X2X5X6X4XnXVXPXPXPXPXPXLXGXJXDXFXFXFXJXJXPXLXLXLXLXLXPXPXFXAXnXbXbXVXPXLXFXnXPXLXPXVXnXjXXXoXI.E.W.E.T.W.E.#XT.Q.Y.R.G.#XQ.Q.Y.Y.G.#XQ.Q.#XR.Q.Y.Z.^.#X{.Q.R.H.L.%X!.$XW.W.E.W.Q.W.W.#X#XR.W.Y.Q.Q.R.Q.L.Z.H.C.B.Z.D.C.c.j.>.+.( J Z q < < < < 2 < 2 0 q 2 2 0 2 2 0 2 0 q q q 2 d 3 3 * 3 & 3 * 3 3 3 3 4 q q t t m D U W Q U U U D n 5 , , 2 ] w.0.S 2 & 5 & 5 3 , & < 2 > < > < > > < 2 > > > < > , , > , x i , , , , & 5 : < p D D 7 y v S M U U T T T Q 7.U T W E * 5 5 m 9 5 2 5 5 4 2 3 1 t 2 t 6 z 6 q c Y A 6 6 t m D i u 9.N 7.eXs.t.D N =.hXhXhXhXCXCXHXCX'.U W wXhXtXeXhXhXeXwXs.Q Q B U F N c z c ] 9.A z Y D 9 i n A Y 9./.qX(.`.rXtXuXyXtXtX`.aXrXwX+XrXpXwX_._.'./.9.U c m x.m.v.v.v.v.v.R.V.R.R.D.[.E.D.D.P.R..X{.[.{.$X$X&X#X{.{.{.[.$X=X&X#XW.#X$X&X&XT.W.W.W.{.E.E.Q.W.W.Y.D.E.Y.Q.R.W.E.W.Q.{.$X$XY.Q.Y.W.R.W.W.E.L.Y.Z.D.R.L.T.J.~.L.~.~.I.~.T.oXT.I.~.~.~.~.~.~.L.P.I.Y.H.L.E.I.P.E. X|.XX=X[.}.[.[. X{.R.}.|.[.;X>XR.D.S.K.L.K.K.K.Z.C.K.H.K.Z.L.L.K.v.C.b.V.S.L.C.c.c.j.V.V.V.N.z.V.C.j.C.z.b.Z.V.b.j.z.j.2.b.j.z.z.b.N.V.b.1.1.>.3.;.#.1.1.>.j.3.l.2.l.3.<.3.1.j.3.<.1.1.l.2.>.1.1.1.4.4.,.,.b.1.l.1.b.1.1.1.b.4.2.<.3.-.<.3.3.<.5.<.5.5.5.5.5.;.3.@.@.<.;.#.#.;.;.#.#.;.@.@.;.;.#.3.V.h.3.#.@.' 1.@.' I @.@.' +.+.+.<.' <.' <.5.=.I =.5.I =.=.5.@.5.I =.@.@.5.5.I @.I I =.@.I ",
"E.|.R.oX[. XP. XP.v.v.C.2.b.b.4.~.~.I.J.N.B.Z.H.2.B.6.6.3.3.4.5.2.2.6.N.6.Z.A.3.4.N.B.Z.Q.Y.Z.B.Z.B.A.B.Q.Z.H.Y.Y.A.#X#XR.Y.Y.T.W.W.~.~.P.*XMXxX2X3X8X1XoX2X*XXX5XXX5X1X5X8X5X5X5X1X1XXX%XoXXX~.%X%X1XXX1XXXXXXX~.1X X%X~.I.~.~.~.P.b.K.H.T.L.T.E.~.T.~.~.!.~. XXX X%X1X1X*X XL.~.=X2X3X2X2X;X9X*X2X;X4X7X7X4X>X4X7X>X:X2X8X4X;X=X2X6X6X2X5X5X5X6X6X6XOXUXUXvXFXJXJXPXLXPXPXPXPXnXFXDXLXLXPXJXLXLXPXPXAXIXnXAXnXFXDXFXnXFXAXPXLXLXDXbXFXLXLXLXVXjXXXoX[.E.W.T.$XE.{.Y.Q.#XR.#XQ.E.#XY.G.Q.Y.Q.$XY.#X#XH.B.Z.#XR.Y.Y.Y.Q.W.!.!.T.T.Q.W.E.W.{.W.W.W.W.{.#XQ.H.Q.Z.Y.L.G.Z.Z.V.N.V.3.1.#.' ( o.O.0 * > < 2 2 q q q 2 q q q 0 0 2 2 q 2 2 < 4 3 5 3 3 3 * 3 3 3 3 4 3 4 t t t z M U U U Y E U M 7 5 , , > p 8.w.S w & 5 : 4 y , 5 < 2 * , < > < > > > < < < > 2 , > > , , < : : , , : & 5 & 9 ~ t 7 M M U M T U U U W W ] T U Y x z 3 5 < < < , 2 , , 2 4 t 2 2 6 4 q 4 q z m t 4 6 5 7 p p 0.qXp.N =.U m z U s.wXhXsXfXfXHXhXt.Q D p.hXpXpXhXpXeXeXpXpXQ U F Q Q N c z x W ~ c Y ~ m i z m Y W w.(.`.qX`.qX`.qXrXqXpXtXdXtXpXpXpXpXfXhXp.u.y.q.w.U M F n.x.c.l.C.C.S.S.S.c.D.S.D.].S.R.[.R.[.E.E.$XW.,X&X$XQ.#X$X&X#X}.&X$X{.W.W.#XE.W.W.Q.{.Y.R.Z.W.R.R.W.R.Y.R.Y.W.{.$XE.$XW.Y.{.W.W.{.W.W.R.#XL.Z.D.L.V.T.L.I.P.I.T.I.~.T.~.~.~.K.~.~.~.I.L.T.L.T.I.~.I.T.P.P.P.[. X.X&X:X&X.X{.[.].P.}.E.}..X2X.XP.L.Z.b.V.H.Z.Z.K.K.H.K.H.Z.K.K.L.B.K.H.P.L.C.C.V.D.V.c.N.V.V.b.b.b.V.Z.V.V.Z.V.j.c.b.z.z.z.z.1.j.z.V.C.V.j.j.j.3.<.<.1.b.b.1.j.1.2.l.>.j.1.>.>.>.3.h.2.,.1.3.1.1.,.1.b.l.b.1.1.4.4.,.1.1.1.1.<.;.3.<.5.<.3.;.5.=.<.<.<.5.=.=.@.+.@.-.<.;.2.3.;.<.2.;.;.@.;.@.;.@.$.V.1.$.#.#.' -.' I ' ' ' 5.+.I +.5.5.' ' ' I I 5.5.=.I @.5.I =.I =.=.5.=.5.5.=.I =.@.I @.=.",
"*XE.E..XE.E.K. XI.C.J.U.K.b.b.2.2.J.b.b.N.B.Z.2.N.3.2.5.@.@.3.5.3.@.A.Z.N.2.N.Z.N.2.6.Z.Q.Y.B.N.B.H.#XH.H.R.Y.W.W.Y.Y.Z.B.H.Q.R.E.$X~.~. X7XNXxX2X4X4X%XoX%X2X2XXXoX1X5X2X8X3X5X5X1X5X1X1XXX~.~.~.XXoX1X~.1X%X~.~.~.%X XE.Y.~.~.!.B.b.J.H.4.~. X!. X~.T. X1X%X X!.!. X1XXXL.B.R.L.%X*X3X2X=X2X2X;X4X>X4XkX4XkX7X4X7X4X;X4X2X4X:X2X>X5X5X6XjXkXnXnX6XjXUXjXnXFXLXLXLXPXDXJXVXFXnXFXVXVXPXLXLXJXPXDXAXnXZXnXDXnXZXCXbXDXnXnXFXDXLXPXLXLXnXAXPXLXPXFX5XXX[.W.$XW.$XW.W.Q.R.Y.Q.#XY.#XR.Z.Q.Y.Q.Q.,XY.W.$XG.B.Q.Y.#XW.L.Y.T.W.T.T.E.Y.W.W.-XW.$X#X{.W.{.$X#X#XQ.E.R.Z.Z.B.Y.D.Z.z.j.1.v.<.>.$.X.o.j e * < < 2 q 2 2 q q 2 q q 4 2 0 < < < d 3 3 3 3 4 3 3 3 3 3 3 3 3 3 4 t t z N M U Q T B U M m 5 & : * % n 8.c t 5 & & 5 x 3 4 2 , < > > < < > < < > 2 2 , , , , > : t U , : , , 5 5 : : 5 F z m B O.T S U S U U S S S U Q Y E 9.i 5 , , & , , < , 2 2 q t t z m u 6 6 y 4 4 5 4 4 5 4 w ] (.M.p x p b =.s.wXwXhXhXhXu.u.=.z N rXCXp.tXhXeXeXeXhXpXeXt.Q B =.B N z z z V S c U Y i i z N Y W r.qXqX`.qX`.qX`.qX/.pXrXfXrXpXpXhXpXpXwXwXp.i.t.q.q.U V R v.F.c.k.F.S.S.S.S.F.c.V.D.P.R.P.z.D.[.$X{.{.{.{.[.$X#X$X#X{.#XQ.E.{.R.R.Y.Y.Y.R.R.-XY.W.E.{.W.R.&X%X&XZ.L.Y.E.T.W.{.Y.E.T.E.Q.R.Y.W.E.W.V.R.Z.H.E.L.L.P.~.~.~.~.~.I.~.I.T.I.~.~.~.T.~.L.E.P.P.I.I.K.H.C.P.R. XXX X[.[.P.[.}.{.R.[.[.}.R..X.X}.S.Z.K.Z.K.Z.b.Z.Z.K.P.Y.R.P.H.K.C.L.P.H.K.C.D.V.V.V.j.c.N.j.C.c.2.z.D.z.z.V.b.1.j.2.1.2.z.j.1.z.z.b.C.z.z.B.z.j.j.j.j.j.1.<.2.l.z.3.3.1.>.1.3.1.3.2.1.,.z.1.1.4.1.,.,.1.4.,.b.1.l.1.<.1.l.2.<.-.<.;.5.;.;.@.<.<.<.5.5.<.5.<.;.;.+.;.#.#.3.3.3.;.;.3.<.#.+.#.+.#.#.V.j.3.#.+.5.' ' @.I ' ' I +.' ' 5.+.' ' ' I 5.I =.I 5.5.I I I =.I =.I =.5.=.=.@.I @.=.=.I ",
";X;X XP.[.R. XK.v.v.l.J.K.K.~.P.b.b.J.4.N.3.j.N.N.j.3.5.@.2.5.@.@.@.B.N.N.A.Z.H.B.N.Z.B.Q.Z.N.6.N.B.^.Y.Z.Y.R.Q.R.Q.H.B.D.Y.Q.E.H.L.R.R. XjXNXxX2X*X*X5X3X4X5X1X2X1X5X5X5X8X0X5X2X5X5X5X5X1X1X5X1X%X~.~.1X~.%X XoXT.~. X XT.E.T.~.I.H.P.~.K.B.~.E.~. X!.XX%X%XP.!. X1X=X%X%XE.P.&X2X=X3X4X2X1X2X2X*X;X:X:X>X4X7XjX4X;X4X7X4X4X4X6XjX;X6XjXnXNXPXAXnXvXbXVXPXPXPXPXPXPXDXFXDXDXDXDXFXGXFXPXLXJXnXbXnXnXFXZXZXAXnXnXnXFXPXbXFXPXLXDXPXLXLXFXnXDXLXLXFXjXoX XE.W.E.W.{.<XQ.Q.Q.Q.Q.#XQ.Q.Y.#X#XQ.R.#XQ.#XQ.Y.G.Y.#XQ.Z.Y.W.Y.T.Y.T.Q.R.#XW.#X=X:X#X#XW.W.W.{.H.H.H.Y.H.D.Y.Z.Z.N.N.z.Z.h.>.3.#.' ( O.s < < d 0 2 2 2 q q q 2 q 2 0 2 q 2 3 3 3 3 3 0 4 3 3 3 3 3 3 3 q 4 w 6 i N N D D B E B D Q < & : , > y W D 6 3 , , 3 5 < < < > > * 2 2 2 2 < > > > > , , , , , , , S , & # # : & & & : p i t b c B S U T T W v M v U W Q Y D R & & , & , , , , , 2 1 q u q t t t 1 5 6 5 5 5 4 5 i i m D i t 9 N u.`.wXhXSXfXwX=.B H D u.'.fXfXfXp.pXpXqXeXtXhXpXu.Q D U N N i y i c z i a z p i m A Y y./.`.qX`.qXqX).(./.qXwX`.aXpXdXfXaXaXpX_.wXtXy.y.y.q.] D n Z k.n.c.P.C.S.V.S.C.P.S.V.D.D.D.D.[.R.R.#X:X&XQ.R.[.$XE.[.#X#XE.$X$X$XL.Z.{.T.W.L.{.T.Y.{.W.W.T.Q.$XQ.Y.Z.D.R.Q.{.D.Q.Y.E.W.R.W.Y.R.R.W.V.@XC.Z.R.I.P.L.~.~.T.L.L.J.I.~.~.~.~.~.~.~.~.T.L.Y.L.J.J.C.Z.V.E.P.K.|.E.{.}.&X[.[.[.F.R.[.R.}.;X;XI.P.b.v.Z.J.K.K.C.K.B.L.E.L.K.C.Z.L.H.J.K.Z.S.V.S.V.j.V.V.V.j.j.j.c.b.z.j.z.V.z.j.2.c.j.z.j.j.j.B.z.z.z.z.j.z.1.z.2.1.1.3.2.1.1.z.1.z.j.2.b.l.3.3.>.1.3.<.2.j.1.b.1.l.1.4.l.1.1.l.b.1.<.l.<.<.5.-.5.-.;.5.-.@.<.5.5.<.5.<.5.=.@.;.#.3.@.;.;.;.3.#.;.;.;.@.@.@.@.;.3.1.+.#.%.#.' 5.' ' @.' @.I ' +.' I I I <.+.=.5.5.=.5.I I =.5.=.5.I 5.@.=.@.=.I I =.I 5.=.@.",
"XXoX X.X XE.|.&X|.L.P.K.~.2XxX7X;XL.2.<.Z.B.B.b.1.3.2.5.6.5.5.5.@.I @.5.2.B.Y.T.B.Z.^.Z.Q.T.Z.N.N.2.Z.^.Y.Y.T.Y.H.@.N.Z.Z.R.$XR.L.R.Y.T. X*XVXNX1X*X8X8X8X3X2X2X*X6X2X2X8XkXkXzXkXkX2X;X4X2X1X%X~. X~.%X1X~.%X~.~.~.~.~.~.J.I.J.T.~.P.J.C.4.B. X~.Y.T.I.~.*X&XT.~.Y.|.%X X~.R. X X1X3X8X8X7X4X8X2X5X*X4X;X>X>X9X7X4X>X7X7X>X7X:XjXjXjXnXnXDXIXVXPXFXAXPXPXPXPXJXPXJXDXFXFXZXAXFXVXJXLXPXFXZXnXbXnXbXbXFXZXnXnXnXLXJXPXJXPXPXDXLXDXVXGXLXLXFXnXAXPXLXAXkX|.I. X~.$XW.E.W.Q.W.Y.#X<XR.Y.Q.Q.R.<XW.R.Q.Y.Y.Q.Q.Q.Y.W.E.Q.Q.T.T.Q.T.Q.E.W.$XW.#X#XW.$XQ.#XE.R.Q.Q.Y.H.Y.Z.Y.R.H.N.z.B.C.v.l.$.$.+.' o.O.a * 0 0 2 0 0 2 2 2 0 2 2 0 2 0 2 2 2 2 2 2 d 2 2 2 0 2 * 2 2 3 3 q q y z c S M S Q U U U q , , & & : H z 5 < < < < < < < 2 < > < 2 0 2 2 > , , : : & , , : , : : : : % A > & & 5 : 5 & & 5 v c T B S 8.8.O.U W U z W T p p n & & & & 5 < < : 5 5 p i i i t 5 5 5 z M 3 , 5 4 w 9.{ y q t u m 9.tXtXtXfXSXqXQ N z z '.CXFXHXHXfXwXt.a.hXgXuXhXhXwXt.U D N N u p t u i i u i y i c A U 0.M.u.i.yXwXqX`.(.(.`.(.i.aXaXaXfXdXfXaXaX(.qX(.i.y.q.y.{ U A n x.m.U.n.U.K.U.|.K.S.P.[.L.c.L.Z.E.E. X X X&X X$X{.R.W.&XW.E.$XW.W.Q.E.W.G.H.R.E.N.Q.R.R.R.#X{.$X{.Y.D.$XR.R.R.{.Z.R.Q.$XE.E.Y.T.D.R.V.B.H.N.R.L.P.L.E. XI.J.I.~.~.oX~.~. X~.~.T.P.~.I.~.L.b.v.b.z.C.K.R.[.{.|.{..X$X}.[.@XR.[.R.[.[.>X:X&XP.j.Z.V.Z.C.B.V.Z.H.K.E.T.B.b.S.D.D.V.V.D.L.V.c.h.j.C.V.V.D.C.N.j.V.N.z.N.C.4.z.z.z.j.j.z.z.C.j.V.j.j.2.1.z.3.1.j.1.j.3.z.j.2.j.z.2.1.j.1.1.1.3.3.<.;.>.3.3.1.1.2.1.l.4.l.1.1.l.1.<.<.=.<.<.<.<.1.<.=.5.=.5.@.=.@.5.=.5.5.5.;.;.;.3.@.;.;.3.@.;.;.;.#.+.@.+.+.@.z.C.@.$.#.#.+.@.+.@.@.@.' ' I ' I ' =.=.5.=.I =.=.5.@.I 5.=.5.I =.=.I 5.I 5.I =.I I =.' ' ' ",
"|.E.oX&XXX~.|..XXX X XP. X~.;XlXxX8XV.4.B.Z.B.B.3.3.@.5.3.5.5.5.5.@.5.2.2.N.^.Y.T.^.Z.H.Y.Z.A.Z.^.#X#XT.Z.Z.Z.W.Z.Y.R.Q.Y.W.{.W.Y.Y.T.R.I.E.8XkX5X2X1X5X8X5X*X.X8X8X2X8XkX5XkX8X8X2X9X>X4X1XXX~.~.XX~. X~.%XXX~.~.XX~.~.~.~.~.I. X~.~.J.z.v.<.<. X!.~.~.T.~.%XE.~.~.~.!. X{.P.!.W.*X3X3X3X:X2X4X1X2X;X2X;X;X4X4X>X4X:X4X;X;XkXjXiXjXAXAXnXFXFXFXDXPXDXLXDXPXPXFXFXDXFXVXAXFXDXDXJXLXPXAXnXvXbXbXbXnXZXnXbXmXFXFXDXPXPXPXGXPXPXLXDXFXJXJXLXLXPXPXFXDXDXAXjX[.~. X!.T.W.W.#XR.Q.R.W.R.W.#XQ.Q.W.W.#XW.G.Q.Q.Y.H.Z.Q.Q.Z.R.T.Q.Q.~.Y.Q.#XE.$X$X#X$X$XE.H.Q.#X{.#XE.^.R.Y.L.Y.D.Z.B.C.b.z.1.2.h.$.#.%.o.K f 0 < 2 q 2 2 d 2 q q q 0 q 2 2 d d 2 d 2 < < d < 2 * < < 3 q q 6 4 t y z v M U U E T Y u : & & : & 5 5 5 2 , , y w < 2 < < , < 2 2 2 > < , , & & , : , : : > > ; c > F x p 5 & < & 5 & m 8 O.S S U 8.T T 7.S S 8 S D 5 < 3 3 & & & 5 < : : < 3 5 n m y 4 i n D E x 1 , 5 5 z 9.r.y w i W i._.tXtXtXuXwXw.m b z z sXHXFXHXfXfXrXv eXgXuXuXhXhXhXeX=.U D h i t y t u D Y i y u m n U { r.W 8.`.yXqX`.)./.).M.p.aXdXaXdXfXaXqXwX_.t.8.7.rXw.7.0.`.W M a g.n.S.v.S.b.v.v.L.v.c.N.E.P. XK.E.{.W.&X{.*XW.W.#X{.W.E.^.D.E.R.Y.{.H.R.R.Q.E.Z.R.Q.#X$X$X$X&X$XH.Q.Q.Z.Q.Q.R.Y.Q.@XQ.Q.D.Z.Y.Y.Z.D.R.D.Z.L.N.D.D.L.Y.~.~.I. X~.~.~.~.~.~. X~.T.~.~.~.L.n.b.b.b.L.v.P.{.P.R.E.[.[.}.].R.[.R.R.].}.:X,X&XF.D.V.C.B.K.P.V.C.K.T.P.L.K.V.Z.Z.D.V.N.z.F.V.z.G.S.V.C.C.V.C.D.C.V.V.V.c.N.z.z.z.C.z.C.b.C.C.z.z.z.b.1.1.b.z.j.z.j.b.c.b.z.j.j.j.j.3.1.>.<.3.1.>.3.1.2.j.>.<.1.l.1.b.1.1.,.b.<.<.1.4.=.4.4.b.4.<.<.5.=.5.5.5.5.@.5.5.5.5.5.@.@.;.#.3.#.<.+.>.;.@.+.@.;.;.+.@.#.V.D.1.$.3.>.#.@.+.' I I I +.' 5.5.I I I @.5.=.5.I 5.@.=.@.@.=.I I 5.I =.I 5.=.I I =.' ' ' ' ",
"oX XoX|.oX|.oXE. XoXR.E.#X{.E.{.W.K.N.N.Y.L.H.B.6.3.2.3.6.5.5.5.5.5.@.5.N.A.H.H.T.Z.Y.Y.Y.Y.^.Z.Y.Y.$XE.^.Z.T.T.Y.E.$XW.R.%X%XE.Y.L.P.~.T.8XxXkX5X2X8X8X8X8X4X4X8X8X4X1X3X8XkX5X7X4X8X4X8X5X3X1X1XXX%X1XXXXX1X~.~.XX~.~.~.~.~.T.~.~.~.L.B.J.Y.I.!.P.~.~.~.E.~.Z.K.J.L. X XE.R.{.;X:X=X3X2X4X9X4X8X1XXXXX&X X4X4X:X4X>X7X>X:XkX>XjXcXAXIXIXDXGXDXJXDXPXPXDXGXFXAXAXnXnXFXnXFXFXPXJXFXnXvXvXcXbXnXnXvXnXFXJXFXAXAXAXDXPXPXLXPXPXLXPXFXDXFXPXLXLXLXDXZXFXFXnXjXXX XE.Q.$XW.Q.Q.Q.Q.W.Q.Y.R.#XQ.L.Y.#XY.Y.Z.Q.H.Y.W.Y.W.Q.Q.Q.Q.T.Q.W.Q.W.%XW.W.E.W.Y.R.Q.{.{.Q.{.Y.{.Q.L.H.D.Z.D.B.C.J.V.b.j.N.j.>.f.#.( Z f 0 0 2 d 2 0 2 2 2 q q 0 2 q 2 d q 2 d 0 2 < 0 2 d 0 < < 4 3 0 q 6 u z c M U U M U Y x 5 & & : & 5 * 5 2 > 0 c t , 2 < > > < , > < > > & : : , , , : , , : , ; E p , # i 5 : 3 & & & 7 6 v n S U T T T Q 6 D n U i w 5 5 : 5 & & & : < < & 4 x 4 y 6 4 i D ] R 4 , 5 5 4 w M m w c 7._.tXeXeX(.w.i.] c =.N D p.fXHXHXHXfX`.U t.hXfXgXgXhXgXhXwX=.B N m i t t t u D Y u u z c N D ] 0.T T ).uXqXqX(.(././.p.rXpXpXaXdXpXrXqXp.y.9.t.(.8.9.).CX'.9.n M d.M.n.K.n.c.S.S.K.K.P.D.R.oXP.oX X&XW.=X&X&XR.W.R.E.%XE.R.E.W.H.Q.Y.R.{.R.D.Z.E.$X#X{.{.$X$XQ.Q.{.R.Q.R.R.W.D.Q.$X{.Q.E.R.L.Y.L.D.^.N.C.{.D.P.D.R.~.I.E.~. X~.~.%X~.~.~.oX~.~.I.~.~.~.J.K.J.K.P.P.E.[.R.[.P.P.].[.{.{.}.P.R.P.&X7X.X}.D.Y.D.C.D.R.L.S.D.C.E.E.P.B.S.C.V.D.D.Z.V.S.V.D.N.h.c.V.N.V.j.V.N.j.c.V.S.j.V.N.V.K.c.b.C.Z.V.z.j.j.z.z.,.1.z.z.j.z.c.l.l.z.z.z.1.j.>.3.3.3.;.1.3.>.1.2.b.3.;.1.b.1.l.J.l.<.1.1.1.<.<.4.,.b.1.<.<.<.<.5.=.=.=.@.5.5.5.<.5.=.@.;.;.5.;.<.#.3.3.3.<.3.3.<.+.@.+.#.C.F.j.$.$.%.@.#.@.+.@.( ' @.' I @.+.@.@.5.=.5.@.I =.' 5.@.' =.5.=.5.5.I =.I =.' 5.5.' I I I ",
"|.|.2XXXoX.XE.|.E.[.|.P.&XE.E.E.E.R.B.z.4.6.4.2.3.3.3.5.5.5.5.5.6.5.@.@.A.J.Z.B.Z.Z.T.Y.E.W.Y.H.Y.T.Z.Q.Y.Z.Z.T.T.W.W.W.^.E.T.E.T.~.E.T.E.kXMX8X8X8X4X9X4X4X8X8X8X5X4X9X5X3XkX2X8X7X4X;X2X1X1X1X*XXX%X%X1X~.~.%X%X~.~.~.~.~.J.I.XX~.T.L. XzX1X|.~. X X~. X%XcX*X~.P.E.~.{.R.R.{.&X2X4X2X2X3X4X*X4X3XXX2XkX;X6X7X4X:X;X:X7X>X4XjXvXnXAXDXDXDXFXAXDXPXJXJXPXDXVXFXFXnXFXDXDXIXVXDXnXbXjXjXvXjXvXnXbXnXnXnXnXFXVXDXDXPXLXLXLXPXPXLXFXAXAXPXPXPXLXLXLXPXPXAXZXnX6XoXR.Q.{.#X&XQ.Q.W.Q.Q.Q.Q.Q.Y.Y.Y.P.Q.Q.Z.G.H.W.Y.Y.W.R.Q.^.!.#X!.E.W.W.Q.W.W.#XW.H.^.Q.R.#XQ.Q.Q.R.Y.Z.Q.Y.Z.Z.B.H.K.G.z.N.N.V.j.>.#.' o.K f q 0 2 0 2 0 0 0 q q 2 0 0 0 2 2 d 2 < 0 0 2 0 2 0 < q 4 3 2 q t t u z v U S z M c p & : & & & & & * , , < c 4 2 < 2 < < , < > < < , , & & , , , , , , , 2 y D Y > > & 5 : < < : & 5 2 8 S S U U S U U : U 7 x 5 4 5 * & & 5 & : < : : 5 5 w 4 1 1 5 i R W E i 3 3 3 5 7 w w U /.(.eXqXt.q.U S S S S rX+XhXsXCXHXCXp.=.Q U hXSXgXgXhXhXhXhXs.t.Q D h u p 7 y E { D i u i m D W 9.9.U T w.yXtXuXqX`._.'.p.`.wXrXaXCXtXpXtXq.9.q.7.y.W 8.9.y.9.y.w.U A r.x.x.J.K.K.K.S.Z.K.K.Z.J.P.!.~.{.{.&X&XW. X X*X~.T. X[.E.E.E.E.E.W.{.Q.R.N.L.{.{.{.{.$X[.&X{.R.@X&X#XR.R.$XY.{.$XR.Q.E.R.R.R.G.@XQ.}.R.R.E.E.R.I.I.~.P.~.~.I. XoX%X~.~.XXoX~.~.I.T.v.J.K.C.Z.K.R.R.{.R.{.{.{.E.R.P.[.E.R.@X}.:XOX.XR.S.D.S.L.L.L.G.P.Z.K.R.L.K.D.D.D.S.D.D.D.R.c.D.c.c.V.V.S.j.j.j.j.c.j.j.j.z.c.C.C.C.C.C.V.C.N.z.z.b.j.z.z.z.j.3.b.z.2.2.3.z.2.z.>.j.2.>.1.h.1.z.3.1.1.z.j.>.1.1.<.4.l.b.b.1.4.1.<.x.<.=.<.b.4.x.4.<.2.5.5.5.5.5.5.5.5.5.=.5.;.3.#.@.$.3.;.2.>.1.;.;.3.#.;.;.+.+.z.Z.<.%.3.$.#.+.` +.@.' I ' 5.+.+.' @.5.5.5.5.@.I =.' I =.' 5.I =.I I 5.5.=.I I =.I =.' I I ",
"oX XoXoX XoXoX X.X|.E.[.}.L.T.L.B.R.Z.N.6.J.A.2.2.2.6.5.5.5.5.6.6.5.5.5.6.Q.Q.Y.Y.B.Z.Y.^.H.H.B.Z.D.Y.^.Z.^.Y.Y.Y.T.E.!.E.L.T.T.E.Q.P.~.T.2XxX8X8X8X5X9X8X4X4X4XzX5X8X5X1X8X8X5X4X*X X2X2X1X X~.~.~.oX%XzX~.~.UX~.b.J.~.~.J.J.I.l.B.J.H.!.8X%X%X X X X X XE.2X%X~.oX X X XP.R.E.&X7X:X>X%X=X2X X1X9X6X3X5X1X2X3X4X2X5X2X5X2X6X6XjXjXnXJXJXAXAXAXGXDXFXDXFXFXnXZXbXbXZXFXnXPXFXnXnXvXvXbXbXnXbXFXFXbXbXnXbXnXnXDXFXPXPXLXPXFXDXLXDXZXFXFXJXPXPXPXLXVXLXDXFXDXmXjX&X{.W.W.{.$XW.{.#X,XR.Y.Q.#XR.<XR.H.Y.H.Q.E.Q.T.Z.#XW.#X~.1X1XQ.#XQ.Q.Q.E.#XW.R.Q.Y.Y.#XY.R.#XQ.Q.Z.Z.Y.Y.H.Y.Z.B.H.K.B.Z.N.N.j.j.>.+.' o.J f 0 2 q 2 2 q q 0 2 q d 2 d 0 0 d 2 2 0 0 2 2 2 < 0 3 4 3 2 4 q t u u m S U v M N i 5 : & & : & : & , < < y 2 < 2 q 2 > 2 , < 2 < , , , , , , , , , : , z Y 2 y < , & & , , , & 5 , , z S Y O.c z M M 5 4 : 2 2 3 < 9 5 5 : 9 a 5 : < > 2 c 4 3 n 2 i c { W t 3 4 4 4 w 3 x u.`.qX(.y.U m m c c Y /.rXfXhXfXCXfXhX=.B =.u.qXSXfXgXhXtXeXhXhXp.Q D m i u u t m Q D u t y z M U r.{ E N W /.sXyXuXtXrXpX'.`.+X_.+XrX(.tXrX(.u.y.7.9.7.y.y.7.W 0.y.y.9.D =.m.n.c.K.S.K.C.K.H.L.~.~.~.~.|.E. X XE. X XE.{.E. XR.R.E.W.{.W.R.R.R.[.G.R.L.R.{.&X@X@X#XE.R.#X[.R.$X{.{.[.#X[.{.R.#X#XL.[.Z.D.S.D.E.L.R.E.P.I.I.T.~.~. XXX XoXXX%XoX~. XI.~.E.P.V.Z.V.E.P.L.@XH.R.R.{.[.@X[.[.].R.R.R.P.{.>X;X,X{.C.D.C.S.C.C.D.P.V.S.Z.D.D.V.D.D.D.C.V.S.D.D.D.c.c.z.S.C.c.S.V.j.j.3.c.j.c.V.c.N.j.V.c.z.B.b.V.c.z.z.V.z.2.2.1.z.1.>.z.1.1.1.<.1.>.<.3.1.<.2.2.1.1.1.1.3.l.1.1.1.1.1.b.<.1.1.<.1.,.<.,.<.<.4.1.1.1.2.2.2.<.5.5.5.5.5.5.5.=.;.5.;.;.@.3.;.I ;.;.3.1.3.>.3.3.#.3.V.V.@.$.3.3.@.@.+.#.+.' +.' +.<.=.@.@.@.=.=.5.5.@.I I @.I I =.=.I =.5.I 5.=.=.I ' ' ' ' I I ",
"oXE.P.|.~.XX.XoX XP.P.E.R.V.L.N.Z.Z.B.C.6.3.4.3.3.3.5.5.5.5.2.6.5.6.2.3.3.6.^.6.Z.Y.N.N.Z.N.N.N.Y.W.Y.N.H.Y.J.H.T.^.J.H.^.!.W.W.~. XY.T.~.XXcXkX8X8X4X4X4X9X3X4XzX8X5X5X3X5X9XXXoX XP.%X1X*X~.I.~.XX~.~.~.%XXXoXI.4.P.~.~.~.~.b.5.<.v.K. X X!.E.E. X&X X~.3X3X XE.E. X XE. X[.&X>X4X=X=X2X2X2X2X4X3X3X4X6X1X4X2X:X*X2X.X>X6X6XmXjXZXAXJXKXAXAXDXnXnXFXAXFXnXAXAXnXFXZXVXFXFXnXbXnXnXjXbXnXbXnXnXnXnXbXnXbXnXbXnXDXPXPXDXPXPXPXLXFXDXDXPXZXZXFXDXDXLXPXnXnXFXnXlX,X$X XT.#XE.#XW.R.Q.Q.#X#XY.Y.Y.Z.Q.Y.H.W.W.Y.Y.^.Q.^.Q.Q.#X!.#XW.Q.Q.E.H.#XQ.#XR.Q.Y.Y.Q.Y.Y.R.Y.Z.Z.Y.Q.D.N.Z.Z.R.N.Z.N.D.S.j.N.3.#.$.` ( Z O.e 0 0 2 2 q 0 0 q 2 d 2 q 2 2 2 2 0 2 d d < < < q 4 3 2 3 q q 6 z c M S S M D z 5 & & 5 5 & & : > < , < 2 2 2 2 2 , > 2 , < 2 < 5 , 5 , , , , : 1 : 4 Y , , t < : , , 5 & 5 & 3 , q x c v b z z m 4 5 5 , < x 2 : h h 9 N F m 5 y n t Y i t Y y 6 y U Y 4 4 5 3 5 7 9 m Y W T S A a i m S y.qXeXhXpXsXhXHXfXhXfXhXfXHXs.SXfXgXgXhXeXeXgXeXu.Q N m i u u S F z t t x c S R 9.0.U B r././.yXCXi.] `._.'.wX+XpX/./.rXqXqX(.i.7.8.W q.t.t.7.9.i.t.t.u.Q r.x.n.K.m.n.b.K.I.H.K.[.I.P.R.~.E. XR. X XE. X&X XW.E.E.&X=X9XE.&XW.#XY.W.E.Q.$XQ.Q.#XR.#X{.W.#XQ.R.{.#X{.R.P.Q.Y.D.D.D.E.L.W.D.c.D.L.I.[.R.K.E.K.T.oX X X|.XX~.~.~.~.~.~.L.L.T.K.b.Z.V.K.Z.[.R.$X[.{.{.Q.[.{.,XR.@XD.R.{.>X&X{.].D.D.L.D.D.Z.@XR.R.D.P.D.C.L.S.D.C.c.S.D.S.S.S.c.S.G.S.C.c.c.V.V.N.c.V.N.S.z.C.V.C.b.2.2.z.j.z.j.b.j.N.z.2.1.j.j.1.3.z.1.2.1.3.1.1.;.3.3.-.>.#.;.3.2.1.3.1.1.b.1.<.1.1.1.1.l.<.,.1.=.<.x.1.1.1.1.<.<.4.<.<.=.@.5.=.<.5.5.5.@.-.3.-.;.3.>.<.@.@.;.;.1.3.<.>.5.>.V.V.#.#.3.$.$.>.$.#.@.#.+.+.' ' =.5.@.=.' 5.=.=.=.I ' =.@.=.=.5.=.5.' 5.=.=.' 5.5.I ' ' ' I ",
".X|.|.oX.X.X.XoXE.P.R.L.L.j.2.N.2.1.1.4.2.6.4.4.5.6.5.5.6.6.3.5.5.6.2.2.2.6.^.Z.Y.Y.G.2.H.R.H.N.T.T.Z.Z.B.L.Y.Y.Y.H.H.Z.T.Y.E.R.R.W.E.~.!.*XxXlX8X8X4X4X0XzX3X4X5X5X5X5X5X5X XXX4X3X2X4X2XXX X~.~.1X%X~.~.~.~.~.~.J.1X~.XX|.C.XX-.2.H.~. X X X~.R.~.%XE.E.*X2X X~.E. X X X&X X;X9X4X4X=X2X=X:X7X3X4X6X1X4X4X1X2X;X*XXXkX2XOXjXlXAXAXAXAXDXJXZXAXZXZXnXDXZXZXDXDXVXDXAXFXnXvXcXbXvXvXbXnXvXbXZXnXnXbXnXnXAXnXbXZXPXnXDXDXZXDXNXLXbXbXvXZXnXFXDXPXJXJXDXFXnXDXFXFXbX6X{.Q.W.Q.Q.#X#X#XQ.#X$X$XR.Y.Y.Y.D.N.Q.W.Y.Y.Y.Q.Q.Q.Q.Q.T.T.Q.W.Q.Q.W.#XQ.W.Q.L.^.Q.Q.R.D.Q.T.G.N.Y.Q.N.D.Z.Z.Z.L.B.L.B.V.2.j.3.3.;.+.@.o.J Z e 2 d < 0 < d 0 0 2 2 2 2 d q d 2 2 < * 2 < < < < < q 4 3 3 4 4 y n x v z x t & : & & & & 5 & * > < 2 2 2 2 2 2 > < * < < , , , , , , & : , , , , y E S , Y ~ V , & , & , & < 2 2 y 6 x z y y y 5 5 & < 5 q < & p N a h F F x A n w F x 6 u D i D x 6 5 3 2 3 5 4 9 u x v z z u z T u.a.qXtXeXrXhXrXaXpXhXHXHXCXfXHXp.7.hXhXuXuXgXuXgXs.s.Q N m u 9 u U E u 7 7 i m U E M.u.D B { 9.W /.`.q.W '.`.`.`.wXp.u.i._.qX`.`._.p.q.q.9.t.9.7.9.(.q.i.t.i.=.M.m.U.g.F.P.J.C.K.L.I.~.~.E.&X X X*X XE. XE..X{.R.{.#X$X{.:X#XY.W.[.:XR.R.$X{.R.{.].#XR.#X[.Q.[.R.Q.{.$X}.{.#X@XZ.R.S.Z.Y.R.V.D.Y.W.P.P.L.L.I.~.oX~. X X1X%XXXT.~.~.~. X~.~. XK.K.Z.b.C.P.D.D.P.R.R.D.@X#X[.&X[.P.@X@XE.}.;X}.[.P.S.D.P.D.F.Z.D.R.R.].E.S.P.V.D.z.G.z.V.S.V.S.c.z.C.S.V.D.z.c.c.c.D.D.D.V.V.j.j.V.z.z.c.2.z.N.V.2.z.z.z.z.j.b.l.1.j.2.1.j.l.h.2.3.+.3.;.2.1.1.>.;.3.,.1.>.1.1.1.1.1.<.1.1.1.1.1.,.4.1.4.<.1.1.<.1.<.<.<.5.5.@.5.@.=.5.=.5.5.;.3.5.#.;.3.;.>.3.;.;.3.>.;.3.3.$.j.V.#.@.,.3.#.3.$.3.j.;.@.' 5.<.=.I I @.5.=.5.5.@.I I I 5.@.5.I 5.=.' =.I 5.' ' ' ' =.' ' ' ",
"U.XX|.XXoX.XXX~.L.V.[.L.R.c.N.N.2.4.4.4.4.4.6.4.5.5.5.5.5.5.5.3.5.2.2.5.3.6.J.A.N.Y.Y.N.Y.Y.N.Z.H.Y.Z.Y.Z.Y.~.^.T.T.L.W.T.E.T.E.T.R.E.!.~.2XNX8X4X5X2X2X*X8X3X8XzX8X0X5X4X1X2X2X4X4X8XMX3X*X X1XzX1X~.~.~.J.J.J.J.v.T.I.J.J.J.T.B.b.K. X~.H.~.E.K.E. X XE. X%X X X X&X X~.|. X X&X9X3X:X4X2X2X;XXX2X2X1X4X1X2X3X*X;X6XOXOXjXbXFXAXJXAXJXAXbXmXnXbXZXAXDXFXJXAXDXAXFXZXZXbXcXaXcXnXbXnXjXcXnXnXZXnXbXnXbXnXbXmXDXGXnXFXFXnXFXNXLXnXvXZXZXZXZXAXDXKXFXDXFXDXDXDXFXmXbX>XW.$XQ.Q.R.R.Q.R.Q.W.Q.Q.Q.Q.R.Z.Y.W.Q.W.Q.Y.W.Q.T.Q.#X!.^.W.W.T.$XQ.#XE.#XQ.Y.Y.Q.E.Q.Q.Y.Z.Z.Z.Y.Z.Z.Z.Z.T.D.T.j.Z.D.Y.j.3.3.j.%.$.@.@.( o.O.s 0 2 d 2 d 0 0 0 2 2 d 0 2 2 0 d < 2 d < < 3 2 < 2 q 4 < < 4 t u b z x x x 5 : & & : : & & > < 2 q 2 q q 2 2 > < , , , , & , , , & , : , , 1 4 Y ] ] A c W D : D D 3 5 , , 2 q 6 2 c y y q 7 3 5 3 3 , < < 5 & p p 9 N R E A A 2 y D 6 A Y x i 4 2 2 3 2 4 9 F R E D M n z v W s.qXqXeXeXuXhXwX'.s.rXfXhXfXHXHXhXQ B a.hXuXuXeXeXuXhXtXi.U N p p z m D 9 p t i m U 9.0.r.W m R E W 0._.w.W Q _.`.pX'./.u.i.(.(./._._.p.9.t.8.8.q.q.W u.q.s.t.t.r.W =.).F.U.L.K.K.v.J.P.L.~.~.E.E. X X~.E.&XR.R.$X{.$XR.R.{.&X{.&X&X$X$X$X$X[.#XR.R.&X#X$XE.{.{.{.#XW.{.{.$X$X{.$XH.V.G.Y.R.[.D.P.P. XK.}.E.I.I.I.~.~. X X|.~.XXXX XoXoXoX XT.P.P.E.L.H.Z.K.D.P.Z.R.[.[.R.@X[.[.[.[.D.D.R.=X&X[.{.P.D.D.C.D.C.C.Z.P.D.R.S.S.D.D.S.C.c.N.S.C.F.S.S.G.S.V.S.D.C.G.C.S.j.V.S.D.V.V.V.V.z.z.z.V.c.b.z.j.j.,.z.2.4.z.j.3.l.j.2.1.3.3.<.>.;.;.3.>.3.<.1.3.1.2.1.<.1.<.1.4.1.l.1.,.1.b.1.b.<.1.4.1.4.1.1.<.<.4.<.-.5.5.I I @.5.5.<.<.<.5.;.3.>.<.@.;.>.3.;.@.;.;.+.$.#.j.c.3.#.$.@.$.>.3.3.#.+.+.' I <.I =.=.@.=.5.=.I I I =.@.=.' =.' =.5.' ' 5.I 5.=.=.' ' ' ' ' ",
"P.|.I.I.|.oXoXR.P.S.P.I.b.v.4.z.3.4.3.4.4.4.6.4.5.@.I @.@.5.5.5.@.3.2.6.3.N.B.Z.Z.N.B.D.Z.Z.Z.Q.H.Q.Z.Q.Q.H.Y.Y.Q.Q.E.T.T.W.E.T.!.~. X~. X2XxX8X8X3X2X2X X5X4X8X5X8X8X5X3XXX1XXXUX1X5XzX%X1X%X1X~.1X1X X~.L.K.4.U.b.L.I.T.b.1.~.J.L. X~.E.L.L.~.R. X~. X X X XP.H.W.&X XD.L.R.|.7X:X>X=X:X;X2X*X*X*X2X2XXX2X*X2X*X6XUXjXcXNXJXJXKXDXAXKXAXAXZXCXbXFXPXJXAXDXDXAXFXbXnXvXbXcXbXnXbXjXnXbXbXbXbXnXmXbXnXFXZXnXnXZXFXnXVXFXbXFXZXLXbXbXFXnXDXFXDXFXLXDXZXbXDXAXZXAXDXnXlX*XW.~.W.T.#XQ.Y.<X{.#X#XE.W.Q.H.Q.Q.E.W.Q.J.^.^.J.^.T.Q.Q.Q.W.!.!.#XW.W.T.#XR.Q.W.Y.Y.Q.L.T.Y.L.H.H.H.$XH.Y.L.N.N.N.B.V.Z.N.h.$.%.1.>.+.+.` J Z s 0 d q 2 2 q 0 0 2 d d 2 0 2 2 0 2 d < < 2 3 3 < 5 < 3 3 4 2 w i M D S c 5 & & & & , % % , , < < < 2 2 2 2 > > < < 2 2 > < , > , < , , , , c S q n c 2 < 1 > y Y y < , 5 2 2 2 2 p 7 5 , 5 5 3 3 , < < < & 3 d 9 w w N H x A z x p y x F x c < 2 2 2 2 4 4 E { u.u.u.r.E W _.qXeXeXeXpXpXpXp.7.i.hXhXhXCXfXCXs.B t._.tXhXgXhXeXeXeXeX_.=.N N 9 z F Q 9 9 p u N U E E { Q m m N B Q u./.W W /.`.pX'.(./././._.(._.(.i./.7.y.t.W Q 9.q.t.y.t.q.i.i.W ~ r.n.K.v.b.b.T.K.I.T.~.E.[.E.E.{.E.{.E.&X&XW.$XR.#XE.E.Q.$X{.Y.&X$X&X{.[.$X$X{.,X{.}.#X$XR.{.{.[.&XQ.#X@XQ.Q.D.D.Q.@XD.D.D.[.R.Z.[.P.R.oXE.E. X X~.oX~.oXXX XQ. XoX|.R.L.L.V.D.D.D.L.R.R.R.[.R.R.&X[.[.{.{.D.R.Y.@X}.&X}.[.L.D.C.c.V.S.@XZ.D.D.R.C.R.D.D.C.V.V.Z.S.c.F.c.S.S.V.V.V.D.V.j.k.C.z.c.G.C.V.c.V.V.j.V.b.V.V.z.b.1.z.z.1.j.1.z.j.2.3.3.h.3.3.;.;.<.;.;.3.;.;.;.h.1.3.j.>.1.<.<.1.l.b.l.b.l.4.<.,.<.1.1.1.1.l.b.1.,.b.<.<.=.=.5.@.5.<.6.<.5.-.5.-.5.@.#.;.@.#.<.;.@.@.+.@.' @.@.V.V.1.$.1.$.3.;.#.;.#.@.+.( I 5.@.=.I @.@.@.=.5.@.' @.5.I ' =.=.5.=.I 5.5.=.` +.-.` ` ' @.( ",
"L.P.U.K.I.[.|.P.P.K.C.b.2.2.1.4.3.3.;.2.4.6.4.2.5.6.5.5.6.6.5.5.A.Y.Z.Q.6.B.Z.T.Y.Z.N.Z.H.Q.H.R.R.Y.D.H.H.H.T.Y.!.H.H.L.T.R.T.Y.Y.T.!. X!.4XMX8X3X1X1X3X2X1X2X1X1XkX8X5X3X*XoXXX1X5X1X1X5X1XUX1X1X XXX~.T.H.P.C.b.K.~.~.T.~.b.b.J.P.~.~.~.L.J.I.R.E.~.!.K.~.E.b.;.K. X XE.R. XoX;X.X;X.X&X;X1X*XXX*X2X*X2X1X2XUXUXjXvXnXFXFXFXIXDXDXAXZXDXAXbXAXZXKXLXDXAXZXnXFXZXnXaXnXbXbXnXZXnXnXbXnXnXnXnXvXbXnXDXnXAXnXbXAXnXFXDXDXnXbXcXLXnXbXFXFXDXDXDXFXDXFXDXDXZXmXAXAXGXDXvXnXOXE.E.E.Y.Q.R.Q.Y.R.R.#XQ.W.Y.{.E.Q.Q.Y.!.!.!.Q.T.T.Q.Q.^.T.W.Q.#XQ.!.T.Y.Q.Y.T.#XW.Q.H.T.D.B.Q.D.Q.Y.Y.D.H.j.j.N.j.Z.N.N.z.N.j.z.3.>.;.+.( / K a e 0 q d q 2 2 d 2 q q 0 d 0 2 < < * * < < 3 2 < 3 2 2 2 2 2 6 c S U S 5 & : & > > , < , & , , 2 2 q 2 2 * < > > 2 2 < , > , 1 2 , , , 2 c c % 2 > > > > , , > & 2 < 5 2 < 2 2 5 4 5 2 < , 3 * , < < , & & 3 5 3 3 5 i y y a z 4 2 2 y n 2 2 2 < 2 2 4 9 S r.r.u.p./.p.`._.{ 7._.(.q.9.W U i.qXwXhXhXHXfX'.=.`.fXhXhXfXhXtXuXuXhXeXeXt.F n x N =.N 9 9 u z m U t.W 9.E z m m N Q 9./.W W /.`.sX/./.p.p.i.a.(.qXwX_.eXi.q.p.q.7.M U q.t.q.t.i.u.i.r.{ r.n.c.l.K.v.H.K.P.E.E.E.E. X{.E. X|. X X&X{.{.:XG.R.[.$X:X{.#X#X@XQ.R.$X$X{.{.#X$XQ.&X,X[.R.#XQ.[.$X].{.R.@XQ.{.R.D.D.Z.D.R.K.P.I.|. X|.~.~.oXE.E. X~.E.~.~.P.P.E.R.L.D.c.B.D.L.P.{.@X[.$X[.{.}.{.{.[.{.@XP.@XP.{.&X}.[.D.D.D.D.D.D.C.D.L.D.D.C.D.D.R.c.c.C.S.S.G.L.F.V.S.C.S.V.V.V.c.V.N.S.V.V.S.V.V.N.S.C.N.z.1.3.z.j.1.z.z.1.3.3.j.z.h.1.2.1.>.#.>.3.;.@.;.#.5.;.3.3.;.1.3.3.<.<.<.<.<.<.1.<.<.<.1.,.1.1.1.1.<.1.1.,.<.<.<.<.<.5.=.5.5.<.5.<.=.;.@.+.+.<.;.;.;.3.1.@.#.;.+.;.;.$.@.V.c.1.>.j.3.#.#.#.;.#.;.$.+.@.=.I I =.5.=.=.5.=.=.@.=.@.=.I I 5.=.5.5.=.=.=.;.-.' +.` ` ` ` ",
"L.K.K.v.}.[.[.I.S.Z.P.K.b.2.z.B.3.;.3.1.6.B.Z.3.5.5.@.@.5.5.5.5.4.N.A.Z.H.6.6.N.Z.Z.V.B.j.Z.L.Z.Z.Z.H.Z.D.Q.Q.Y.Y.T.T.H.Y.L.R.E.T.T.~. X~.2XNX3X2X1X4X2X5X3XXX1X2X5X5X5XXXXXXXXX1XUX1X1X1X1X1X~.~.%X1XE.~.L.T.C.b.b.~.~.~.E.v.4.H.~.~.E.C.b.H.Y.L.E.E.K.z.R.V.2.3.E.[. X=X[.[.[.{..X.X.X&X*X X*XXX1X%XUXUX6X5XjXcXnXAXVXDXPXAXDXAXAXZXAXJXDXAXAXAXKXKXLXKXFXZXbXnXFXFXsXnXbXnXbXbXZXbXAXFXAXbXnXnXnXnXbXmXbXnXZXZXVXFXAXnXnXbXLXAXnXnXDXDXPXPXFXnXDXAXZXvXbXZXbXFXAXvXbXjXUXE.E.Q.Q.E.#XY.,XQ.#X#X{.Y.W.W.W.Y.Q.!.Q.^.#X^.T.Q.^.Y.!.#XQ.T.^.#X!.#XQ.Y.Q.R.#XY.L.T.Z.N.H.E.Y.G.Z.H.H.N.Z.Z.N.Z.B.N.B.V.j.B.b.l.f.,.#.X.( C r 0 0 e q 0 0 2 d 2 d , 2 0 0 < 2 2 < < < 3 , , < 3 5 2 2 2 2 6 c O.S h : & : > < , , > , < < < 2 q < q > 2 < 2 < < < , < > 2 , , , & 2 Y Y x < 2 Y c # > > > , & , < < , , < 3 t 5 , , < , * < < < * & 5 5 * 3 * & 5 w w t 4 < 2 i F m 2 < 5 2 2 0 q p D r.i./.u.a._._.7.B D W U A M D D p.wXwXhXhXs.=.=.s.fXSXfXhXhXhXhXhXuXfXuXeXa.R D m h Y z 9 p t u z Q W W W c u i i m U 9./.W W u.rXwXr.t.u.i._.`.qXqXrX(.i./.y.t.q.t.W M M t.q.q.t.t.p.u.p.9.M.U.v.K.K.C.J.P.E.P.[.{.E.R.{.E. XW. X X{.#X=XQ.E.R.R.R.R.W.R.R.W.{.{.#X&X&X#X&X$X{.&X$XE. X$X$X#XQ.R.E.Q.R.D.R.L.P.D.D.L.T.P.E.P.R.XX|.E.XX X|.~.K.T.P.K.E.E.I.E.S.D.L.V.D.D.P.{.{.[.&X{.R.@XR.[.{.Q.}.P.P.[.R.}.&X[.D.C.D.D.D.D.D.D.D.D.D.R.V.D.D.V.N.V.S.C.S.S.G.S.F.S.c.C.S.j.c.V.S.V.j.C.C.V.c.V.j.C.z.c.2.b.z.z.j.j.2.2.1.1.1.z.;.;.+.+.<.;.@.@.@.;.@.@.;.3.1.3.3.<.<.>.;.<.1.1.<.<.<.<.l.b.x.,.4.,.<.<.,.1.1.=.<.6.<.=.6.<.5.=.5.5.6.6.5.-.-.5.;.@.;.;.5.#.@.;.3.3.3.;.@.@.$.j.C.j.1.3.$.#.@.+.;.+.;.3.;.=.5.5.5.@.@.=.5.5.@.@.@.I @.=.@.=.5.=.=.5.5.=.5.-.` I ( ` +.` +.",
"P.K.K.E.|.E.P.P.K.R.b.H.K.b.b.4.2.3.2.2.H.B.2.6.5.5.@.5.5.5.5.5.6.3.3.2.N.3.2.6.Z.Z.B.N.G.Z.Z.Y.Z.H.H.Z.H.Z.Z.T.!.~.^.L.H.Y.W.~.~.E.P.T. X8XNXzX2X3X3X1X%X1X XXX5X1X1X5X1X1X1X2X1X%XUXUX5X~.~.1X%X%X XJ.K.T.R.b.4.b.I.T.T.E.<.1.b.v.J.L.J.v.P.Y.K.L.P.Z.E.L.R.4.z.C.E.{. X[.&X X.X&X.X&X;X X XXX%XUX2X6X5XjXjXnXFXFXFXDXDXnXZXAXAXCXZXDXDXDXAXIXJXKXKXDXFXZXbXbXvXbXZXnXbXbXFXnXAXZXnXFXVXFXnXFXFXZXvXnXvXnXnXnXZXAXFXAXJXDXPXLXIXFXDXDXnXDXZXZXnXZXAXAXbXbXCXvXbXbXnXbXbXnX6X~.G.Y.Q.$XQ.^.G.Q.#XW.Y.$X$X#XQ.H.!.Q.#X~.T.~.!.#XY.Q.Q.W.!.!.!.Q.Q.R.Q.L.Y.W.E.Q.T.Y.Y.W.W.Y.Y.R.D.N.B.D.D.G.Z.N.N.Z.Z.A.V.z.4.2.1.,.#.` G O.s d q q q q q 0 0 0 0 0 0 2 < 2 * 0 < 2 2 3 3 3 3 4 2 2 2 2 q y c n m & 5 - % < , > , , < 2 < > < 2 2 < 2 2 2 < < > , , , 1 , 1 < < z W Y z > 2 S c > > > ; & & 5 < , , , 1 3 6 , : , < 5 3 S o.c > & & & 5 * 5 & 5 2 4 2 2 > 2 , z 5 1 3 5 2 2 4 w u n A E { ] W W D n x x x x m m B W wX_.qXeXQ Q a.hXhXHXCXfXhXfXhXhXhXeXhXhXhXs.R N N 9 N h w 9 9 i m W Q T E u i u i x D { /.7.Q r.pX'.{ Q Q t.p.`.qX(.(.(.tXqX(.p.t.t.t.T n M 7.y.t.9.M.t.t.{ u.u.M.v.K.v.v.K.P.R.P.E.L. X{.R.E.~.XX XE.R.R.E.{.#X$X$X#X{.R.Z.{.$XE.R.W.{.E.&X&X&X{.#XW.,X[.&X{.[.Q.{.Q.[.R.R.R.R.P.[.R.P.K.L.E.R.P.~.P.[.E.|.|.I.P.P.P.I.E.I.E.E.L.P.D.S.D.P.S.[.{.[.[.[.{.{.[.R.[.R.R.].].OX}.$X{.].R.S.V.D.D.P.D.D.D.P.D.D.D.S.V.V.S.C.V.S.z.j.j.c.c.G.C.c.j.j.V.N.V.,.C.V.V.C.j.D.C.N.z.V.c.2.V.j.j.1.j.b.z.2.3.;.@.+.+.@.' ;.;.#.;.3.#.;.#.3.;.>.#.>.3.2.1.<.1.1.1.l.<.b.<.<.<.,.,.<.1.1.<.1.<.<.=.b.<.b.<.<.5.5.5.=.5.=.+.-.@.3.;.;.@.#.;.#.3.3.<.>.#.3.3.j.j.R.3.3.1.>.#.+.>.3.;.#.$.@.=.5.=.I @.=.@.@.=.5.=.@.=.=.@.@.=.5.I =.=.=.5.5.-.' ' ( ' ( I @.",
"|.P.I.oX|.oX[.[.|.I.~.~.H.J.1.<.3.3.B.B.^.6.6.6.6.5.@.@.@.@.@.3.3.6.2.3.6.3.2.Z.N.Z.Y.Y.^.Y.T.^.R.^.Z.Z.H.L.B.B.J.L.H.~.Q.P.~.T.P.W.E.~. X4XxX4X2X2X%X2XXX%X~.XXXX1X2X2X1X5X5XUX1XUX~.5XUX1X~.1X*X%XXXb.b.Y.K.b.b.z.Y.L.E.T.J.l.1.J.L.H.I.L.L.Z.V.Y.~.K.L.P.~.K.K.Z.P.P.E.[.&XoX&X>X;XXX6X>X.X;XXXUX5XcXvXcXbXnXFXDXVXDXAXAXmXZXAXbXCXIXJXJXJXDXLXKXZXZXZXZXCXZXbXZXFXFXnXnXDXnXnXFXnXVXnXAXnXnXnXbXbXAXnXnXvXAXIXAXFXPXDXPXDXLXPXbXnXFXFXZXFXZXvXbXvXbXvXbXbXvXbXnXZXvXvXvXcXUXR.E.R.{.Q.R.Q.W.E.W.Z.T.!.T.Q.~.^.!.^.Q.^.T.T.~.W.Q.T.!.Q.Q.^.T.Q.Q.Q.Y.R.Q.R.$X{.Q.R.Q.^.Y.Y.Y.Z.Z.G.Z.Z.B.Z.Z.G.Z.Z.B.D.Z.b.z.j.j.#.#.I Z f s e q q q q 0 0 0 0 q q 2 d 0 2 2 < 2 3 3 3 3 3 5 < , < , > 2 y z 9 5 & : 5 & , % % > 2 2 2 , > < q > < 2 2 2 2 2 < , 2 , > < 2 * z o.v > y U > > > 4 n A c * : & < & , , 5 < , & , w S 2 D G x > : = % m n & & & 5 < , < < , , 2 2 2 2 , 2 2 2 6 t i n A n n m m m M M i x M M 9.s.qXhXqXu.=.=.t.hXpXCXfXHXHXfXhXfXhXhXeXhXhXhXs.=.D N H E m 9 9 t u v W q.] v y i y u z n W u.9.W y.rX'.U Q Q t._.`.`.s.(./.wXwXwX_.t.t.t.t.N N M Q t.9.w.w.8.8.u.r.0.g.c.C.b.v.S.S.{.[.[.R.E.R.E.|.~.~. XE.E.&X{.{.&X{.D.R.{.W.$X}.E.R.{.$X{.{.{.&X}.$XE.$X$X{.$X@XQ.[.R.R.L.R.{.D.C.S.L.R.P.P.E.E.|.E.|.R.~.E.P.P.E.~.E.R.R.I.D.{.P.R.R.D.D.P.Z.R.[.E.R.E.C.A.}.$X@X{.].[.].&X&X}.{.@XD.Y.R.R.V.R.Z.L.P.[.R.D.P.C.D.D.D.V.S.V.S.G.x.V.l.V.c.V.V.j.j.c.j.c.c.V.C.j.j.Z.b.B.c.C.z.j.j.z.3.z.z.C.z.z.c.z.<.+.@.#.@.;.#.;.+.3.+.5.<.;.2.>.3.>.3.1.,.4.,.,.b.1.1.b.b.<.,.<.1.<.1.<.1.<.=.4.4.4.=.=.<.=.5.5.=.5.5.5.;.#.;.;.3.<.>.;.1.3.3.;.1.3.#.#.;.2.j.R.j.1.j.3.;.$.+.#.@.#.@.` 5.5.@.I I @.=.=.@.=.=.@.5.5.' =.5.=.I ' ' -.;.-.` ( @.I ' I I P ",
"I.P.|.oX|.XXE.[.XX~.I.L.L.H.2.2.;.2.B.H.6.6.3.6.5.5.5.5.5.5.@.3.5.2.2.5.6.%.5.2.Z.Z.Q.Q.Z.Z.Z.R.Z.H.V.Q.H.T.T.^.J.J.L.W.Y.~.!.Q.!.!.E. X~.1XxXXXXX1X2X2X~. X%XXXXX1X1XXX~.1X1X1X1X1XUX1X~.1X1X1X%X X~.XXE.L.4.b.C.b.J.I.~.~.b.L.T.L.L.I.Y.H.Y.L.z.L. X=XE.E.~.E.E.E.E.!. XE.[.[..X&X;XXXOXOXUX6XjXvXbXnXbXnXnXnXnXAXbXnXnXAXnXZXbXZXZXDXJXLXKXJXDXGXZXZXAXnXbXnXVXFXFXnXbXFXFXnXnXFXbXFXDXnXZXnXnXnXnXAXFXbXjXZXFXDXPXDXDXPXPXLXDXvXvXnXbXbXbXnXZXZXvXbXmXvXvXvXvXbXZXbXvXbXvXjXOXE.Q.Q.Q.Q.Y.Z.Y.H.A.L.!.Q.~.^.Q.!.!.!.Q.T.^.Q.Q.Q.T.^.T.T.W.Q.Y.H.Q.E.Q.Y.Y.Q.Y.Q.H.Q.E.Y.H.E.R.^.Z.Y.R.R.Z.T.V.N.V.V.Z.B.G.Z.j.j.j.#.` I J f s e q q q 0 0 2 2 0 0 0 2 * < < 3 2 < 3 3 3 < , , , 1 , < 2 2 q 5 5 & & & : , & > < 2 2 < 2 > > q > 2 < 2 2 < 2 , , , > > > < > 2 T T 1 S X.6 > # Y Y E ] U i 3 < , & , , , 2 2 i 3 w 2 2 c q y L M & D F 5 : & & & 2 , > , > , 2 1 < 2 2 2 4 q w t y p y i i z T t.t.9.u.i.{ t.s.qXs.7.B Q s.hXpXfXfXSXGXHXdXfXgXSXhXhXhXhXhXeX=.D N N N p p 9 t t u U w.S y t q t y u c Y r.0.E 8.aX'.W W W =.p.'._._.(.qXqXrXpXeX(.q.q.q.q.Q m M 9.q.q.7.q.8.u.w.q.9.r.f.x.n.R.D.D.P.R.P.E.D.E.E.R.|.W.D.E.W.{.W.W.&X{.R.W.{.#X{.$X{.$X,X$X&X$X&X#X$XW. X$XR.#XR.Q.$XW.{.R.R.R.R.G.[.R.[.[.[.I.|.E.|.E.P.~.I.P.E.|.|.[.[.E.L.R.R.R.[.{.D.E.[.E.@X@X{.[.@X[.@X@XR.D.R.R.D.$X&X>X&X}.D.D.D.V.D.D.D.@XC.E.L.D.C.D.V.S.C.D.D.c.S.S.S.S.D.V.j.V.V.j.c.j.G.V.j.j.j.V.V.j.V.z.c.2.1.2.j.2.z.j.b.1.z.3.1.j.1.2.E.;.;.@.3.+.@.@.#.#.#.;.3.>.3.3.;.#.1.,.4.b.<.b.l.b.l.1.l.b.1.l.<.1.l.,.b.<.4.b.b.4.4.5.5.5.5.=.6.=.5.3.;.<.;.<.;.#.@.;.3.>.;.<.@.@.+.#.#.,.R.f.$.3.h.;.3.+.#.#.#.$.` =.I I =.5.=.@.@.@.@.5.5.=.@.@.5.5.' =.5.' ` | ;.=.' ' ' I I I ( ",
"XXI.I.P.I.XXOX&X2X|. X~.K.L.J.4.3.3.z.B.A.A.6.2.6.5.5.6.5.5.5.@.5.@.@.3.2.2.3.j.N.z.H.D.B.Z.Z.E.%XT.Y.B.T.!.Q.Y.H.J.J.T.T.H.~.T.W.~.T.T.~.6XzX6XXX~.3X%X~.2X2X1X1XoX1XXXUXoX%XXX%X5X%X~.~.%X~.1X1X!.~.~.E.~.L.J.J.b.H.E. X~.K.H.J.P.~.Y.I.T.~.~.R.~.T.oX XR.~.~. XE.P.E.~.P.K.P.S..X;X>X6XyXjXbXcXnXbXbXcXnXZXnXbXnXFXnXAXZXbXAXAXZXDXDXLXLXLXDXAXZXZXZXbXFXCXZXFXFXFXnXZXnXnXFXFXAXnXFXAXAXAXbXbXnXbXnXnXbXnXAXDXPXDXnXnXnXVXLXnXbXZXbXnXbXvXbXvXvXsXvXvXaXvXvXvXCXAXFXvXvXvXjXjX}.Q.R.Y.R.Y.H.L.Z.J.T.Q.T.^.J.~.Q.#XQ.Q.Q.~.Q.W.W.Q.Q.Q.!.Q.Q.Q.Q.{.Q.W.R.Q.E.Q.R.E.Y.Q.Y.Y.#XR.Y.R.Z.Y.H.Z.H.Z.N.Z.Z.Y.Z.B.Z.Z.j.j.e.#.( P Z f d e 0 q q 0 0 0 q q 2 q 2 d 2 4 q 3 3 3 3 2 , 2 , , , 2 2 2 2 5 & : : 5 5 & , , , < q 2 2 > > q > 2 > < 2 < > < , , < > , > > > U 8.y y X.D > > x S S M U i 3 , , , 5 , , & 5 x i q < q S p V { D , 3 { ] p w x % 2 , , , , < < 2 2 2 < 2 p y 4 6 t t t z c U u.(.(._.(._.W U u.hXeX=.Q u.hXhXhXSXdXpXSXGXCXfXfXfXhXhXhXhXhXhXa.U N x z p 9 w t 8 z c U y t t t t t u i S W W T W aX`.U E Q Q W u._.p._.qX`.qXrXwXs.t.q.7.t.i.8.c m 9.i.i./.9.q.y.q.y.Q =.x.n.S.S.D.[.R.R.Q.D.T.E.E.E.R.Q.Y.{.Y.{.Y.Y.G.@XW.{.{.E.E.W.$X&XR.{.{.&X$X{.{.=X{.{.R.R.@X#XY.$X{.E.D.R.D.{.R.[.R.E.|.E.I.K.P.P.E.I.C.E.P.~.{.L.R.R.R.@X].$X{.{.}.E.&X[.{.#X$X].@XR.F.}.{.].R.F.[.;X:X&X@XD.D.C.D.D.S.V.S.S.Z.P.S.V.C.D.D.D.D.V.S.G.V.V.l.G.V.F.C.c.S.3.j.V.z.j.z.S.c.V.c.b.j.1.2.1.z.z.b.V.j.V.b.z.z.1.1.1.j.{.>.3.;.<.2.<.3.;.1.1.3.;.;.;.;.>.3.3.1.1.4.<.x.,.l.4.b.b.,.1.1.<.1.b.1.4.=.=.=.m.=.6.<.5.5.=.5.5.5.5.3.@.@.;.;.3.5.3.$.;.;.;.3.#.@.3.3.;.+.F.j.h.$.>.;.#.#.@.$.@.+.@.5.I I @.I I ' 5.=.I =.=.I @.=.5.=.@.' ` -.=.' -.=.` ' I P P P ( ",
"oXXX5X2X&XoX.XXXoX~.~.P.J.4.z.b.3.3.Z.N.A.A.6.6.5.6.@.@.5.6.5.3.6.6.6.6.2.2.3.3.2.N.B.N.6.2.N.H.Y.T.Y.Z.~.Q.!.T.!.!.R.Y.T.~.T.T.Q.H.T.P.~.9XVX5X1X~.~.XX~.oX~.~.~.XXXX~.~.~.UX~.~.XXXX%XUX1X1X%X~. X~. X~.E.!.P.H.P.J.P.~.~.~.~.L.J.P.Y.~.~.E.E. X~.R. XoXE.E.E.~.P.E.T.P.P.|.].I.2X>X>XjXjXnXvXbXnXbXnXbXbXDXDXvXvXbXbXnXZXAXZXDXDXDXKXLXLXAXZXAXZXZXFXnXDXFXFXLXDXFXFXsXZXFXnXPXFXbXnXDXPXIXZXLXDXnXnXnXvXjXvXNXAXbXnXZXFXIXLXFXvXmXbXnXbXvXvXbXvXbXvXvXvXvXmXvXbXZXFXbXvXZXvXmXjX&X[.R.Q.R.W.T.T.L.!.Q.^.T.6.Q.^.Q.^.^.T.T.Q.Q.Q.T.#XW.T.!.W.E.Q.#XQ.Y.#XE.Q.Y.Q.H.Z.Y.H.Y.Y.R.H.Q.Y.Q.E.L.Z.L.Z.Z.Z.Z.V.L.j.N.j.N.3.%.$.( P O.O.e 0 0 2 d 0 q q 0 2 0 0 d < 3 4 3 < 2 1 < , 2 , 2 < 2 2 2 < 5 & & : < & 3 5 < < > 2 0 2 0 > 2 2 < < < < > 2 , > , , > > > > > c o.T > Y w.q > # % > % < : : , & & , , 5 : < c S S z 2 t c * x p : & H x p W R i ] t > , , 2 2 2 < 2 < q ] Y t m m 7 t D T 8.i._.eX(.p.q.S A =.s.s.=.Q eXeXeXhXfXrX7./.FXHXfXHXfXfXhXhXfXhXhXhX=.B m u 9 w 9 t t y y y 6 6 q 6 7 t y z x A U S U +XrXY Q Q U E W /.(.(./._.qXwXtXeXt.7.t.t.a.p.8.M M 9.y.i.q.y.t.q.y.u.Y =.v.S.D.@XR.P.L.D.R.P.R.~.R.E.{.E.&X{.&X&XW.^.R.Q.R.#XR.{.W.{.&X$X{.$X$X=X[.#X&X#X&X{.Q.Q.R.R.[.[.{.R.{.D.{.[.{.[. XR.E.I.E.P.E.P.E.E.E.P.R.[. X{.}.R.Q.[.$XR.[.{.[.{.&X}.@X[.R.[.}.Q.R.#XR.[.{.}..XkX&XE.R.D.D.S.V.V.N.N.c.C.G.c.D.G.V.S.C.C.V.S.P.S.S.l.c.C.S.G.z.h.h.V.z.j.j.j.h.V.j.V.V.j.z.1.1.z.3.j.c.1.V.z.1.<.z.1.3.3.j.b.>.;.1.;.;.;.3.1.;.3.>.;.2.<.3.j.j.b.<.l.<.1.1.<.l.b.4.<.=.<.1.1.1.b.=.<.1.6.b.4.=.<.=.5.5.5.=.=.5.#.;.2.#.;.#.;.;.3.3.;.<.3.;.;.;.@.>.j.V.1.j.3.>.3.#.#.#.3.#.+.+.5.@.=.@.5.I =.@.5.=.5.<.5.=.' ' =.' =.' ' 5.' 5.( I ' ` ( I I +.",
"oX*X1XoX*XXXXXUX~.I.oXL.J.b.N.4.3.4.L.Z.Y.N.N.2.3.5.@.5.3.6.2.3.3.3.2.1.5.3.3.2.2.6.4.4.4.6.Z.Z.N.A.A.Y.Y.H.H.Y.~.~.J.J.~.^.~.^.E.%X X~.!.2XVX5X5X1X%X~.~.~.~.~.1X~.~.~.~.1X%X~.1XUX1X1X1X~.1X~. X~.~.~.L.~.I.T.J.P.~.T.L.I.T.J.J.1.v.Y.K.K.H.Y.~.P.Z.Q.~.R.~.E.P.Y.I.[.P.P.I.OX}.OXvXvXmXvXbXvXmXnXnXAXZXZXDXDXDXAXAXAXZXAXZXAXDXJXLXLXLXJXAXZXZXFXFXDXFXDXJXGXPXDXDXKXFXFXFXAXDXDXJXmXbXDXKXIXDXVXAXnXAXnXnXvXbXnXbXsXcXnXbXPXnXvXbXbXvXvXvXvXvXvXvXvXvXmXbXaXbXvXZXCXZXZXvXvXbXvX5XXX[.P.E.T.E.T.D.E.W.Y.J.^.^.~.T.^.^.T.^.J.!.T.Y.!.Q.!.W.W.T.Q.Q.Q.H.Q.W.T.Y.Y.T.Z.Y.Y.Y.Y.Y.H.Q.L.Q.R.G.L.Z.Y.Z.Z.B.Z.D.Z.N.Z.Z.j.j.$.@.( K Z a e 0 d 2 2 d q 0 q 0 2 q 0 2 0 q 2 2 < < 2 < 2 > 2 < < 2 2 < > < > > < > 2 < < 2 2 2 2 2 2 2 > 2 > < < 2 > < > > > > > > > : , A Y 2 c 0.D q > % % # & & : # % > , > > > , p S U S m ] E E 3 < > , 5 5 w ] F 2 i 3 , , , < 5 , < 2 & E w.Y x 0.9.E c Q q.p.a.(.(.W U N N v N U Q U t.wXwXhXpXfX(.Q =.pXHXHXHXfXfXfXhXhXfXfXdXt.D m z u u t 6 y S x 6 6 q 4 4 6 6 6 y u u m N N r.).Y 9.{ U U U W p.u.p.(.p.`.pXpX_.p.i.i.t.p.p.u.Q N N W t.a.t.t.=.i.W N =.k.m.K.C.K.b.P.P.L.L.H.P.W.|.E. X$X&X&X{.Q.@X{.{.R.$X;X.X}.#X[.{.&X#X{.{.$X{.&X$X&X#XG.R.E. X XE.E.P.P.|.[.|. XE.E.|.E. XP.E.E.|.I.P. XE.P. XE. XR.[.I.!.I.E.P.P.[.R.E.[.I.I.[.[.[.[.[.I.{.R.&X>X>X{.D.D.C.G.c.S.V.v.z.Z.L.V.V.C.C.z.C.D.S.D.D.S.C.C.S.S.S.V.c.V.z.c.N.j.e.j.j.j.N.V.V.D.j.3.j.z.1.2.z.z.b.C.1.V.3.2.1.>.#.3.@.<.;.3.#.j.1.,.>.j.3.$.2.%.2.3.,.V.j.h.3.j.3.j.b.l.l.l.1.<.<.1.1.l.b.,.<.1.l.4.<.<.5.;.<.1.<.<.2.#.;.;.@.1.2.<.;.;.;.@.@.$.3.#.3.%.@.3.z.P.3.$.;.,.1.#.@.@.+.' +.@.=.5.=.@.I =.I I ' ' ;.-.=.' ' -.' ` =.' ' ' ' 5.+.I P ( ( I P I ",
"|.oXoXUXoX*X1XXXoX~.oX~.K.K.V.1.z.3.2.B.B.6.V.2.6.3.3.2.6.N.B.2.@.6.2.5.@.2.6.6.3.3.2.4.6.G.^.Z.Z.Y.J.Y.T.Y.T.^.^.!.Q.T.T.!.!.^.!.!.~.~.~.5XxX5X1X1X1X~.~.UX1X1XUX~.~.~.~.UX0XUX%X~.~.1XUX%X~.%X~.1X1X X~.T.~.Y.I.T.~.Y.~.!.~.K.~.P.B.4.b.J.C.b.V.L.K.L.E.K.P.~.~.P.P.[.[.].U.U.OXmXnXnXcXvXbXbXZXAXZXDXAXZXZXZXDXDXAXDXAXAXJXJXKXJXLXKXPXAXZXbXZXZXCXDXFXDXGXDXFXDXFXZXZXnXDXZXAXDXJXKXPXKXAXDXDXJXDXAXIXAXnXvXnXbXjXbXvXbXnXPXbXvXvXvXmXvXyXvXbXvXbXCXmXdXvXaXvXbXZXZXZXZXbXbXsXvXjX6XoXP.E.~.R.L.Z.E.W.^.^.^.^.Q.Q.J.Q.Q.T.T.H.Q.Q.Q.Q.Q.#XQ.Q.T.Q.T.Y.T.Y.T.^.Y.R.^.Y.D.T.V.H.W.Q.R.Q.D.Z.N.Z.Y.R.H.R.T.Z.D.P.R.N.N.1.$.@.+.o.o.Z a 0 d d 0 2 0 2 d * * * 2 2 0 q 2 0 < < < , < , * < < 2 > < < > > < < > > 2 2 2 2 2 2 2 < < > < < > < > < < > < > < > > > & % , Y U 1 8 2 w.E U y # & # : , : , > > > 1 ; 2 z D U E ] { E q m w t n R E { x , 5 , 2 , 5 , , , , 5 5 ] 9.U p 9.9.w.T W 0.i.w.q.9.U B U n m h m R U F p.hXfXpXgXW { sXHXHXHXbXHXfXfXhXfXhXhXeXu.U n z i 7 t 6 9.0.] z 6 6 6 6 4 4 6 7 y y i z m E u.W { Q T D T Q { t.r.{ t.t.p._._.p.u.a._.s.a._.u.N m m N t.i.t.t.t.t.Q L r.x.c.K.K.J.L.L.I.L.E.E. X XE. X$X&XW.{.{.{.$X[.[.&X<X}.{.{.$X{.{.&X#X{.{.[.{.$X:X$XE.[. X{.[.D.|. XR.E. X~.oXP.P.E.|.~.oX[.|. XP.oX|.E.P.[. X|.P.P.P.P.P.~.P.~.[.}.P.E.{.].}.R.R.R.|.S.F.[.].,X>X}.R.D.S.V.S.V.b.Z.b.K.Z.H.V.v.c.C.C.D.D.C.C.S.S.C.S.c.j.S.S.V.S.k.j.,.h.h.1.1.j.j.j.V.c.1.2.z.z.c.b.j.1.b.z.z.l.z.4.>.3.;.+.;.3.;.+.;.3.3.>.>.$.3.$.j.j.>.1.c.j.>.,.j.1.j.v.b.2.1.<.<.l.<.1.l.l.,.4.<.1.1.<.<.-.-.+.-.;.;.3.3.;.@.;.;.@.#.;.;.;.#.#.@.$.3.;.;.#.#.j.[.1.1.1.>.$.;.#.#.#.+.' ( I =.5.@.5.=.5.5.=.-.-.' ' @.' -.-.-.' ' ' ' ' =.I I P ( P K P I ",
"|.I.~.oXoX*XUX1X~.oXoX|.P.E.J.b.B.1.D.Z.A.N.B.^.G.2.3.2.6.H.B.6.3.6.6.2.3.6.A.Z.1.2.4.N.A.N.N.A.^.Y.Y.Q.^.L.Y.J.^.~.Q.T.J.J.T.~.!.~.~.~.~.4XNXzXXX~.%X~.1X1X%X%X~.~.1X~.~.~.1X%X1X%X1X1X~.1X~.1X~. XXX X XT.T.~.T.L.T.~.I.L.<.J.J.K.Z.1.<.2.4.b.l.K.Z.Z.H.Z.P.~.I.P.E.I.].n.+XjXvXvXjXmXvXvXbXbXbXZXGXFXDXGXZXAXAXAXZXZXFXAXJXJXKXKXKXIXKXDXZXbXFXDXFXFXFXDXJXKXDXvXsXvXbXAXFXZXZXZXDXIXIXIXDXAXZXbXnXnXZXmXjXsXsXcXcXaXcXvXnXLXnXZXvXZXmXvXvXCXCXvXvXvXbXbXvXbXvXCXvXbXbXCXZXbXvXjXjXvXjXXXI.~.R.L.D.Q.H.T.J.T.Q.^.^.T.T.Q.Q.Q.W.T.Q.T.^.E.^.T.T.H.W.T.T.!.Q.T.^.H.Z.G.Z.Y.Q.Q.W.R.#XR.H.Y.Y.D.Z.G.L.Y.Q.Q.Y.R.Z.Z.N.V.3.>.#.#.@.o.I C f d 0 q 0 0 0 2 0 0 d 2 2 0 2 0 2 2 , , < > > * < > > < > > > < < > > 2 > > 2 q d 2 2 < < % < 2 > > 2 < < > 2 2 < , > > & : , p ] y 2 2 w.w.0.w.x & 4 , , < , , , 1 1 1 < t A S M x p t A { ] E n ] E x 5 5 , < < , , 5 2 < : 3 4 E ] p i 9.9.Y c S T W S T D U u.u.i.W U =._.p.Q =.qXrXwXu.Q pXGXHXHXHXfXbXfXhXhXfXhXfX_.u.N m m z t t 6 Y w.E u 6 6 4 4 6 4 4 7 7 t t p x N { { { W D B D Y Q W W Q Q W t.t.u.t.t.i.t.t.t.{ t.N z z z N B Q Q t.t.{ N F =.,.n.C.I.J.U.L.E.E.E.E.|.~. X X&XE.&X$X{.{.{.#X{.{.#X&X[.&X].=X{.W.{.$X{.{.$X}.$XW.{.E.E.R.P.E.[.I.|.&XoX|.P.P.E.|.P.E.E. X|.E.|.P.E.E.|.|.|.P.L.L.H.P.E.P.|.E.[.E.P.R.R.[.I.[.P.[.P.[.].>X;X:X{.].D.C.C.V.V.c.V.C.C.C.K.Z.C.V.S.D.F.K.Z.c.L.c.c.c.j.c.c.S.V.C.N.j.>.j.j.j.j.b.j.2.V.c.b.z.2.V.2.z.V.z.c.1.1.1.2.3.j.3.>.#.;.#.+.;.3.<.1.1.;.j.2.3.$.2.j.>.1.1.1.3.l.l.1.2.1.l.1.;.<.<.<.<.<.=.<.,.,.1.<.-.<.' 5.<.<.1.;.5.;.>.@.@.@.#.3.h.2.;.3.+.>.j.;.#.+.#.3.j.[.c.,.1.,.3.1.#.@.$.+.+.I I I 5.=.=.5.=.5.;.-.' -.-.` ' ' -.' ' ' ' P I -.I P I P P I J P ",
"P.I.oX|.oXXX1XXXI.I.oXL.J.I.K.b.N.2.Z.Z.Z.Z.N.Y.H.A.A.A.B.B.Z.B.6.N.N.2.2.Z.Y.9X#XA.Z.B.Y.^.Z.Z.Z.T.Y.Y.J.T.Y.Y.T.T.T.~.^.T.T.T.Q.1XQ.~. X4XNX8X1XXX%X%X~.~.%XUX1X~.%X%XUX~.1X1X%XUX~.~.~.1X1X~.~.%X%X%X X~.~.K.L.~.~.T.H.Y.1.4.-.b.J.v.l.b.4.P.z.C.L.K.C.C.E.I.b.P.[.I.oXOX+XOXjXmXbXvXvXmXnXZXDXAXDXDXAXGXZXZXbXZXZXAXGXKXKXDXDXDXDXKXDXJXZXAXDXDXAXAXDXDXDXDXFXFXFXbXZXZXAXZXCXZXAXZXbXJXAXZXbXnXZXnXnXnXvXvXjXbXvXcXbXbXZXLXDXnXbXbXbXZXbXvXvXvXvXvXbXvXvXvXZXvXvXvXvXvXbXZXvXbXsXjXjX6XXX[.K.Z.R.T.Y.T.J.^.T.J.^.H.T.T.!.!.Q.!.Q.T.T.^.T.Y.T.^.W.H.^.Q.Q.Y.Y.Y.Z.H.Y.Y.T.Y.Q.Y.R.Q.Y.H.Z.Q.Y.T.E.Y.R.Y.Q.R.Z.D.Z.B.$.>.>.>.+.+.( ( C f 0 * d 2 2 0 0 2 2 d < > 2 2 q < , , < < , , > > < > < > > < > > > < < 2 2 q 2 2 < > 2 % < 2 2 2 > < > > > > , > > > : % , # S F 2 > y q w.0.Y p E i , , , , , > > > > 2 x x 5 5 5 t E ] ~ U 5 x t 5 , , , , , , , , , 5 , < 3 x z 4 n Q 9.U v z S M M U T q.i.i.(.(.t.s.tXeXtXt.Q Q Q D u.HXGXHXFXHXfXHXHXfXfXfXfXgXs.q.U m i i 7 7 6 3 D 9.y 4 6 6 4 4 4 4 4 t t 6 9 z N Y U U U U N N N { t.Q W t.r.t.r.s.s.a.t.t.i.a.t.t.t.N N z 9 b Q a.i.t.t.Q n F =.x.v.b.v.v.I.P.P.E.R.T.E.&X&X{.&X$X&X{.{.&X{.{.$X[.$X#XR.$XW.{.{.$X$X$XR.$XE.#X{.E.E.E.[.L.R.|.E. X&XE.E.oX|. XT.P.P.P.R.[.|.R. X|. X~.P.P.P.L.P.P.P.E.[.E.[.E.[.[.[.}.E.P.{.P.E.P.D.[.;X;X;X{.R.{.c.c.V.N.L.S.K.J.V.P.Z.C.N.D.R.D.R.P.S.S.S.S.C.V.F.S.G.S.c.k.N.j.V.c.N.S.V.N.j.V.b.v.C.N.z.c.b.z.N.z.1.2.2.h.3.1.3.;.3.+.2.3.1.;.>.;.;.%.$.3.$.$.#.$.h.3.,.j.l.1.2.l.,.<.1.1.;.;.;.<.;.-.=.<.1.<.1.<.<.-.<.-.;.1.3.>.;.<.3.;.@.#.;.<.;.;.3.;.;.#.$.;.>.;.;.>.c.{.1.$.>.3.$.@.#.$.+.#.+.+.@.=.I 5.I I =.=.;.' ' ` ` -.' ' ' I ( ( ' I I I I J I I J P K J ",
"I.I.~.|.P.|.6X*XoXoX|.L.J.I.Y.L.R.L.L.Z.Y.Z.Y.2.N.N.A.4.N.A.6.2.N.4.A.j.6.N.6.Q.Y.B.^.A.^.W.Y.A.T.!.!.Q.Q.E.Q.Q.^.T.T.!.~.~.T.~.T.T.~.T.|.8XNXlX1XXX~.~.%X1XUX1X~.1X1X1X%XJ.%XUX1X5X1X1X~.UX1X~.~.1X1X1X X%X~.!.L.H.Y.K.L.J.-.b.l.B.C.2.b.b.Z.C.2.j.c.Z.N.V.E.R.S.}.}.}.jXIXOXsXsXvXmXvXvXbXbXAXJXDXAXCXZXZXZXZXZXAXZXJXJXLXDXDXAXGXAXFXZXZXZXZXDXFXbXFXbXZXFXZXZXZXZXCXZXZXbXbXAXAXbXmXZXIXCXAXbXvXnXbXbXvXjXvXbXbXcXbXnXbXVXLXAXsXbXZXZXZXCXbXbXZXbXbXvXvXvXvXvXbXvXbXZXbXbXZXbXvXsXvXjXnXOXXXE.B.Y.P.Y.H.J.^.W.J.A.J.Q.Y.Q.E.Y.!.T.T.Q.J.Y.H.W.^.Y.Y.^.!.H.W.Y.Q.Z.H.Q.Z.D.Q.R.#XY.Y.Y.Q.Q.R.Z.D.H.H.D.Y.R.Y.N.B.Z.N.j.1.>.#.$.#.X.( P Z a d 0 q 0 0 0 0 2 2 * * < 2 2 , > < > < > < > > > < > < > < < > < > > > 2 2 2 2 < < 2 % 2 2 2 > < < , 2 , , % > < > > , > t E ] E x * > Y Y c 2 x t 2 , , , : , , 1 , 1 1 6 2 , 5 D E R E c < 3 5 , , 5 , , , , 5 3 5 3 , 3 3 9 w 4 z Q w.8.M S U U U W w.q.W Q 9.a.s.eXhXwXeXs.B N N N F rXCXHXfXHXfXsXfXfXgXgXgXgXeXu.W m i t x t 4 6 i E 5 5 6 5 4 6 5 m A 2 4 4 9 t m m M W W y.Q m m B Q D Q t./.'.(.qXpXtX`._.s._.u.u.u.u.B N x 9 i 7._.s.t.i.W n V =.1.v.n.K.J.I.U.L.P.R. X X{.|.&X$XR.{.&X&X&X&XR.{.[.#X@X$X X&X$X%X&X&X&X*XQ.#X$XQ.P.R.[.{.oXE.P. X[.E.oXE.E.E. XI.P.E.P.~.E.E.E.E.E.[.E.E.K.L.P.E.P.E.K.E.[.[.[.}.[.[.[.[.[.R.[.].P.R.}..X;XF.C.D.V.N.c.S.S.C.C.C.Z.D.C.C.c.V.S.P.R.R.S.S.c.C.S.S.V.C.l.l.c.c.V.c.V.c.j.S.V.j.3.c.z.V.V.z.z.j.1.z.2.1.j.z.1.1.z.2.2.<.j.;.2.>.#.;.;.2.1.#.>.>.;.1.$.%.j.j.<.1.1.3.l.l.1.x.2.<.-.<.,.1.>.<.<.<.<.<.1.1.<.5.-.=.5.1.;.<.;.;.3.<.;.-.;.;.3.<.>.3.<.#.#.3.3.#.#.$.G.{.c.h.j.$.;.;.;.@.+.#.@.+.=.5.I I 5.I 5.=.=.5.' ' =.=.' I ' I ( ` ( I P I I P P I I J ( J ",
"I.oX[.~.[.P.|.I.~.P.|.~.P.P.B.H.Z.B.B.B.N.A.N.2.4.2.3.2.4.2.6.2.%.2.4.6.Z.6.N.2.2.4.N.2.N.H.Z.A.^.Q.T.Y.J.^.H.H.T.~.T.T.Q.J.J.Q.L.Y.~.P. X4XMX8X1X%X1X1X~.~.~.~.%X1X1X~.1X~.1X~.1X1X%X~.1X1X%X~.%X1X X X~. X~.H.H.P.E.L.~.K.2.<.2.z.K.C.H.1.4.C.z.z.C.S.C.C.].R.R.S.@X>XjXAXZXsXvXvXvXvXvXmXZXAXJXGXDXAXZXZXZXZXCXDXJXJXLXJXDXZXAXAXDXAXZXZXAXCXFXFXFXbXZXZXZXbXAXAXbXbXZXCXAXbXbXbXCXAXAXAXIXmXmXbXvXnXnXvXjXbXnXbXbXbXFXnXDXLXDXvXZXbXbXvXvXbXbXZXZXZXbXbXvXCXvXbXvXZXvXZXmXCXbXsXvXvXsXbXvXUXoXD.R.R.!.T.^.J.A.A.^.J.^.Z.Q.Q.Q.Q.Q.!.!.Q.Q.^.T.Q.T.^.Y.Y.Q.Q.Q.Y.Y.R.#X#XZ.Z.H.D.Y.Z.R.R.R.G.R.T.L.H.G.Z.Z.Z.D.Z.N.S.c.C.j.j.e.$.+.#.' o.C r d 0 q q 2 0 q d 2 2 < < 2 < < * > > > > > > > > < > > < < > > < < < 2 0 2 2 > < < % < 2 2 2 2 < , , , , > > > , , , % 2 ] ..w.D + % , 2 , , , < , : , : , : ; > , , 2 1 , , , i A m u 4 , , & , : , , 5 , , , , , & , 5 3 3 4 t N { 8.9.U T T E Q W 9.S n U T { wXtXhXtXtX=.N H W ~ Q u.HXsXu.=.u.u.p.wXfXfXhXhXa.t.t.Q z Y { A 6 4 4 3 5 6 4 4 4 5 5 Y { Y 6 t 9 w m m S W E W ] N m m m N N =.q._.qXwXtXpXwXwX`.wXs.s.t.u.t.B m p 9 h t.s.s.p./.Q m H ) ,.b.K.K.L.K.P.R.E.E. X X{.{.&X&X[.&X[.,X$X$XR.$X}.{.#XR.W. X&XW.W. XW.[.[.{.R.L.L.D.R.P.E.P.E.E.E. XR.P.|.E.R.P.~.E.P.P.|..X|.[.oX|.E.K.P. XE.P.E.P.P.E.}.|.R.[..X[.[.L.}.E.[.P.S.D.R.;X[.D.c.V.S.V.C.V.B.C.D.D.D.C.V.V.D.L.S.V.S.Z.V.C.V.S.c.C.c.V.S.G.h.V.D.j.C.j.Z.C.j.4.>.4.V.b.c.Z.b.1.3.2.c.z.z.j.1.l.<.1.1.z.1.;.<.@.#.#.;.>.3.3.j.;.>.3.j.h.z.1.>.>.;.<.1.<.,.f.1.<.<.<.:.;.,.<.4.b.4.1.l.<.=.' 5.-.5.-.;.-.-.;.;.;.3.;.3.@.;.;.2.#.;.3.$.$.$.h.h.C.}.j.,.j.$.>.1.#.#.#.@.' #.=.5.5.I I =.5.5.' =.-.' @.' ' I ' ' P I I P P J K P P P ( @.( ( ",
"oX~.I.L.P.E.K.L.P.L.K.P.~.L.B.B.z.N.N.B.T.W.Z.N.B.2.2.N.6.4.6.2.4.4.2.4.N.A.2.3.6.1.B.H.A.Q.Y.Y.Y.T.Q.T.T.T.$X~.T.J.~.!.!.!.T.J.!.!.Y.E.E.8XNXzX~.XX%X~.~.%X%X1X1X1X1X1X1X~.1X~.UX~.~.~.%X~.~.1XXX~.!. X!.~.~.L.H.~.~.~.E.H.5.<.b.B.J.b.z.b.z.2.1.1.1.z.V.j.z.D.].D.J g.sXjXjXvXvXmXbXmXbXAXZXDXDXJXGXZXZXZXZXZXAXAXJXLXJXAXZXCXCXAXAXAXAXDXJXDXDXJXFXbXCXnXFXCXZXCXbXZXbXZXZXCXbXbXbXAXDXbXmXCXnXZXAXZXAXbXnXZXnXZXFXFXZXZXIXLXAXvXvXbXbXvXbXbXbXbXmXCXZXvXvXvXaXmXZXbXvXbXZXZXZXFXbXbXvXvXnXbXOX}.[.[.!.~.~.Q.^.J.!.J.A.^.H.^.Q.T.T.T.Q.Q.T.T.T.T.Q.T.Y.Y.T.J.H.Y.Y.R.R.R.Y.H.Y.Y.Y.R.Y.R.R.Y.R.Q.Q.E.Z.Y.D.Z.Z.Z.N.V.Z.j.j.c.x.f.$.$.` ( J Z r 2 2 e 0 d d 2 * 2 2 < * * * > > > > > % > % < > 2 < < > < < < > > < 2 > 2 % 2 2 > < > < 2 2 > 2 , 2 2 2 , , , , , > , y Y V 1 z 2 > > , , < , , > , : , , > , : , , 2 1 , , 1 4 3 4 2 : , : , , 5 , , 2 , , 5 5 , 5 5 3 5 3 x E W { ] W ] w.E T T B M Q t.9.8._.tXqXwX_.U N /.sXaXrXY u.u.B Q =.t.p.p.wX`.eXs.a.t.W U z U W n u Y Y u 4 4 6 4 4 4 5 U M.y.9 ] u.9 u m S W r.y.9.D m z u m m N E ] r./.rXhXfXpXtXwXs.t.i.t.t.W N z 9 w N t.s.a.qX/.U n h =.x.c.K.v.L.K.P.{. X X X{..X&X$X&X&X,X.X{.#X}.{.{.{.R.E.R.W.&X$X{.E. XR.E.{.[.{.{.P.[.E.~.|.P.P.P.XXE.E.E.P.P.|.|.R.E.oX|.oX XE.oXR.[.E.L.~.P.L.R.E.P.{.|.[.{. X{.[.E.P.E.[.[.R.D.R.[.>X[.F.D.V.V.V.L.D.D.Z.D.L.D.D.D.D.Z.S.L.R.Z.L.K.S.C.D.D.S.S.D.S.F.S.S.C.S.D.D.Z.V.z.4.j.z.b.2.3.1.1.z.1.2.z.j.1.1.j.j.2.1.z.>.1.3.>.2.3.5.;.>.#.#.3.%.h.3.j.h.1.,.,.1.l.l.1.b.b.l.1.1.1.<.;.,.,.1.<.,.,.1.1.<.5.=.-.-.-.<.3.;.-.;.;.@.@.#.#.;.;.;.1.%.<.$.3.3.$.$.j.S.&Xc.e.$.3.;.;.#.#.+.` +.+.I 5.=.=.I =.=.=.' I I ' I I I I I ( I I ' ' I ' @.( ( ` X.( ` ( ",
"~.P.I.I.~.I.I.L.v.b.J.~.|.J.b.b.N.6.6.Z.T.T.A.A.6.2.@.@.2.@.3.5.5.2.3.2.3.A.N.2.N.2.A.Z.Y.H.Y.^.^.T.J.^.#X!.~.Q.^.Q.Q.Q.T.T.L.~.Q.~.~.R.|.MXVXMX~.~.1X~.~.XXXX1X1XUXUX1X~.~.~.~.~.~.~.~.%X1X%X~.~. X X~.~.P.XXH.L.E.~.L.L.~.I.J.J.K.B.<.;.4.z.v.z.2.z.j.3.+.P ' $.$.V Z m.bXvXvXvXbXbXbXZXAXAXAXKXAXAXFXAXDXAXDXDXDXDXKXDXZXZXFXDXKXDXGXDXDXKXJXGXFXDXCXFXFXZXbXZXbXbXZXbXZXbXbXbXvXbXAXAXZXAXCXAXAXAXAXnXbXZXZXDXnXFXDXGXFXPXLXAXbXZXSXAXmXCXbXbXCXZXZXAXCXvXvXbXbXbXZXCXZXbXbXFXFXbXZXnXbXbXnXAXjXOX|.T.Y.H.^.Q.N.T.Z.Y.^.H.T.Y.L.Q.^.T.T.T.T.T.Q.W.Q.Q.T.^.Z.Y.Z.H.Q.Q.Q.Y.Y.R.Q.W.Y.Q.Q.Y.Y.Y.Y.H.Y.Y.H.Y.R.Y.H.Z.D.D.V.V.N.V.3.e.$.#.@.( o.O.s 2 q q d 2 < 0 2 2 2 * > > > > < > * < > < > > > > 2 > > < > > > 2 2 < 2 2 < < > 2 < 2 > < < < , , < , 2 < , , 1 > > q w * % Y w.w.U M 3 % < < , , , , > 1 1 1 , , , , , , 1 1 1 1 , , , : 2 & , 1 , , , , , , , 5 5 4 a A i M R U ] ] 7.T U N D U T { u.9.Q u.s._.wXeXU T eXwXhXtXN D D N p.hXfXrXp.p.s.a.a.i.t.W c i y i 7 D W ~ S 6 4 6 4 4 4 4 n W i.M 9.M.m b z M 8.9.q.u.t.N z u u z m M S U Q qXrXdXgXhXhX_.s.a.a.t.t.N h p w p x r.t.p.'.u.F m R f.l.b.v.L.L.P.I.E.P.E.[.[.E.].{.{.{.;X{.[.&X{.,X[.[. XE.R.&X X{. XT.$X{.#X{.{.R.R.R.P.E.E.P.~.|.|.P.I.E.P.R.|.E.E.|. XE. X XoX XR.E.P.P.P.P.P.|.~.P.[.R.[. X[.[.}.{.|.}.{.{.}.F.P.}.7X{.@XD.V.V.c.D.V.C.C.S.D.D.V.D.D.S.Z.C.Z.K.P.P.D.D.V.D.j.D.D.S.V.c.N.N.V.V.V.D.V.V.z.b.z.l.z.>.2.2.1.1.z.j.1.;.1.b.l.1.3.j.b.2.1.3.h.j.3.>.>.3.3.#.$.3.$.$.1.j.1.1.l.l.1.l.l.1.1.l.1.l.l.;.1.1.=.=.,.b.1.1.1.-.5.5.=.5.>.<.<.>.;.#.#.>.@.;.3.>.;.>.$.3.1.1.$.2.k.j.c.F.l.f.h.$.#.$.+.@.+.+.+.#.5.I 5.5.I I =.l ' ' I I ' I I I ( I I I ' I J P o.I ( ' ( +.` X.",
"~.J.~.P.v.I.T.Y.b.2.v.P.T.J.J.2.4.3.6.6.B.J.B.B.2.@.5.3.5.@.5.3.2.3.3.6.6.4.Z.6.Z.N.B.B.B.A.H.Z.B.Y.J.H.^.Y.J.^.T.T.Q.~.T.T.J.J.^.J.~.T. XMXVXMXoX~.%X X~.~.~.~.~.1X1X5XUX~.%X1X~.~.~.~.~.%X~.1X%X%XXXXX~.%X~.L.~.~.J.P.I.L.T.H.b.H.b.-.-.b.z.b.v.1.2.c.3.#.+.I P J d f R @XvXmXvXbXnXZXAXZXDXJXKXDXDXAXAXDXGXDXJXJXAXAXZXZXZXFXZXZXFXFXFXFXDXJXFXFXZXZXFXFXFXZXZXbXbXbXCXbXZXZXbXbXbXZXZXZXmXAXZXAXAXAXIXCXIXAXAXDXDXJXAXDXJXLXJXZXvXAXZXbXZXbXCXAXZXAXIXCXbXyXaXvXvXZXAXbXvXbXbXZXZXAXAXZXAXJXAXmXbXOX[.P.H.B.Z.B.Z.Z.H.H.^.T.T.T.Y.J.Y.Y.Y.Q.Y.Q.W.T.T.^.Y.H.Q.E.E.H.Y.Y.Y.R.W.Y.R.Q.Z.W.Y.Y.Y.Z.H.G.Q.T.Z.T.E.D.H.H.R.H.V.D.j.j.j.h.f.>.+.+.o.K a 0 0 0 2 < < < , > * > % > > > & , , & , , < > , , , , , > > > , 2 < < 2 > 2 , < < < 2 2 > : , & : , , , , , # , , n a > % U y.9.u.t.9.t * , , , % , , , , 1 , 1 1 , 1 > , > 1 , ; ; ; > , : : > 1 > 1 , 1 , 1 , 1 i Y Y y m x i T U D N D U Y W 9.9.0.W U B W s.wXwXt.t.tXpXfXwXN N =.u.sXCXCXfX_.u.p.(.wXp.i.Q v u u t 5 W E { Y t 4 t 4 4 9 7 w W u.9.{ /.E z z N W Q W /.p.W m h 9 i p z m m B u._.pXpXfXpXwX_.a.i.t.i.W n i w w 3 n t.p.a.qXt.W H [ f.c.z.S.C.L.[.P.P.[.[.[..X[.{.;X[.}.{.[.$X[.[.{.{. XR. XE. XP.&XXX X1XXXT.Q.P.K.P.P.~.|.P.E.E.P.L.E.P.I.E.E.E.|.[.E.R.|.|.[. X|.|. XP.P.E.E.E.E.|.|. XP. X|.[.oX[.{.{.[.[.W.@XF.&X=X[.F.C.V.V.C.L.D.D.D.V.R.R.D.D.b.L.K.b.J.C.K.C.L.C.C.K.b.L.L.S.V.c.c.G.h.c.S.V.c.b.z.c.c.j.1.2.1.1.j.j.l.2.2.l.2.l.1.1.l.2.l.1.3.>.3.j.2.$.$.$.>.$.;.1.1.f.3.h.1.1.1.1.x.b.b.l.b.b.,.<.1.<.<.1.5.=.,.,.<.,.<.=.=.;.<.5.<.<.<.<.3.#.;.;.;.#.1.1.2.>.3.;.>.h.j.z.$.$.1.R.c.$.h.3.>.>.;.+.#.+.-.+.=.I 5.5.' ' I P ' ' ' ( I I I P I I I I I P I I I P ' ( ( +.` #.",
"P.K.b.K.P.P.K.b.v.2.<.P.K.4.2.2.3.3.2.6.4.6.4.5.4.3.6.@.@.3.6.2.2.3.6.2.Z.4.z.6.N.4.A.Z.^.H.H.Z.^.Z.A.H.Y.T.L.T.L.T.^.T.J.T.J.T.J.T.H.K.I.8XMXcX X%X X~.~.~.oX%X~.%X1X1X1X~.1X%X~.~.~.UX~.%XUX1X%X%X%X~. X%X%X XT.~.T.b.H.~.J.I.K.L.K.B.B.l.B.B.b.2.1.1.2.#.+.I I J a 0 n ~ yXbXnXZXnXZXZXDXKXDXJXDXDXAXDXKXLXKXGXDXGXAXZXJXFXFXAXbXCXFXDXFXJXDXFXDXFXFXbXZXZXFXZXCXDXbXZXbXZXZXbXZXbXZXCXmXCXmXbXbXAXDXGXIXCXIXKXGXDXDXJXAXJXLXZXZXZXZXZXbXbXbXbXIXZXDXAXCXCXmXvXbXCXbXbXCXbXZXIXDXbXCXZXbXAXJXPXJXJXZXOXI.K.^.N.Z.^.N.Y.^.T.T.Q.Q.Q.^.^.Q.Y.Y.Y.Q.Q.T.!.^.^.Q.Y.Y.#XY.Y.Y.Q.Y.R.Y.R.#XW.R.Y.Y.Z.H.Y.Y.T.L.Q.W.G.Q.H.L.R.R.G.Y.N.D.V.C.j.%.$.#.X.o.Z a 0 d < d < , * * > % % * % * , , , , , , 2 > , > , < , , 2 > > < < , < < 2 > , , 2 , < < , < < , : , & & % : , # Y T y > & M y.t.q.t.m n p 2 , > , , , , , ; > , , 1 1 1 1 , , 1 , , > > : , , , , 1 1 , , 2 1 2 t Y S p i i m E U n x N U B Q Q 9.q.U N U 7._.eXeXtXeXgXpX`.u.N { fXHXHXHXHXHXwX(.p.wXpXtXt.8.Q m t 7 6 p E W S 7 6 4 7 4 6 9 4 m W t.u.u.U i z N W Q 9.u.p.u.Q x z i i i z m m W '.pXhXhXpXeXqX_.s.i.t.t.U m p w 3 3 A W q.t.`./.u.F ~ d.f.C.F.S.K.C.P.E.E.[. X&X&X}.E..X&X{.{.[.{.[.R. X XXX%X X X*X%X X X!.L.P.L.R.oXR.P.E.E.P.P.P.E.E.P.|.R.|.[. X|.P.[.E.E. X|. XoXXX~.P.E.[.P.E.|..X|.E.[.[.[.oXE.R.}.[.R.[.[.}.>X>X}.D.D.P.G.L.P.S.L.D.P.{.D.D.L.C.C.v.K.K.v.L.J.P.C.b.C.z.v.c.c.c.N.j.j.j.1.j.Z.N.b.z.2.z.j.2.1.1.j.3.l.V.V.l.z.z.l.2.z.2.1.z.<.>.h.j.3.1.j.3.j.3.$.%.h.j.3.>.3.<.l.l.l.l.l.x.l.r.x.,.<.1.=.x.x.-.5.1.l.x.4.1.<.l.1.=.-.-.;.-.;.#.;.#.;.;.>.>.1.;.;.;.>.>.3.+.#.#.#.z.R.z.h.$.j.;.+.+.;.3.+.' +.I 5.=.I ( =.' I P I I I I I J I P I I I ' ( =.@.I I P P X.#.$.#.",
"I.K.l.v.c.v.J.K.V.l.4.L.b.K.6.3.2.J.4.2.2.4.4.2.3.@.3.5.3.3.2.2.2.2.N.6.A.B.6.3.H.Z.Y.H.Z.Z.Z.Z.E.^.Y.Z.T.^.L.~.^.J.!.^.T.T.T.J.H.L.J.L.I.8XMX4XXX1X%X X~.~.~.~.~.%X%X%X~.~.1X1X%X~.~.1X~.J.~.~.1XXXXX%X X~. X~.K.K.1.b.L.T.H.K.K.H.B.<.z.2.z.b.v.B.P.K.j.#.@.I I J J r < p ..bXnXAXDXZXZXZXJXDXGXGXAXZXAXDXKXJXDXCXAXAXGXJXLXLXJXDXAXZXFXDXKXDXZXFXFXFXFXDXDXDXZXZXZXbXbXbXAXAXAXSXZXbXAXCXCXmXbXZXAXDXIXSXAXDXDXDXJXIXAXJXPXLXZXCXvXZXbXbXCXZXAXDXDXDXAXbXbXvXvXvXmXbXvXbXIXCXAXbXZXbXZXZXDXKXKXJXKXJXcXjX.XP.Z.^.H.H.H.T.H.Q.Y.#XW.!.#XY.Y.Q.!.Y.^.Q.!.W.Y.Y.Y.Q.R.W.W.H.Q.R.Q.R.R.Y.Y.W.Q.R.Q.R.Q.D.Y.Y.E.W.Y.Y.Y.^.R.D.Q.Y.L.D.N.V.j.N.j.$.$.%.! C f e d , * % & , > > % > > , < > , , , , > < > > , , , , < > > < > < > 2 q < 2 , * > > > , , 5 , & : : : & , , # D 8.w.w & : U 9 6 p N W ] c , > , , , 1 , 1 , 1 , , > > > > > : > ; > > > : , , > 1 , 1 , 1 , 1 6 x x y i D D Y Y U m i m m m B Q Q U W eXqXeXeXtXuXtXeXt.U U t.hXfXhXCXfXfXCXpXu.p.pXfXdX_.7.q.m u 7 4 q ] E y 4 6 4 6 w 6 t t p T 0.q.7.9.m m c T W 7.r.p.s.=.N u 9 9 i i x h U y.dXpXpXpXeXwXwX(.i.t.t.W M p t 4 3 6 9 m T i.a.(.u.R [ g.m.m.C.C.S.P.[.[.}.,X{.}.}.&X}.&X{.{.[.{.$X&X X%XXX X%XXX X&XXX XXXP.T.P.P.E.P.Y.E.|.|.~.I. XE.E.~.|.|.E.E.E.oXP.E.E.E.[.E.E.E.|.~. XP.E. XE.E.E.E.E.E.XXXX[.}.E.R.P.E.R.[.&X:X[.[.D.D.D.P.R.P.D.C.G.V.S.D.D.C.J.K.J.v.b.c.K.Z.v.b.z.j.c.C.c.j.k.j.D.j.j.V.D.C.b.b.j.>.4.z.j.z.3.j.2.j.b.z.z.z.2.l.j.h.1.2.2.j.2.j.j.1.3.1.3.2.h.3.j.h.%.h.$.1.l.1.x.f.1.x.x.4.b.1.x.K.=.1.b.<.,.U.1.<.<.<.<.1.1.5.=.=.;.-.-.3.#.;.$.<.h.;.;.>.>.+.>.3.;.>.$.#.#.h.[.j.%.f.>.#.+.#.+.#.+.' ' ' ' I 5.I ' ' I P I I I P P I J I P I ( ' ' I I ' ` I ' +.#.#...",
"T.P.b.C.b.l.1.1.C.z.b.C.J.J.J.4.2.6.6.3.3.2.3.5.2.5.3.5.3.5.3.2.N.N.N.6.B.J.V.B.N.N.6.N.B.Z.Z.H.Z.A.J.Y.Q.T.^.Y.T.~.T.T.T.T.J.J.J.J.J.L.|.5XzX4XoX%X~.~.%X1X~.I.1XXXXX~.~.~.%X1XUX%XJ.1XUX~.%X1X%X~.%X1X~.~. XI.T.~.J.4.K.K.J.b.L.H.b.1.&Xb.3.4.V.V.Z.z.1.@.' ' I I J Z 0 4 q d.nXDXDXAXvXZXZXSXZXZXAXAXDXDXDXKXZXHXAXAXnXDXJXGXJXDXJXKXFXDXLXFXvXFXKXLXDXGXDXDXFXZXFXZXIXAXCXZXAXZXmXZXmXCXmXCXbXAXAXDXAXAXDXDXAXAXAXGXDXJXPXLXZXZXZXZXZXbXbXZXAXDXKXDXZXZXZXbXvXvXvXCXbXbXZXbXbXbXbXbXbXAXIXDXDXPXPXLXDXnXvXOXR.L.Y.Y.T.T.T.W.T.T.Q.Q.Y.Y.W.T.Q.Y.Y.T.T.T.^.Y.Q.W.Q.Q.{.Q.E.Q.R.#XQ.@XQ.#XW.Q.R.Q.Q.Y.H.Q.R.R.Z.Y.{.R.Y.D.D.R.Q.L.V.G.Z.z.j.$.$.$.( P G V s 0 < , * & % * % > % , > , % , , , < > > 2 , < < , > > < > > > 2 < 2 > < > < > > % , & # : , , & , : , & , a ] w.Y M W u : & : Y ] U t * > ; > , > 1 > ; 1 > 1 1 > > ; ; , ; , : > , , , , > , 1 , 1 1 4 t y y w y n Y W E E N t u i m N B 9.W 9.i.qXtXeXuXeXtXuXeXQ N B wXfXfXCXCXfXCXHXpXp.pXpXfXpXqXt.U z 8 7 4 i c 4 4 4 4 6 4 5 w w t p M ] u.t.{ Q i z N U Q r.p.u.u.F N m 9 z u i m M r.(.dXpXpXtX`.wXwXa.p.7.t.T z i w 5 5 5 5 y T y._.wXu.Y r.k.x.S.F.S.L.R.F.R.}.{.{.[.{.&X&X{.&X X X,X].E. X%X XXX~.!. X X~.%XE.R.~.P.P.P.P.~.|.|.I.E.|. X[.|.R.[.|.&XoXE.E.P.R.[.|.E.E.E.P.R.oX|.|.|.E.|. X[.|.E.&XoX|.}.{.[.].R.].{.:X7X[.D.P.R.P.D.D.C.S.z.S.D.D.V.c.b.v.J.I.v.b.b.C.K.C.b.v.j.c.C.V.c.N.S.V.c.1.V.V.V.c.V.z.>.2.z.N.V.j.z.j.C.b.b.z.2.1.z.l.2.h.l.z.h.2.j.j.j.3.h.,.j.3.h.$.1.j.2.$.,.<.,.,.1.f.1.1.1.=.=.<.1.1.<.=.<.4.b.,.,.1.<.=.<.<.;.=.' 5.5.;.;.3.;.#.3.#.>.>.;.;.;.;.;.>.3.#.#.#.c.R.,.$.$.$.#.#.+.+.+.+.+.' I ' 5.I I I ( ' ( P I I J P I I I I P I I P P I I I ( ( ` #.#.#.",
"L.I.J.K.S.b.<.l.C.Z.C.C.b.z.5.2.5.4.6.2.6.4.2.J.4.2.6.2.2.2.2.6.2.Z.Z.3.4.N.B.B.2.Z.N.N.N.N.Q.Q.Z.Y.T.Y.#XY.Y.H.!.#X~.T.T.^.T.^.L.J.L.I.~.8XMX3X~.XXXX%X%X~.~.I.~.~.%X~.~.~.UX1X%X~.J.UX~.~.%X~.XX%XXX~.1X~.T.T.I.T.J.4.J.I.I.2.4.4.b.z.J.l.;.z.B.v.v.2.z.;.@.+.' I ( J V * % & r.ZXAXDXnXCXvXvXbXbXZXCXZXbXCXbXbXbXbXbXDXJXbXbXZXZXZXGXZXZXLXGXCXFXLXKXGXDXLXLXGXDXFXGXZXZXbXZXbXbXbXCXbXbXCXmXAXIXIXDXAXAXDXIXDXDXAXDXDXDXDXLXAXAXnXFXAXZXZXbXSXIXIXbXvXvXZXbXvXvXCXIXAXDXZXvXsXsXvXCXmXvXDXKXDXDXLXLXLXPXnXvXOXI.R.T.T.E.T.Q.Q.T.W.Q.Y.Y.Q.Z.Q.Y.Y.Y.W.W.Q.Q.W.W.W.W.{.#XQ.Y.Y.#X#X#XW.W.^.R.H.Y.R.Q.L.Y.R.Y.D.R.Y.Q.E.L.Z.R.E.R.Z.Z.D.Z.D.c.$.$.#.` o.J C a 0 < > % % & % > , > , , , , , , , , , , , 2 , , < > < 2 > > > > q > < > > < < > > > > > # : , % , % , : > y y.q.w./.T 2 9 9 9 9 4 & & : 1 ; , > > , > > ; > > , 1 : > > > , > 1 > 1 1 , 1 , 1 , , 2 2 y n D D w t i m m i p t A U U W T 9.9.t.(.s.tXhXtXeXhXhXs.p.=.v =.hXCXSXdXfXHXfX(.i.wXpXhXpX_.q.M x t q y S t 4 4 4 4 7 4 4 4 6 t t i E t.t.W '.9 9 m B Q { p.p.u.u.F N x i i u x n { p.tXpXfXpX_.qXpX_.a.i.7.t.U m p p 7 6 6 q y Q a.qX_.M.9.x.m.v.P.U.P.D.F.[.R.{.}.R.{.}.{.[.{. X&X{.{.E.P. X X X X1XXX=X*X%XE. X[.E.E.K.T.E.E.~.[.E.oX.XE.&X|.~.|.*X XE.E.|.E.R.|.XXE.4X XoXE.|.|.E.|. X|.&X X.XoX[.}..XR.R.}.R.R.}.}.>X].D.@XD.D.D.D.D.V.C.C.C.S.V.V.K.K.b.v.b.K.v.C.P.v.C.Z.C.C.c.c.z.j.C.c.b.z.v.C.V.V.Z.c.V.b.V.c.V.z.2.z.V.j.z.2.l.2.2.2.h.2.2.1.3.j.j.2.V.j.j.1.j.1.3.;.,.>.j.1.b.,.,.,.,.m.m.,.x.<.=.<.4.=.4.<.1.1.,.1.,.,.l.,.,.<.;.-.;.;.,.;.;.$.;.j.<.-.-.<.;.;.>.<.#.;.;.#.>.>.V.F.,.>.f.>.+.#.#.@.5.' ' ' I ' ' 5.' I ( ' I ' <.I I J I I I ( P I P I I P I / ( $.+.$.$.+.",
"L.I.I.L.J.S.C.K.v.b.b.4.4.4.2.4.3.<.6.6.4.6.J.4.6.3.5.2.2.6.6.6.4.6.6.6.4.4.2.4.2.N.N.N.Y.W.Z.W.H.Y.Y.Y.Y.Z.Q.Y.T.~.Q.T.~.^.T.J.H.H.J.T.oXcXNX5X1X~.~.XX*X1X%X1X~.1X~.~.~.~.1X1X1X1X1X1X~.~.%XUX%XXX~.~.~.T.T.I.~.~.E.E.~.L.J.b.H.K.v.J.2.2.b.b.b.z.j.j.3.<.#.#.@.@.( I P j % % & M.bXnXbXvXvXvXvXZXbXZXZXZXZXZXbXZXbXaXvXbXvXaXZXvXvXZXZXCXbXDXDXGXGXFXDXFXDXJXGXFXZXAXZXbXZXbXvXZXmXCXCXmXmXAXCXZXAXDXDXDXAXAXDXAXDXDXDXDXIXLXDXAXDXDXZXbXbXvXZXZXZXdXvXbXbXCXIXSXDXDXAXSXSXvXvXvXvXmXbXbXCXAXAXJXPXLXLXLXPXDXnXyXI.T.Y.Y.T.!.W.W.Y.Y.Y.Q.Q.T.Q.Q.E.T.#X!.#XW.W.#X#X{.$X#XR.Y.#X$X#XR.D.{.#XR.Q.R.Q.Y.W.#XQ.Q.Q.Y.Y.W.W.R.D.Y.R.Y.Y.P.D.D.V.N.z.j.>.>.+.( K C a 0 < & < % , > % > > * : & , & , , , , , , , , > > < > < < < < 2 < < < < > % > % % , % & , > , > , & i x + S W y./.M.8.r.r.r.D : # & & > 1 , , 1 , , > , > , , > 1 > 1 1 1 > 1 > , , 1 1 2 2 1 2 2 t S E Y m 6 7 t t t y p D U Y U E U W r.i./.eXtXhXuXhXhXeXhX`._.N b u.hXfXhXaXHXfX_.p._.rXpXdX`.t.D z u t M D t 6 4 5 5 4 t 6 4 w w 7 i D E Q r.`.u 9 m D W W t.u./.s.=.Y z z z u i m D r.p.`.aXwXpX`.pXqX_.a.8.7.{ T m 9 t p 7 4 4 6 Q i./.qXM.0.@Xn.n.S.].P.S.P.[.{.[.{.}.{.{..X X.X|.|.[.E.[. XoXXX&X&X&XoX XE.E. X~.E.I.E.P.P.R.E.|. X&X|. XE..X X|.oX XE.I.|.|.|.|.~.P.8X8X XE.E.|.E.E.|.XX.X&X|.R.E.R.R.[.E.[.[.].].:X8XE.D.D.D.C.V.S.D.V.V.c.S.Z.C.v.b.b.b.v.v.J.l.J.J.C.Z.c.C.V.V.z.c.c.z.C.V.z.z.V.V.b.V.B.z.z.b.b.l.l.2.z.1.z.h.2.1.1.1.,.j.1.j.z.j.j.2.V.j.1.1.1.1.>.3.>.#.2.1.1.,.m.,.1.b.b.1.,.b.x.,.b.4.=.=.<.,.1.<.1.<.<.b.l.1.<.<.>.<.-.<.;.;.;.-.j.<.>.,.>.>.>.;.,.>.;.>.;.$.h.V.C.h.>.>.>.;.#.+.#.-.' ' +.I ' ' ' I ' ' ' I I J J J J I I ( ' I P I P / I I ( +.` ` #.` +.",
"J.J.I.T.K.J.K.I.Z.z.z.B.B.<.2.2.5.4.2.3.4.4.4.4.4.2.2.5.5.3.6.5.6.6.2.6.6.4.B.4.N.Z.N.B.Z.Q.Y.Y.Z.Z.Z.W.Q.H.^.T.T.T.^.T.^.J.~.T.T.J.L.T.~.zXxX3X~.~.~.~.~.~.~.~.1X~.~.~.~.~.~.~.~.~.1XUX1X1XJ.~.~.~.~.~.~.~.~.~.~.oXL.~.~.~. XH.T.I.J.L.L.2.b.b.2.z.2.b.>.h.;.$.-.+.` ( I Z r - - % d.nXnXbXbXbXbXZXZXZXZXZXbXbXvXbXbXvXCXbXCXbXGXDXCXZXFXvXaXvXbXbXCXbXDXDXFXFXZXZXZXZXbXvXbXCXbXvXvXmXAXCXvXbXmXAXIXDXDXAXGXDXDXDXIXDXDXDXJXLXDXDXJXDXZXbXbXbXbXbXbXvXCXZXCXAXGXKXKXKXDXAXJXZXvXvXvXaXyXbXbXmXbXbXZXZXAXPXPXPXAXnXjXR.W.R.Y.T.!.Q.T.Y.Y.T.E.W.W.!.W.Q.W.W.W.E.E.W.W.Q.Q.{.#XW.W.{.{.{.R.#XQ.Q.Q.$XE.#XR.R.{.{.R.Z.D.Q.Q.Q.Q.Q.W.T.H.[.R.Y.P.V.N.j.h.>.#.$.` ( J f e < < % & : & > > > > , , , > > , < , , , > % > < > 2 > < < 2 < > > > , , , > > > > > > % > % > > z o.6 > 2 M./.8.M.p.r.r.t.x & , , > 1 1 ; > , , > 1 > > , 1 , , 1 2 1 1 , 1 1 2 1 2 2 2 1 2 2 x Y ] Y p 6 7 u u t M U W U Y U E W w.0.(.(.s._.hXs.s.s.s.u.=.Q Q N B s.aXHXHXHXfXp.t./.hXfXdX_.9.B z t y n m 7 4 6 6 q 9 w 7 7 w t t i N { u.{ sXm b u m Q t.u.`.wX/.rXu.Q N x b 9 N N B { W pXrXeXpXwXpX_._.i.t.t.r.U z u t 9 6 6 6 m i.i./.qXu.m.).F.U.U.F.D.R.].[.[.oX{.}..X.X}.{.;X{.[.T.E.E.E.~.oX X|.R.P.[.|. X|.E.P.P.P.K.K.E.[.|. XE.XX|.P.|. X|.P.P.R.|.|. X.XoXE.&X XoXoX|.E.E.oX XE.XX X{.E.[.P.[.[.[.[.I.P.F.;X:XR.S.S.C.V.V.V.V.V.C.C.S.C.b.v.v.K.K.J.v.v.K.L.v.v.Z.V.j.j.V.Z.N.V.z.C.C.N.l.V.v.N.C.b.z.j.V.v.4.2.z.z.2.l.z.j.1.z.1.>.1.l.c.b.2.1.c.C.2.z.N.1.1.1.<.>.3.>.;.3.1.b.b.x.f.b.4.b.x.1.1.1.=.4.<.<.=.<.<.l.,.,.1.l.<.,.<.<.<.>.-.<.;.>.;.,.>.;.>.,.l.<.>.>.>.;.#.>.,.h.j.}.D.>.-.>.;.-.#.` ` -.' -.' I 5.' I ( _ I I P P J I I I I ( I I I I / I I ( ( ` ` ` X.+.$.",
"I.~.P.I.I.~.I.J.v.b.b.2.2.2.6.6.6.4.5.2.5.6.J.J.6.2.5.2.5.6.2.6.2.2.5.5.4.6.6.6.N.N.N.Z.N.H.H.H.H.Z.H.Q.E.Q.Y.Y.^.T.~.~.^.T.~.T.T.^.T.I.oXzXNX5X~.~.~.~.~.%X~.XXUX%X1X1XUX~.1X1X~.~.~.J.1X%X1X%XXX1X~.~.~.~.T.~.%X%X~.E.~. X~.I.K.B.C.B.v.b.~.C.v.2.l.z.3.z.h.,.<.>.+.' P Z C 0 % + # 0.bXZXAXAXCXAXSXZXCXbXCXbXCXvXaXvXbXZXbXZXDXKXZXDXFXvXsXvXbXbXbXvXbXFXnXGXAXZXAXZXbXZXbXZXbXZXbXAXAXmXmXCXAXAXSXIXAXIXAXDXAXGXKXGXGXKXJXLXPXZXAXDXZXCXbXZXCXAXbXbXZXSXIXJXKXKXGXDXDXDXAXAXvXvXbXyXyXbXaXvXvXjXsXZXbXmXZXbXFXPXAXjX|.!.!.T.W.Y.E.Q.W.Y.T.Y.Q.W.W.$XE.#XW.!.Q.W.$XW.W.$X{.R.#X,X$X#X#X{.$XR.R.Q.{.Q.#XQ.#XQ.$XQ.E.#XR.R.Y.E.E.R.G.Z.E.D.N.V.C.D.S.D.G.k.$.$.( K V s < < % % , > > > , > & > > , > , , > > % > > > > 2 > > < 2 > 2 > < , < < % % < , % % > % > % > 2 Y c > > 0.y.y /./.p./.'.E & , , , , 1 > 1 , 1 1 1 1 1 , 2 2 1 1 2 2 < 1 , 1 2 1 2 2 t y x x x U S c 6 5 5 z D W ] Y Y D S S D U W y.i.(.i.t.t.Q =.t.t.u.a.s.eXu.N =.aXHXfXaXHXrXp.hXhXwXtX'.9.M i u i m z 4 6 4 6 6 5 7 3 3 4 9 p u N { { t.aXE u u z D W p.wX`.hXsXaXp.U N m z m N N B Q t.'._.rXrXrXpX`._.p.t.u.W N u u t 7 7 6 3 W q.Q ).(.u.M.).n.P.@X].[.D.D.[.[.R.{.|.{..X.XoX.X{.P.|.[. X|. X|. XXXR.|.[.|.E.|.[.E.~.P.I.[.E.E..X X|.[.E.E.[.XXE.L.R.[. XR.|.E.R.|.oXE.|. XR.P.P.|. XoXE.R.}.E.[.P.[.}.R.D.F.G.&X:X].D.V.V.z.V.c.V.V.c.C.V.C.v.b.v.b.J.K.J.K.J.v.b.K.z.Z.V.z.V.j.z.V.z.z.j.b.Z.V.Z.c.B.c.z.3.4.v.1.z.z.l.1.2.j.z.z.2.2.z.2.z.z.j.j.2.z.j.1.1.j.j.1.1.,.<.2.1.3.1.<.1.1.,.b.=.=.x.4.1.f.b.4.=.,.4.1.4.1.1.<.<.,.4.1.<.,.1.,.1.;.<.-.;.;.,.1.<.f.l.l.>.>.,.,.,.>.1.h.h.l.].V.,.,.>.` #.;.+.-.-.` ` ' ' ' ' I I ( I I J I I J J I ' ' ( I I I I I ' ' +.$.+.$.#.` X.",
"L.L.K.L.~.I.~.L.~.b.4.4.6.6.2.4.6.6.2.5.4.4.6.J.2.6.4.6.6.2.2.2.6.6.5.3.2.2.2.N.Z.Q.Y.D.T.Y.Y.Z.L.T.T.Y.Q.T.~.#X!.~.!.~.^.~.Q.J.J.J.C.~. X8X8X2X~.XX1XoX~.~.T.%X~.~.1X%X~.~.1X1X~.~.J.~.~.UX5X~. X%X~.oXT.E.~.E.T.I.I.~.~.oXT.v.K.J.K.2.<.H.Y.B.j.j.1.1.;.+.! I P J J J Z C j a = = @ = M.vXCXZXbXCXbXZXvXZXbXbXZXDXbXbXCXZXFXJXKXZXJXJXbXbXvXsXvXbXbXbXbXbXCXZXAXbXZXmXbXZXCXbXAXAXCXAXZXAXZXZXAXAXKXAXJXAXAXDXAXAXJXKXJXLXLXLXDXmXbXAXAXbXbXbXbXCXZXCXGXDXJXGXGXKXKXGXDXAXAXDXAXZXbXsXyXvXZXvXvXsXvXbXbXbXnXFXPXPXPXnXvX|. XR.W.R.W.W.W.!.T.W.$XT.#XW.W.W.W.W.W.Q.&X-X#X{.#XW.E.W.$X#XQ.$X{.Q.Q.[.{.$X#X$X$X{.R.#XR.{.{.Q.Q.D.R.Y.{.Q.E.~.R.XXE.~.oX|.[.|. X,.#.( P J j x s , > > > , , & : & : , & # : & & ; # , , , , , > < 2 > , > > , , < < > > < > > 2 > < > > > D ] U Y x A : n z Q ).(.Y 5 , , 1 1 , : , 1 2 1 , 2 M c 6 < 2 2 4 4 2 2 2 2 4 3 4 7 i F F M p t y t t 1 2 S ] w.Y T D x c x x B U W r.8.W q.p.(.qXqXwXwXuXuXuXrXr.Q `.CXHXCXCX_.s.hXhXrX`.i.W N m 9 y x y y 7 4 4 4 1 4 4 4 w 6 t t z U u./.aXM.7 i u n 7.`.wX`.tXtXsXrX{ U N m m m v N B T i.p.tXrXrXtXtXwX(.i./.y.Q n u y 7 7 9 4 9 ] M N { M./.m.@Xn.F.@X@XS.I.[.oXoXXXoX}. XoX{.}.E.I.E.[.{..X.X X|.E. X.X|.[. X XoX XE.L.~.E.|.E.[. X|.P.E.L.|.R.R.P.P.~. XXXoX XE. XoXP.E.E.E.E.|.E.[.|. XR.E.[.|.[.[.P.P.P.C.S.{.>XD.F.V.D.V.V.c.V.V.j.D.S.V.C.V.V.V.D.C.b.v.K.v.v.b.J.l.b.b.z.z.z.B.C.j.V.b.C.V.V.B.L.b.z.b.z.j.b.1.3.j.j.1.j.1.1.;.3.z.b.V.j.z.z.z.z.2.2.1.1.>.2.<.2.<.<.1.z.1.1.4.x.l.1.l.,.b.l.b.x.,.<.<.x.1.4.,.4.<.<.4.<.4.4.<.<.<.<.<.<.<.<.<.<.1.-.;.1.,.1.>.,.:.1.l.>.,.h.h.S.C.c.:.>.>.$.#.;.+.-.=.' ` =.I I I I I I P I K I k K k I I I I P J I ' I ' #.X.#.` ` #.` ' ",
"J.P.~.K.P.~.E.XXoXb.4.4.4.6.<.6.6.5.6.5.2.4.4.6.J.J.6.6.2.<.6.4.5.5.5.3.2.3.6.6.N.Z.Y.Q.Z.Z.N.Z.Z.H.Y.L.J.T.Q.~.T.T.~.^.T.T.!.T.T.L.J.~.1XxXVX3X~.oXJ.~.~.~.oX%X5X1XXX~.~.1X1X~.~.~.~.J.~.cX~.~.%X%X~. X X~. X~.T.~.H.T. X~.~.4.z.~.T.b.J.~.I.K.c.N.z.;.' K C f f r s e e e 0 < < * % % + o.`.yXyXaXvXbXbXCXCXDXDXGXGXGXLXLXKXLXLXGXAXFXZXZXAXCXCXFXbXCXDXDXAXAXZXCXbXCXZXAXDXZXZXAXZXZXZXZXZXZXAXJXJXDXAXZXAXGXDXDXJXKXAXPXPXLXZXbXbXCXAXbXZXAXAXAXDXDXJXJXDXJXKXDXDXKXJXGXGXDXAXAXAXbXCXZXvXvXvXbXvXbXbXbXZXnXGXPXPXPXAXnXoX[.W.E.W.*X!.$XE.W.T.Q.W.#X{.#X#XW.#X#XW.&XW.W.{.$XW.{.#X#X$XQ.#XR.#X$X#X{.$X$X#X$X{.#XQ.Q.#XQ.Y.R.#X#XQ.@X XE.XX&X{.~.E.E. XE.[.|.C.$.#.+.( ( J V < < , < & , , 2 , , , < , , , , 2 > & , < , , < 2 < 2 > * > > < 2 > > < > < 2 * % % > * n w.q.w.> q 6 , 1 6 E r.m 5 , , , , , 1 , 1 > 1 , 6 W o.S z q S E i 3 2 < 4 7 w w p D r.E M i p t t t t 6 M Y E W Y x x z c m A E 7.W t.(.wXqXp.8.Q /.wXuXuXdXdXt.W s.CXGXHXvXs.p.wXhXhXqXi.T m i 9 t y 6 4 5 4 6 1 1 5 5 4 4 6 w 7 p n W 0.yX`.u u z n U p.wXtXwXaXdXsX(.{ B N b m b N N N u.u./.rXrXpXtXqX_.y././.q.Y n z 9 p 9 w 9 9 z i z U w./.).m.m.m.m.F.|.[.I.oX{.&X.X&X{.|.oXE.E.P.[.|. X X.X|.[. X|. X X.XoXE..XE.R.P.[.E.P.E.E.|. XE.I.E.[. XXXE.E.|. XoXE.oX|.E.R.|.I.|.|.oXE.|.|. X[.[.E.E.P.P.S.L.P.F.D.}.:XF.D.D.D.V.S.N.D.V.D.C.V.D.D.N.j.S.D.B.b.l.J.C.b.v.K.v.v.K.Z.z.z.V.z.b.j.C.z.z.z.V.S.C.N.z.z.z.j.j.2.z.j.3.2.1.;.<.;.3.z.z.j.j.V.j.3.1.l.1.3.,.1.<.;.#.>.<.;.2.1.<.1.,.,.l.x.,.l.1.,.<.<.<.<.1.<.1.4.<.4.=.1.4.<.<.<.=.<.<.<.<.=.<.,.,.5.=.<.>.,.-.-.>.<.,.l.>.,.h.F.P.S.>.,.1.>.#.#.>.:.-.' @.I I ' I I J J I J I k J J J J P I ' I I I ` ' I ( ( #.#.$.$.$.$.",
"L.P.~.~.Y.K.K.I.~.J.4.1.<.6.4.6.6.6.4.5.2.<.4.4.6.b.6.6.3.6.6.6.6.5.2.4.6.6.3.6.4.B.Z.Z.Y.H.Z.Z.Y.Z.Z.J.T.T.T.~.Q.~.^.T.T.T.^.T.J.L.J.~.XXMXVXUX~.~.J.oX~.%X~.~.%X~.UX~.~.~.~.~.UX~.~.~.1X%X%X%X*X~.~.~.E.~.J.L.T.I.~.E.~.1X~.J.H.XXT.K.I.!.E.Q.K.N.z.2.@.P ' ` J J k f j j h a e q < * % > 0.vXCXCXAXSXDXDXGXGXLXGXLXLXLXLXLXLXLXKXKXJXGXAXJXDXKXKXDXAXDXJXAXAXAXAXAXZXbXZXbXZXZXZXDXAXAXAXDXFXAXJXJXAXAXAXZXAXDXDXDXDXIXJXPXLXZXZXmXAXAXAXSXAXAXDXKXKXKXKXDXGXGXDXDXGXJXAXDXJXDXGXJXDXDXDXZXbXvXbXbXbXFXFXFXFXPXJXJXFXVXZXmXOXR. X&X$X%X%X!.W.Q.R.W.E.$X$X&X#XW.W.#X#X#X$X$XW.$X$X[.{.#X{.#XE.#X{.$X$X&X$X{.#XQ.{.R.W.[.R.W.W.{.Y.Q.R.E. X*X X X%X XE.oX XE.}.}.j.>.>.#.+.( P V 3 , < < 2 5 , 5 < 2 5 , 2 5 2 2 2 2 , > < < < 2 < , < < , , , > > 2 < % > > > > > > > c w.w.o.1 9.M.x ; 1 , b y 1 , 1 1 > , 1 > , , > , 2 Y E S S y x n t 4 5 4 t y p p x E r.r.E N i t q t t t y i c M x x A E S T W 9.r.t.i.p./.p.B M D (.wXtXrXuXdXt.t.`.HXGXGXfX_.`.hXfXsX_.t.U m u t 4 4 6 2 1 5 1 1 6 2 4 4 7 7 7 4 7 y Y /.vXuXU t i v N u.qXpXaXpXpX`.`.p.=.B N b b m b N N W t.p.wXtXpXpX_._.(.i./.q.T m u 7 t t t 9 u 7 u m A y./.M.m.m.n.F.P.[.[.oXoX.X{.{.{.[.[.[.oXE.E.[.|. XE.E.I.E.E..X X|.[.P.[.[.P.P.P.E.P.P.|.oXE.|.[..X[.oX|.E.P.E.E.I.P.P.L.R. XE.T.P.P.~.[.P.E.[.I.[.P.E.P.P.P.P.F.P.S.[.>XD.D.R.L.D.C.S.v.S.V.V.c.D.V.V.c.Z.D.V.b.n.v.b.C.J.v.b.V.b.b.z.j.z.z.C.z.V.z.N.b.V.C.C.V.z.N.j.h.j.N.j.2.1.,.1.3.#.3.z.j.z.z.b.1.3.1.z.2.1.3.3.>.z.>.<.1.l.1.l.1.1.1.1.,.l.f.1.,.,.,.,.<.1.1.1.b.<.<.<.1.4.1.=.<.<.<.<.,.<.=.<.<.<.<.,.=.<.,.,.,.<.,.,.1.k.,.-.>.,.C.F.S.>.>.>.-.-.#.-.>.;.-.` I I I I ' P k P J J J @.J J I I I I P ' I I I P ( +.#.` $.$.$.>.",
"L.~.~.~.P. XXXL.I.I.J.6.<.4.<.4.<.5.3.3.2.<.4.4.b.b.2.6.6.6.6.6.3.4.5.2.6.6.6.4.B.B.L.H.Z.B.N.G.E.T.H.Y.Y.J.T.J.6.T.T.~.T.Q.L.L.L.J.T.%XXXcXMXXX~.~.J.J.I.~.XX~.~.XX~.~.~.~.XX%X~.UX1X0X1X~.~.~.~.~.T.~.T.K.C.K.~.~. X~.~.~.~.T.T. X!.T.~.I.!.L.S.N.z.3.@.@.>.#.( I P J K Z Z V f a s q < , t 0.yXAXHXDXGXKXLXKXLXJXJXKXKXLXKXJXJXDXGXDXAXAXZXGXAXAXDXbXZXZXDXDXZXAXDXAXZXbXAXCXAXZXAXAXGXDXAXZXZXAXJXGXZXZXZXZXAXDXDXDXJXDXPXLXAXbXSXmXSXAXAXDXKXKXLXLXJXKXGXKXDXJXDXJXKXKXGXDXAXAXDXAXJXKXDXZXvXsXbXnXZXFXFXFXFXPXDXPXbXnXnXbX>X X~.W. X%X%X XW.#X$XW.$X#XW.$X&X$XW.E.{.#XQ.#X,X{.#XQ.&X{.$X&X$X#X$X#X$X$X,X$X{.W.#XE.Q.$X{.Q.Q.Z.R.E.R. XW.{. X XXX X~. XE.E.[.F.h.f.$.$.` } P r * , * , 2 , , 5 , , 5 2 5 2 2 2 < < < 2 2 < 0 , , , , % < , * > * > > < > > > > > > y S S q M E 0.W 4 z 4 1 5 1 , , , , , 1 , , , 2 1 6 S S c z 6 q a W A 4 a D i n ~ Q =.u.M.r.U i 7 t 7 t y i i z c c Y E W Y W ] 9.9.t.u.p.r.N N N q.qXwXrXqXuXuXu.u.aXSXHXGXHXfXhXfXhXwX_.W B x z p t 6 4 6 4 5 2 2 1 2 5 4 4 4 3 4 7 t z T yXyX/.D i n U r.`.pXaXrXrXrXwX'.(.{ N m z b v m M U W u.rX`.`.hXpXwX(.i.t.i.{ z z 8 u u t y 7 8 m D M S 0.M.).).@XF.K.U.U.|.[.oXoX}.{.{.}.oX{.E.[. X X|.|.[.E. X X.X|..X XE.R.E.E.[.I.T.P.P.E.2X&X|.E.|.oXW.E.E.P.P.E.C.L.P.P.P.P.R.P.P.P.E.E.E.|.|.P.P.P.R.P.}.E.P.G.D.S.}.>XR.P.V.c.b.c.G.G.C.V.z.j.V.S.V.z.Z.V.V.b.v.J.v.b.K.b.v.b.V.z.z.z.z.C.N.V.V.b.C.c.j.V.N.C.j.z.b.N.j.c.z.v.l.1.3.3.;.z.c.j.z.j.2.j.z.1.z.z.z.j.>.1.2.3.1.1.1.2.<.<.1.:.l.,.,.1.1.1.b.1.1.4.=.4.b.=.=.=.<.1.6.=.4.<.<.<.5.<.<.<.<.<.=.<.,.,.1.,.l.l.:.,.,.l.<.>.>.,.>.S.[.L.>.>.f.>.>.;.>.;.<.` ( I ' I I I P I J I I k I I J J J I P J P P ( I I I ' #.$.$.$.$.-.",
"P.~.J.I.I.~.|.[.~.L.L.T.4.4.4.6.2.6.5.5.<.6.6.6.4.4.4.4.6.4.2.6.3.5.6.6.6.6.A.B.N.N.N.A.H.Z.N.Z.Y.Z.B.H.T.J.T.T.T.Q.T.^.T.Q.T.^.J.T.~.XXoX0X5X1.L.~.~.6.~.~.~.~.~.~.~.~.~.~.oX1X%X~.0X1X%X~.~.~.~.~. X~.Y.J.l.J.~. X!.!.~. X~.~.~.~.~.T.T.~.~.E.E.Z.Z.l.1.1.,.>.#.+.( o.J K G C V j a < * , , 2 8.+XmXGXHXJXJXKXLXLXLXJXLXDXDXGXJXZXAXZXDXZXDXDXZXbXAXDXAXCXIXAXAXDXDXAXAXZXDXDXDXAXDXAXDXDXFXZXZXDXDXFXGXAXZXGXJXJXJXJXDXDXPXLXAXAXZXZXSXDXIXKXKXKXLXLXKXJXGXDXGXDXKXKXLXJXDXFXDXDXGXGXJXDXZXbXcXbXsXbXbXbXZXZXZXDXFXFXAXAXZXIXnXyX}.$X{.&X&X$X$XW.W.#X&X=X#X#X$X$X#X$X%X$X-X=X$X X$X$X-X{.#X$X=X=X:X#X%X$X$X{.$X$X{.Q.{.W.Q.{.E.Q.W.T.E.W.$X{. XE. XW. X X X~.R.S.c.j.3.>.+.+.` ( j < * < < 2 2 < > > & , , , , < , < , 2 3 < q , % < < , < > > < 2 > 2 2 < < 2 % % > , 2 2 > m U v E T U E S t < < > > , & , * > > , 2 x Q S c c y t S E z p ] r.] 9.u.{ u.r.M.u.D x t p i p u n A D B E ~ W E U W Q W 9.E U B N m r.p.qX_.qXwXqXwXwXq.M.qXZXFXHXhXfXfXfXfXwXu.Q N x i p t 4 4 6 6 2 2 6 4 4 5 5 4 4 7 9 6 6 u c /.aX/.M.z c U y.`.`.wXrX`._.M.p./.u.W N m z v v N M S U 7.0.p.(._._.i.t.7.0.0.U v u i u t z 7 7 z W W U U =.M.m.n.F.F.].].].].[.[.[.}.}..X}.&X}.[.;X.X X.X.X.X.X.X.X[.|.[.E.|.|.P. X~.E.P.E.E..XXXE.[. X&X|.E.E.|.P. XL.E.~.P.E.[.E.~.oXP.K.[.I.[.E.E.P.}.|.E.[.E.P.P.F.F.}.:XR.S.V.C.V.c.V.D.D.V.S.D.D.V.V.P.b.C.C.v.K.v.v.C.V.V.C.z.2.b.c.z.b.z.C.z.b.c.H.V.N.V.Z.z.z.j.z.z.N.V.b.z.3.3.1.2.>.2.z.l.l.2.3.z.j.N.z.1.3.1.j.1.2.<.1.1.1.1.<.<.<.1.1.l.1.l.l.,.l.,.,.,.<.1.<.<.=.=.6.=.<.1.=.<.<.<.<.<.<.<.<.<.,.,.<.,.:.>.1.l.l.,.,.f.1.l.:.,.h.F.I.S.>.h.,.-.;.-.-.-.-.-.' ' I I ' I I I I J J I I J P I J P J I I P ` | =.#.| $.$.>.=.` | ",
"~. X~.I.J.T.~.|.oXI.~.~.6.6.4.6.2.3.2.5.5.6.6.6.4.4.3.4.6.6.5.3.3.5.6.6.2.6.A.B.N.j.N.Z.L.B.Z.N.Z.H.H.Q.~.T.T.Q.~.Q.~.~.!.~.J.J.T.T.~.%X2XMXVX8XXX~.XX~.~.~.%X%X~.~.~.J.~.~.%XoX~.~.~.~.~.~.~.~.~.I. X~.I.T.B.L. X X1X~.1X X~. XY. X*X~. X X&XE.L.V.Z.v.z.b.h.,.$.#.+.@.( P P G G Z f d = & = % 2 T ).CXDXGXAXDXFXFXGXGXGXDXDXFXZXZXZXZXAXAXAXAXCXZXZXAXDXZXCXZXDXZXDXSXAXAXDXDXGXDXDXDXFXFXZXFXAXFXDXAXZXFXZXZXGXJXAXDXFXDXDXLXAXAXAXFXIXDXDXDXDXKXKXKXJXJXDXDXGXJXLXLXLXGXAXZXAXDXDXDXFXFXbXvXaXbXbXbXZXnXnXFXFXnXFXnXbXZXAXAXKXnXvXOX.X=X X&X$X#X#X#X$X#X#XE.#X$X&X$XW.&X-X-X%X%X$X$X-X=X#X$X$X=X&X=X$X=X-X-X#X$X$X$X$X,X$X$X$X{.&X~.W.W.W.$X%XW.$XE.W.E. XE.R.P.L.C.S.c.h.1.>.,.( C * $ % % % % , > % > % % % % > % < 2 3 < 0 , < < * , < , < > 2 2 < < < > q y y i x c c x x m m S T T Y U c z x a c c x a x z x V n S Y E E E Y U c S n A D 0.u.r.M.r.t.i.M.u.Y m m m x m n Y ] ] ] 0.{ W E D E Y U U m m m m m E i._._._.`.qXeX/.q./.qXrXrXp.p.p.p.rXrX_.t.Q N h u p p w 6 q 6 2 6 2 2 2 6 4 t 4 w w w y y u S y.M.y.S N S t.u./.u./.u.9.i.7.7.{ t.U B N N N M B U U T Q Q 9./.p.p.p.r.9.{ E M M z z u t u 9 u B { W U U ] 0.'.U.'.].U.I.[.].[.[.[.{.{.{.[.[.E..X.X|.[.}..XXX{.&XoX{.E.|. XE.E.|.E.P. X|. X X.XE.|.E.|.E.E..X.X[.E.E.P.|.P.E.P.|.R.E.R.E.E.E.P. XR.P.R.|.[.P.F.P.P.D.V.&X:X@XF.S.V.c.V.V.D.C.S.V.D.D.C.c.Z.V.Z.K.v.J.v.b.K.V.z.C.z.z.z.V.j.V.z.z.b.V.b.v.b.b.N.1.z.b.c.z.V.z.c.j.z.z.z.<.>.1.b.j.b.Z.l.z.2.z.z.z.z.l.1.;.b.1.-.<.1.1.<.<.1.l.1.f.l.l.x.l.1.1.<.,.1.1.1.1.4.=.4.b.<.4.<.4.<.<.5.=.=.<.<.<.<.=.<.<.<.-.>.>.,.,.,.l.1.>.l.<.1.$.c.D.c.$.>.>.:.;.| ;.;.-.+.` =.I I ' P I I I k J l J P I I I P I I ' ' ` ` -.#.$.$.f.f.=.:.$.",
" X2XXX~.K.E.I.XX|.XX~.~.J.<.3.5.2.5.5.5.<.2.2.6.6.6.2.2.5.5.2.3.4.5.4.6.6.3.N.N.N.3.N.Z.R.N.B.z.Z.B.H.E.T.^.~.J.Q.~.Q.T.L.^.L.T.J.^. X1X2XVXNXXX~.~.~.~.%X1X~.~.oX~.~.4.J.~.%X~.1X1X~.~.~.%X5X~.~.~.~.~. X~.~.1X1X~.~. X%X1X1X1X X X X X!.~.~.~.P.L.Z.z.4.z.z.z.h.>.+.+.' ( / J J G Z f d % * % ; 2 S ).ZXCXZXZXFXFXDXDXHXZXFXFXZXCXZXAXDXAXZXZXZXbXZXDXAXbXZXKXDXGXAXIXJXAXJXJXDXGXDXAXZXFXZXFXAXGXGXJXDXZXAXGXFXDXDXGXDXAXLXLXGXAXGXAXIXKXJXJXJXKXLXKXKXGXGXGXLXLXLXLXLXKXDXFXAXDXAXAXbXbXjXvXbXbXnXbXvXZXZXFXPXnXDXFXJXJXIXAXZXAXZXmX}.E.~. X{.#X#X{.$XW.&X#X$X$X{.{.W.-XW.$XW.$X$X%X&X$X&X-X$X=X$X=X$X&X&X=XW.$XW.=X$X$X#X$X=X$X$X,X$XW.*X{.$X XE.$X XW.&XE.{.E.R.L.D.D.B.V.c.h.| _ G e = , , , > > & , > > % < & , 3 4 3 2 q > 2 , , , < % > 2 > 2 < > > < 2 q 2 q q y y x y i i u y y M T T S y y a p p y e q y p y Y x c T Y ] { w.{ Y Y W ] W r.u.r.u.M.M.i.r.9.W E Y Y E W ^ ] { ] { D D M m D M n M M N N n N Y Q Q Q w.q.q.i.a.(./._.rXs.p.'.p.p.s.s.t.B N i i i p 9 q q t t q q 6 6 w t t t y y p t y u c M c v z c B E Q W ] W 8.Q W W Q Q W Q B B M B M B U U T T ] 9.i.i.p.p.t.Q W 9.T D M c z m z m N z B =.9.Y Q r.m.).n.U.n.I.@XE.@XE.R.[.{..XoX[.[.I.[.[.oX&X|.oX}.|.[.[.E.{. XE.E. XE.R.oX X|.P.I.|.E.[..X XI.P..X~.[.P.L.E.E.P..XE.|.E.~.|.|. XE. XE.E.K.I.P.P.P.E.P.F.D..X>X[.D.V.N.V.V.N.V.D.V.D.D.D.D.z.b.b.Z.C.v.v.v.J.J.v.j.N.j.b.z.z.1.N.j.z.j.C.Z.C.C.z.z.z.b.V.b.j.N.V.b.j.b.z.z.1.1.C.z.Z.z.j.c.V.c.2.l.l.z.1.>.2.<.1.,.1.1.1.1.<.1.b.l.f.1.l.,.1.l.m.=.<.<.<.<.1.4.=.=.b.=.4.4.4.<.=.<.<.5.<.5.=.<.-.<.<.<.<.<.1.>.1.l.1.>.l.1.,.h.h.D.S.P.,.$.>.>.-.>.-.-.-.| +.=.' ( I I J k I I k I P P I ( ' ( ( =.5.` ` >.>.>.>.f.f.:.,.=.=.",
"T.~.XXP.J.P.~.b.4.I.~.C.4.4.6.5.5.5.6.5.6.6.6.2.4.6.6.6.@.4.2.6.4.4.6.6.N.6.A.4.3.3.N.j.A.Z.N.Z.Z.R.Z.A.T.T.T.J.J.T.^.^.!.Q.J.Y.L.T. X%XUXVXVXoX6.~.J.~.~.XX%X~.%X~.I.6.J.~.%X~.~.~.~.1X1X~.1X~.~. X X X~. X~.!.~.1X1X XXX1X1X X!.~.1X1X&X&X~.%X~.L.C.v.K.V.c.v.j.%.#.X.+.' ( ( J ! o.Z r * - % + + 2 M M.CXHXCXbXZXDXDXFXbXZXZXAXAXZXZXZXJXAXAXbXbXCXAXZXDXAXDXJXDXDXDXKXDXAXDXAXJXFXAXZXZXFXZXZXDXJXKXDXFXAXDXAXAXDXJXJXPXPXLXJXJXGXGXLXLXKXLXKXKXKXKXLXLXKXKXLXLXLXLXLXJXFXFXZXZXbXnXvXvXvXsXsXbXvXnXvXbXZXZXFXFXFXDXDXDXAXAXZXAXAXAXvX>XP.~.{.#X{.Y.W.W.Q.{.#XW.$X#XW.$XE.$X!.*X$X$X#X{.#X&X=X$X:X-X$X#XQ.E.{.$X$XW.$X%X$X$X$X$X$X$X&X$X$XW. XW.$XW.E.W.W.W.R.E.W.@XD.S.@XC.c.c.c.-.` / r % & < * , , , , , , > > < 3 3 3 3 q < 2 < < < < * * 2 2 2 2 < < < > 2 2 < < > > x M i u 4 , % S U c q , > > , < , , , < p x z y z Y W ] 8.0.w.= 5 p m E u.M.p././.i.u./.M.U & & , 3 , 3 3 V { n 5 5 5 3 7 w n W E ] ] { Q D U Q q.q./.tXwX(.tXuXSXhXrXrXwXp.p._.u.{ N a u p t w 7 7 t 6 t 6 6 t t t y y y y i i i z z c c c c m m n M M D E U T E W W E Q Q U U Q T T E T Q W T Y Q Q { t.E { W ] 9.w.9.U U U B S N N N N N Q 9.W Y U 9.g.n.U.'.K.R.[.}.[.[.}.&XOX.XI.R.[.&X&X&X&X.X&X.X.X&X{.|.[.|.|.oXoX[.~.oX|.[.|.E.E.E. XXX XE.[.E.|.|.P.E.P.E.P.E.P. X X|.|. X[.|.|.P.I.S.L.R.E.P.E.P.S.V.;X:XP.F.c.V.c.V.V.S.D.D.D.S.R.V.C.c.V.C.V.b.J.K.b.b.z.c.b.V.j.z.2.z.C.V.b.z.V.c.C.c.V.N.c.z.c.1.N.z.z.z.z.z.V.2.>.;.3.b.z.c.2.2.j.z.1.3.<.<.2.2.z.<.<.<.<.<.1.,.<.x.b.b.1.,.,.l.l.1.b.<.1.=.<.<.<.<.<.4.=.6.K.6.=.<.5.=.<.<.<.5.=.<.-.<.-.<.:.,.f.1.f.l.x.,.,.>.,.h.>.S.P.S.>.$.>.<.l.-.` ;.-.' -.' _ ' I I I J P I J P I ' I ( ` ' ' =.-.>.:.>.f.>.f.k.$.f.,.<.,.",
"L.~.~.oXXX~.~.b.H.L.L.J.J.l.6.2.5.6.6.6.6.4.6.4.N.N.6.6.6.6.6.6.2.5.5.2.6.6.<.6.A.j.Z.N.2.N.Z.N.Y.Q.N.H.Z.Q.L.Q.^.Z.J.Y.Q.H.B.B.J.~.XX1X5XMXVX[.6.I.T.J.=.J.J.I.~.~.~.J.~.~.~.oX1X~.%X1X%X~.~.%X%X~.9X0XXX~.~.1X%X1X~. X1X%XXX~.~. XT.~.%X~.1X~.E.E.J.J.v.b.1.l.l.1.3.-.;.-.' ' ( P / G Z a d - > > + 2 x 0.vXAXZXZXGXbXvXbXbXvXZXZXAXZXZXAXAXZXSXAXIXAXZXSXKXKXAXbXKXZXZXZXAXDXDXFXDXDXGXDXDXFXAXFXDXGXJXAXGXJXGXFXFXDXDXDXPXLXPXLXDXLXLXLXLXLXKXKXJXKXKXKXKXKXLXLXLXKXJXGXDXAXZXbXbXZXvXjXsXvXvXbXbXnXbXFXbXbXAXZXZXZXFXZXZXZXAXAXZXZXbXnXOX|.R.T. XT.Q.W.W.W.#XW.!.$X$X!.W.W.{.#X&XQ.#X$X$X$X#X$X%X*X$X#XQ.Q.E.#XQ.{.&X&XQ.{.W.W.$X{.%X%XE.#X#XW.$X{.W.E.{.$X[.E.P.R.[.P.D.S.V.V.c.f.>.#.! a < % , & < < , < > > % < 2 < 2 3 q > 2 2 2 < * > > < 2 < 2 2 > > > 2 < < 2 > > y D U Y W i % t 6 , , , , , & 5 , & & 5 A F A S Y U W ] q.i.{ & : E u.M.i./.i.M./.i.i.).i.w.< 2 d 3 3 5 & & 5 * 5 d D U T E 8.w.w.M.w.o.v N M T W t._.hXfXfXHXHXHXHXCXCXhXCXhX`.s.r.B 3 w 5 5 5 5 2 2 > 2 2 2 2 2 q t t y y y i y z y c c u u t 9 y 6 y y z c a c x m c m m n A n S S S S S o.Y F S Y W Y T o.8.E Q T T Y T T U U T T E T U E 9.0.0.W Y } g.m.x.m.S.F.D.D.].[.}.{.|..XR.}..X X.X:X.X&X;X.X.X|..X XXX.X&X&XE.|.|.R.E.|.E.[.|.&X&X[. X.X{.[.|.|.E.{.L.P. XE.R.E.P.E.|. X|.E.I.E.P.I.].I.P.P.P.S.K.&X>XR.C.C.C.Z.c.S.V.C.S.D.Z.S.V.z.V.K.C.C.v.K.C.C.v.b.b.z.b.z.z.z.z.z.b.b.z.V.b.C.P.Z.C.Z.S.b.3.3.z.z.z.1.b.z.2.1.1.2.1.z.1.b.j.z.2.1.j.3.2.3.<.3.1.1.1.1.1.1.,.<.1.1.<.:.<.x.f.1.<.l.1.1.;.<.<.l.4.6.=.<.=.4.b.6.4.b.6.=.=.<.<.<.<.=.-.<.,.<.,.f.1.,.x.l.:.,.:.<.;.>.c.I.P.$.>.>.-.-.-.=.' ' -.-.' I I I ' ' I ( I J I I I I ( I ' 5.-.f.f.;.,.,.=.1.,.=.l.=.=.=.",
"J.~.J.L.I.J.J.P.I.I.J.J.2.J.2.3.6.6.6.6.4.4.6.6.6.N.6.B.4.2.3.3.2.6.6.2.5.6.6.6.N.N.N.N.N.N.Z.T.$XQ.Q.H.H.Y.Q.R.W.T.Y.J.Q.!.B.Z.T.~.!.*X5XNXNX>X~.b.6.J.J.I.S.J.J.J.~.~.J.~.~.~.~.%X~.~.1X~.%X0X8X1X0XMX1X~.1XXXXX%X%X~.%X5X%X1X1X XXX1X1X X1X1XK.K.b.l.v.;.<.<.V.c.1.+.+.-.-.=.' ( ( ( J C a & > > % < w x w.yXbXbXCXbXbXvXZXCXZXCXJXAXDXDXZXCXAXDXAXDXAXAXZXIXJXAXCXZXZXZXAXDXFXDXPXDXDXDXDXDXAXGXGXJXLXJXDXDXFXFXDXJXJXDXLXLXLXLXLXLXLXLXLXLXJXDXDXDXKXLXKXKXPXLXKXKXDXGXAXZXZXZXZXbXbXvXcXsXvXbXvXbXbXsXbXvXAXZXZXbXbXZXbXZXZXAXAXZXnXZXAXOXoX{.E.W.W.E.W.#X!.!.W.!.$X#X$X#X$X#X{.#X{.$X{.{.$X,X$XW.&X=X{.$X{.W.:X-X$X#X#XE.W.{.#X{.W. X!.&X&X*X{.H.H.W.{.#X$XR.D.W.{.E.V.S.D.Z.V.C.$.#.+.J C 0 & & , , , , > % , q q q 3 4 2 * 2 2 * < * > < > < > > < > < 2 > > 2 2 2 > 2 z S Y E W i t 2 4 y , , , & & , 5 , 2 x S S Y E W W W t.u.Y & a w.r.y.y./././././././.y.w.0 * * 3 3 < d * & 5 a E W ] { w.y.w.M.8.y v c D E { t.p.wXsXsXfXfXHXFXHXHXHXsXaXsX`.sXt.h 5 5 5 & < : 2 2 2 2 2 2 2 2 2 < 2 3 0 < < < , < < < < & < < 2 2 2 q q q 2 2 5 5 4 4 q 6 q t y 6 q y y b y z x a z x c x x c x a z u t t y y w t 6 y w 6 z n V x i a [ g.m.].].R.P.[.}.&X&X[.|.}.[.{.|..X&X>X&X&XoX.X.X X|.XX&XXXXX|.|. X X|.E.oX XP.R.|.E..X|.[.E.|.E.E.P.[.~.E.oX XE.|.P.E. X|. XE.P.I.|.E.P.[.E.S.P.F.S.*X7X].D.S.H.C.C.C.V.C.D.S.V.V.K.z.z.v.C.b.b.J.K.b.v.b.V.b.z.j.j.2.z.V.z.C.C.B.Z.V.b.C.V.V.V.l.j.j.3.z.z.2.j.j.z.z.j.1.1.z.j.2.c.z.1.j.j.z.3.#.$.<.>.2.h.1.1.2.1.<.<.:.1.l.x.b.l.l.1.l.,.>.<.-.<.;.=.<.<.6.4.4.=.=.=.=.=.6.4.<.<.<.<.<.l.,.;.-.,.,.>.,.,.1.<.,.-.<.>.>.S.K.P.>.>.>.` -.+.;.` -.' -.=.I I I ' ' I P P I ( ( I I I I ' -.,.,.-.=.>.,.=.,.x.x.,.,.,.f.",
"I.I.K.I.I.L.J.v.b.2.J.1.2.J.B.3.6.6.J.6.6.b.4.6.6.A.A.H.A.B.3.2.6.2.6.6.=.<.6.J.Z.N.2.2.N.N.Z.Z.R.#XR.Y.^.Q.W.W.E.Y.T.Z.J.Y.Y.W.~.~.1XoX4XVXNX.XJ.~.I.4.4.J.~.~.I.J.~.~.~.~.XX1X~.UX1X1X%XUX~.~.0X%X%X%X~.%X~.%X%X1X%X%X~.1XXX%X1X X%X%XXX X4X~.K.b.K.b.l.1.1X3X1Xz.<.+.b.4.;.=.+.` ( ( ( J Z r * = % % < e p ] yXbXvXZXCXZXFXFXZXZXZXbXvXbXvXZXAXDXDXAXAXbXZXCXCXbXbXAXAXbXAXGXJXJXPXJXJXGXFXDXDXGXDXDXDXAXJXDXJXKXLXLXLXLXLXLXLXPXLXJXJXJXPXPXJXDXDXGXGXLXLXLXLXKXJXGXFXDXZXZXFXFXJXFXZXbXsXsXsXsXbXbXbXbXbXbXnXAXZXZXbXvXCXbXZXZXbXAXbXZXmXZXjXE.E. X!.W.!.!.$X$X$X$XW.$XE.E.{.$X{.#X#X$X{.#X$X=X%XW.%XW.W.W.{.#X&X#X=X{.#X#XE.$XW.#X#XR.T.&X-X%X$X$XE.L.{.W.$X{.{.L.R.C.D.R.D.V.S.C.z.f.$.+.' G a % > , < < < > % 0 4 q q q 0 2 q 2 2 < < < < 2 < 2 2 > < > > < < < < < 2 > < i Y T E T W Y W U 3 < & 5 , < < 3 0 V Y Y Y E E W q.0.u.{ * D r.r.q.y.i././.(./.i./.M.w.6 < < 3 3 < & x ~ ] 9.9.w.9.q.q.n y S y z T w.q.i.(.(.qXwXhXfXaXfXHXHXGXGXHXaXHXp.p.=.B w w 4 5 5 3 5 > 2 2 > > 2 < 2 2 2 < 2 2 < 2 < < < 0 < & 5 & , , 2 0 0 2 q 2 2 4 7 4 4 2 6 t t q q y i w w y y y q z y z y z y y y p t u t q q t 7 q 4 4 3 , 2 > 1 4 0 V d.F.].[.[.]..X;X}.[.&X.X{.|.[.|.}.&X|.OX&X XXX X.XXX X XoX X X|.E.|.E.|. X|.E.{.;X X.X.XE.E.E.[.{.R.|.oX&X|.|.|. X[.P.oX*X.XE.[.R.P.P.R.L.P.E.D.L.S.oX4X@XD.C.K.K.v.b.z.z.z.V.K.v.v.v.B.V.C.C.v.K.Z.K.b.K.z.C.V.z.b.c.z.V.z.j.z.j.c.c.z.v.Z.c.N.V.z.V.c.j.c.2.j.j.z.N.V.2.z.2.z.b.2.z.z.z.z.z.z.1.<.>.2.j.;.3.<.;.<.;.1.<.<.1.b.x.b.1.x.1.l.1.<.;.>.;.4.=.6.4.4.=.b.6.<.=.=.<.4.=.<.<.<.<.>.,.;.,.;.;.>.,.1.1.1.>.-.>.>.,.c.S.S.$.>.h.<.<.<.;.-.-.` ` I I J I @.I P P ( I I -.` #.` ` ` -.;.-.=.,.k.x.=.,.u.b.m.l.x.g.",
"I.J.P.~.~.I.I.K.H.K.K.2.1.b.J.~.-X^.J.J.J.b.4.4.3.5.4.2.6.N.4.2.4.2.5.5.5.6.6.6.2.N.Z.A.Z.2.Z.^.Y.Q.Q.R.D.W.=XE.#XE.Y.T.R.H.L.W.J.P.P.L.].NXVX*X~.~.~.~.~.~.~.I.oX1X~.XX~.~.~.oX~.%X1X~.1X~.~.~.9X1XXXXX%XXX%XXXXX%X1XXX1X%X1X1X1X~.XX%X!.~.~.T.C.J.L.J.C.H.I.!.K.4.b.xXK.1.;.5.#.@.' ' I P G C e = d , , < 2 p ] bXZXCXZXbXFXZXvXbXvXvXvXZXZXAXDXKXKXAXZXZXZXZXZXmXZXZXAXZXCXAXJXKXGXGXKXFXFXDXJXGXKXJXJXDXGXJXLXLXLXLXLXLXLXLXLXPXLXPXDXDXAXJXGXGXDXDXGXLXLXKXKXKXJXDXZXZXZXCXZXDXDXDXbXaXbXsXbXvXbXvXbXvXbXZXbXvXCXvXZXvXbXbXCXvXvXZXDXDXJXZXbXjX|.~.!.T.=X!.$X XW.!. XE.Q.$X,X#X#XW.R.$X#XR.$X#XE.%X$X$X$X&X-X$X{.$X=X#X:X{.Q.W.$XW.%XW.!.&X$X$XR.W.{.#X=XQ.{.{.R.j.V.W.E.D.S.C.S.C.G.h.f.$.#.| J f < % > > > > % , 2 3 3 3 2 0 q q 2 * % > 2 < < 2 < < > < < < > > > < x y < , A T S U w.8.] U 5 , 3 , & 5 3 3 y S S Y W Q Q r.0.r.i.t.x E r.y.t.y./././.q././.i./.e.z 2 , 3 3 3 5 =.r.r.t.9.w.0.w.U y 1 t c S q.(.a.a.(.qX_.wXrXhXhXbXHXHXLXLXFXfXhX_.u.U i w 3 4 5 3 5 * 2 > > 2 2 2 < 2 2 2 2 3 2 2 0 2 2 < < < & 5 , , , 2 w.w.A y w.w.r.r.9.0.W W ] W 8.W o.D z e w w q q 6 2 y 2 2 y z Y ] ] ] E 7.9.9.n i w 6 q < 2 1 1 4 3 q ! m.].].@XI.].}.[.[.}.{.[..X{.{.oX&X.X&X.X>X&X;X&X{.{.|. X XP. X|.R.|. XE.[.oX|..X[.[.E.}.}. X.X.X.X.XE.[.oXE. X X|.|.[.E.E.|.[.P.E. X XP.[.E.R.F.S. X:XD.S.V.I.C.v.v.z.c.Z.L.C.b.C.b.K.B.b.B.K.J.c.V.v.C.z.H.V.b.z.j.j.V.z.2.j.2.2.1.b.z.C.z.z.b.z.j.z.1.2.1.1.b.z.V.b.z.c.l.l.j.l.z.z.j.1.1.j.2.j.2.1.<.1.;.<.<.<.1.1.<.1.x.l.l.l.l.l.<.,.,.-.<.<.,.=.4.4.=.=.m.4.=.6.<.6.<.<.<.=.<.,.<.<.,.;.;.,.,.,.1.x.l.l.,.f.,.h.>.x.P.c.>.h.1.;.>.-.-.-.<.' ' ' I ' ' ' =.I I ( I P ' >.| | :.=.>.:.=.g.g.x.g.b.=.<.x.r.x.x.x.",
"P.~.I.~.L.J.J.P.C.K.b.2.4.4.J.J.J.!.Y.J.J.b.6.b.2.3.N.@.5.2.4.3.<.5.6.5.I 5.5.6.N.2.3.6.B.B.A.N.A.Z.^.Y.^.!.W.E.E.Y.Q.Z.Y.Y.V.E.D.{.R.}.;XnXVX=X~.~.1X%X~.~.~.~.1X~.~.%X~.~.~.%X1XUX%X1X~.%X~.~.%X~.~.~.~.~.1X1XoXXX%X X%X X XI.I.T.H.K.J.C.Y.I.T.T.L.L.J.L.J.K.K.B.2.I.J.c.<.,.1.>.+.$.' / P G C e 0 3 3 * < 3 p M.jXvXCXvXAXvXvXbXbXCXZXbXDXJXKXDXDXAXAXZXbXZXAXZXAXCXZXAXDXGXGXLXDXFXDXKXGXKXKXJXJXLXLXLXLXKXLXLXKXKXPXPXLXLXKXLXJXDXDXAXFXGXDXDXGXGXJXGXJXKXGXGXDXDXFXZXFXZXDXDXKXGXZXZXbXFXFXGXFXJXFXJXDXJXGXKXDXDXDXAXZXAXAXZXZXAXLXJXJXGXDXnXjXW. X&X!. X*X%X&X%X#X{.E.{.W.Q.$X{.{.#XE.$X{.-X&X#X&X-X X1X:X=X*X=X=X=X=XY.&X-X=X,X$X#X{.,X$X#XW.W.Q.R.$X,XR.V.2.$X{.D.R.D.C.D.D.V.x.D.z.h.>.$.` / G a < > > * > % % & & , 2 , 0 2 0 < < < < > < < < 2 > > , < < 2 2 < V D c q 4 t 7 m W 9.w.w.t > < , & , < 5 V Y Y Y Y E Q { q.u./.r.n Y r.r.y.i.q.w.i.i.i./.q.q.u.A 5 3 3 3 3 5 ~ u.u.r.0.w.{ Y t q S X.0././.i.`._.qXqXp.t.wXhXhXbXFXJXJXFXfXwXhXwX=.N t 4 4 q 2 < d 2 , > 2 < < 2 > 2 2 < 2 2 2 2 2 < < < 3 3 < , , & , , o.0.O.8 S M.).M.M.w.0.q.q./.w.y.y.w.] n p w q w 1 6 6 y 6 y z X.M.).'./././././.w.U A V x q 2 3 D Y D E M.n.).].}.U.[.[.[..X|.|.&X|.[.}.[..X;X.XoX&X.X{..X[. XXXE.E.|.|.~.[.[.E.E.[.|. X.XR.[.|.|.|.|.&X[.oX XoX|.E.oX|.|.XXP.E.|.|.E.P.I.E.R.E.E.P.P.H.K.|.4XW.v.b.U.K.K.J.C.L.K.J.v.v.l.K.J.b.z.c.S.Z.C.b.b.c.V.b.j.z.2.z.z.V.b.z.C.j.j.z.z.b.j.j.b.z.j.1.2.l.z.3.h.b.j.z.z.V.b.j.j.2.j.z.3.3.1.l.h.z.j.l.1.1.<.;.<.,.<.1.1.1.l.l.x.<.l.l.l.<.<.1.,.,.b.,.<.4.4.4.=.4.b.4.=.<.5.<.=.=.<.<.;.,.<.-.>.;.1.<.,.<.j.l.f.l.f.,.h.h.h.F.v.,.f.l.,.;.;.=.;.+.' -.' ' ' =.=.' ;.' ' ' I ( ` #.:.>.=.=.,.,.=.M.,.x.=.=.b.=.<.u.=.x.",
"~.~.~.XXoXb.<.b.b.4.J.b.<.5.<.b.6.~.$X!.~.J.L.J.6.j.N.2.3.3.2.3.2.6.6.6.5.5.6.6.6.Z.Z.Z.J.4.N.Y.T.Y.T.^.Y.R.$XE.T.Y.Y.Z.W.Y.<.4.Y.R.}.}.}.mXxX3X~.~. X%X%X~.~.~.1X~.~.~.b.5XXX~.1X~.%X%X1XUX~.%X%X~.1XXX%X X~.XX%X X~.%X~.T.L.Y.T.K.J.B.C.2.4.Y.I.T.~.T.P.H.P.I.b.K.L.Z.b.l.,.;.>.>.#.;.+.' ( ! J V r < 3 < * < < a r.yXsXsXvXvXvXvXbXvXZXZXZXJXKXGXDXAXCXZXZXbXZXZXbXDXZXAXAXGXFXDXFXDXGXJXKXKXLXKXGXLXLXLXLXLXLXLXJXLXPXLXLXLXLXKXKXLXJXDXDXDXDXGXDXZXAXDXGXJXAXFXFXDXFXFXFXFXLXLXLXJXGXFXDXDXDXDXJXKXJXGXGXLXLXLXLXKXLXKXJXJXKXJXFXKXKXJXKXKXJXGXnXjX{. X X!. X=X X=XE.$X$X[. X{.#X#X{.Q.$X#X#X$X=X=X{.$X,X=X$X=X%X,X=X%X=X#X#X:X$X~.{.Q.#X#XE.#X{.W.Q.$XW.Y.G.^.{. XR.Q.R.D.R.R.F.D.G.C.l.z.h.h.$.+.^ o.f < > > % < % & % & 0 > < 2 2 < < > < > 2 > < 2 > < , * > 2 < < y D U S t & & 5 S W w.T w , , , < < 3 p S S U Y ] W 9.9.9.0.y.q.x F y.w.w.q.q././.M.i././.q.u.E w 3 3 3 0 5 w H n h F Y n q 2 Y 0.M.(.w.z w.`.q.W W =.u.hXwXhXhXCXHXHXhXsXhXwXwX=.z p 4 4 3 2 < 0 < < 2 < 2 < < 2 2 2 2 2 , 2 < < < , 2 4 3 , , & , < > 2 c i y y U M.).i.w.M.q.q.y.i./.M./.u.{ n 9 w 2 2 2 2 q y 6 t A Y 0.).qXi.9.t./.(._.q.i.w.S 7 4 Y E W W 0.M.'.m.U.].}..X.XoX.X}.|.[.E.{.&X.X}.&X}..X;X;XE.P.|.E.E.L.E.E.E.P.|.|.|.|.}..XoX}.E..XE.[..X.X.X{. XE.P.R. X*X{.~. X XE.E.E.E.E.E.R.}.R.R.L.L.Z.I.>XR.L.C.K.J.v.b.b.K.L.v.v.J.b.K.v.b.V.V.C.b.L.l.V.B.z.z.z.z.b.V.j.z.V.b.V.B.j.b.j.z.c.2.j.2.z.z.z.1.1.z.3.l.j.z.b.j.v.j.3.h.2.1.j.l.<.2.2.z.1.3.3.3.<.<.<.>.<.;.<.1.<.1.1.x.1.l.,.:.,.,.1.1.-.,.4.=.=.4.4.4.=.4.<.<.<.=.5.<.=.<.>.;.;.-.>.;.,.,.,.1.f.h.1.l.x.l.h.h.z.S.K.>.,.,.>.1.-.<.-.-.-.` I I I -.' 5.5.=.( ( ' I ( | | =.,.,.=.r.f.x.x.x.x.x.u.1.x.b.=.4.",
"~.~.~.I.v.b.4.1.B.4.K.4.b.b.J.B.B.J.B.4.Z.J.J.J.A.6.2.2.6.2.B.N.6.6.6.<.5.3.6.6.N.Y.R.Y.H.A.Z.A.Y.Y.Y.E.T.W.!.E.W.L.Y.T.E.Q. XL.S. X&XP.[.NXMXoX X%X1XXX~.~.%XXX1X%X~.XXT.~.%XXX1X1X1X~.%X1X~.1XXX%XoX~.~.oX~.~.1X%X~.%X X~.P.J.K.J.B.K.4.1.J.[.T.~.T.T.L.L.T.J.C.L.Y.K.C.l.v.l.j.j.>.>.#.#.' ( ! G V e 3 & 3 < * q a 0.+XyXvXvXvXbXvXnXAXAXZXAXDXAXZXZXAXbXZXbXbXAXAXAXFXAXbXAXDXDXFXGXPXJXJXJXJXLXKXLXLXJXLXLXJXJXJXKXJXJXLXLXJXJXKXKXGXGXKXGXGXAXKXDXGXGXJXAXGXGXGXDXDXJXGXLXLXLXLXDXGXJXDXGXDXFXDXJXJXDXFXDXJXKXLXKXKXJXKXPXKXLXLXLXKXJXGXJXJXGXJXZXnXoX X*X&X$X=X{.#X=X#X$X#X#X{.$XW.#XQ.#X&XQ.{.W.#X$X$X=X=X=X$X$X#X:X=X&X$X0X=X=X$X$X=X$X#X{.$X{.W.E.E.W.#X@XR.Q.R.R.E.R.R.D.[.D.S.S.P.V.3.$.$.%.#.' J f * % % % % % & , q < 0 < < < 2 * 2 > < 2 < 2 < > > < > < > < 2 U E Q U i 2 $ % q 8.W 2 , > & , < 3 n Y Y Y ] ] 8.9.{ 0.0.M.] > y w.w.y.y.y.i.i.i.M././.p.0.9.w 5 3 3 3 3 5 3 3 5 p 4 4 3 D M.M./.w.i p M 8.c V Y u.+XwXfXfXHXbXHXCXaXpXrXwX_.t.9 y q 0 < 2 < < 2 2 2 2 2 2 d 2 2 < < < < , 2 < 2 < < 3 3 < , < < < < 2 2 q 6 y a w./.i./.i.y.w.i./././.(.(.M.r.N p w q 4 2 6 6 q 6 y S 9.M.M.w.i.8.y./.(._.`./.q.N u m W { { W M.m.).n.].[.P.oXE.E.XX|.[.}.[.&X.X.X;X[.E.oX[. X|.[. X[.P.S.P.E.P. XE.E.}.E.{.oX{.{.;XoX[.[.oX|.|.P.E.P.|.[.|.oX&XoX|.|.|.E.P.I.I.P.P.E.P.P.P.P.~.=XS.Z.S.b.v.J.L.C.C.C.b.b.v.b.b.b.b.Z.Z.C.V.N.z.C.Z.b.z.z.z.z.j.b.V.V.V.V.V.z.L.b.b.V.2.l.b.2.l.2.,.1.4.c.j.1.2.j.j.1.3.;.1.1.h.j.2.j.<.h.3.>.1.1.1.1.<.1.;.-.1.b.1.<.1.x.1.l.l.<.1.l.<.,.,.l.l.4.=.b.J.=.J.=.6.=.=.5.<.<.=.5.<.-.<.;.-.-.;.,.<.,.1.h.,.l.>.h.l.k.j.,.l.S.-.;.l.:.>.-.;.-.>.+.+.' P ' ` ' ' -.' ( ' ;.$.-.| -.>.=.:.=.,.=.1.r.x.x.=.x.=.=.v.=.u.",
"XX2XUX~.J.K.J.I.K.z.J.V.b.Z.2.4.4.4.J.3.1.4.J.H.Z.A.2.N.6.2.4.N.6.6.6.6.5.2.5.2.2.A.N.Z.L.N.Y.Y.Y.Q.$XT.W.E.T.Y.T.Z.Y.Y.Q.L.T.H.&X.XS.I.].nXnX*X%X5X9X*X%X%X1X1X1X~.~.1XoX%X%X%X1X~.1XUX1X1X%X~.%XXX%X%X~.L.~.~.~.%X X X!.~.~.b.K.J.v.J.b.1.1.~.I.T.E.L.L.~.P.J.P.Y.K.v.Y.K.C.C.C.V.3.1.3.3.;.+.' P Z j 3 3 < 3 2 2 w x ..+XUXvXsXvXbXDXAXZXZXAXAXAXvXbXZXAXAXZXZXZXCXFXAXLXFXZXDXDXGXJXLXLXLXLXLXGXGXGXLXGXKXKXLXJXJXJXGXDXLXLXKXJXPXKXKXLXKXLXLXJXLXJXKXJXLXKXLXLXLXLXLXLXLXLXLXLXLXJXFXFXJXDXFXDXDXFXDXFXFXKXKXLXLXKXLXLXLXLXLXKXLXLXKXGXAXAXKXLXGXDXZXnX;X X&XkX:X#X{.{.{.{.#X&X&X#X&XW.{.{.{.Q.R.Q.Q.$X$X=X$X#X$X$X%X-X=X=X{.=X$X1X&X=X-X$X$X&X#X$X$XE.W.%XW.Y.R.R.R.R.{.[.{.E.R.D.D.Z.S.c.z.h.,.$.$.#.( P O.> + % % , % & 2 > q 2 < > < < 2 > > 2 2 < < < < > 2 , , > & z S Y W Q Y T U w.y.Y q , , < , , , D ~ Y E 8.W w.9.{ 9.y.0.c 2 2 W w.y.w.y.y.q.y.i.y.i.y.y.y.m w 3 0 3 5 3 5 3 V ..R w t Y 0.Y x q q i A n M W /.rXhXhXhXCXHXCXGXGXaXtXtXrXs.p.v y q 2 2 < 2 2 2 d 2 2 2 2 < 2 2 < < 2 < 2 < < < & , 3 3 < < , * < 2 2 4 2 2 y y U i.y./.w.y.y.i./.y.q.i././.t.r.W n p y 6 q 6 6 2 6 b Y 7.w.q.W 9.w.9.t.'.`./.q.t.U m { 7.W Q 0.M.).'.U.S.I.}.oX[.[.R.|.[..X[.[.[.oX;XE.P.E.|.&X X|. X[.E.P.P.E.|.E.|..X|.[..X{.oXoX.XR.[.|. X[.oXE.E.E.E.E.|. XE.|.E.I.I.~.oXE.E.E.R.I.E.K.P.oX:XL.c.Z.P.J.b.P.C.b.v.L.v.J.b.l.z.c.b.S.Z.V.D.C.c.z.c.2.z.N.z.V.<.V.V.j.b.Z.z.V.c.K.Z.V.z.j.h.z.l.2.z.z.b.b.j.z.j.3.2.h.1.3.1.2.1.1.>.1.2.3.1.3.3.#.1.<.<.;.<.b.l.1.1.l.l.l.l.l.l.:.,.,.1.,.1.1.=.b.4.=.4.=.b.=.<.<.<.<.5.<.5.<.-.-.<.-.<.>.l.l.1.>.>.,.l.,.>.,.h.j.h.S.c.f.>.>.l.;.;.;.>.>.#.' I J P I I ` -.<.' ' #.>.:.:.' =.=.<.<.r.x.r.,.x.4.u.=.,.<.u.b.u.",
"~.~.~.L.L.E.~.P.E.E.E.E.P.Y.H.N.4.J.H.J.b.J.Q.J.B.J.J.H.Z.2.6.N.2.<.<.3.5.6.4.4.3.4.B.H.J.B.L.H.!. X~. XQ.!.T.T.T.L.T.T.L.T.~.K.D. XkX>X6XVXxX2X1X%X1X%X%X~.1X~.%X~.~.1X1X~.~.1XUX~.1X~.1X1X%X1X~.~.XX~.~.J.~.~.~.~.~.~.1X~.~.UXUX~.b.b.b.b.J.oX~.~.~.~.E.T.L.L.P.~.~.P.T.L.L.z.v.v.V.b.j.h.>.#.| ` / Z r 0 < 2 d 2 q w a 0.+XyXOXsXjXZXbXZXZXAXZXbXZXZXZXZXAXAXZXAXZXAXZXLXDXDXDXJXKXLXLXLXLXLXLXLXDXDXJXKXGXJXKXFXKXPXGXPXLXLXJXKXKXLXKXLXLXLXLXLXLXPXLXKXLXLXLXLXLXLXLXLXLXLXLXLXLXKXGXGXGXJXDXSXDXKXDXDXAXJXDXKXGXJXKXKXLXLXLXLXLXKXDXJXGXJXDXDXKXDXGXDXZX;X}.=X{.T.D.W.$X=X&X#X$X&XW.$X{.Q.{.{.Q.W.$X$X$X%X%X,X#X=X=X=X-X=X=X$X=X&X=X$X#X$X-X{.&XQ.$X&X{.Q.$X{.R.R.R.R.R.{.}.E.E.D.L.V.V.V.z.z.h.h.1.$.#.( J r = = % % & & < < q < 2 < 2 < 2 > < < > > > > > * > > * < q 2 4 9 A 9.9.9.w.q.q.] 7 & & : & # > S W o.Y ] E w.9.9.{ { =.5 : 5 Q t.q.r.q.y.y././././.i.M.w.W 2 2 2 q 0 < , 3 { .. .R c y a 0 d 7 c 0.i.i.s.wXeXhXwXhXaXHXHXfXHXHXCXfXwX`._.u.N p 9 w 3 3 < < < , < > 2 < > 2 > > < 2 > < < , * < < 3 3 < < & < , < 2 2 4 3 w p M 9.r.u.t.q./.0.p.y.u.i.i.y././.y.9.n y y y q q 6 5 5 m Q r.u.i.q.7.8.w.p.`.(.(.u.0.7.9.q.7.7.0.y.m.).m.F.].|.I.E.|.[.E.oX|.&X|.[..X|.oX{.{..X XE.|.oXR.E. XP.E.R.[.L..X}..X{.|.{.[.&X}.E.}.[.[.[.E.I.I.[.oX|.*X.XXX X{.E.[.|.P.~.P.E.P.P.Z.K.|.2XK.b.v.v.J.C.b.K.C.b.C.b.b.S.J.z.V.C.V.Z.b.S.Z.C.N.3.z.z.z.z.z.( I 1.z.z.z.3.b.V.V.Z.c.j.z.j.2.2.l.z.1.1.2.z.1.l.z.1.z.z.3.z.1.2.1.1.3.1.1.;.3.3.1.<.#.;.;.3.1.<.j.1.>.,.j.1.h.1.>.<.h.h.;.<.,.,.l.b.1.l.l.l.l.,.<.1.1.>.<.-.;.>.>.;.;.<.<.1.1.1.1.f.f.<.l.z.h.k.h.j.F.z.,.$.1.>.>.>.;.<.$.+.' I J I I ( +.;.#.' ' ` >.$.$.| :.=.1.=.4.=.=.u.1.=.u.<.x.=.u.4.b.",
"b.v.K.I.3X*XXXXXE.E.2X&X X X!.B.v.~.L.4.4.b.J.B.B.B.H.Y.N.4.N.N.2.2.5.6.2.B.A.Z.2.4.B.B.B.J.H.J.T.T.T.=X~.I.E.L.T.L.L.~.~.T.I.H.{.;X:X>XjXVXNX6X5X*X1XXX XXX1X%X~.1X1X~.~.1X1X%X%X1X1X~.1X~.1XUX%X~.~.~.~.~.K.~.~.~.~.~.~.~.J.1XcX~.J.b.6.J.J.~.~.~.~.~.~.~.~.I.Y.!.~.~.~.P.P.L.P.Z.S.c.z.S.b.1.>.$.` P H r * < < < 3 q 4 a ~ M.M.'.yXbXbXZXZXbXmXCXZXbXZXAXDXDXJXZXAXGXJXJXDXFXGXJXKXLXLXLXLXJXDXGXDXFXFXDXPXJXJXGXDXGXFXGXLXLXJXJXJXJXLXLXLXLXLXLXLXLXPXLXLXLXLXLXLXLXLXLXLXLXLXLXLXKXKXKXJXDXDXDXDXDXDXDXDXDXKXKXDXJXKXKXLXLXLXLXJXLXJXGXJXJXKXJXDXKXGXKXAXmX>X{.{.{.E.$X%X$X$X$X#X&X$X{.W.&XW.=X#X$X=X=X%X$X%XR.#X=X=X&X&X-X-X$X-X-X4X%X=X$X$XY.#X{.Q.$X#X{.Q.L.Y.R.Q.Q.D.R.Y.R.L.R.R.Z.D.P.S.G.S.V.j.j.$.#.' J d * = = # % < < 2 < 2 < < < 2 2 2 > < < * > > > > < < 2 c c t & 5 t Y W 0.y.M.E 9 # & : & & 2 c W E W 8.] 8.{ ] 9.0.N : : 5 E t.9.u.y.i.y.y.q./.i.i.i.y.o.< 2 * < , q ~ ] 0.0.w.0.w.x 2 0 0 i w._._.eXeXtXtXhXhXhXfXHXCXaXfXfXHXsXwX'.s.Y 9 9 w 5 5 3 5 5 3 < < < < < 2 < > 2 2 > < < 2 , , < 2 4 2 , < 2 , , < < < 3 5 t t n { y.u.y.q.q.y.p.M.0.9.y.y.y.(././.0.D c y 6 6 6 5 8 u N u.wX_.a./.t.p.(.wX`.(./.p.t.i.a.y.i.t.q.r.m.@X].[.P.|.P..XoX[.}.[.oX=X|.|.&X.X.XoX|.&XoX XE.P.[.P.P.|.{..X[.[.{.oX.X|..X}.{.R.[.{.E.[.E.P.E.E.R.E.|.&X X X|.|.E.|. XR.P.K.E.L.W.K.L.R.2Xn.b.J.P.S.C.K.S.v.b.K.v.b.S.S.V.z.B.V.c.V.C.Z.V.j.z.z.j.C.z.b.2.2.1.j.3.1.#.j.j.V.b.Z.c.2.z.z.1.1.2.z.,.1.2.z.2.2.1.2.c.z.1.3.1.1.1.>.3.j.>.;.3.;.2.;.3.<.3.<.1.z.1.j.h.j.>.h.1.1.l.>.<.<.>.<.<.,.<.:.<.,.<.;.1.l.1.,.>.<.-.;.:.<.<.<.<.:.f.<.,.1.<.,.l.x.z.h.f.,.j.].c.f.$.j.1.>.>.>.#.` ' ' ' I I ' ` #.+.>.#.+.+.#.` $.| :.1.=.1.u.=.n.b.=.=.b.=.x.b.v.=.=.",
"I.P.P.~.oX&XXX|.P.[.2X&X~.~.XXQ.J.J.J.b.4.2.2.6.Z.J.4.N.A.Z.4.2.<.6.2.6.A.Z.Z.B.6.V.B.B.B.H.T.H.J.T.~.~.J.L.E.L.T.T.J.T.T.T.L.L.E.;X>X;X5XxXxXXX5X8X3X3X1XoXoX%X~.%X1X%X1X1X1XXXUXXX~.~.~.1X1X1XXX%X~.XX~.~.~.~.~.~.~.~.~.%X%X~.~.J.~.J.b.b.~.XX1X~.~.~.~.E.~.~.|.!.E.E.P.T.J.K.P.T.P.C.V.V.c.z.<.;.+._ P C a 2 < < 3 0 q w p A H F d.+XsXmXCXZXZXZXZXCXCXAXDXDXJXDXKXJXDXDXFXJXJXJXLXLXLXJXDXDXGXFXFXDXDXGXLXPXJXJXFXFXPXPXLXLXLXJXKXLXJXLXLXLXLXLXLXLXLXLXLXLXLXLXLXLXLXLXKXDXLXLXKXKXJXDXDXGXDXDXDXDXDXSXJXGXKXKXKXKXKXDXKXKXKXJXAXKXLXLXLXKXJXDXJXPXGXKXKXAXmXkX.X=X%X$X-X$X=X X-X$XW.W.#X$X#X&X$X=X$X%X*X$X$X$XY.:X-X#X&X$X{.#X=X&X$X,X#X{.&XQ.#XQ.$XR.Q.{.#X[.E.Q.W.E.Y.Y.Y.[.R.Q.Y.D.D.D.L.L.V.V.S.V.>.$.#.' Z = = = * % < < < 0 2 2 3 2 < 2 < > > > > > > > > > , > c G A 5 , , 1 z A E W n 4 & & & # , 2 x Y E E ] ] w.0.9.{ { w & & 5 Y t.9.t.q.0.q.y.y.y.(.q.i.w.w.0 < , % < Y M.r.r.r.0.0.S y Y w.w.M.qXqXeXa.p.tXeXwXrXhXHXHXfX'.pX`.wXtXeX(.t.N x w w 5 5 2 2 * 3 > < , * > 2 > 2 > 2 > < > > > < , < 2 < < , , , , , , 1 5 5 7 p h Q { t.y.0.q.y.t.9.t.t.t.0.p.y.(./.p.q.w.v y 2 w 7 7 w 9 N u._.t.t.p.i./.qXqX(.i.(.p.i.t.t.i.q.q.w.M.@XU.[.[.|.E.|.[.I.[.[.}.{.[.E.|.XXoX;X&X&XE.E.E.oXE.P.E.E.E.[.|.|.{.&X X.X.X|.[.[.R.}.E.[.E.P.[.I.[.E.|. X[.oX|.|.[.P.|.P.[.E.E.P.E.K.K.~.2XJ.v.n.J.S.b.K.b.b.b.b.S.b.K.b.Z.C.c.z.b.V.z.v.c.b.B.c.z.z.2.z.c.j.z.C.b.1.2.z.z.z.z.z.V.C.z.2.z.1.2.1.l.z.2.l.v.z.2.l.2.,.3.j.z.h.3.z.1.1.<.>.1.3.1.#.+.3.1.1.;.3.3.;.1.1.h.j.1.1.1.<.<.;.1.<.-.=.,.<.,.l.,.,.>.<.,.;.<.;.#.-.<.>.<.=.-.,.,.1.,.;.,.;.,.>.,.f.>.j.j.S.j.f.$.$.#.#.` %.( ( P ` I ' ' =.+.$.$.>.:.>.;.:.>.-.>.d.=.n.=.4.=.=.u.=.=.x.=.x.b.u.b.4.",
"T.I.I.~.*X2X~.P.E.K. XK.P.T.T.K.2.K.b.b.J.B.1.<.4.B.4.3.N.6.3.N.4.4.4.6.2.N.A.B.Z.B.V.B.T.B.H.W.J.T.J.T.L.Y.J.L.T.~.~.E.T.T.L.P.E.&X;X=X1XcXcX1X5X3X1X3XXX1XXX1X1X1X%X%X~.~.~.1X1X~.%X5XXX1X1X1X%X%X~.~.~.1X~.~.~.oXXXXX~.1XUX~.UXI.J.J.J.b.~.UX5XXX~.~.T.~.L.T.~.~.T. X~.E.~. XE.K.R.Z.C.c.V.S.c.1.;.#.( J V r 3 * * < 0 w w 3 p a V 0.yXbXmXZXbXZXZXZXDXAXGXKXJXGXKXGXGXJXJXJXJXJXJXKXJXJXDXDXAXZXFXFXDXFXJXFXFXDXDXFXDXLXLXLXGXKXGXKXLXLXLXLXLXLXLXLXLXLXLXKXLXLXLXLXKXKXDXKXJXKXJXGXJXGXJXJXGXDXKXGXKXKXIXDXJXLXLXKXAXAXDXDXJXDXGXKXJXLXLXLXDXKXPXKXKXKXKXKXGXnXjX;X#X$X&X&X$X{.$X$X$X=X&X$X$XQ.$X{.#X{.%X#XE.%XE.=X$X:X=X$X=X=X:X-X$XQ.R.Q.$XW.{.E.Q.$XQ.{.#XE.W.W.$XG.Z.E.R.Q.D.P.E.E.P.D.P.L.C.S.V.D.j.k.>.$._ Z j r s % , < 2 2 < 3 3 3 2 < < > < > > > > < > > > > y S A n p # # , 6 c u t 5 : # : & & > V E Y ] w.] ] { ] 9.~ 5 & & 5 U r.t.r.y.q.y.y././././.).y.w.< < * * , D 0...W 9.w.S t W M.).qXqXwX`.W t v a.qX_.hXhXHXhX_.u.p.p.s.wXeXp.W m 9 5 5 3 3 , < , , < > , , < > < > > < < > > < * > > , 2 , & , > , > > > , : 5 4 t p x Q { q.w.9.w.7.7.{ 8.8.9.t.y./././.i.q.w.O.y w 6 5 9 9 u N u.p.(.i.i.p.i.a.i.i.t.t.i.t.i.t.t.(.w.w.M.].F.I.I.|.E.|.[.|.{.[.[.}.I.E.|.{.{.|.oX|.|.E..XE.|.[.E.|. X XoX X>X.X[..XoXR.[.oXE.}.[.E.E.P.E.E.E.|. X X XE. X XE.R.E.P.E.L.P.K.P.K.E.XXP.b.v.b.J.C.K.b.K.C.b.b.I.C.v.b.z.V.b.z.j.b.z.j.C.C.b.V.z.j.z.z.b.N.z.j.j.j.z.b.c.2.j.b.b.j.z.z.l.z.4.1.z.z.l.v.2.l.3.z.z.j.c.b.2.2.>.1.3.3.1.;.;.1.1.3.;.>.;.;.;.1.2.1.2.3.<.;.1.<.1.<.>.<.<.;.<.l.1.,.1.1.<.:.,.>.,.,.;.;.;.<.<.,.>.<.<.1.l.l.1.,.:.>.>.h.>.>.h.k.S.c.>.#.j.f.>.$.+.+.` ` ' I ' ' ' >.$.$.>.;.>.>.| >.| :.d.=.K.=.u.b.=.4.x.=.=.4.u.1.u.m.u.",
"~.P.L.I.1X2X XE.P.P.|.~.oX~.~.J.b.K.2.4.4.2.B.2.B.6.2.B.4.6.N.^.5.5.6.2.4.6.B.H.H.L.L.~.5X*X%X X~.~.T.~.~.L.L.T.~.%X1X~.J.J.J.~.L.|.XXoX1XzXVXUX2X3X*X3X1X1XXX1X%XXX~.UX%X~.~.1X1X%X%X%X%X1XUX~.1X1X1XXX%X%X1X~.~.~.~.~.%X5XMXMXUXJ.b.J.b.J.~.%X1X%X~.~.XX~.~.~.E.Q.~.*X0X~.I.T.{.{.P.C.K.K.P.Z.K.V.2.;.' ( P j r < < % * 3 3 * w p a Y ).yXbXbXZXbXbXAXAXAXAXDXDXKXJXKXJXKXLXLXLXLXLXLXJXJXLXDXJXPXJXFXFXZXDXKXDXJXDXPXPXLXPXLXGXDXKXKXKXLXLXLXLXLXLXLXPXKXLXLXLXLXKXGXKXGXDXDXDXGXGXKXLXKXLXKXKXGXKXKXKXKXGXGXAXGXDXSXZXmXZXDXJXJXKXLXLXLXLXLXLXLXLXLXKXGXDXDXJXPXAXcX.X&X*XW.$X:XE.{.$X&X-X=X=X#X{.#X$X$X{.,X=X#X{.-X=X1X-X%X=X&X$X$X#X$XW.W.$XQ.{.W.$X{.#X{.$XQ.W.$X{.Q.Y.].$X$XR.R.Q.[.W.Y.L.R.L.Z.D.V.V.j.j.h.#.| / X.o.s & & < < < < < 3 2 < 2 2 < > > < , & , , > , 2 q w D E , D D y , , , & & # , , : < V Y W 8.{ { ] W { ] ] z & 3 5 T r.q.0.w.y.y.y./.M././.M.q.0.y < * < 2 y y t u u x n T y./.(./.'.`.q.w 8 q.eXeXwXs.7.=.=.t.t.a.i.8.a.a.u.t.m 9 q 4 2 , , % , % % > , , & , < > < % < > > * > > > , < , % , , > > , < , , , 5 5 t i M Q w.7.w.8.7.W 9.9.9.7.9.9././.(.i./.w.w.T t 4 4 7 7 9 i B a.t.p.i.t.q.t.q.t.7.t.t.8.t.t.a.i.q.8.8.M.G.@X@XI.E.P.[.[.}. X[.P.P.E.|.I.XX1X X X XE.|. X X X X&X X X|.[.|..X&X.X{.|.R.{.[.[.[.E.[.I.E.I.E.[.[.{.E.|. X|.E.P.~.P.E.P.~.I.P.U.P.2XJ.v.v.C.J.K.J.S.b.C.b.b.n.b.b.Z.b.z.z.Z.Z.c.V.K.z.J.b.V.V.j.j.z.z.c.2.1.1.2.j.z.2.1.z.z.z.l.2.z.z.2.l.1.z.1.2.l.z.1.2.l.2.j.3.1.1.2.j.>.3.3.,.3.<.;.;.2.>.1.<.;.;.3.;.;.,.3.>.<.;.<.;.;.<.<.<.<.>.,.<.<.f.<.>.<.-.<.-.<.<.>.<.;.:.<.,.>.<.1.l.h.;.>.,.:.;.:.;.#.h.$.c.S.>.$.>.h.h.$.$.f.$.+.+.' ' ' #.$.>.h.>.>.l.<.=.=.=.-.=.=.x.=.=.u.=.u.=.b.u.4.u.4.=.x.x.",
"v.C.K.|.2X9XXX|. X~.oXI.K. X~.H.J.J.1.1.2.2.4.B.B.B.4.4.4.B.A.W.J.J.$X1XB.B.H.B.b.b.b.J.L.T.R.*X1X5X~.T.~.T.1X9X~.~.T.^.T.I.L.K.P.E.|.|.oXkXMX1X2X1XXX1X%XXXXX1X1X1X~.~.%X%X~.5X1X~.~.%X~.~.%X%XXX1X1X~.~.%XXX~.~.XX~.~.~.~.J.~.J.~.J.J.~.~.~.~.~.~.~.~.~.%X~.~.E.~. X0X1X|.!.I.R.E.P.P.C.K.E.Z.V.z.c.1.<.;.I J C r 0 < * < * & < 0 s n g.yXvXbXbXZXAXAXZXZXCXAXDXDXJXJXJXKXLXKXLXLXLXJXFXKXLXPXDXKXLXJXDXFXJXDXJXLXLXLXGXLXLXLXJXGXJXLXLXLXLXLXLXLXLXKXJXLXLXKXPXPXKXDXHXDXJXDXDXGXKXGXGXKXLXLXKXKXKXDXKXGXIXGXDXZXAXGXAXSXDXDXDXDXDXKXLXDX+XPXLXLXLXLXKXGXiXyXIXLXLXIXmXXX*X&X&X#X-X&X&X#X=X&X=X#X$X&X$X#X$X$X=X=XW.%X,X$X%X%X$X$X=X:X$X{.{.R.=X#XE.W.$X$X#X{.W.E.H.{.Q.R.#X$X[.{.#XR.#XR.R.E.K.R.P.P.D.S.D.j.j.f.>.$.d.d./ J r * < < * < 2 < 2 < > 2 < > < < : , , , > > , , , i i x 9.9.{ Y m , & # & & & & < c Y ] ] ] 8.0.w.{ ] ] F 3 5 5 Y 0.t.y.y.y.y././.(.(.M./.w.X.x 4 0 2 4 t A T Y W T 9.u././.(._.(.q.z y W eXpXgXu.N b t.t.Q t.t.t.Q i.t.p.{ N u q 4 6 , , < > , , % * > > , > > > > > > > * > > < < , < > , % % # % # : : 5 5 5 7 p x S 0./.y.8.7.q.7.9.W 7.q.9.i./.(.(.(.i.y.w.Y 9 9 4 4 9 9 m u._.t.p.q.q.q.q.7.t.7.q.q.7.t.t.q.q.q.8.q./.@X@XR.P.P.L.P.{.P.[.P.E.E.P.XXoXoXI.oXE.[.|.|.XX[.oX|..X[.[.[.oX.X|.&X}.|.}..X}.[.R.I.E.[.E.[.E.E.E.~.|.|.[.oXE.R.L.E.P.E.P.E.L.Z.|.5XK.K.J.v.b.K.C.b.C.b.l.l.b.b.v.v.z.b.Z.c.V.z.V.V.C.z.b.V.N.z.j.2.2.z.z.z.1.2.c.z.z.b.z.z.2.z.z.z.4.<.z.2.z.z.z.2.3.l.l.z.z.l.b.z.3.<.-.1.3.3.<.1.>.3.1.1.1.3.3.;.>.#.2.3.3.<.@.<.<.>.<.-.-.;.;.<.1.<.>.<.>.>.<.;.>.<.-.>.>.>.>.;.<.>.-.<.>.1.,.1.,.>.>.<.>.;.>.#.$.h.h.c.h.>.f.z.h.$.$.#.#.+.X.+.' -.;.#.$.$.>.>.1.=.,.=.:.=.:.1.4.=.b.4.b.b.m.x.4.u.b.U.=.=.x.",
"K.b.n.oX1X6X1X~.P.~.L.I.L.T.b.J.T.2.2.<.J.4.J.B.B.2.V.B.4.N.J.%XJ.4.4.J.N.6.N.B.b.4.K.J.J.H.&X|.L.5X~.XX~.1X9XXX~.T.~.~.~.T.~.K.K.~.XX2XoX5XxX6X2X5X4X1X*X!. X XJ.~.1X~.1XUX5X0X1X%X1X~.UX~.%XXX1X1X1XXXXX5X~.~.%X~.~.~.%XJ.~.~.~.~.~.%XUX%X1X%X1X~.oX~.%X~.~.XX~. X X%X X!. X X$X[.E.E.L.I.[.P.K.D.c.b.j.1.#.( J Z a 0 % = & = & & 3 p Y '.sXmXbXCXbXbXZXbXbXAXDXGXJXJXJXDXGXAXLXDXZXZXFXFXDXLXKXFXDXFXAXDXLXKXFXJXLXLXLXLXLXLXKXPXKXKXLXJXJXKXLXJXJXKXJXDXGXDXJXJXDXDXJXDXAXSXSXAXGXKXKXKXKXGXKXGXGXAXDXKXGXIXAXGXDXDXDXZXDXKXKXGXJXAXLXKX].vXKXKXKXLXKXmXo.g @XIXPXLXAXcX=X X%X#X$X&X{.$X=X=X,X$X{.$X=X{.&X=X:X#X#X#X=X&X&X$X#X&X$X$X$X#XQ.#XQ.R.#X{.$X-X$X$X$X!.!.W.Q.{.$XR.W.#X{.#X[.Y.E.R.T. X~.9XR.D.j.V.j.c.>.>.>.:.$.../ a & * , < < 3 < < > > > > > % , , , & > > , > # 2 < i w.w.w.0.] 7 : & & & % , < n E W ] E ~ w.0.] { { x 7 d 5 Y t.0.w.y.i./.y.y./._./.q.w.] t w 6 q w E 0.9.9.w.q.y.t.i.(.(.q.v t U q.qXuXeXT p h eXhXhXt.t.t.t.7.p.u.u.Q m i t q 2 < , , < > , > > > * > > > > > % < > > % < > < 2 2 > > : # # # > & , 5 , 3 4 9 y m E /.w.q.7.W 7.7.7.9.u.t.i././.q./.i.y.w.Q m 7 4 9 4 9 u N t.a.p.t.q.q.t.t.t.q.t.7.t.t.i.7.q.8.w.w.y.s.(.].P.F.P.I.[.L.E.I.|.P.I.L. XXXoXE.|. X&X&X X X|.[.*X X.X{.&XoX|.[.[.&X{.:X X[.[.P.P.E.|.R.|.oXoX.XoXE. X XE.P.P.E.oXE.P.E.K.K.P.6XC.b.b.b.l.C.v.b.K.b.b.v.b.b.v.v.2.z.V.z.Z.V.b.b.V.V.V.Z.C.b.V.j.v.c.j.j.z.2.c.b.V.4.V.V.z.c.z.1.z.b.z.z.1.l.3.j.1.2.z.2.1.>.j.j.j.1.1.1.3.1.-.1.;.@.2.<.3.$.;.,.2.1.3.>.3.;.;.;.;.;.<.<.-.5.<.<.,.,.,.-.>.1.>.-.<.;.<.<.;.<.#.-.<.<.<.>.<.,.<.<.>.:.<.>.>.-.;.$.3.h.z.S.h.>.#.$.$.#.+.#.#.+.+.` #.` >.1.$.$.$.-.=.:.<.,.,.,.f.b.u.x.x.=.x.1.1.m.=.x.b.x.u.4.=.",
"~.C.C.|.XXXXXX|.P.P.P.L.~.I.K.E.P.b.z.b.b.J.K.C.H.H.J.!.B.Z.Z.Q.J.4.B.#X6.Z.N.2.B.4.J.T.K.Y.4X*XT.1X1X5X1X~. X1XXX~.~.~. X~.~.~.P.2X2X4X*X5XNX5X0X4X1XoX!.XX%X%X%X1X%X~.1X%X1X0X1X1X5X5X1X0X1X1XXX1X~.1X1X~.1X1X1X~.5X~.~.~.%XUXXX1X~.~.%X%X~.~.~.%X%X~.~.~.%X%X~. X!.*X%X4X4X!.E.{.[.E.P.E.E.P.L.P.S.v.V.l.h.-.` / ! n * % & = = * < s V r.+XvXvXvXvXbXCXAXCXAXAXDXKXGXAXAXAXAXJXDXZXZXFXFXDXFXDXDXDXGXJXDXKXKXDXJXLXLXLXLXLXLXLXKXLXKXLXLXKXJXPXPXDXPXDXDXGXDXDXDXJXFXAXCXDXGXGXKXKXKXKXGXKXGXIXGXAXAXAX'.yXIXDXDXKXKXDXJXKXKXKXAXKXLXLXKXKXKXDXKXKXLXKXiXO.g G.VXPXLXLXJXnXoX&X&X$X-X&X-X$X%X$X$XR.$X=X$X$X:X#X=XE.=X#X=X$X$X#X=X$X$X$XR.R.$X&X-XW.{.$X$X,XR.=X&X=X,X$X$X#XR.$XY.[.@XQ.@XD.L.R.P.E.Z.D.D.S.V.c.m.z.k.>.$.$.$./  .a * * 2 3 3 2 d 2 < < > > > , , , > > > > , > > > , c D D Y { D : # # & , , < x Y E W ] 9.w.] 9.9.V 4 w 5 5 Y 0./.y.y.y.y.y./././.q.q.w.U y e w q z 0.r.y.y.M.M.q.y.)./.w.v z T `.uXeXuXT 8 x p.hXhXhXeXt.t.`.s.i.s.u.B m p t 2 , < < < < < < , > % > % % > > > > > > > % > , > 2 > , > % : , & , , , 5 5 5 5 7 t x S y.y.(.p.9.W 9.7.9.t.t.i./.(.(./.a.(.i.9.Q p 9 3 5 9 9 u m U u.i.a.t.t.t.t.7.t.t.7.t.q.q.7.8.w.w.8.a.s.I.I.[.D.[.R.I.P.E.P.K.I.I.~.oX|.|.E.|.E.|.[.E.R.|..X|.&X}.&X|.&X[..X{.oXoX|.[.[.K.K. X|.E.E.[. XE..X|.|.E.P.|.E.~.I.E.E.I.P.L.E.2XC.v.c.b.K.b.v.b.x.b.b.4.v.b.l.V.V.z.2.K.z.V.V.V.C.Z.K.C.z.V.z.z.v.b.z.z.z.z.2.l.b.z.V.z.z.z.z.2.z.j.j.z.4.V.z.l.2.l.1.2.V.z.b.j.j.z.2.j.z.j.1.3.@.;.3.#.;.;.;.3.1.1.1.1.;.3.;.2.3.<.<.;.;.-.<.,.<.1.>.<.;.1.,.;.-.-.-.#.>.1.;.;.=.<.<.:.<.:.l.<.1.l.1.| -.-.-.$.$.f.l.S.j.h.j.f.$.+.+.#.+.#.#.>.-.` #.>.>.>.>.>.-.:.f.g.x.f.k.n.=.=.=.x.=.=.u.=.m.x.u.=.b.u.4.",
"6X*XoXoXXX5X3X|.T.L.P.v.L.P.T.E.P.H.H.E.T.L.J.b.L.W.Y.W.A.Y.B.H.Z.N.Q.$X^.T.2.3.4.J.Z.H.T.E.E.T.1XXXXX X X~. X~.~.1X~.~.~.~.~.~.L.~.1XXX1XzXNX1X8X3XXXXX~.!.!.!.~.%X%X1X1X1X1X5X1X~.~.%X~.UX1X%X1X1XUX1X1X%X~.~.~.1X~.~.UX%X%X1XUX%X%X~.XX%X1X%X~.1X1XXX~.~.~.%X1X~. X8XVXxX8X!.{.=XoX{.{.E.[.P.P.L.L.C.C.v.z.<.#.#._ ! D < * & * = 0 p x ^ ).yXvXvXbXZXbXbXvXZXAXKXKXDXZXAXAXZXDXAXZXFXFXFXnXFXDXFXFXJXJXLXLXDXJXLXLXLXLXLXLXLXKXJXJXJXLXJXLXGXKXJXDXGXGXGXKXLXKXSXDXJX}.o.DXDXJXJXKXGXDXGXDXSXIXCXCXAX+Xe.mXSXKXGXKXAXJXLXLXDXX.+XKXLXDXIXCXAXDXIXKXKXKX,Xg g <XBXLXLXLXLXPXMX:X X X&X$X,X*X%X=X%X&X-X-X:X-X:X%X=X%X{.{.$X&X=X#X=X#X=X&XW.%XE.$X=X$X$X=X=X$X$XW.$X{.{.%XW.Q.#X$X#XR.Q.Y.R.Z.T.L.E.W.T.R.Y.C.V.V.V.c.l.S.c.f.#.P $./ * d < < < < 2 0 2 < > > > % > > , % > > > % & > , 3 7 6 4 i m , > , & & < < q c E ] ] ] ] ] { 9.p w 0 4 4 n M.r.u.u.u.M././././.y.y.w.D e q q q i 0.M.M.y.w.v c S W A z c Y /.qX_.tX(.v T s.tXhXhXdXSXt.p.`.i.t.t.7.B M t 3 3 1 2 1 , 1 , 1 , > > , > % > > % > > > > > > > 1 2 1 , > ; 1 : , , , : 1 , 1 4 4 7 p m E u.i.t.q.7.t.7.9.q.t.q.i./.a./.(._.(.i.9.U z 6 4 6 6 p t i m T t.u.u.a.q.q.a.q.q.q.q.7.7.q.7.7.8.T s.].].I.|.I.~.[.~.I.~.I.K.J.~.~.K.[.[.E.I.P.|.R.|.E.|..X X[.&XoX X XE.oXE.|.oXK.[.E.P.I.[.R.E.[.R.oXR.R.~.|.E. XP.|.R.E.P.T.P.P.P.4XJ.v.b.v.b.v.J.K.l.C.v.v.b.b.l.C.b.b.z.z.b.V.b.c.c.z.2.b.b.j.j.N.V.4.z.b.z.j.z.V.b.z.V.z.j.j.z.b.j.z.b.z.z.z.2.3.h.j.j.z.3.z.z.j.1.2.,.3.1.3.<.>.<.3.;.<.,.;.3.;.<.#.3.>.1.>.<.;.;.$.3.;.;.;.;.:.<.j.>.$.>.1.3.3.$.;.;.3.3.;.#.' -.<.<.;.;.1.,.l.1.<.=.-.=.5.-.>.#.j.V.P.h.f.j.h.#.$.$.#.$.f.$.:.` =.-.f.1.<.=.,.:.l.f.f.x.x.m.u.J.1.m.u.4.=.=.r.1.r.x.m.m.f.g.",
"5X*X.X.XoX*XXX&XoX2XoXC.~.P.T.~. X X~.E.H.K.J.T.T. XZ.A.Z.A.Z.B.A.Z.^.Y.N.A.N.6.z.b.B.K.L.H.Q.P.4X~. X!. XXX1X~.~.XX~.~.XX~.~.~.~.E.~.~.|.0XNX1X1X1X%X X~.1X1X%X%X%X1XUX%X%X5X1X1X1X~.~.1X1X1X%X1X1X1X1XUX~.1X1X~.XX~.~.~.1X%XXX1X~.1X1X~.1X1X~.UX~.%X%X~.1X1X~.XX1X1X1X0X1X1X~.{.}.=X:X{. XE.W.R.R.L.K.K.K.1.z.j.1.>.#.X.Z < < & < w p a G d.+XsXvXbXDXZXZXbXCXZXJXDXAXZXAXZXZXZXbXbXbXZXFXZXFXDXFXJXKXbXGXKXJXKXLXLXLXLXLXLXLXGXGXJXJXJXLXKXKXJXKXGXDXGXDXZXGXDXDXAXAXe.o.GXGXJXDXZXZXDXDXIXAXZXAXZXDX).yXDXGXGXDXJXJXKXPXPXmXO.sXIXPXAXbXmXbXAXJXKXKXLX@Xg O.&.,XIXLXLXLXPXPXxX.X&X!.$X#X=X$X%X=X=X$X#X&X#X$X%X=X=XQ.Q.$X=X&X&X&X#X=X-X#X#X$X$X&X$X=X$X$X$X$X$X$XW.-X$XW.{.{.$XQ.R.Q.H.H.R.H.L.T.W.E.W.R.D.{.S.S.V.S.S.x.$.$.( d.X.C 0 < < < < 0 2 < > > < < , < > , , > > > , > , % : : , , , 5 < , > < % & < q x Y ] 8.w.] 0.0.{ y 4 3 3 q 7 r.u.r.u.p.u.p.(.(.M.i.w.{ y y q q q y U ] w.q.T z i y v w.w.i.u./.`.`.tXqXt.eX_.tXfXhXdXaXW Q _._.a.p.Q c i 4 4 2 2 1 1 1 1 2 , , , , , , , , < < > > > > > > > 1 1 , > > > ; > , : : , , 1 5 4 4 6 u x n Y ] u.i.y.t.t.7.i.u.(.a.i././.i.'._.(.i.q.E u 6 7 q 6 7 t i u x T 7.t.t.q.7.a.q.q.q.q.7.q.7.q.8.8.8.M.].P.U.I.I.~.].K.C.K.L.I.K.|.K.E.R.P.E.|. X~.P. X|.|. XoXoX X[.E.P.~.oXE.E.R.E.~.E.E.|.|.|.I.~.E.P.E.P.|.|.oX|. X|.|.P.~.P.L.E.2X[.b.v.K.l.b.v.b.b.4.b.b.l.b.4.b.l.z.z.z.z.V.N.C.B.Z.c.z.z.z.z.v.V.z.b.z.z.z.C.V.b.V.C.2.b.z.2.z.c.2.z.c.j.z.c.j.b.j.2.2.h.3.z.j.z.h.2.1.1.1.2.3.;.>.3.;.3.1.1.1.;.3.3.3.1.1.j.1.z.3.1.3.<.5.<.1.<.1.,.3.>.$.#.;.<.>.#.>.>.3.$.-.<.<.;.>.<.,.1.1.>.-.<.-.5.-.-.h.>.h.l.P.,.>.$.$.h.$.%.e.h.$.$.>.-.;.<.:.,.=.=.=.-.f.f.k.k.g.g.x.x.=.=.u.b.b.=.1.r.b.b.x.,.r.g.",
"2XXXXX|.[.I.*X~.~. XP.c.z.H.E.R. X XE.Z.K.H.T.I.P.L.Y.Z.N.N.Z.Z.6.Z.6.V.T.H.Z.4.B.Z.H.Z.~.W.L.~.0X1XoX~.~.~.E.~.~.~.~.~.~.%XXXXXoX~.~.~.oX5XVX1X1X1X1X1X X%X1X%X~.1X1X~.1XUX0X0XUX%X1X1X1X~.1X1X%X%X1X%X1X~.1X~.~.~.~.~.~.~.UX1X1X1X1X%X~.~.~.%X1X%X~.%XUX%X1X1X%X1X1X%X1X!.%XI. X&X=X{.&X%X&X=XE.L.v.I.L.P.H.b.c.j.j.1.$.#.o.2 * w p e y a G M.yXiXbXZXZXZXbXAXDXJXDXAXCXAXmXbXbXZXAXFXDXGXJXJXKXDXLXDX'.PXGXKXKXKXLXLXLXLXLXLXDXAXDXDXLXKXLXJXGXAXZXHXAXGXAXFXAXDXDXDXm.d.KXDXDXGXDXDXAXAXAXSXCXbXDXDXAXAXGXDXKXJXJXJXAXGXAXmXmXAXDXIXGXAXbXmXDXIXJXJXLXIXe.<XK &.,XLXLXLXLXLXJXnXoX X#X$X#XW.=X%X{.W.W.T.{.W.!.=X=X$X&X&X$X#X$X:X&X=X:X=XW.=X$X=X#X=X&X$X$X$X#X XW.$X#X{.#X{.$X=X$XR.Q.L.T.R.E.Y.W.E.R.R.L.V.j.>.c.V.S.c.k.$.X.x.k.$.` s = < < < < < > < < < , & % < < > > > # : : % , 3 , , & , , > % < & & < 0 F E 9.E W ] 0.] F 3 0 3 0 3 7 Y M.).y.y.u././._.p.i.0.S y w q t w w i z x m w x S 8.w.i.(./.p.t.b T tXhXtXwXhXhXHXfXfX`.U B t.a.i.Q M c y t 4 3 1 1 2 2 2 , , 2 , , , > , > > > 2 2 > > > > > , 2 1 , , ; , , , , , 1 , , 5 5 5 6 p a x N U 7.y.t.t.t.t.s.a._.(.(.(.(.a._.(.(./.a.q.U z 7 4 7 7 5 m u.E u 9 8.a.a.7.7.q.q.q.7.7.q.q.a.8.q.7.u.x.n.S.P.].].I.I.K.K.P.P.L.I.K.E. XP.E. X4X X X|.E.|. X X|.&X|.E.I.|.R.P.|.P.~.[.R.E.E.[.E.E.E.|.R.R.|.P.E.oXE.|. X[.E.|.P.L.XX4XJ.v.b.K.v.v.b.b.l.b.S.S.b.4.1.h.b.j.V.z.z.z.z.b.c.c.Z.V.4.V.z.z.C.b.z.j.j.z.z.c.b.V.N.z.V.z.2.z.z.2.z.j.b.Z.b.1.j.j.1.1.1.1.2.3.l.1.2.>.2.1.>.j.;.;.1.>.3.3.3.1.3.;.,.3.j.3.1.3.z.3.;.;.@.@.;.-.<.$.,.@.$.3.1.3.%.#.$.+.#.3.#.+.;.;.-.;.,.1.>.>.>.;.<.-.=.=.-.+.#.j.f.j.f.h.,.j.$.$.$.,.$.$.f.-.$.=.-.,.=.,.=._ | =.=.,.=.,.g.4.m.b.u.4.x.=.b.n.f.x.r.r.1.x.f.",
"XX*XoXI.|.;XXXXXoX|.R.Z.v.C.L.K. XE.XX X%X~.~.L.T.Y.B.B.Q.H.B.N.N.N.Z.6.Z.B.A.Z.L.T.J.H.W.%XW.P.oXT.P.~.~.~.|.I.L.~.~.oX~.~.~.~.~.~.~.oX1XxXVX3X X%X%XoX~.!. X%X%X5XzX1X1X~.1X~.~.%X1XXX1X1X5X1XUX1X1X1X1X%X1X~.~.1XXX~.1X1X1X1X5X1X~.1X1X1XUX~.1XXX1X%X1X1X1X1X!.~. X~.T.1X%XVX&X>X X{.~.&X XXX X XE.E.E.P.P.K.V.C.B.G.j.$.>./ 0 0 e w e s w V 0.yXvXbXZXbXbXAXZXDXDXZXCXAXCXbXZXbXAXDXGXLXLXFXJXJXDXKXDXLXLXKXKXJXJXJXPXLXLXLXGXDXGXLXLXJXJXGXGXDXFXAXAXKXJXGXGXKXGXKXiX@XAXZXAXZXAXAXAXDXDXDXAXAXSXDXKXDXAXGXAXDXDXyXAXJXAXZXmXvXiXAXBXIXAXAXyXvXDXKXLXLXIXIXmX%.&.iXLXLXLXLXLXVXnX X{.{.#X~.{.#XW.W.W.E.,X#X$X$X,X$X#X#XW.#X$X:X-X$X=X=X=X9X$X=X&X$X$X,X$X{.&X$XW.=X&X#XW.#XQ.R.Y.E.Q.{.W.E.W.Y.E.T.D.Q.L.{.j.G.S.F.S.F.c.h.+.m.x.f.X.G f < % < < < > % % < , , , > , > > > , & , # , x 3 # # & : , , & * & , a E E ] ] w.w.9.{ 0 3 3 3 0 2 3 i p.u././.u./.)./.u.r.0.x e q q q q y t q u z U 0.q./.).(._.`.i.m 9 { qXtXwXuXpXtXpXfXfX'.M S t.a.t.t.n u y q 4 2 2 2 2 1 2 2 1 1 3 2 < , , > > > > > > > 1 > 1 , 2 1 , > , > ; 1 , 1 : 5 1 5 4 5 6 t 9 p x N T 9.a.a.s.t.qXa.qXqX_.(.i.(.(._.`./.(./.t.Q i 6 7 4 5 6 E u.r.F b q.a.t.q.q.q.q.7.7.q.q.8.8.q.7.t.M.x.f.K.|.|.K.I.K.b.K.I.J.I.P.I.P.P.~.|.|.&XoX&X XP.|. X[. XE.P.[.oXE.E.R.|.E.|. XE.|.[.|.I.E.|.E. X[.E.E.E.[.P.E.E.~.P.E.P.oX6XP.v.J.b.L.L.b.b.b.S.K.b.P.b.x.z.z.C.N.C.C.z.j.j.C.b.z.z.z.j.z.z.B.c.z.j.2.b.S.N.V.z.C.v.z.z.z.z.j.j.j.c.C.j.z.<.j.;.3.1.1.>.z.1.2.c.3.1.1.>.3.;.1.;.3.3.>.3.,.3.>.3.3.j.>.3.1.;.;.<.;.;.;.;.;.>.1.3.3.;.;.%.#.$.@.$.@.+.#.#.@.#.-.<.#.-.-.l.l.l.<.<.-.5.-.5.-.#.#.h.#.h.$.>.>.,.h.f.$.h.$.$.$.$.$.=.>.:.-.=.f.:.l.;.>.r.g.f.x.u.m.b.m.u.4.b.u.u.x.l.M.x.x.g.,.",
"UX[.|.|.oX2X|.&XE.~.oXE.v.E.E.XX X XXX~.~. X~.~.E.L.L.Y.Q.E.^.6.N.2.2.N.Y.A.2.J.J.V.Z.Z.H.E.E.~.2XT.~.~.1XoX~.~.~.~.1XXX~. X~.%X1X2X~.XXXX1XzX~.XX%X%XXX1X#X%X1X~.~.1X1X1X1X%X~.1X1X1X1X1X1X0X5X1X1X1XUX1X1X~.~.~.XXXX%X1XUX1X1X1X1X1X1X1X1X1X~.%X1X%X1X0X5X5X1XXX1X X XMX X X8X X.X&X&X XXX1X=X|.&X XE.R.[.R.L.L.L.L.P.Z.V.D.N.( r q e s 0 < w x g.sXmXvXmXZXZXAXAXDXZXbXZXCXbXCXZXDXDXKXLXLXLXJXGXJXPXKXLXLXKXJXDXJXDXIXDXKXLXGXAXGXLXLXKXJXGXAXAXGXDXKXKXKXJXKXKXKXKXDXAXKXZXCXAXSXAXDXGXGXDXJXKXKXKXGXGXFXnXZXAXyXX.AXAXZXmXyX&.g e.vXIXIXvXO.mXKXKXLXPXIXLXJXDX<X&.vXKXLXLXPXLXPXxX|. XT.W.{.#X-X&X*XW.E.{.$X$X$X$X$X&X-X&X$X$X$X$X%X-X=X=X-X-X-X=X$X$X%X$X$X$X$X$XW.&X&X$X$X#X{.#XR.R.W.R.W.R.Y.T.Y.Z.R.R.N.P.D.&X].S.h.>.( k.m.c.#.` X.Z q d < * > > > % * % > > > > < ; , & # & , 5 , , % , > , , & & * < p ~ W ] { 0.w.{ Y d < < d < < 5 p u.u././.y./././.u.r.W w q 0 q 4 q w i T { { 0.y.M.y./.y.w.w.D u 9.`.qXwXtXwXtXtXrX(.] U M 8.i.i.t.{ m 9 4 4 4 5 2 2 1 1 1 1 1 , , , , , , , 1 1 ; 1 > > > > , 1 2 2 1 > , > , ; 1 > , , 1 , 5 5 4 6 7 p z m U E t.i.a.i.i.a.(.(./.(.i.i./.(.`._.(.(./.t.T z 9 7 4 9 9 U { { 8.B q.i.i.q.q.q.8.q.7.q.8.q.8.q.9.r.M.x.x.m.I.U.I.C.v.K.K.P.P.~.E.E.P.R.oX{.E.E. X|.E.&XoXXX|.R.oX|.E.E.P.|.P.~.[.E.E.E.oX X[.[. XoXE.E.E.~.[.E.~. XE.P.P.I.P.~.2X[.v.J.K.L.K.b.v.S.b.b.b.v.b.b.z.j.V.B.z.z.b.Z.j.V.z.V.j.j.b.z.b.C.V.z.V.V.Z.C.V.b.N.V.V.N.z.1.2.z.z.z.V.N.z.z.h.j.3.3.l.3.3.1.l.3.1.>.1.>.<.2.3.;.3.#.;.3.+.3.;.3.;.>.h.2.j.3.2.2.1.;.-.;.;.;.1.$.>.@.#.@.>.$.;.+.+.#.#.;.;.;.+.+.#.#.+.;.;.<.<.>.<.-.=.-.-.;.$.>.,.c.U.>.$.;.e.f.#.| $.$.| #.$.#.| #.=.,.=.f.r.,.1.<.,.x.=.b.b.x.u.b.=.x.b.4.<.u.1.,.g.g.g.=.",
"XX*XXX[.oXOXoXXXXXP. XP.K. XE. X~.!.~.K.T.~.P.J.J.b.H.W.T.^.B.Z.Z.A.^.Z.N.B.Z.Z.Z.V.b.H.Y.Q.T.~.5X~.I.~.~.~.%X%X~.XXXX~.XX~.XX%X~.~.^.%XoX5XzXXX1X1X1X3X1X!.!.~.~.~.1XUX1XUX1X1X5X1X1XUXUX~.1X1X~.1X1X%X1X1X~.UX1X1X~.1X%X1X%X1X1XUX~.XX~.%X~.1XXX~.~.1X5X5X1X%X X1X~.0X0XXXXX$X&X=X X.X X XXXE.E.W.E.E.|.E.P.E.I.E.P.E.D.P.P.D.D...a e 0 * = 0 y i k.yXvXvXZXbXbXZXAXZXZXZXZXAXZXZXDXKXDXDXJXGXJXDXDXLXKXKXKXKXJXJXDXFXJXDXLXLXJXDXJXLXLXLXLXKXLXGXGXKXKXKXLXGXGXDXAXDXZXAXJXZXZXDXIXDXDXDXKXKXAXDXKXDXAXZXZXvXbXZXAXnXZXbXjXjXe.g g &.iXmXIXmXe.ZXGXIXPXPXKXKXLXLXLXiX%.ZXLXLXLXLXLXPXnXoX X!.#X{.#X&X=X#X%X-X$X=X$X$X$X&X#X:X#X$X$X$X1X9X=X9X=X=X:X:X%X$X-X$X=X:X,X!.{.#X#X#X$X[.,X#XW.W.$XW.-X XQ.L.D.Z.C.G.D.D.R.N.D.c.h.#.J C.V.c.#.>.+./ f > 2 > * > > > > % * > * > > % 2 , # , , # # & , > > > > , & & < q E ~ { ] w.0.w.c 0 < * * < * 3 w r./.M./.M.(./.p.u.9.V w q 0 4 q q w { r.r.u.y.r./.u.w.U b z 9 m /.+XqXwXeXtXwXqXqXT M i 9.i.t.t.t.t.M i t 6 4 2 2 1 2 2 , , 1 , , , , , , , ; ; 1 > 1 > > > , 1 1 1 ; 1 > , , 1 , 1 2 1 5 1 5 5 4 4 7 t t u m T q.i.i.a.i.i.(.i._.(.(.p.a.`.qX`.(.`._._.u.W m u 7 4 5 5 : 9 q.q.i.q.i.q.q.a.q.q.q.7.8.q.a.q.q.y.M.m.m.m.F.I.].K.n.n.K.~.K.I.|.oXE.E.P.~.E.S.P.I.E.oX X*X X|.~.E.|.[. XR.P.!.P.E.|.|.E.|.XXE.E.|.[.[.|.P.P.|.|.oXR.P.E.I.L.I.4XL.v.l.b.b.J.K.b.4.b.b.v.b.K.v.C.B.V.D.C.b.B.K.z.Z.C.b.z.b.v.Z.j.z.z.j.z.z.z.C.V.c.z.V.j.b.Z.1.z.z.j.z.V.z.2.z.2.3.l.z.3.z.l.2.z.3.l.3.2.c.1.z.>.3.@.3.>.;.$.3.,.1.3.3.2.>.3.>.3.>.3.;.;.%.5.;.3.3.>.3.#.#.@.$.;.;.+.#.@.;.#.$.#.;.;.3.$.<.;.-.-.-.-.;.=.5.-.<.;.#.>.h.c.$.>.$.$.$.%.$.f.$.#.$.| -.#.| ,.=.1.,.4.x.m.u.=.l.,.r.b.u.4.=.x.1.u.u.=.b.M.f.k.g.M.f.",
"~.XXoX*XXX*XoXI. X~..X|.~.XXE.T.P.~.XX XR.T.Q.T.H.4.3.2.A.N.N.N.N.N.2.Z.A.L.T.H.H.Z.H.H.Y.H.R.T.1X5X~.~.oXXX1X~.~.~.~.~. X~.~.T.~.~.T.~.XXxXMX%X1X1X1X X1X!.!.~.~.1X~.1X1X5X1X%X1X1X1X1X1X1X~.1X1XUX%X1X1X1X1X~.~.1X1X~.%X1X~.1X~.1X1X~.~.%XUX1X1X1X1XUX1X1X%X%X~.1X1X1X X X*X%X&X X X~. X X~.%X XE.R.{.|.[.[.[.[.{.R.[.[.G.R.R.P.C.#.j d * % * 0 e a M.yXvXsXZXCXbXZXDXAXAXAXAXZXZXAXGXDXPXDXDXDXFXDXJXKXKXJXJXDXDXFXDXPXPXLXLXJXDXDXJXLXLXGXKXJXLXLXDXGXDXKXAXSXAXZXZXZXIXDXIX+XDXGXDXAXDXKXDXDXGXDXAXAXbXZXbXZXZXmXmXmXiX>X@XK g g O.mXIXKXIXvXIXSXAXAXDXKXKXKXKXLXLXZXPXLXLXPXLXPXPXJXcXOX X{.{.#X#X#X$X-X$X$X$X$X&X-X=X-X-X$X$X,X=X=X,X=X=X:X=X=X=X-X=X#X{.$X$X&X&X-X=X#X$XW.W.$X{.W.$X$XW.{.&XE.T.R.L.R.Z.D.R.Z.f.j.c.;.>.( C.C.c.$.>.$.` Z w , * * % * > > 2 > > > , > % # : , , , # & # % , , > , < , & < 0 F X.] w.0.w.0.q 2 d 0 0 3 4 q 4 Y u.M./././././.u.E w w 0 3 0 q q c M.r.r.y.r.{ T Y n u y Y F m E 0.M.`.qXq.U q.0.M m z q.p.p.t.t.W M u t 3 4 2 , 2 , , , 2 < , < , , , , , 1 1 > ; > 1 > 1 1 > 2 1 , > , , , , 1 1 1 1 1 2 2 6 4 6 4 t 7 i z S W a.a.a.a.i.a.(.(._.qX(._._.rX_.qX`._.`.qXi.Q i p u 9 5 : : Q q.q.q.q.q.i.q.7.q.7.q.q.a.q.q.y.t.r.M.M.m.b.F.I.x.x.U.K.P.K.P.P.E.P.P.I.E.|. X}.E.E. X XE.[.[.[.|.E.I.E.P.P.|.E.P.R.[. X|. XoX.X XE.E.E.E.E.I.|.I.E.P.~.E.L.E.4X~.L.v.b.K.L.K.L.S.C.K.v.J.v.b.b.V.L.R.L.j.z.z.V.b.z.z.z.N.j.V.z.z.z.b.V.V.V.V.V.c.z.z.c.b.c.z.z.j.b.z.z.z.v.2.2.<.<.V.z.j.j.l.2.l.2.1.1.3.3.1.2.>.;.;.3.,.3.1.;.3.<.>.,.3.2.3.1.3.>.2.$.2.h.j.j.3.#.#.;.%.3.$.%.>.@.3.>.3.3.>.#.;.#.@.;.;.>.;.-.=.-.-.5.-.5.=.;.$.>.h.z.$.;.` $.$.#.#.$.$.$.+.:.:.>.:.=.,.,.m.m.x.m.b.m.=.f.b.m.x.b.M.x.u.u.4.=.4.1.=.f.k.f.d.",
"|.oXUXoX2X2XoXE.2XoX*XXX X*X~.L.L.Y.E.H.H.L.XXE.Y.B.3.4.4.4.2.3.2.N.N.6.Z.B.^.H.Z.Z.H.H.Y.E.T.E.~.8X5X1X1X%X~.XX~.~.%X~.~.~.~.~.~.~.~.XX4XMXVX1X1X~. XE.~.!.!.1X1X1X1X~.XX1X%XUX%X%X1X1X1X~.1X1X1X~.%X1X~.1X1XUXXX%X%X%X~.~.%XUX1X1X~.~.UX~.~.%X1X1X%X%X~.%X%X%X1X1X X~.%X*X X X XE. X~.!.&XE. X;X XE. X&X{.{.oX&X&X&XR.D.&X$XR.E.@Xc.X.f = * % 0 q e x ).iXsXbXmXZXAXLXKXLXPXKXDXAXJXJXJXPXDXDXPXJXFXGXDXKXDXDXJXDXJXDXDXLXLXLXGXJXLXLXLXJXKXKXLXLXJXDXDXDXGXAXbXZXZXZXAXDXHXDXZXDXAXAXKXKXDXAXDXDXAXbXbXZXAXDXAXAX@XOXIXmX@X%.g g g o.BXDXKXIXIXAXDXAXKXKXKXKXLXLXLXLXLXLXLXLXLXLXPXDXDXJXbXUX#X#X&X-X&X$X&X$X&X$X#X$X$X:X$X%X%X=X=X*X$X=X=X=X=X=X=X&X:X=X=X=X$X$X=X$X$X#X&X&X-X%X{.%X$X$XW.{.$X$XT.E.E.R.L.L.D.j.D.P.D.l.,.#.( D.S.,.j.j.$.@.o.G e * 2 % 2 < < , > < > > > % , & & : & , : , % : > % , % < * < 2 c 0.] w.0.{ Y < 2 q 3 3 3 0 3 3 x M.(./.y./.p.i.r.p w w 2 0 q 0 w p R M.r.Y v c z u u S 0.0.u.m z v M T T U T T U c n N q./.t.u.t.Q N i w 4 4 1 , 2 1 2 , < 2 1 , , < , , , > > 1 : > > > > , , 2 1 ; 1 1 > , 1 > 1 4 2 2 1 1 1 5 5 4 t 7 i x m T 9.t.a.a.a.i.(.qX(./._.a./.`.(.i.p.p.qX`.wXp.W N a 9 5 5 5 M i.q.q.q.a.a.q.a.7.7.7.q.q.q.a.i.y.9.u.g.r.k.U.U.x.x.U.U.].I.P.I.I.[.I.I.I.[.P.E.oXE.P.|.[.E. X X[.L. XP.|.R.E.[.~.E.[.E.E.E.P.|.E.oXoX|.[.E. X|.E.E.E.E.P.U.1X8XP.K.b.b.K.J.v.L.K.L.J.v.v.b.b.C.j.V.b.D.Z.C.c.C.V.V.b.j.z.C.V.z.N.V.V.z.B.C.C.B.C.V.V.z.2.V.2.3.z.j.j.z.b.c.2.1.z.z.z.1.l.z.j.z.4.l.1.1.,.2.1.z.3.;.$.3.3.<.j.1.3.;.;.;.<.1.1.>.;.<.1.2.$.#.3.3.$.;.#.<.3.$.3.3.$.#.#.>.$.;.%.#.;.3.#.>.3.>.;.<.<.;.<.=.5.;.-.;.,.1.l.S.>.$.>.$.$.$.$.$.>.>.$.;.:.>.>.,.x.f.,.M.b.f.x.,.x.4.u.m.b.M.b.=.4.b.n.=.u.x.f.f.f.d.:.",
"|..XoX|.|.*XXXOXXX2X5X2X X~.I.~.~.~.~.~. X%X!.H.H.4.5.2.5.3.3.6.4.3.6.6.3.N.^.N.Z.N.N.Z.Y.Y.Q.L.E.*X X!. X~.~.~.oX~.~.~.~. X~.T.~.XX~.XX2XVXVX0X1X1XoXXX~.0X1X1X~.%X~.%X~.1X1XXX%XUX1X%X5X1X1X1X5X1X%X1X~.1XoX%X1XXX1X~.%XUX%X%X1X%X%X~.UX~.1X1X1X%X%X~.%X%X~.1X%X1X X X1X1XXX!.%XT.~.~.~.%X%X5XoXXX~.%X.X&X&X.X{..X$X}.E.{.{.[.[.R.G.k._ a - % * 0 e q n @XyXvXbXZXAXIXDXGXKXJXPXKXDXJXJXJXDXDXDXFXAXZXDXGXAXJXDXDXLXJXGXJXZXmXLXPXLXLXKXJXGXDXDXKXGXJXFXAXDXCXbXZXAXDXDXDXJXDXKXJXJXDXKXIXSXDXCXyXAXAXbXmXKXKXKXIXe.,XiX@X<X&.g g g <XBXIXKXKXIXLXDXJXKXKXLXKXKXLXLXLXLXLXLXLXLXKXKXDXKXLXKXmX;X#X#X%X$X=X&X$X-X&X=X$X$X=X&X=X=X=X$X:X,X1X=X-X3X=X9X$X-X-X$X&X$X%X=X=X$X$X$X$X#X$X$X$X$X&X#X{.&X$X#XR.Y.{.R.E.R.K.Z.F.z.c.,.>.' L.j.C.h.3.#.' J J C < * > < * > * , < > > % > % , > > > * > > , , , > < > < < * 0 z { 0.w.0.d.c w 0 0 < < 3 3 4 4 y r.i.M./././.u.] 3 e 3 3 3 0 w w y x S n z z S Y W ] 0.u.M.r.u 9 u S U 8./.a.qXt.U M W u.p.t.t.9.U v y t q 2 2 2 2 > 2 2 2 2 2 2 > , , , , 1 > > > > > > > 1 , 1 1 > 1 , , , , 1 1 1 1 , 1 2 4 6 q 6 6 y t i n U W t.a.i.i.a.s.wXqXt.t.t.t.(./._._.(.`.tXqXeXs.t.R m 9 9 3 b q.a.q.q.q.a.a.q.a.q.q.i.q.q.t.t._.i.{ r.r.k.U.~.r.n.U.U.U.I.].U.I.P.[.[.R.}.[.P.P.R.L.I.|..X XE.[.|.E.E.I.I.|.oXE.|.R.E.P.P.P. X|.E.oXoXR.[.E.|. XP.P.R.P.P. X8XE.L.v.b.J.v.b.E.K.K.J.J.K.J.C.b.z.V.c.z.B.Z.S.K.V.b.z.V.c.z.z.z.V.b.z.V.N.j.V.j.V.C.V.b.V.b.B.z.2.z.V.b.z.2.1.1.1.2.z.2.l.z.2.l.4.1.l.1.1.1.3.1.$.3.>.;.;.3.3.3.;.1.2.;.3.3.h.<.>.2.j.3.1.3.;.>.,.3.h.$.,.3.>.3.3.;.#.3.>.3.$.#.;.;.-.;.;.<.-.<.5.-.-.-.-.<.-.>.>.j.h.j.#.;.h.>.` -.-.:.<.=.,.,.f.,.:.l.f.:.f.x.x.k.x.f.f.g.x.m.f.x.=.u.<.=.b.=.u.u.<.b.u.<.=.",
"P.|.|.I.XX2X4X5X5XUX XXXI.~.I.I.~.L.J.T.T.Y.T.L.V.H.B.3.3.5.3.N.2.N.N.N.B.N.Z.N.Z.N.N.N.B.Y.W.Y.T.H.~. XE.T.~.oX~.~.T.~.~.~.XX~.~.~.~.~.XXMXVX3X1X1X%X~.%X1X1X~.~.%XoX~.1XXX~.~.1X1X1X1X1X5X1X%XXX%XXX1XoX1X1X1X%X1XUX%X%XUX~.1X%X~.1X~.1X%X1X1X1XUX1X1X~.%XUX1XXX1X1X1X1XXXXX1X~.%XoX%X%X~.~.%X~.~.XX~.{.;X=X&X{..X&X[.{.{.[.$X[.D.V.,.! V r & & * 0 q e n @XvXvXvXCXDXAXDXJXKXJXDXDXDXIXAXAXLXDXnXAXAXDXAXAXGXPXPXPXLXJXKXbXx.PXLXKXLXLXGXKXJXGXDXDXZXZXCXZXZXSXAXAXKXGXGXmX).KXGXDXAXDXDXIXAXIXyXbXSXZXZXbXIXAXbXmXiX&.O.G.&.g g g &.iXIXBXG.IXIXJXKXKXKXKXKXLXPXPXKXLXPXLXKXKXDXKXPXKXLXLXJXmX;X=X=X=X9X=X=X=X=X$X&X=X=X&X#X$X=X$X=X=X=X=X=X=X9X=X=X=X$X&X-X&X=X=X-X&X=X&X$X{.$X$X$X$X{.&X#X#XW.{.{.{.{.W.R.L.L.P.V.V.c.h.+.I C.D.z.j.1.+.` ( J Z a = % > > , , > > % % > % % % > > > > > > , # , , > > 2 < 3 3 A 0.0.0.0.w.q 4 0 < q 2 3 3 0 3 e E M.).u./.M.u.R w 3 3 3 w 3 0 w w r p z x W 0.r.M.r.9.] D u 6 9 W y.(.(.(.eX_.s.W 9.p.`.wX(.q.W M z 6 6 6 2 2 > 2 2 2 2 2 2 2 > 2 , , , , 1 > > 1 > > > 1 > , 1 2 > 1 1 1 1 > 1 , 2 2 1 2 1 2 2 2 6 6 6 t i x A Q w.a.a.a.a._.qXa.wXt.q.y.i.t.(._.qXrXqXwXtXeXwX_.t.h 9 w 1 T q.a.q.a.a.q.a.q.q.q.t.q.a.i.a._.`.r.] =.).P.].=.m.n.U.U.I.~.P.I.P.[.R.[.{.{.I.L.I.E.oX&X&XE. X~.|.R.|.P.R.R.R.L.P.E.R.[.E.~.&XE.I.E.E.|.E.|.E.R.E.|.~.P.K.XX8XI.L.v.L.v.K.J.J.v.L.I.I.K.C.K.Z.C.Z.Z.Z.V.V.z.z.V.V.b.z.N.z.z.z.z.j.V.S.V.S.S.S.C.z.z.j.V.z.z.z.c.V.z.b.j.C.j.l.2.1.1.z.l.l.2.<.>.3.3.j.3.3.,.1.2.;.3.<.;.;.1.$.3.j.1.>.j.2.1.1.3.3.>.<.#.1.1.1.1.3.$.%.j.1.$.%.$.1.>.3.$.$.#.3.#.<.:.;.<.=.-.=.-.-.5.-.>.,.,.h.,.h.f.h.#.f.x.f.:.>.f.,.<.=.=.:.>.<.=.:.,.f.k.>.x.x.x.f.:.f.x.=.x.x.m.m.x.b.M.b.1.b.=.=.=.=.=.",
"I.oX~.~.XX6X5X2X2X1XXXI.L.6.I.J.J.K.C.J.L.T.L.Z.4.2.3.3.6.2.A.N.N.N.N.6.6.N.Z.Z.Y.H.Z.{.:X=X$XY.Y.H.~.~.T.~.~.~. X~.~.~.~.~.~.~.~.I.J.~.%XzXMX3X%X~.XX1X~.~.%X%XXX~.%X1X1X1XUX1X1X1X%X%XXX1X1X1XzX0X1X2X1X5X1X%X1X1X%X%X%X~.1X0XzX1X1X1X1X1X1X5X%X1XUXXX~.%X1X~.1X1XXX1X%X*X1X*X%X1X%X%XXX%X%XXX~.~. X1X&X;X=X=X:X:X&X[.}.{.[.[.R.R.V.3.@.J f e d * * < 0 y c @XvXvXbXIXDXDXJXJXDXDXAXFXDXFXAXLXJXAXDXFXAXAXKXLXLXLXLXLXKXLXLXOXPXDX+XDXDXAXGXAXGXDXFXCXFXZXDXZXDXKXKXGXKXDXbXyXDXDXDXZXCXZXZXZXDXZXZXIXIXDXAXmXmXG.mX,XO.O.<Xe.O.&.e.g %.BXG.%.IXDXDXJXIXJXKXKXKXDXIXGXPXPXGXKXPXKXLXLXKXKXKXKXAXjX&X%X&X-X=X=X=X$X=XW.=X$X$X=X$X$X$X=X$X=X=X=X=X9X=X=X=X$X-X&X=X-X=X=X$X&X-X$X$X$X$X$X=X#X-X-X&X#X:X&XR. XE.L.z.L.P.L.L.S.c.#.+.C.Z.j.j.j.3.+.+.( J V d % > < , < > > > > * > > > > > > > > > , > , , < 2 < d 3 * D { 0.0.r.X.2 0 2 0 2 < < q 3 q p n M.y.y././.u.n w 5 3 3 3 3 3 q w w D 0.{ y.0.y.y.W m u 7 9 z { (.qXwXqX_.s.p.a.p.p.i.i.i.t.W U c z q 6 2 2 > > > 2 > 2 > > 2 > > < , < 1 1 1 > > > > 1 > , > 2 2 , , 1 , , > > > , 1 1 2 2 2 2 6 4 6 t y i z n M Q 9.(.a.a.`.tXeXwXaXpXt.q.w.i.(.(.(.qXtXtXtXeXwXp.=.z 9 b v q.q.q.q.q.a.a.a.i.q.i.q.i.a.i.s.s./.W E d.).'.=.4.m.m.U.n.K.].I.}.[.].[.{.{.I.P.P.R.E.|.|.|.P.E. XE. XE.|.[.P.E.E.|.|.|.|.|.[.|.E.|.R.E.|.|.|.E.E.E.E.R.P.%X8XT.C.v.b.b.v.K.K.C.L.L.I.J.b.K.P.C.P.J.S.v.z.V.B.C.Z.v.N.c.z.z.z.B.z.b.V.z.C.S.D.V.C.C.V.V.h.z.V.z.b.c.z.V.c.2.,.1.j.1.2.j.2.1.3.1.<.1.1.,.3.1.3.j.;.;.;.1.3.,.j.3.3.3.3.3.,.1.z.j.3.1.3.;.;.>.>.>.1.h.$.3.>.3.@.1.j.>.>.#.3.3.;.>.<.;.;.;.-.<.5.-.5.=.-.-.>.-.1.>.h.>.h.>.h.h.l.:.,.f.,.:.,.=.f.:.:.=.f.f.f.l.d.l.l.x.k.g.,.x.x.4.x.u.=.x.4.u.x.1.,.=.,.<.=.=.",
"2XXXXXUX.X.X.XE.oX~.XX~.I.L.6.J.l.b.b.b.B.J.L.Z.4.V.4.3.3.6.N.6.2.6.N.2.N.N.N.A.Z.B.B.H.Q.R.W.Q. X X~.!.2X~.~.~.~.~. X X*XXXXX~.~.~.~.~.2XxXxX1X1X%X1X%X%X~.1X~.%X~.~.%X%X1X%X~.~.~.%XUX%X~.1X5X5X9X0X1X1X1X1X1XzX5X%X1X1X~.1XzXMX5X1X~.1X1X1X1X1X1X1X~.UX1X%X1X1X1X1X1X*X*X~.*XoX%X1X1X1X~.XX%X*X1XXXXX&X&X;X2X;X&X:X&X=X&X$X{.E.R.D.j.#.( o.a e e * < 2 e z n ).mXAXAXGXZXAXIXDXFXDXZXDXFXnXKXDXbXAXFXKXJXJXLXLXLXLXLXLXLXPXPXKXIX'.DXKXJXJXJXLXDXbXZXKXDXKXGXKXKXKXKXKXDXDXAXAXAXZXZXAXmXZXJXIXAXbXAXAXbXZXmX<Xf :XlXK &.iXiX,XiX<X&.g e.l G.IXKXKXDXKXKXKXGXDXDXJXKXJXIXDXDXPXKXKXKXKXJXKXIXGXAX6X&X$X#X&X-X$X=X$X%X=X$X-X=X,X#X$X$X=X&X=X=X1X9X=X=X$X$X$X=X&X-X=X9X=X$X$X=X$X=X=X$X$X&X&X-X-X:X#X$X~. X[.E. XR.E.P.c.S.1.#.+.Z.Z.B.N.j.;.;.+.+.K C O.% * , > > 2 > < > , > > > > > > > < > & , > > < > < < 3 * D { r.w.w.D w 0 0 2 d 2 3 0 4 q 0 y 9.u.M.M.M.=.p w d 3 3 3 3 q 0 3 c M.M.r.r.0.r.Y i t u z Q /._.`.wXwXeX_.U N a.i.i.t.t.p.{ U c y t t 2 2 2 2 2 > 2 2 2 < 2 > 2 , , , , , > > 1 > > > > 1 , , 6 2 > 1 1 , 1 1 , 1 1 1 2 2 2 1 1 6 6 7 y y y z M D E 8.t.(._._._.(.p.(.wX`.i.q.t.y.y.(.(._.wXqXqX_._./.T b b B a.q.q.a.q.a.a.a.i.a.i.a.p.a.a.qX`.`.9.E R M.,.=.u.m.n.U.K.I.L.I.P.[.R.[.{.{..X[.[.R.E.[.E.E.P.P.P.|.|.~.E.[.E.|.|.E. XR. XoX&X|.|.E.P.E.K.E.|.E.|.[.P.P.P. X4XP.K.K.L.L.v.v.J.K.J.C.v.K.J.P.L.K.v.C.Z.V.b.C.b.C.V.C.Z.V.B.c.b.V.c.z.G.V.V.C.V.V.C.C.Z.V.1.2.z.1.2.2.2.z.l.j.2.l.2.3.z.z.z.l.j.2.c.z.j.3.z.j.j.;.;.3.3.3.1.1.j.>.1.1.3.;.1.j.1.1.1.1.<.3.1.1.>.2.1.3.2.$.1.1.$.$.1.1.3.#.$.3.>.3.l.<.;.-.-.-.-.-.-.-.=.<.<.>.<.>.j.h.>.>.>.h.h.>.f.1.f.f.,.f.,.:.=.<.,.,.:.k.f.d.k.x.f.f.=.x.=.u.b.1.m.=.x.x.u.=.=.=.=.=.=.=.",
".XI.|.|.oX2X2XXX2X XI.L.J.L.b.B.1.1.z.4.B.C.H.Z.V.B.B.N.N.Y.A.L.^.Z.A.Z.^.Y.W.Y.Q.Q.Y.Q.Q.{.:XzX~. X X1X8X X X X X XXX~.!.!.~.~.~.~.~.~.XXMXzX1X1X%XXX5X1X1X%X1X%XXX~.1XXX~.%X~.~.%X%X1X%X~.%X1X1X1X6X4X2X1X*X1X1X1X1X%X%X1X~.1X1XUX1X1X1X1X1X1X1X~.5X1X1X1X1X1X1XXX X1X1X1X1XXX2X1XXX%X1X~.XX%X3X3XXXoX1XXXXX2X;X=X=X|.}.#X{.[.{.R.S.c.h.%.( G f s d , < 0 y f G ).mXAXDXAXbXAXZXZXAXDXZXnXnXAXJXGXAXDXJXKXJXLXLXLXLXPXPXLXLXLXPXIXAXJXKXKXKXDXZXZXAXDXGXLXLXLXKXKXKXKXKXAXAXDXDXAXDXAXbXbXAXAXZXmXZXZXZXbXIXmXF.o.IXBXG.}.BXBXBXiX*.G.%.g O.,XDXGXKXKXKXIXDXAXJXPXKXDXbXDXAXGXJXJXKXKXKXDXDXGXDXDXnX6X#X#X{.&X&X%X$X=X-X=X%X=X XW.Q.$X#X&X=X=X-X1X=X:X$X$X=X=X=X%X$X=X-X$X#XW.,X=XW.-X:X%X=X=X=X&X=X X&X X XR.Y.R.P.S.S.z.$.#.$.#XD.Z.A.2.2.@.( @.I J j y * < < > > > > < , , < > > > > > < > , , , > < > < & * 3 n { 0.0.0.S q q 0 0 q 2 < < 3 3 3 p S M././.u.H e w w 0 d 3 2 0 q 0 p F ] 0.0.] m c M A { M./.).+X'.`.pX`.Q x A p.i.a.t.i.t.W M c t t 6 2 1 > 2 2 2 2 2 < > > 2 < > < , , , > 1 1 > 1 > 1 1 , 1 2 2 > 1 1 > > , 2 1 , , 1 2 2 1 1 5 4 4 7 t t u i i N T 7.i._.qXs.(._.`.(./.y.q.t.t.(.(._._.wX_.wX`._.`.p.Q v Q q.q.q.q.a.a.a.s._.s.a.a.a.s.qXwXtXwXr.{ m V M.=.=.r.m.m.n.I.P.S.P.].}.[.{.@X[.|.E. X[.P.E.E.P.L.E.I.oXE.L.P.E.|.|.|. X|. X*X XoX[.|.E.E.|.E.E.|.E.|.~.E.~.oX8XP.C.J.K.K.J.K.C.K.P.J.P.L.b.J.Z.C.K.C.C.b.S.B.b.Z.C.C.c.N.V.j.V.z.V.z.D.C.S.D.V.S.V.V.V.z.z.j.2.z.j.j.l.z.V.z.2.l.2.b.z.l.z.1.j.j.1.l.z.z.1.3.#.3.1.1.3.3.3.,.1.3.1.j.1.<.z.j.z.3.1.j.3.j.1.3.,.,.h.1.3.2.$.j.;.3.$.$.#.#.>.>.$.$.1.N.>.-.<.<.-.5.<.<.-.-.<.-.,.h.l.#.:.1.>.>.f.>.| :.=.1.,.f.=.<.=.1.g.=.f.x.:.f.f.f.g.$.d.g.x.1.,.u.4.x.b.=.<.=.5.=.=.,.=.=.",
"[.I.XX.XoXoX*X.XoXXX~.L.v.J.L.K.J.L.J.H.J.T.W.Z.J.Z.B.6.B.Y.^.N.Z.A.Z.J.J.J.T.Y.{.#XR.#X$XQ.E.{.1XoX X4X3X5X1XXX~. X!.!. X X XE.I.~.J.~.2XNXcX1X1X1X1X1X%X~.%X~.%X%X1X1X5X%X%X1XUX%X~.~.~.UXUX1X1X1X1X1X4X1X3X1X1XUX5X1X1X1X1XUX1X1X~.1XUX1X1X1X~.1X1X1X1X1X1X5X1X1X1X1X1XXX1XNXMX1X1X5X1X*X1X1X*X*X%XoX2X1X1X2X>X2X;X&X=X}.}.{.E.Y.C.G.V.j.$.( o.V a e < 0 y n U E ).mXZXCXCXAXZXZXFXFXbXZXAXDXJXDXDXJXJXJXbXKXLXLXLXLXPXLXLXLXDXAXAXZXbXmXCXAXFXDXJXGXKXKXLXGXDXDXJXDXDX0.yXDXDXAXbXbXAXZXAXZXmXyX>XbXAXbXmXAXiXOXIXBXiXIXAXBXIXG.g G.<Xg g ,XIXIXKXKXKXAXIXKXDXKXDXIXKXGXKXIXDXDXKXIXDXDXDXDXDXAXDXnXOX].{.].E.~.{.W.:X&X%X$X$X&X:X&X=X=X=X=X=X1X,X=X=X=X=X:X=X,X%X=X=X$X&X$X=X=X=X=X9X:X9X=X9X&X=XW.%X X&X~.R.D.D.D.S.G.j.#.$.W.Z.B.B.4.@.@.@.I I / C c * > > * > * > > > , > , < < < > > 2 < , > > , , , & 3 3 x 0.w.0.X.y 2 0 2 q 0 < 0 2 q 0 0 w x r.M.M.r.p w 0 0 3 3 w 0 2 q 0 e a S S M z M W { y.M./.'./.p.u.=.Q U N T W i.i.i.t.t.9.U c z t q q 2 2 2 2 2 > > > > < > > > > : : : , , , , > ; , > > , 1 2 1 , , > > 1 > 2 > 1 1 2 2 1 2 4 3 6 t 6 t p t z z N U Q 7.a.s.i._.p.s.`.p.t.7.p./._.).(.(.tX`.s.p.s._._.t.U t.s.q.q.i.q.a.a.a.s.s.s.a.(._.(.eXtXgXp.r.i 5 H =.=.v.m.U.U.n.n.F.P.].P.E.R.}..X|.I.L.P.|.|.E.R.|.[.R.|. XE.P.~.|.[. XR.E. X&X X~.E.|.[.P.~.|.R.P.[.E.P.R.P.|.1XP.K.C.J.v.v.C.K.K.J.L.L.v.I.K.C.C.v.C.b.V.C.S.S.V.Z.S.L.S.C.b.C.c.b.C.C.V.V.V.V.V.C.C.V.c.z.z.j.j.V.j.b.j.V.z.z.z.l.z.2.z.2.l.z.c.j.1.2.3.>.j.3.;.;.%.,.>.1.,.3.1.,.1.3.,.2.j.2.1.z.2.1.j.z.2.j.3.3.<.h.$.1.%.<.#.;.3.3.<.;.-.1.3.$.1.>.<.-.-.5.=.<.:.<.<.<.-.-.>.>.-.>.,.>.-.:.,.` -.d.l.,.=.=.:.=.:.g.,.f.x.k.k.>.d.k.k.x.g.4.u.b.u.x.=.<.u.4.<.=.=.=.=.=.=.",
"oX*XXX[..X~.XXXXI.oX*XoX|.~.Y.Y.I.E.H.~.E.T.W.B.N.2.J.#X^.6.J.^.Y.Z.Z.A.Z.^.Y.^.R.Q.E.E.E.#X&X$X1X5X X1XcXkX2XXXXX X~.~.~.~.!.~.~.L.T.~.1XcXzX1X%X%X%X%X%X%X%X~.1X1XUX1X1X1X%XoX~.0X~.UX1X%X1X1X3X4X4X8X1X2X4X4XMXMX1XXX~.1XXX~.1X1X1X1X1X1X5X1X1X1XUX1XUX0X1X1X3X5X1X X%X1XNXVXVX1X1X1X5X~.XX5X1X3X1X~.1X1X2X*X*X4X;X;X.X=X&X{.}.[.R.D.S.j.j.+.( / Z x w e w c D E 8.).bXZXZXZXAXZXFXFXFXnXFXFXnXZXAXAXIXJXbXAXLXPXLXLXLXPXLXLXZXrXmXvXbXbXAXDXJXGXJXJXJXGXGXAXAXCXSXAXAX%.vXIXKXAX+XmXAXbXAXIXmX:.e.bXDXZXZXIX).mXIXNXAXIXDXIXBX&.*.<XK *.%.K iXbXZXZXAXAXCXIXKXSXAXZXGXIXIXAXCXAXDXDXZXAXDXZXnXDXmXnXiX@XS.S.P.K.P. X&X X X&X*X&X=X$X$X=X-X&X-X$X$X$X=X=X=X=X=X=X=X&X:X$X&X&X%X&X%X$X-X:XzXzX=X=X$XW.&X&X=XE.W.Y.D.D.V.V.h.#.j.W.N.6.6.3.@.3.I ' @.` Z j < , > < > 2 > > , , > , , < < > < > > < > > , , = & & * i 0.0.r.D q < < < 0 0 2 < d * 3 4 q p Y /./.D e d 3 3 3 0 3 q q q 2 q y z x i c ] q.y./.y./.).Y N N N Q u.t.9.i.i.t.t.t.8.Q n u y t q 2 2 2 2 > > < < > < < 2 > 2 > 5 & # & > 1 1 ; , > > 1 , 1 2 2 > 1 1 1 , 1 1 1 , 2 2 2 2 6 6 6 4 4 7 t t u u i m M U 8.u.p.i.p._._.p.p.q.t.y.t.(.p.p.i._.p.a.i.(.a.qXeXi._.(.a.q.a.q.q.a.(._.(.qXqXqX(.(.qXuXwXu.D 9 5 = L =.r.x.n.U.n.F.U.].P.D.[.].{.E.[.P.P.[.&X|. X.X X X|.E.|.[.P.[.|.E.oX|. XoX|.|. X[. X XR.|.|.E.P.~.E.I.E.R.*X8X|.K.b.v.K.P.J.J.K.I.I.I.K.C.K.K.S.V.C.L.S.L.v.C.b.c.v.z.c.S.C.S.z.c.z.C.c.C.c.C.V.V.c.G.h.h.h.j.N.V.V.c.j.c.j.l.l.z.1.l.2.l.2.1.2.2.<.,.h.>.>.,.>.$.2.3.2.3.>.,.j.z.h.h.3.2.l.1.3.j.z.j.z.<.2.1.1.<.l.1.<.1.<.<.;.;.;.;.#.;.;.2.$.$.@.-.,.<.>.<.<.-.-.-.;.=.;.-.;.;.#.l.z.f.,.:.>.:.>.,.m.k.f.<.-.=.:.f.k.f.x.k.d.k.k.x.k.k.k.m.m.x.b.,.=.=.x.b.u.=.=.=.=.Z L ",
"oXI.XX.XXXUX5X5X3X3X5X4X1XoX*XE.~.~.~.~.K.J.H.Z.N.6.^.1X9XJ.B.A.J.Z.^.Y.Y.Y.T.J.A.D.Q.Q.Q.Q.R.E.~.oXcXcXcXcX5X1X*XE.E.T. X X!. X~.I.~.*X~.cXMX1X1X%XUX%X%X%X~.~.~.1X1X%X5X1XXX1X1X1X1XUX5X5XUX1X2X2X9X8X3XXX2X3XzXVX1X1X1X1XXX%X~.1X1X1X~.UX1X1X5X1X1X1X5X%X%XUX2X%XXXoX1X8XNX9XzX5XXX*X1X*XXX0X5X5X2X3X5X5XXX2X9X2X&X=X*X>X&X XE.R.R.P.D.S.c.>.#.( X.G j y y x U T E w.`.vXCXmXbXFXbXZXnXbXZXDXZXZXAXAXDXDXJXJXDXPXPXDXDXnXKXLXAXe.vXZXbXAXJXLXDXKXJXJXJXJXAXJXGXDXIXAXAXCXAXAXIXiXO.<XZXZXZXAXBXo.k.nXPXnXIXmXg.iXAXIXIXIXnX,X,XO.*.&.g <XBX@X&.iXmXmXCXIXmXAXKXIXAXDXIXGXAXAXZXAXAXmXZXIXDXAXAXbX+X+Xm.d.#.+.+.<.K.S.E.W. X~.=X=X=X$X:X=X$X#X=X-X=X-X=X:X=X$X=X=X=X-X=X$X-X$X=X=X=X=X=X=X=X9X{.$X$X&X$X X=XW.R.D.Y.V.D.V.h.+.1. XY.^.6.B.5.5.@.@.' ` G f = > 2 > > > * > , < > < > > > < < > > < < , > < < = & 5 q Y X.w.i 2 < 0 < 2 0 < 2 d & 3 0 4 4 c /.g.p 0 d 5 0 5 3 3 2 * q q q q e x Y w.t.u.y.0./.rXu.m u z { u.p.u.i./.i.i.7.Q U S c z z q 2 2 0 * < 2 < > > 2 > > > > > < : & : 5 , ; > , : , ; , 1 1 2 1 , , , 1 1 > , , 1 1 2 2 4 2 3 4 6 6 4 6 7 7 9 u m N n U 7.a._._._._.s.s.(.qX(.(.qX(.p._._.t.(.s.wX`.`.wXeX(._.(._.s.a.a.i.a.a._.qX_.(.(.(._.qX`.p.H e 5 : n =.=.=.x.m.U.n.U.P.P.[.F.].R.I.[.P.R.P..X&X[.E.XX X&X|.E. XE.P.E.E.|.|. XR. XE.|. XP.|.P. XR.E.|.P.P.[.E.E.oX2X XP.L.K.v.v.L.I.K.v.C.K.L.I.~.L.K.v.Z.c.K.P.L.L.V.c.c.C.b.c.b.j.z.c.j.C.c.S.C.C.V.V.V.z.z.j.N.S.h.h.j.j.j.z.j.2.1.4.z.1.l.2.4.z.z.l.2.1.1.3.3.3.>.j.$.@.$.$.$.>.>.3.3.3.-.;.z.>.<.3.h.3.>.>.;.j.3.;.1.;.;.j.3.3.3.;.<.3.;.;.;.>.>.j.3.<.,.-.<.<.-.;.-.;.-.5.<.;.-.>.#.l.v.f.>.f.>.f.d.f.m.k.d.,.:.=.,.f.k.x.g.g.g.d.k.x.k.g.k.=.K.=.x.x.=.b.=.=.<.=.=.=.=.L =.",
"oX|.UX4X5X5X5X5X5X2X2X8X*X*XXX X~.~.^.~.^.^.J.6.B.4.6.5.6.6.3.6.3.6.4.4.6.!.!.H.D.Q.Q.Y.Q.$X&X=X2X2X3X*X X$XE.W.&X$XY.{.~.~.E.E.~.~.~.XX%XxXMX5X1X1X%X~.1X1X~.%X1X%XUX1X1X1X%X1X1X5X5X1XUX5X0X5X3X3X2X3X3X*X&X4X1X1X2X1X%X1X X~.1X1X~.UX%XUX%X1X5X5X1X1X1X5X1X1X1X*X2X%X2X1XcX1X2X%X1X1X1XXX2X3X9X9X1X4X9X2X2X*X*X2X2X*X4X*X:X.X=X[.{.R.R.S.S.j.>.;.+.^ P C p y c U W 8.9.'.bXmXZXZXZXZXFXbXnXnXnXAXDXDXJXDXDXZXDXAXZXJXDXbXDXPXmX+XvXPXbXAXDXDXDXDXGXGXDXDXFXDXAXAXyXDXDXDXAXJXSX,Xg G.ZXIXIXIXiXO.@XBXIXAXnXZXmXAXIXIXIXIXiX&.g g g g *.iXBXBXZ.%.iXbXbXAXKXAXIXDXJXmXDXKXAXAXIXZXZXIXDXAXIXmX@X! A c f r r f j Z @.-.b.P.R. X&X X,X&X$X=X-X&X=X$X&X=X=X9X=X=X$X&X$X,X=X&X-X=X-X=X=X$X{.$XW.&X-X=X%X&X$X$X=X&XW.E.R.P.D.V.>.( 1.&XQ.6.6.6.3.5.5.@.I I Z s & & > > < < > > > % > < > > < > < < > < , < , 2 & & < < 5 H =.{ 9 5 2 < < < < * < < < d 2 0 q F M.Y 0 0 q d 0 < 0 < 0 0 q 2 0 z D X.0.y.y.u.9.U W W M y w././.(.qXM.q./.q.q.W S M v z y q y 2 2 < 2 < < > > 2 2 > > & , , 5 & & & : , ; > , ; > ; ; > 1 1 1 ; 1 > 1 2 , 1 , , 1 2 1 1 4 2 1 3 6 6 6 t 7 u y z z N N U W t.t.wXtX_._.qXqX/.eX(.qX(._.qXqX/.a.`.wXs._.qX_.wXwXwXa.p.t.i.t.a.a.(._.s.(.qXa.i._.'.] t 2 & D L [ =.,.x.m.m.m.P.].F.R.[.D.F.D.}..X{.{. XE.I.[. X|.|. X|.&XP.P.|.[. X&X|.|.P. X&XoX X|.&X|.~.E.E.E.E.E.|.|.8XE.P.P.R.P.U.L.K.P.K.K.K.Z.P.P.v.C.z.c.C.K.S.S.c.K.C.c.Z.c.c.c.z.C.C.C.v.Z.S.K.c.Z.z.V.z.c.j.h.N.h.j.h.c.j.j.k.j.j.j.j.l.4.z.z.1.1.j.1.3.1.1.j.j.$.3.h.$.;.$.1.h.1.1.j.;.3.2.2.>.1.<.1.3.>.<.;.j.<.3.1.<.1.1.<.1.<.<.;.<.-.;.<.1.1.3.>.1.3.;.#.;.-.;.-.-.-.;.=.>.>.<.-.;.>.x.c.:.,.x.g.x.x.f.,.d.:.f.,.f.f.h.f.f.f.d.:.:.g.d.>.,.f.u.x.b.1.4.u.=.4.=.=.=.P =.J ",
"*X2X2XXXXX2X2X2X2X2X5X8XoXE.K.E.~.J.6.6.J.6.6.J.3.2.5.5.5.6.3.5.6.2.6.2.4.6.4.6.6.Z.D.Z.Z.T.Y.Y.~. X!.L.T.Q.{.E.E.T.{.{. X X~. XT.~.~.~.%XcXMX5X3X*X~.*X~.~.1X%X1X0X1X5X5X1X1X1X0X0XUX1X1X1X1X1X3X*X4X*X*X2X*X2X5X5X3XXX9X3X X~.1X1X1X%X~.1X1X1X1X1X1X1X1X5X1X5X2X1X1X2XXX1X1X1X%X X%X2X2X1X1X2X3X4X4X4X2X4X5X3X2X;X*X2X1X2X;X X>X{.E.E.E.R.D.C.l.1.,.#.| ! V m x n Y w.9.w./.bXZXZXZXbXnXnXZXAXZXAXIXPXDXDXnXbXAXZXnXDXZXDXDXLXbXvXmXIXKXJXJXJXFXDXDXZXDXJXFXAXAXCX+XAXZXIXmXvXBX+Xg o.mXDXAXKX@XO.iXDXnXAXBXd.].AXAXIXIXBXe.g g g g g G.iX,X,XBXG.%.iXZXbXAXDXKXKXJXCXDXDXmXbXAXbXAXDXZXAXyXY 4 3 * d * * d d r f Z ' <.L.R. X&XW.*X=X0XMXlXE.=X=X-X=X:X=X=X9X$X#X$X$X$XW.%X$X&X=X$X$X$X$X=X$X$X X$X-X*X&X X{.{.W.R.R.R.D.j.+.3.$X^.A.2.6.2.@.5.@.' I Z a $ % > < * % > > > < > < 2 < 2 > > > > > > , , < * & & & & h W =.i 4 d < 0 < d 2 < < < < < 2 q S 0.q 0 0 2 < 2 2 w 0 2 2 q q q G M.w.r.u.W T M M M N b U M.0./.qX/.i.i.q.w.W S c z i y z 2 2 2 0 < 2 2 > 2 > > < > < , , 2 , , : 5 : ; 1 > , 1 > , , 1 , 1 1 1 , , , 1 1 , , 2 1 1 2 1 1 1 5 5 5 4 4 7 7 7 u i c z N N B Q =.i.s._.qX(.(.(.eXwXqXp._.i./.i.(.a.`.p.u._.wXwXwXwXeX_.s.(.p.a.s.a.s.(.s.(./.U w.q.w.p 2 5 R V R [ d.x.n.l.h.m.G.F.D.[.E.P.P.R.P.R.[.[.I.E.E.E.|.E.|.oX XR.E. X;X*X XoXE. X|. XE.|..X&X X|.|.|.P.P.[.E.oX8XoXL.~.P.P.L.H.P.T.P.R.L.K.K.Z.K.K.b.c.z.C.K.S.C.Z.c.C.z.z.C.b.c.C.c.C.S.v.S.Z.c.j.c.C.V.z.V.j.h.j.j.j.j.c.N.j.j.2.2.j.1.1.l.1.3.3.1.3.3.1.>.>.j.3.$.h.N.%.#.>.,.3.1.j.1.>.>.h.3.<.1.1.j.1.;.;.>.<.>.1.<.1.>.<.;.,.;.-.-.;.>.;.>.>.>.$.>.;.>.<.;.<.;.,.;.-.,.;.l.1.f.v.| ,.h.h.f.f.f.,.:.=.g.,.,.d.:.f.f.f.g.d.x.f.d.>.$.g.d.k.r.1.<.4.=.=.=.x.x.=.=.=.=.=.=.=.",
"6XXX1XXX2X2X2X5X8X3XoX3XoXR.K.E.~.~.J.J.^.J.6.6.3.6.5.5.5.5.6.5.3.6.6.6.6.6.4.B.N.B.D.H.Y.N.T.W. XT.L.W.T.R.&X&XT.E.E.&X X%X~.~.T.T.~.~.%X8XNXcX8X5X1X1X5X2X1X%X1X1X1X1X5X1X5X5X5X5X1X0XUX5X5X5X2X4X3X2XXX*X2X2X2X1X1X2X3X2XXXXXUX~.%XUX1XUXUX%X1X0XUX1X5X0X1X1X1X1X1XXX4X5X1X1X1X1XXX1X1X2X1X2X1X1X3X2X2X3X4X*X7X2X;X4X2X4X2X&X&X&X{. X[.{.P.C.C.z.h.<.>.| / G n c S 8.] 8.w.).CXAXZXbXFXnXFXLXnXNXVXFXnXnXnXnXZXnXZXZXnXZXPXLXDXLXLXLXLXLXJXKXFXZXZXFXFXJXFXAXFXAXAXAXZXZX+XOXIX@Xg *.iXAXKXIXe.X.BX@XnXAXAXiXIXIXjX>XBX,Xl g g g g g <XiX&.e.vXBXx.G.mXDXAXAXKXKXKXIXGXmXAXAXDXJXIXPXCXM.y 6 0 0 e * * e e s s r j I z.R.E.{.%X$X&X$X$X=X&X#X$X-X=X:X:X:X=X:X=X=X$X=X$XW.$X$XW.-X%X{.$X&X&X-X&X-X=X$X,X&X$X&X$X{.Q.R.P.D.h.@.$.W.H.A.6.^.6.@.2.@.@.( P Z 3 * 2 < > > % > % > > < 2 < < > * > < > < > , % * & & & 3 w ~ { q 3 * < < < < < 0 < < < 0 < 4 2 q 0 q 0 2 < d 2 2 0 0 * 2 0 q i o.w.{ U N m z v m B Y 9.y.(./._.(./.q.8.W S i 6 q y 6 q q 2 2 2 2 2 2 < < 2 < > < < , , , , 5 5 : & 1 ; 1 ; : , ; > > , , , , 1 1 > , , 2 , 2 2 , 2 1 2 1 2 4 4 6 6 4 y u y z z z m m N B Q =.s.i.t.i.i./.i.qXrXp.p.p./.i._._.a.p.(.a.`.eXtXeXtXpXtXqXa.a.a.i.(.qXs.qXeXa.v m S w q < ] n h ~ ) =.f.m.V.m.F.F.P.F.@X].}.E.R.L. X XP.R.|.E.|.|. X X|.E.P.|.*X*X;X&X|. XoXoX[. XE.oX~.[.oXE.E.E.R.E.XX8X XP.L.Y.L.P.K.L.P.P.E.K.Z.P.K.C.K.V.l.Z.H.L.C.c.K.C.b.C.b.v.V.L.S.D.K.S.K.C.v.c.c.c.c.V.j.N.c.j.j.j.j.V.D.j.z.j.j.j.j.2.1.b.<.z.3.1.z.,.h.l.j.j.h.3.j.h.j.1.1.3.>.1.z.j.j.j.j.1.h.2.l.h.1.>.;.>.1.1.1.<.,.;.,.,.,.<.;.<.,.,.;.3.>.1.,.<.>.>.;.:.-.-.,.-.=.5.<.<.,.,.v.#.>.:.,.l.,.k.,.x.x.x.f.>.f.f.,.d.l.f.:.x.k.g.>.>.d.d.k.l.x.b.u.=.x.b.=.=.=.=.=.=.I k =.",
"*XXXoXoXE.2XUXkX5XUX1XXXoXE.K.Z.L.~.^.J.6.6.6.6.3.2.5.2.5.5.5.2.3.4.6.5.2.3.3.6.N.N.N.Z.Y.Z.Y.D.Y. X!. X$X$X X{.E.W.%X X~.%XE.!.~.~.~.~.%XzXVXzXxXcX0XVXMXXX1X1XUX1X1X1X1X1X1X5X5XUX1X5X1X1X5X1X1X2X2X2X2X*X3XxX8XUX1X5X0X2X1XoX1X%X~.1X1X1X1X1X1XUX1X1X5X5X1XUX5X5X5X3X1X3X4X9X1X1X5X5X1X~.XX1X2X1X3X*X*X4X8X*X:X=X4X;X3X4X2X*X;X&X{. X&XE.R.D.C.C.c.z.,.>.| _ J O.n F W 9.w.w.).vXZXbXFXnXFXVXmX,XDXFXZXAXZXZXZXZX+XbXnXIXPXLXPXLXLXLXLXPXZXDXDXFXZXDXDXJXGXDXAXAXZXbXmXmXAXmXAX@Xd g %.BXIXKXmXiXBX@XmXBXAXnXbXmXM.g ,Xe.g g g g g g *.%.l G.BXPXIXG.@XBXDXJXJXIXKXIXDXAXKXGXDXIXAXsXo.6 w q 0 2 * * r a a r j f j J #.R. X$X&X&X#X-X#X#X#X%X&X$X&X-X=X=X=X9X=X$X$X=X=X$X%X&X&X=X-X=X=X=X$X=X=X&X=X&X#X[.[.$X{.$XR.R.G.z.h.+.3.$XH.^.2.6.6.2.^.5.5.<.I G r < % < < < < < > < < > > > > > > < > > % , , & & < * & & 5 E ] 3 q < 2 0 < 2 < < * < < q q q q < 0 0 0 q d q 2 < 0 * 2 0 q e w z x c v N S T W 7.t.q./._./././.y.w.] T c x p p 4 t q 2 q < * > > < < > > < 2 < > < & 5 , , , , , : ; , , > , > , 1 1 > , 1 ; , > , , , 1 1 1 , 1 2 2 , , 1 5 4 4 6 7 7 y u u i i m N N B B { u.t.t.i.i.q.(./.(._.(._._././.i.p.p.a._._.`.wXtXtXpXpXpXtX(.s.a.(.qXa.tXuXqXU t q t q 5 r.D m n ) =.<.x.x.S.S.F.D.R.F.R.{.}.E.I. X{.|.|.|.~. X X|.E.|.P.P.E. XoXXX*X*X X X X|.E.|. XP.E.E.I.P.P.K.P.|.4XE.K.Z.C.K.P.K.L.L.P.P.b.P.E.P.C.V.b.C.v.K.P.K.v.C.K.c.c.v.c.c.S.S.V.Z.v.Z.v.K.C.C.z.b.V.c.j.C.c.j.z.j.C.D.c.c.z.z.z.1.l.l.v.b.h.j.1.1.3.1.,.2.3.h.h.h.1.2.1.1.1.>.h.l.j.,.z.h.1.1.l.1.>.1.<.>.<.h.h.<.1.f.<.,.>.,.;.<.;.,.,.;.>.3.j.j.1.h.<.#.;.<.<.;.<.-.<.-.;.l.f.b.-.>.>.f.x.f.x.x.l.f.,.:.f.:.=.:.f.x.:.=.x.k.x.g.g.g.>.>.r.,.,.=.x.=.=.f.1.=.=.=.P I =.=.",
"oXP.I.~.oXoX~.oXXXXX2X2XP.P.|.~.~.~.L.J.6.J.^.6.6.6.6.5.5.5.5.6.6.6.2.2.5.2.2.2.2.N.Y.Y.H.Y.Y.Z.Y.Y.W.{.=X$X&X$X=X%X{.W. X XE.E.~.~.~. X5XzX5X1X1X1X1XcXVXzX1X1X1X5X5X1X1X1X1X1X5X2X1X5X1X1X5X5X3X1X1X2XxXzX1X8X1X2X*X5X9X3X1X1X1X~.XXUX~.1X1X0XUX1X5X5X1XUX1X2X5X1X2X*X|.oX4X4X2X1XzXVXMX1XXX3X2X4X2XXX8X4X;X4X5X3X3X*X3X4X*X*X2XXX X2X&X[.E.P.S.c.C.C.c.z.>.>.o.G V c U W 8.w.w.+XZXZXbXZXFXAXnX%.2.IXZXmXnXbXbXZXZXZXZXDXLXLXPXPXKXLXPXPX).JXDXJXDXGXsXDXFXFXAXSXbXmXmXrXIXIXBXiX%.e.g e.bXGXDXZXmXbXIXAXAXIXBXvX&.g <X&.g g g g g g &.&.G.,XmXAXIXIX@X,XDXAXIXAXCXAXDXGXIXAXJXnX'.a < 2 < 2 q 2 < r a V V C k J Z ' ;.C.{.*X&X&X%X{. X%XW.%X-X=X=X=X=X-X=X=X=X=X=X=X9X=X=X#X9X:X=X9X9X=X*X%X=X:X&X%X=X&X#X$XR.R.Y.D.V.D.N.$.5.#XQ.^.6.6.6.%.6.%.3.@.' o.C a % > < < > > > > < > < < > < > > < < > , , % , < & * * * A E c q < < < 0 0 < 0 < < < 2 q 0 2 d * 3 q 2 < 0 < < < , * 2 q w y y V R 9.u.u.t.0.q.y.q.(.(./.{ W W Y S x z u t q 6 3 q 2 2 < < > < > 2 2 < < > > < < , 3 : , , : , : ; , ; ; ; > ; 1 > 1 2 1 , , , , , 1 , 1 2 2 1 , 1 2 1 1 1 5 4 5 6 t t t u i z i h N N N Q t.t.u.p._.i.a.i.(.p.wXwXW t.y.p.t.y.a._.pX`.qXpXtXpXhXgXtXqXqXa.a.eXeXtXpXpXp.u 9 3 3 5 t.{ D m F _ -.k.x.k.S.S.F.S.D.F.P.[.E.|.[.P.R.|.R. X|.|.E.R.L.L.R.|.|. XR.oXoX|.[..X[.|.~.oX|.P.L.P.E.R.P.L.P.8X[.K.K.P.K.K.P.K.K.L.K.C.P.P.P.K.K.C.v.S.v.S.P.K.v.C.C.S.C.v.C.S.Z.C.V.Z.v.v.S.v.V.C.c.v.z.3.h.c.j.j.z.z.c.z.c.2.j.1.2.b.l.b.1.l.2.l.l.1.2.1.h.3.,.;.1.j.1.$.j.1.1.j.1.h.;.<.1.,.1.1.1.<.,.1.<.,.1.l.>.<.<.,.,.;.l.<.>.;.>.l.<.,.<.-.,.<.<.l.1.,.,.-.;.:.>.;.>.,.h.j.c.( ` >.h.k.k.k.x.x.f.f.f.f.,.f.d.f.k.g.g.g.m.m.k.g.k.f.d.b.f.x.g.1.,.x.<.=.=.=.=.I =.=.k ",
"~.I.|.I.oXXX.X1XXX2X*XoXL.P.P.L.L.J.L.b.^.^.J.6.6.6.5.5.5.5.5.5.5.3.5.6.5.5.6.2.2.B.B.Z.^.^.H.Y.T.W.Y.Y.Q.E.W.$XW.%X$X$X~.!.~.!.~.~.~.%X3X8XzX3X5X1X5X5X1X1X%X1X0X0X1X0X1X5XUX1X1X0X5X2XUX0X5X1X6X1X5X2X8XzX8X3X1X3X2X1X4X8XVXMXUX~.~.~.%XUX%XUX1X5X1X5X5X0X5X1XoXXX2X1X4X3X8X5X5X2X2X2XXX X X2X8X8X2X1X=X2X2X:X2X8X8X4X8X3X;X*X&X*X*X.XoX[.I.E.P.K.P.S.v.n.v.h.$.! V a c D W w.w.y.yXDXAXAXAXAXAX].o.nXAXZXbXnXAXnXnXnXFXAXLXLXPXKXPXLXLXKXKXKXJXAXDXvX#.IXAXZXAXZXAXPXiX,XIXIXKXIXBXiXe.g e.BXZXbXbXAXIXDXAXnXnXiX&.&.&.g g g g g g g *.<XjXBXIXZXAXIXbXiXAXbXSXAXIXDXIXGXAXIXmX..< < * < 0 0 , < y j j G J ! I I I -.2.K.W. X$XW.$X-X,X#XW.%X-X=X=X-X=X-X=X=X9X7X9X9X=X9X1X1X=X9X9X1X=X9X=X%X$XW.$X$X&X$X{.W.{.#XR.@XD.S.j.$.5.#X6.6.6.6.6.6.^.2.3.3.#.( J V s < < < * < > > 2 < < 2 > > < < > > > * & % & & , , % & q ] ~ 2 < < < 0 < 2 0 0 0 0 0 0 2 2 q 0 3 3 < < 2 0 0 < * < 0 2 q 8 t ] M.u.i.i.i.y.y.i./.0.q.] T D M m z x t t 7 5 3 5 2 2 2 2 > < > 2 > > 2 < < < 2 2 , , , , , & , , ; 1 1 , > 1 , , , > 2 1 1 ; > , 1 > 1 > , 1 1 2 2 1 4 4 4 4 6 6 4 t t t t i i z m N A N T 7.t.t.i.(.t.9.7.y.p._.(.t.q.7.q.9.q.p.p.p.a._.wXfXfXhXhXpXtXrXs.s.qXeXwXwXpXwXU p w 5 $ t.s.Q M n ~ =.f.x.k.k.D.F.F.D.L.U.P.E.[.E. XP.P.R.E.oXE.E. XP.~.E.~.R.E.P.E. XE.E.|. X XE.E.P.P.K.P.P.L.L.P. X8X~.P.K.K.K.C.Z.K.Z.C.C.S.z.Z.L.Z.C.v.V.V.Z.Z.C.C.Z.C.S.P.K.C.C.L.K.v.K.C.C.Z.v.v.C.C.C.C.v.v.1.e.j.j.j.h.z.l.z.l.<.b.l.1.l.b.1.2.l.l.2.>.,.h.j.1.3.$.h.>.>.>.3.,.,.,.h.l.l.h.>.h.l.>.h.l.1.,.,.,.l.l.h.>.l.1.<.>.h.>.,.,.;.1.,.,.,.<.,.,.f.>.;.;.>.<.:.-.<.>.>.1.,.h.c.P +.>.x.l.k.m.x.x.f.f.>.f.f.>.d.f.f.k.f.d.k.k.f.f.f.k.f.x.g.x.g.u.b.u.b.=.=.=.=.P =.=.=.",
"oX|.[.I.XXUXoXoX*XXXoXE.I.~. X~.L.L.J.L.^.^.^.^.6.5.5.5.5.@.5.5.5.5.5.2.6.6.N.6.N.N.Z.Y.Y.Y.Y.T.E.^.T.Y.Q.R.W.$X&X=X3X$X*X3X~.E.~.T.~.~.1XzXzX5XcX8XcX5X5X%X1X5X0X5X1X0X5X1X5X1X2X1X5X1X1X1X1XXXXX3X2X1X3X3X8X5X5X3X*X3X8X8X8X3X1X1X1X1X1X1X1X1XUX1X5X5X1X1XUX%X%X1X*X4X1X3X8X2XXXXX1X1XXX3X2X1X8XXX*X2X2X2X*X2X3X5X8X8X4X8X2X4XXXoXXXoX XoXE.E.P.E.R.R.E.E.S.S.c.k._ G x y U W 9.9.0.yXnXnXDXAXAXnXOXZXnXZXZXAXZXFXFXAXIXPXPXLXKXKXPXPXPXIXJXJXJXAXDX+X$.FXDXZXAXAXDXDXmXiXKX+XIXIXIX,X,X&.g ).mXZXAXZXAXIXZXIXnXmX<Xe.g g g g g g g g <XlXZXAXmXZXAXDXIXDXZXZXAXAXIXDXIXKXGXyXD < d 0 e w 0 , < a V V J ( ` $.>.l.l.l.L.T.P.W.&X}.#X&X=X$X=X$X=X:X9X-X=X9X:X0X-X#X=X9X9X=X=X1X-X-X9X1X-X:X=X-X=X%X&XW.{.$X#X[.{.R.Y.Z.S.l.h.#.5.^.#X6.6.#X6.6.6.2.3.3.$.+.( K f 2 % < < < * < < > > < < > * > > < < % % & & & < & & * > A ] F < 0 2 0 0 2 < < < < , < * < 0 0 < < d < 2 0 * < < < 2 0 q 4 2 ] )./.M.i././.`./.y.T T D c x i y i i p 4 w 3 3 5 q 2 2 2 < 2 > > 2 2 > > < > > > , & & , & & , , > , 1 > , 1 > > > > 2 2 > , > > > , > , 1 1 2 2 1 1 1 1 1 6 4 4 4 6 t t y i u z x M M N U t.t.W 7.q.q.i.p.q.7.y._._.q.t.q.q.t.i.(.p._.`._.`.fXfXdXtXpXqXqX_.s.eXeXeXwX`.u.N w 3 w t.t.7.E n F =.d.>.h.S.x.D.S.S.C.].[.|.E.P.C.P.|.[.I.E.oXE. XoXoX*XE.oXoX[.oXE..XE.2X XoXR. XL.E.H.L.C.v.C.P.~.8X|.P.P.L.Z.C.v.P.S.b.S.K.b.b.Z.z.S.C.v.c.C.K.v.v.K.C.v.z.b.v.v.v.v.v.C.C.v.v.C.C.K.K.V.S.z.z.1.h.z.c.c.c.c.B.C.l.l.l.2.b.l.l.l.c.b.1.<.2.1.j.j.>.,.1.,.j.>.1.j.1.<.<.l.,.h.l.l.l.h.l.<.f.l.,.;.,.l.,.<.:.,.>.1.<.<.,.,.;.,.;.1.,.;.,.<.>.,.<.,.>.;.;.-.-.;.;.-.$.;.f.$.P ` >.j.l.m.x.x.x.:.f.f.f.f.:.,.f.>.f.>.:.k.k.f.f.f.f.f.x.m.,.f.<.<.4.u.5.<.5.=.k =.=.k ",
"oX|.I.oXoXXXXX2X2XUXXX|.I.I.~.T.J.~.^.^.J.J.A.6.6.5.6.5.5.@.5.5.5.5.5.3.6.3.N.6.2.B.6.B.^.Y.Y.Y.^.R.Z.T.T.T.$X&X%X=X9X$X&X$XW.E.~.~.~.~.5XzXcX0X5X1X0X1X1X5X1X5X5X1X1X5X1X1X1X5X2X1X2X1X2XUX1X5X4X4X2X2X2X3X5X1X5X8X5X4X8X4X2X&X1X5XUX%XUX1XUX0X1X1X5X1X5X1XUX1X4XoXoX4X6X5X3X1XXXXXXXXXXX2X2X3XXX1X2X4X*X&X*X4X4X8X8X9X2X4X X&X*X&X X X&X XoXE.[.E.oXE.[.[.P.I.F.P.m.d.! c y S ] t.t.r.+XnXbXZXmXnXZXbXnXnXbXFXDXDXVXFXDXPXLXLXIXAXJXmXyXLXKXKXGXAXZXsX@XDXDXDXAXSXDXDXvXiXiXBXKXKX@X@XBX+X&.g ,XDXDXIXKXAXIXAXZXAXBX&.g g g g g g g %.iXmXmXIXDXAXIXIXDXDXZXZXAXAXDXDXDXIX@Xz q q a x p 3 & p Z J o.( X.>.j.c.v.J.J.L.P.E.T. X-X#X&X#X$X-X9X=X=X:X=X-X,X0X9X=X-X9X=X=X1X=X=X1X1X9X=X1X=X&X:X=X&X=X=X=X$X:X$X[.{.R.@XH.c.G.j.$.6.^.#X^.6.6.6.6.6.3.1.j.$.#.X.o.O.f < > < < > > > > < < > < > > < > % , , % & , & < , , & 2 Y X.0 < < < 0 < < < < 0 * < * * 2 2 < < 0 2 < < 0 < < 0 q 2 2 4 4 q D r.u.t.0.w.W W U S m x z y z z u p 4 t 7 6 5 < < 2 < > 2 < 2 2 2 > 2 < > 2 < < , , : : : : : , , 1 > > , , > 1 > 1 2 1 , ; , 8 z 1 > 1 5 , 2 1 , 2 4 4 5 5 4 1 4 6 4 6 t u i z n N N D B t.i.a.i.i.q.7.Q q.t.t.t./.i.q.7.i.t.t.u.p.a._.qX`.wXfXdXgXpXtXeX_.qXqX_.qXwXqXi.7.a 3 5 W t.{ 9.U N ] $.h.k.c.c.S.S.D.F.L.E.[.E.P.E. XE.P.E.[.E.I.P. X.XoXE.|.R. XR.oXE.[.E.|.|.|.~.I.U.L.L.K.K.C.P.E.*XE.K.Z.K.K.C.K.K.Z.S.C.K.K.S.K.C.v.c.C.c.C.L.P.P.C.S.S.Z.S.C.Z.V.K.V.K.v.Z.P.S.C.Z.K.V.K.K.v.z.j.c.C.V.c.z.C.z.z.2.b.l.l.1.b.b.l.l.b.b.c.z.j.1.f.3.1.1.h.3.>.1.h.1.h.,.,.1.l.l.l.l.h.h.l.l.l.>.,.>.f.l.,.1.1.f.x.,.f.<.f.1.,.,.,.;.1.,.,.<.;.,.;.;.;.>.#.-.>.#.>.>.>.#.3.>.>.f.k.x.k.f.l.v.x.f.,.g.f.f.f.f.g.d.:.d.d.f.d.$.g.g.=.1.r.x.u.=.b.4.<.<.=.P I J =.=.",
"XXoX|.~.[.oX*X1XXXUXoXoXP.J.J.~.J.L.b.6.J.^.J.J.6.4.2.2.5.5.5.5.5.5.5.5.5.3.6.6.6.6.6.6.V.J.H.W.T.T.T.~.T.~.~.%X~.~.~.~.%XUX1X~.~.~.~.~.1XVXzX5X0X5X5X1X1X1X1X1X1X0X5X0X5X1X5X1X1X1X1X5X1X1X5X1XUX5X5X1X5X1X5X5X5X5X5X5X8X5X2X;X*X*X*X&X&X*X3X8X2X4X>X2X;X;X:X4X=X4X:X>X4X2X3X2X.X;X;XXX X2X&X2X*XXX4X3X2X2X:X4X*X8X4X4X9X2X3X1X=X;X&X&X;X|.&X.X.X X X|. X[.P.[.I.[.[.U.x.} D 4 A W ] W { '.jXvXbXvXbXbXnXDXAXAXIXPXDXAXPXPXLXLXAXDXIXvX+XDXJXDXAXAXAXFXZXZXDXFXDXJXKXPXiXmXd.IXPXIX0.iXiXiX,X&.l iXDXJXPXDXIXAXBX,X,X&.g g g g g g l <XiXmXAXAXnXAXIXSXIXDXIXDXIXJXZXDXDXx.w w w a n x y 0 j G ( | -.<.z.b.V.Y.L.E.{.{.E.[.&X-X=X$X[.{.$X,X1X9X9X=X=X=X9X=X9X-X$X$X=X:X=X=X$X1X9X1X9X9X=X=X=X=X=X=X=X&X$X&X{.&X$X XE.Z.S.z.h.,.J.H.^.^.6.J.J.6.6.6.5.6.6.6.=.I J V 0 % , < , < > > 2 2 > < > > > > > > % % % < , < & , & < a n 3 3 3 q 2 0 2 < 0 < < < < < < 0 d 2 0 < 2 2 0 < < 0 2 0 2 2 3 7 z z N N A N A D v c u u y 6 t 6 t 6 4 t q 2 q 2 2 2 < > < < > 2 2 2 > 2 > > * > > > , > , ; > : , > , ; 1 , ; , > 1 2 1 , , > z n q 1 1 , 1 1 2 1 2 1 1 1 4 4 6 6 4 t 4 u z B U M N U U D 8.t.i.7.i.7.7.q.7.q.8.q.t.a.t.q.t.7.7.p.t.p.(._._.wX`.hXfXpXpXwXeXeXqX_.(._.s._.q.S q q 8./.8.7.U N D ^ $.k.c.x.D.F.D.P.P.P.P.L.P.E.P.L.P.[.oX XE.P.R. X X|.E.[.[. X[.E.I.L.U.P.P.E.R.P.K.P.L.T.K.P. X3X XK.K.K.C.C.S.K.Z.v.S.K.K.S.K.v.l.z.v.v.C.K.P.C.C.C.C.K.C.C.v.v.K.b.b.v.v.l.n.v.J.b.v.K.z.z.C.l.b.v.v.l.b.b.v.x.b.l.l.b.l.b.b.1.l.l.b.b.1.l.4.,.,.=.<.<.,.1.,.1.l.l.l.l.l.,.l.,.c.f.1.,.1.l.l.1.f.,.l.f.,.,.,.k.l.f.,.>.<.,.<.1.1.1.,.,.<.-.-.<.-.-.-.<.-.=.;.h.$.3.$.h.$.>.>.m.m.k.k.:.l.k.g.f.l.f.f.>.g.g.k.:.=.g.>.,.=.:.:.x.x.x.x.=.<.x.x.=.=.=.=.k =.P L ",
"2X|.|.oXoXXXoXoX~.~.XXI.L.I.b.b.b.4.J.6.J.^.J.2.6.4.6.4.5.5.5.5.5.5.5.3.6.5.6.5.2.<.6.6.J.T.Y.T.Q.!.~.%X~.T.~.oX~.~.%X1X0X1XXX%X~.~.~.%X%XzXzX5X5X0X5X5XUX1XXX5X1X1X1X1X0X5X1X5X5X1X1X5X1XUXUX1X1X2X5X1X5X1X2X2X1X1XXX1X5X2X2X1X3X2X3X&X3X5X&X2X:X:X3X;X&X;X2X8X.X4X;X4XkX7X*X2X5X*X&X&X.XoX*X=X*XXX*X2X&X;X8X8X*X8X3X4X4X2X&X2X4X7X5X&X*X2X&X;X4X*X X|.}.[.[.|.[.oXoX].n.x. .Y w c U Q W r.OXsXvXvXcXbXvXnXnXAXDXPXLXIXPXPXLXLXAXAXAXvXmXGXGXJXAXAXZXAXAXFXGXDXbXGXLXLXiXIXIXPXAXmX .BXvXmXyX,X&.O.iXIXPXPXDXIXe.<XiX&.g g g g *.*.l ,XmXIXIXmX%.nXIXGXDXKXIXGXDXAXAXIXg.q e p a n f e q D [ :.f.x.v.K.S.R.L.{.{.R.Q.R.$XE.#X:X&X=X=X#X$X-X%X=X9X9X9X=X=X=X$X#X$X$X:X=X-X-X-X9X9X1X9X-X=X:X-X&X:X:X-X=X&X&XQ.$X{.[.W.L.S.c.l.,.L.Q.^.^.A.J.^.6.6.5.5.A.6.5.5.I ( K r = % < , < > < < * > * > < > * * > % < , % & < < < & 3 3 4 3 3 0 3 2 0 < d 2 < * < < * > 0 < < 2 d 0 0 0 < < 2 0 2 2 2 3 3 t p i i z m m i y u y 4 6 t t 4 t q 2 6 2 2 6 6 2 , 2 < 2 > > < > 2 > > > < > > < > > > : , : , 1 1 > , , 1 > > > > 2 1 , > < 8 t 2 1 > 1 , , 2 2 2 1 1 4 6 6 4 7 t t y y n B 8.7.T U B B Q t.i.t.7.t.{ Q q.8.8.t.s.y.a.t.7.7.q.p.i./._._.wX`.eXwXhXdXhXpXwXeXqX(._.s._.a.q.T q q q.q.w.t.Q B m R X.k.c.c.S.V.D.I.S.L.P.P.R.P.P.R.P.E.E.P.E.P.E..XE.|. X&XE.E.P.P.P.E.E.E.oX.XE.P.[.K.V.K.K.P.E.2XE.P.H.L.Z.K.L.L.K.C.C.C.L.P.C.b.C.z.C.C.v.Z.K.v.K.C.K.C.c.v.z.K.J.K.v.J.n.J.n.v.v.v.l.z.l.z.l.x.l.J.C.v.v.x.b.v.b.b.b.l.b.x.1.v.b.b.1.l.,.b.x.1.,.<.4.1.1.,.<.l.l.v.v.l.v.v.l.l.l.l.b.l.1.>.,.,.,.1.f.<.l.:.<.,.,.l.l.,.>.,.,.,.,.<.1.l.,.;.-.-.-.n.,.-.-.;.<.$.$.>.$.$.+.>.>.>.k.x.g.l.x.x.k.f.f.f.f.g.f.d.k.:.=.d.,.g.:.,.=.=.1.g.x.x.x.=.x.=.=.=.=.L L L P ",
"oXoXoXoXoXoXXXXX~.].~.K.K.C.L.J.b.J.4.6.4.6.4.<.6.6.6.6.6.5.5.5.2.2.5.5.5.6.5.6.4.4.6.T.B.H.H.Q.~.~.~.~.T.T.~.~.%X%X1X1X~.~.%X~.~.~.~.~.XXzXcX5X5XcX5X0X5X1X1X0X1X0X5X0X0X1X5X1X5X1X1XUX1X5X1X5X1X5X2X1X2X1X5X1X*X1X2X1X*X2X3X*X2X2X2X;X3XXX&X*X&X;X;X;X&X;X2X2X.X;X2X=X4X2X;X2X&XXX*X2X4X2X&X2X2X2X3X2X&X2XMX8X2X4X2X*X2X*X*X2X4X*X&X=X;X2X=X2X3X2X.X.X.XoX|.|.|.OX;X.X}.].g. .D 2 p D E W ] +XvXvXvXOXbXAXAXZXnXnXAXIXLXLXPXLXAXAXAXAXGXDXDXDXDXZXSXFXDXGXJXOXo.JXJXPXOXAXDXGXZXvXvXmXCXBXmXmX,X&.l ,XIXAXPX,X&.,X<Xe.g g *.%.G.*.%.iXmXIXIX,Xo.@XmXIXmXAXGXIXAXDXbXX.4 w p x j x q 0 F d.f.z.K.L.R. XE.E.E.{.$XQ.$X{.E.Q.W.=X*X=X,X&X-X=X=X:X=X=X9X=X=X$X=X=X=X-X=X9X,X=X1X9X9X0X%X$X=X=X&X=X=X9X&X=X$X#X4X=X=XW.L.K.P.S.b.>.~.%X^.^.^.J.J.6.6.6.5.6.4.4.<.=.( J f * = , > , < * > > < > > > > * > < % * * % & , < & * 5 < < * * < < 2 0 2 q 2 0 2 * < * 2 2 d < * < < 2 < 2 0 q q 0 0 2 < q 5 t 4 t t t u 8 t 2 6 2 2 4 4 2 4 6 4 q 2 q 2 2 2 < 2 > > 2 2 > > > , > > > > > > , < , , , ; , , , > 1 1 , 1 > > 1 2 2 , > > 2 2 1 , > > 1 , 1 2 6 2 6 5 1 3 5 3 6 7 t u n T 7.7.q.Q U B Q W t.7.t.7.t.7.7.8.7.9.t.i.t.i.q.q.q.7.p.p.a.s.`.`.`.wX_.tXfXtXtXtXeXqXqX_._._.q.8.y 4 7.i.q.7.t.B B D J d.x.k.V.m.V.U.K.P.P.R.E.[.P.R.P.P.P.I.E.E.[.|.|. XE.|.|. XR.R.E.P.L.P.[.[.E.E.E.S.S.V.Z.P.|.4X~.P.P.C.H.K.C.L.K.K.C.K.K.C.C.Z.K.S.S.P.C.v.C.v.K.P.Z.v.C.z.v.J.n.n.b.v.C.K.v.v.b.v.v.l.v.l.l.l.b.c.v.b.l.1.v.v.1.l.<.1.l.b.l.l.1.b.<.1.l.l.1.1.,.1.=.,.l.1.l.l.b.l.v.l.l.l.l.l.f.l.>.l.l.,.l.:.,.f.<.,.l.l.:.l.k.v.b.f.,.,.,.>.-.f.<.l.<.<.=.-.,.-.-.:.1.:.;.>.h.>.$.+.+.$.>.>.g.f.k.x.f.x.f.>.f.f.,.>.x.x.x.f.$.=.:.d.:.d.k.=.x.f.=.f.=.u.f.<.=.=.=.=.L P =.",
"4X6X2X|.oXI.oXoX~.U.~.I.L.I.I.4.J.J.J.J.J.J.6.J.^.J.6.6.5.5.6.5.6.5.2.4.5.5.5.6.2.4.b.J.B.Z.!.Y.Q.!.~.~.%X~.~.1XJ.~.~.~.~.1X1X~.~.~.~.XX1XzXMX0XcX0X0XUX0X1X5X5X5X1X5X5X5X1X1X0X5X1X1X1X5X0X1X5X5X1X1X%X1X2X2XXX*XXX2X2X1X2X*X3X2X;X*X*X2X.XXXXX&X&X2X*X;X.X&X2X2X2X4X=X4X3X2X3X2X&X&X*X*X&X;X2X*X3X*X*X2X3X8X8X2X&X&X2X1X4X4XkX4X2X6X:X4X4X4X2X>X;X&X;X&X;X2X>X*X>XOX;XOX}.].g. .! w i M F Y ~ +XvXFXnXDXnXmXIXPXJXIXPXPXPXPXLXIXZXDXDXAXAXAXZXAXAXDXFXDXGXKXjXK G.IXJX).iXAXAXCXZXAXZXAXAXIXAXbX,X&.l iXPXVX%.<Xe.*.*.g g <X<XG.%.<XBXIXAXIX+Xe.mXGXKX`.AXKXGXDXvXF q w p V A z e 0 D g.x.K.K.P.~.W.E.~.W.{.#X$X$X{.$X&X$X&X=X%X=X%X=X:X=X=X=X9X=X9X=X=X=X=X$X=X=X=X=X9X9X9X9X1X=X=X$X=X=X$X$X#X-X=X&X=X=XW.$XY.W.P.P.S.Z.f.b.1XQ.^.^.^.J.^.J.6.6.6.6.6.6.6.<.+.( K s * % < < > > > * > > 2 > 2 > > < > < , % & < , 2 < & * & < < * 3 q w 0 < 0 2 0 * * * * * 2 q q 2 d 2 d < 2 d 2 < < < < 2 3 4 5 5 7 9 4 6 q 2 2 2 1 1 2 2 4 6 q 4 * 2 2 2 2 < > > > > > > > > > > > > > 2 , , , , > , 1 > ; > 1 > , > > > > > 2 2 > > < z 2 > 1 , , > , 1 1 2 1 2 2 5 1 6 6 6 t t u u N W t.t.7.W U U Q Q { W W 7.W t.7.8.Q 7.q.q.q.q.7.q.t.t.t.u.i._.s.s._._._.hXtXgXtXpXeXuXeXtXqXa.W z 3 q.q.8.7.Q 7.T S _ } $.k.x.x.S.C.L.K.K.E.I.I.E.P.P.~.[.|.2X|.I. X}.[.P.|.|.}.{..X|..XXX2X|.[.I.S.R.P.I.L.R.oX X5X|.E.P.P.K.K.K.H.K.K.H.K.K.V.b.C.R.c.V.C.C.S.z.V.1.V.v.b.z.v.c.b.S.S.K.l.v.b.b.l.l.c.b.f.b.v.b.v.c.K.C.v.c.x.v.n.b.b.l.v.b.l.l.1.l.,.,.1.x.,.,.f.1.,.,.,.,.l.l.h.l.1.l.l.v.v.v.1.l.l.,.l.f.,.l.1.l.,.,.C.x.l.>.l.b.l.f.,.1.l.,.>.l.,.>.l.1.1.,.,.>.<.>.;.>.,.,.>.$.$.+.#.$.d.$.f.$.j.f.f.l.c.:.:.:.f.x.l.f.k.x.f.:.:.f.=.f.=.x.x.x.x.=.=.<.1.b.x.=.b.=.P L k k ",
"3XXXXXXXUX XXX2XUX~.I.P.I.E.~.T.~.J.J.J.b.J.4.4.6.4.6.6.5.5.6.6.5.6.4.2.2.6.5.6.6.J.3.4.B.Z.Q.~.P.T.!.~.~.J.~.~.%XoXUX~.~.~.1X~.~.~.~.XX5XVXMX5X0X5X0X1X1X5XUX0X1X1X5X0X5X1X0X5X1X0X1X5X1X5X1X5X1X1X%XUX%X1XUX1X5X3X2X1X5X6X2X4X2X2X*X2X4X3X2X3X.X2X;X4X4X2X=X2X4X:X*X2X2X=X;X=XXX*X*X2X1X2X2X8X3X4X:X4X2X2X2X2X*X*X*X8X4X2X*X2X&X6X4X>X4X7X2X:X*X2X7X;X&X|.6X.X;X2X4X2X2XOXoX].k.0.Y q p B D Q [ +XsXbXmXmX .AXJXLXPXPXIXmXJXLXDXIXIXIXSXDXHXDXDXDXJXDXDXJXKXPXjXg >XDX>X@XFXnXmXZXDXAXDXAXIXAXCXBX,Xe.&.BX:X&.<X&.*.g g *.9X,XiX,XiXKXIXKXKXG.iXAXIXKXIXKXAXAXOXV 2 p y m V p 0 0 ! k.m.U.S.T.~.!. X&X#X#X{.{.#X=X{.$X%X=X=X=X=X=X=X-X=X:X=X9X=X=X=X=X,X*X=X=X:X=X=X=X,X0X9X=X=X-X$X=X-X=X7X#X7X-X=X:X=X%X$X$X{.{.R.C.b.l.b.b.0X!.#X6.^.^.Q.^.6.6.6.B.4.b.x.,.#.@.K f e > < > * * > * > 2 < < < % , % % % > % % & & & < < < & < 0 < 0 < < 2 < 0 < > < * < 2 d 2 0 q d 2 d q 2 2 0 q < 2 0 * > 4 5 2 3 6 5 3 5 2 < < 1 2 2 < 2 2 < 2 0 2 < < 2 < 2 < < 2 > > > > > > > ; , ; , > > > 1 > > > 1 1 1 > 1 1 , > 1 > > 1 1 > 1 y S t 1 2 1 , , , ; , 1 4 6 5 1 4 6 6 4 6 t y y c N Q 7.9.W Q T T Q Q t.Q 8.9.8.8.W 8.Q t.q.t.q.8.t.p.t.u.i.i.a.tX`.(.qXqXqXwXpXtXtXtX`.rXa./.(.T i t 7.7.7.t.8.7.Q S F F ..d.g.x.c.C.S.K.P.P.F.I.I.R.I.[.[.[.oXE.}.}. XP.}. X}.[.E.[.}.{.[. X|.[.E.E.XXR.[.P.K.L.~.4X XP.L.Z.K.S.V.C.K.V.P.K.K.H.P.K.l.j.C.v.c.V.z.c.v.z.z.c.c.C.v.K.S.b.b.v.b.K.v.l.l.b.c.c.b.v.v.v.c.K.S.v.v.b.b.b.b.x.b.x.v.b.b.1.l.1.,.l.l.,.,.1.,.<.l.1.,.,.,.,.l.l.l.l.v.l.l.l.l.1.l.>.>.,.,.,.l.x.<.,.;.l.,.,.1.l.,.;.>.:.<.b.l.1.l.l.,.,.,.;.>.,.>.,.l.:.>.h.$.3.$.+.;.>.>.$.>.d.l.x.c.l.-.>.f.>.f.>.f.x.l.f.$.:.d.=.=.=.=.g.x.M.=.1.x.u.1.1.=.=.=.=.L L Z ",
"4X2XXXoX1XXXXX2XoX|.P.~.I.oXL.T.J.x.S.J.b.4.b.J.4.<.4.4.6.6.6.6.2.6.4.5.3.6.6.3.2.4.B.Y.E.T.L.Y.H.~.~. XUX~.~.~.~.~.~.%X%XUX1X~.~.~.~.XX0XVXMX2X5XcXcX5X5X5X1X0X5X1X0X1X0X1X0X1X1X1X1X5X1X1X1X1X1X5X1X1XXX5X1XUX4X2X1X5X5X1X*X2X*X;X4X2X4X4X4X9X2X&X*X2X;X*X;X*X*X2X:X2X3X3X2X2X*X2X4X;X&X2X2X9X2X2X*X2X4X3X=X2X4X3X8X4X2X9X4X:X4X2X:X;X:X7X>X7XkX8X>X4X:X>XxX4X>X4X2X>X;X>XOX.X].@Xg.G w h D Y E =.yXbXvXvX@XiXIXAXnXnXmX@X>XKXmXAXAXAXZXAXDXAXJXGXJXJXGXLXDXbXNXg >XJX@XyXFXFXAXAXAXDXIXAXAXIXIXIXBX,X&.&.<X<XBXe.g g g &.BXBXBXiXBXKXIXKXIXiXIXvXAXKXIXGXIXyXx e q i x a 0 3 y  .m.I.P.[. X&XE.~.$X%X&X$X#X{.}.-X-X&X%X$X$X=X=X%X&X-X=X=X=X=X-X=X$X$X=X=X=X=X-X-X:X9X0X:X:X=X=X=X=X$X$X$X=XQ.-X&X{.$X&X=X&X=X{.%XE.R.P.v.c.c.MX~.Q.6.#X6.^.J.6.6.6.J.J.b.l.b.h.#.X.J f > * * * > > * < % > > > > < > , * , % & , , < 3 , & < & < < , * 0 < 0 0 < < 0 < 2 0 2 < 0 2 2 0 2 2 0 0 q 2 2 < , > 2 q 3 , 5 3 3 1 5 2 2 2 , 2 > > > 2 2 2 2 , 2 2 q 2 2 < 2 2 2 > 2 , , , > > ; , > 1 , 1 ; > 1 1 > , ; , ; > > , > > 1 1 1 > , 2 2 2 2 1 2 ; , 2 2 1 1 1 3 4 5 1 5 4 4 6 t 9 z z x B Q Q Q U U B Q Q 8.W 8.7.i.7.7.8.q.7.8.7.7.8.t.'._.(.s._.`.tXwX(.qX(.(.qXeXtXpXtXwXqX8.t./.W y 7 9.t.7.8.8.8.8.U F S X.>.e.k.h.z.K.P.K.S.L.P.L.].P.R.P.|.E.R.|.[.R.P.E.S.[.[.}.[.[.P.I.oX|.[.[.P. X}.E.~.P.L.oX8XP.L.P.K.C.v.v.v.C.P.P.K.C.K.L.C.b.C.S.L.V.K.C.z.C.S.C.C.c.l.b.v.K.v.S.v.b.S.b.b.v.v.v.K.x.n.v.v.v.K.c.K.v.x.l.1.l.b.x.b.l.b.x.l.1.l.1.,.l.,.l.1.x.l.f.,.,.,.x.,.l.x.l.f.l.l.l.,.l.1.l.l.l.,.l.,.l.1.l.1.,.>.>.,.f.c.,.,.l.l.l.1.f.1.,.,.>.,.>.:.>.;.f.1.,.>.;.h.>.>.#.P X.#.( +.f.>.x.v.f.| -.-.>.l.f.>.h.f.f.l.:.| f.f.g.,.f.r.x.f.1.b.=.f.=.=.=.<.=.=.=.P G ",
"6X1X*XXXXXUXoXoX1XXXUX2XXXoXoXoXoX~.~.K.~.L.~.L.J.J.6.6.6.J.^.6.4.4.6.6.4.<.4.4.J.J.J.H.T.T.Y.~.Y.T.~.E.~.~.~.J.~.~.~.~.~.1XUX1X~.~.%XXX5XVXxX0X5XcXcX1X1X5X5X5X1X5X0X0X5X0X0X5X1X1X1X5X1X1X~.1XUX1X1XXX5X1XXX1X8X3X1X1X2X4X1X*X;X*X=X4X2X4X2X2X*X.X&X2X=X.X4X2X2X2X4X4X8X2X4X2X8X8X*XP.4X4X*X5X8XzXzXMX9X8X8XkX8X5X4X4X9X2X2X4X4X4X=X4X8X7X7X>X2XlX8X4X2X8XkX4X2X2X2X>X4X5X6XOXoX+X].0.H w h N U ] =.+XsXvXmXnXnXDXDXAX%.g g G.IXBXAXIXDXIXDXDXJXKXLXKXLXLXDXbXIXf iXDXd.mXDXFXDXZXGXKXKXIXDXKXIXAXAXBX,X&.&.BXBX&.g g g G.iXBXBX&.G.IXIXIXyXyXDXo.mXIXAXZX).y w y y V a e q p e.x.].E.E.~.~.:X{.$X XW.{.$X=X{.#X=X=X&XW.*X%X3X9X-X=X:X$X=X$X=X=X:X=X=X=X9X=X$X-X&X9X1X9X9X=X=X*X#X$X%X#X#X#X&X$X X$X$XW.$X X%X X~.R.Z.L.v.v.b.MXT.~.Q.Q.^.^.Q.6.6.J.^.J.b.S.1.j.$.+./ O.% % % % > % % > % > < , , , * & , & < * & < 3 , & , < < < d < < q 0 < < < < , * 2 2 0 2 < * < 0 0 < 0 0 < 2 < < , > * < , & 2 2 , 2 2 > , 2 > 2 2 > < 2 2 2 q < 2 2 2 2 2 < > 2 2 2 > > 1 1 > ; , ; ; > > > > > > 1 > , > , 1 1 , > > > > > 2 2 A z 2 1 1 , 2 , ; 1 > 1 2 , 5 4 6 6 4 6 1 4 6 t u u z m M U Q W 7.Q Q Q W 8.t.q.t.7.Q 8.q.7.7.q.t.8.8.t.t.a.a.s.wX_._.a._.qXqXeXqXqXrXwXqXu.z /./.E p t 7.t.7.8.Q Q T U D Y  .$.d.f.j.c.v.L.C.D.L.P.R.{.E.L.I.P.P.[.P.I.[.I.|.P.R.[.E.E.L.F.R.[. XP.[.oX[.[.I.R.P.I.*X8X~.P.P.K.C.V.K.C.K.V.C.K.Z.K.K.C.C.l.C.K.Z.S.C.l.b.v.l.b.b.v.v.b.b.v.n.K.l.K.x.b.b.c.v.S.v.v.K.v.n.c.v.v.x.b.v.b.n.=.1.b.l.l.4.l.l.1.<.1.,.l.l.l.1.,.,.,.,.,.x.l.l.,.l.<.,.1.1.l.l.b.l.,.,.,.h.l.b.x.1.,.,.,.,.l.l.l.,.<.>.l.l.v.,.l.f.,.,.,.1.;.;.<.,.,.,.>.:.j.$.$.J Z ` $.X.X.#.$.>.l.,.| =.-.;.,.f.f.d.x.f.f.x.h.x.x.g.x.:.1.g.n.M.u.=.1.,.b.r.<.=.=.=.=.Z ",
"2XUXoX*X*X1XXXUX5X5XcX2X1X3XXX*XoXI.K.~.XXXX~.~.~.~.~.J.6.6.^.^.6.6.6.2.2.3.6.B.4.B.P.Y.~.Y.!.XXL.P.E.~.~.~.~.~.~.~.~.~.1X1X~.~.~.~.~.%X0XVXcX5XcX0XzX5X1X1X5X0X1X5X0X5X1X5X5X0X5X5X1X1X1X%XUX1XXX1X1XXX1X5X2X5X3X5XxX5X5X4X2XXX*X3X*X2X&X=X*X2XoX3X&X=X3X2X3X8X9X8X4X1X4X;XE.[.z.>.~.8X2X4X2X*X2X3X2X2X8X8X8X8X8X8X3X4X8X8X5X9X7X2X2X>X4X>X7XkX4X7XkX2XkX:X.X2X6X4X4X4X4X6X>X6X6X6XOXOXM.F w h n N U =.OXsXvXZXvXbXmXIXG.g g *.iXBXAXCXbXAXCXAXFXGXLXLXLXLXLXPXDX].nXIXd.AXJXDXGXAXDXZXDXDXKXIXIXIXAXZXBX<X&.&.<X&.g g &.,XBXBX,Xl G.bXIXAXBXKXbXe.DXKXIXm.0 y p i V x w w 0 d.n.F.].R.|.*X X&X{.&X&X{.{.&X9X$X$X&X=X=X=X-X1X,X%X%X-X=X=X:X$X$X=X-X$X=X%X=X=X=X=X-X=X-X9X-X=X=X=X$X&X=X=X&X{.E. X$X,X#X-X{.%X X!.E.~.P.K.J.K.v.0XJ.#X^.6.^.#X^.Q.6.J.J.J.I.C.v.z.j.#.o.V q * % > * > % 2 < < > % , * & , & & , , , & < & # 2 3 & * < < < < 0 2 < < * < < d d 2 d * < 2 < 2 d 2 < < 0 0 < , * * & & # & , , & , , , < > > > > 2 < < , < 2 2 2 q 2 2 2 > > > 2 > > > > ; ; 1 1 , > > > > > > > > > 1 > ; > , > > 1 , 1 1 , n y > , , , , 1 , , 1 1 1 2 1 1 1 6 4 3 2 6 6 6 t z x m z M Q Q 7.q.7.8.8.i.7.t.i.i.8.q.t.8.7.8.q.8.8.W t.a.`._._._._._.(.qXqXqXeX_.qXwXwXU S qX).W y y q.7.7.8.8.Q Q W B S ^ ..$.#.f.h.h.n.F.P.D.P.P.].[.P.L.F.R.I.L.{.}.E.E.P.[.}.R.[.[.P.I.R.}.R.E.[.|.P.E.E.oXI.XX5XE.T.K.P.H.K.K.K.C.P.Z.P.K.v.C.S.c.z.S.P.K.C.K.S.c.v.z.z.v.l.K.I.P.K.b.v.b.v.v.c.c.v.x.v.v.v.v.c.l.b.v.b.l.m.n.,.b.b.b.x.<.l.x.l.l.x.4.,.1.l.l.1.m.l.,.,.<.,.1.l.l.l.l.,.l.l.l.f.l.f.l.l.l.x.1.f.f.l.1.1.f.,.,.f.<.>.,.,.f.,.l.l.l.l.,.,.,.,.k.,.;.>.,.>.>.;.>.$.$.$.( ( +.#.` ( >.:.>.f.:.-.` :.=.,.:.<.d.h.f.f.x.x.l.f.x.:.r.=.g.f.x.x.x.u.<.<.=.=.=.=.=.=.L ",
"XXXXoX|.1X6X1X6X2XXX5XcX3X2X4XzXzXoX|.1X*X~.P. X~.I.J.J.T.J.6.6.6.A.6.6.4.2.B.N.N.Z.A.T.#XE.T.%X~.T.~.!.~.E.~.~.XX1X~.~.1X~.~.~.~.oX~.%X0XMXcX~.0XcX0XzX5X0X1X5X0X5X1X1X5X0X5X5X5X1XUX1X1X1X1XUX1XUX5X1X~.5X1X1X9X4X4X8X5X3X=X;X;X&XXX;X*X&X.X|.[.*X XoX X&X*X2X8X4X3XP.z.E.5X5XxXNX9X1X2X5X4X2X2X4X1X1X4X8X5X0X8XzX8X4X8X8X8X8XkX7X2X2X4X:X7XkX6X4X7X8XlX:X4X7X7X7XkX5XkX6X6X6XUX6XUXUXUXM.Q w p a m F =.+XsXsXnXnXAXAXnX&.g g G.BXIXbXbXAXAXCXFXDXLXLXLXLXKXJXGXDXJXDX].DXKXDXGXAXGXIXAXGXIXIXIXSXIXZXmXiX<X*.*.*.g g &.<XBXIXBXyXiXmXmX%.yXKXIXKXDXAXg.q y a n V x e 0 e :.U.P.P.E.&XE. X{.W.{.$X#X[.$XQ.$X=X%X&X-X$X$X$X=X{.-X&X$X&X=X=X9X=X:X=X=X=X:X=X9X-X-X&X$X7X$X=X=X=X:X=X-X$X$XMX&XW.$X$XW.=X=X%X&X%X!.~.I.T.K.K.b.K.0XJ.^.J.^.J.^.J.6.6.A.6.^.^.6.6.z.v.>.' C q % % % % 2 , , < > > , , > % & & & , & < % * , & < 3 < < < * 2 < < < < 2 , < 2 0 q 0 2 < 2 0 0 0 2 2 0 < < < 2 2 > > < < , , < < > > > 2 2 > 2 < > 2 2 > 2 2 < 2 2 2 2 < 2 > > 2 > < 1 > > 1 > > ; ; ; > 1 ; , > ; , 1 > 1 > 1 1 ; > > 1 2 2 6 1 2 2 1 > > > > , > > , , , , 1 3 5 5 4 6 4 4 6 7 u u z z m Q { t.t.7.t.t.t.8.y._.wXy.p.7.8.8.7.8.7.q.t.p.`.tX`.s.`.wX_.(.qX_._._._._.(.qXz W sX).Y y b t.q.q.7.q.8.8.9.U A R } ` $.$.j.c.c.V.F.S.L.D.L.R.I.S.D.I.R.[.I.[.P.R.D.[.[.E.R.}.E.R.}.oXE.|.{.E.}.E.P.P.*X1X8X|.L.P.K.C.K.C.C.K.K.K.K.C.C.P.K.C.C.C.C.S.c.S.b.C.C.C.C.z.c.v.n.K.J.b.v.x.K.b.v.L.b.l.v.v.l.v.b.l.b.x.l.,.c.b.x.b.x.x.,.b.x.b.x.b.1.1.,.x.1.l.,.l.,.,.l.,.,.,.,.,.>.l.l.1.l.f.b.c.f.l.l.f.b.x.1.,.,.,.f.1.l.f.l.1.,.<.l.>.>.<.<.v.,.l.1.,.x.,.>.>.-.;.:.>.,.>.>.>.$.' ' #.#.X.` :.,.` _ ` =.` _ -.-.' =.f.>.f.x.x.l.x.f.r.g.,.=.=.,.<.=.f.=.M.M.=.=.=.5.=.I P ",
"XXI.|.oXXXoXoX*X2X2X5X5X*X|.oX1X5X3XoXoXP.L.H.Z.~.I.L.J.~.^.J.b.N.^.N.2.B.N.A.Z.Z.H.Z.R.~.!. X%X%XoXXX~. X~.L.~.oX~.~.~.~.XX1X~.1X~.~.UXkXVXzXUXcXzXcX5X5X1X0X1X0X1X5X1X1X1X0X1X1X1X1X1X~.~.~.1X1X1X1X1XXX1X1X0X4X4X4X2X4X4X4X2X*X*X*X&XXXXXE. X*X4X*X.X*X5X2X*X4X7X8XNXVX0X8X*X8X8X8X*X1X3X1X*X1X2X2X4X8X8X5X4X5XzX8X5XzX4X3X3X8X*X>X2X2X4XjX4X4XkX4XkXzX6X>X6XcXlXlXzXjXkX4X6X5XjX5XUXUXoXU.=.5 w p m N =.+X6XvXvXbXZXAXZX}.&.*.iXAXAXAXAXAXAXFXJXLXLXLXKXDXDXBXyXDXIXIXDXGXKXJXvXDXGXAXIXGXGXDXIXAXmXIXiX<X&.g *.g g *.BXBXPXJXIXbXIXiXO.mXJXIXDXbXo.2 y x V n y q q V k.[.}.XX XR. X{.&XE.W.#XW.E.#XR.$X&X&X{.{.W.&X-X$X=X#X=X=X-X#X$X%X=X-X9X=X=X=X=X=X$X$X=X:X=X=X=X-X=X$X:X$X$X=X$X9X:XW.%X=X=X=X=X$X$XW.T.~.T.L.~.K.v.P.MXJ.#X#X#X6.^.^.Q.6.^.^.^.^.6.#Xz.z.1.| G r % * < < * & * 2 % % < < > * , % , < , % # & & 2 3 < < 0 < < d , * < < d d < d , 2 < < 0 2 0 2 0 q 0 < < < < > * * > , % , < > > > 2 2 2 > > > > < 2 < > 2 2 2 > 2 > < < 2 > > > > 2 ; ; > > > 1 > > , ; ; , ; > , ; > , , > > , 1 , , , 2 6 4 6 y y u 1 > , 1 1 1 1 , 1 2 1 1 1 6 1 4 4 6 4 6 t y t u z m U 7.t.7.t.i.t.i.u.t.i._.y.q.w.w.8.7.a.8.q.t.p.p.tXtX`.s._.qXwXqX_._.wXwX_._.'.v W rX(.Y t b 7.a.q.8.T T q.W U D U / X.#...k.j.c.S.C.L.P.S.P.P.D.S.R..X[.P.P.P..XF.}.[.|.{.[.[.I.I..XR.}.&X[.I.R.P.P.I. X2X3XoXP.L.P.v.L.P.C.P.H.K.C.C.C.K.c.c.z.S.C.C.C.C.V.h.z.c.h.z.K.l.b.C.K.C.K.b.v.v.v.v.f.c.v.v.c.l.b.m.v.f.b.k.v.f.b.b.,.b.l.b.b.x.b.,.l.l.,.b.l.1.,.,.1.,.,.,.,.l.>.>.l.K.,.f.l.l.f.1.1.l.b.,.,.l.<.:.,.,.1.,.l.1.>.,.f.l.l.,.>.,.l.l.>.>.>.1.l.h.:.;.-.>.l.>.>.l.f.>.>.X./ +.+.( =.:.f._ ( -.-.( =.( / ( -.:.>.f.x.x.f.x.g.1.d.f.x.x.m.u.f.=.<.b.=.=.=.=.=.=.=.P ",
"|.oX|.XX6X[.L.oX5X5XkX5XXXXX*XXX9X*X~.L.I.J.L.L.J.I.6.J.4.4.4.<.N.N.5.3.3.3.N.A.N.A.Y.T.T.Y.!.!.XX1X1X X|.~.I.~.~.~.~.~.~.~.XX%X~.~.oX~.5XMXzX5XcXzXMX0X5X5X5X%X1X1X%X~.~.%X1X1X1XXX1X1X1X1X1X1X1XXX1X1X1X%X1X5X8X5X8X8X2X9X2X*X*X2X2X&X X|.|. XP.*XXX2X;X2X3X4X8X8X4X=X2X5X8X3X8X4X3X3X5X2X4X8X2X8X8X4XzX4X8X4X8XkX3X3X5X8X8X3XlX7X2X:X7X7XkX4XkX8X4X7XkX4X4X8XlX8XlXxXkXkXjXlX5XjXjXUXUXUXoXI.) & 5 p m D =.'.yXvXvXmXDXFXPXPXo.K mXSXAXDXIXGXJXJXJXGXFXZXAXIXm.mXPXPXFXDXPXDXDX).AXAXAXKXIXDXAXIXSXAXBX<X*.<X&.*.*.g <XMXVXVXIXIXIXIXo.@XZXAXAXiXD q w x A p 0 q 4 G m.].}.|.XX!. XE.&X XW.W.&X#X&X&X#X&X#X{.#X$X$XW.&X&X=X#X&X#X$XW.#XW.&X=X$X=X9X$X%X$X:X-X=X-X=X-X&X$X$X&X:X=X=X:X=X=X=X#X%X=X$X*X=X#X$XW.~.~.T.~.K.K.K.L.MX6.^.#X#XJ.~.^.^.6.Q.Q.6.~.-X~.C.b.l.>.( V * , < & < * , * % , < < , % & % , < & , & & < 3 3 < < < < < d < % < < 2 < 0 0 < 0 0 < 2 0 < < < 0 2 < < < , > 2 * > , , 2 , > > > > 2 2 > 2 > > 2 2 2 2 2 2 2 2 2 2 2 > 2 > > > > > , > , ; > 1 ; , ; , ; > , : > 1 ; , , ; > 1 > , > , 6 x x A D Y x 2 1 , , , , , , , 1 , 1 1 1 2 5 6 7 6 6 t 4 t i z m N Q 7.W 9.t.t.t.i.q.(.p.y.M.q.q.(.q.i.9.i.i.s.i._._.tXwXs.(._.qX`.eX_.wX`._.u.r.y.`._.Q t 9 t.q.q.8.B 8.T T W q.S D ! ..#.>.h.S.c.L.F.P.].S.E.P.P.P.F.P.[.D.F.;X=X&X|.[.[.}.}.}.E.[.P.E.P.P.}.}.P.|.I.|.2X5XP.P.K.P.J.I.P.H.P.K.E.P.K.K.K.v.V.v.C.K.z.c.C.C.c.S.c.l.l.v.C.x.K.K.J.b.b.K.l.1.l.b.x.c.v.v.,.l.k.,.1.l.v.v.l.l.v.1.l.,.b.K.J.l.,.1.,.b.x.1.x.x.l.1.,.1.f.,.l.l.v.x.b.1.,.,.,.1.,.l.,.f.1.,.1.,.1.l.,.,.x.,.,.l.>.l.f.>.f.,.,.,.f.,.1.l.,.1.,.,.;.-.;.-.-.-.:.j.e.>.#.J ' ` X.' -.-._ ( P I P ' ( ( I ` ` :.f.f.g.,.x.f.,.:.=.f.x.M.,.r.1.<.=.=.=.=.=.=.=.=.P ",
"|.[.|.XX|.|.|.oX5X2X5X2X2XXX2X2X*X~.~.I.~.Y.Z.T.L.4.4.J.6.2.<.2.6.3.@.A.A.6.2.6.2.2.J.T.!. X$X~. XT.%X1X!.T.~.~.~.~.~.~.1X~.~.~.~.~.~.XXcXMX5X1X1X5X5X5X1X1X1XUX1X1X1X1XUX1X~.1X%X1X~.1X1X5X~.1X1X1X%X1X%XXX5X5X2X4X4X4X4X8X9X2XXX.X*X*X.X[.XX*X|.*X*X;X4X5X4X1X4X3X2X3X1X3X4X4X8X8X8X4X4X5X4X0X8X8X5X8X5X9X8X5X8X3X4X2X4XzXkX4XlX4X2X:X4X7XkX7XkX7XkXzXxX7X4X4X8XcXlXlXcXcXjX5XjXcXjXcXcXjXsXUX].=.5 w p m n ~ ].+XsXmXbXnXDXLXBXO.G.IXAXGXKXKXJXFXAXAXFXAXGXm.@XPXPXPXPXnXOXJXDXe.GXDXGXAXKXGXDXIXZXIX,X*.e.*.*.g g *.<X<XiXBXIXDXIXuX,XDXAXJXqXy 6 y x V a 2 0 2 G F.@X}.}..XXXXXE. X&X X{.$X$X$X{.#X$X$X#X$X%X%X{.$XW.#X$X=XE.=X$X$X&X{.!.$X=X=X=X=X=X$X,X$X=X$X=XE.#X&X$X$X:X:X=X-X=X=X$X:X*X$X=X9X4X&X$X{.~.~.~.I.H.b.b.|.MXJ.#X#XJ.J.#XQ.Q.6.^.6.#X~.#X^.K.U.v.l.#.Z e < < & & & , % % % , < < % % % & % % , & & & 2 3 3 < < d < < < * < < < < 0 2 0 2 2 d 0 2 0 < 0 < < < < < * , , , > 2 , , , > > 2 2 > 2 < 2 % 2 2 2 2 2 q 2 2 > > 2 2 > > < > > > > , ; 1 , , > ; > , ; > > 1 > 1 ; , ; ; 1 1 : , , , , 6 n S D Y c 4 2 > 1 > 1 > 1 , 1 2 > , 2 1 2 q 6 4 4 6 4 7 t t i m M Q 9.t.9.9.W W t.p./.y.p.y.7.8./.y.8.8.7.p.p.u.u.s.eXtX`.a._._._._.t._.qXp.t._.u.`.'.Y t u t.i.7.8.8.8.8.N T W Q V R X.d.$.f.G.S.V.F.D.L.C.F.R.P.R.[.S.D.E..XI.[.D.[.[.[.E.E.E.[.E.[.[.D.E.E.E.P.P.[.|.XX2X|.L.L.L.C.P.v.K.K.L.P.C.S.C.C.C.b.C.c.v.C.C.C.z.c.C.b.b.2.l.C.b.K.K.K.v.x.C.b.b.l.b.P.I.v.v.l.,.c.1.,.c.l.1.l.1.l.,.1.n.1.b.x.b.l.,.,.b.1.l.x.l.l.l.l.l.,.,.,.l.l.l.v.l.l.l.>.1.f.,.l.l.c.l.l.1.:.l.1.1.,.1.v.l.l.l.,.>.<.1.>.<.h.f.,.l.l.l.,.<.,.:.;.;.>.-.>.$.$.$.+.J #.$.` ' ` -.P ' Z P ( ( ` _ _ | :.:.:.f.x.g.,.x.r.,.=.r.x.b.=.=.x.u.,.=.=.=.=.=.P =.=.",
"UXXXoXoXXXXXUX*X2X5X5X2X*XoX~.oX XP.T.b.N.j.N.Y.6.3.3.3.<.2.5.4.5.2.3.2.3.6.2.N.2.Z.H.Z.L.!.~. X!.E.%X X X~.~.~.~.XX~.1X~.~.~.~.~.~.~.~.cXVXzX2X0X1XUX%X1X1X1X1XUX1X1X%X%X1X1X1X%X%X~.1X1X1X~.UXXX1X~.~. X1X8X8X4X8X4X8X8XkX2X;X2X8X&X X&X XP.|. X&X2X;X2X8X8X5X2X2X3X4X5X8X8X5X8X8X4X8X8X9X8X4X4X8X8X8XzX8X8X8X8X3X3X4X9X8X8X5X8X>X4X4X>X4X8X4X8XkX7XkX4XkXcXNXcXcXcX8XcXcXcXxX5XcXcXjXjX5XjXjXUX].=.& 3 w x N ] M.OXsXvXZXIXLXIXiXO.G.IXKXKXKXGXAXZXAXFXAXAXM.PXLXLXPXKX0.e.PXAXM.KXKXKXIXGXIXIXIXIXIXe.&.<X*.*.*.*.&.<X*.*.BXmXIXmXaXiXZXZXM.4 < q i a q 2 0 < G F.}.I. XoX X X X XE.7X3XY.W.W.#X$XT.R.$XQ.{.E.#XW.{.$X{.-X$X#X$XR.#X{.$X#X,X=X:X=X=X$X%X=X$X X%X$X%X#X#X{.W.-X-X$X$X&X=X$X{.&X#X=X%X=X%X#X{.oX~.T.~.K.J.<.~.MX#X^.J.Q.Q.#X-X-XQ.#X6.6.Q.^.T.P.L.L.n.2.J f d % & & & % & < < < * , * % % & % % & & , < < 5 < < 0 < < < * < * < d < 0 2 d 0 q q q 2 q 0 2 < < d < < , % > > * 2 , , 2 2 > 2 2 > 2 2 2 > > < 2 < > 2 2 2 > > 2 2 2 2 > > > > > , > ; , > 1 : , > ; > > , > 1 > : , ; 1 > > 1 > , 1 u x A E n 5 2 , > , , > 1 > , , , , , 2 2 2 4 4 6 6 4 4 6 7 7 u m m N U W Q Q Q W 9.y.i././.w./.8./.q.t.7.W t.t.Q 7.t.t.s.eXwXs._._._.p.`.qX/.i._.u.rX/.U w u i.t.t.7.8.8.T U B Q Q M S ~ | $.h.G.x.c.D.D.P.c.S.C.P.P.P.I.I.[.P..XR.I.D.R.}.|.{.E.R.}.|.R.F.P.|.[.{.[.E.oXXX5X|.K.K.L.L.L.C.P.K.P.L.v.b.C.C.C.v.C.S.z.V.C.b.v.v.c.c.v.l.l.v.x.b.b.b.b.b.I.K.n.v.b.v.K.v.v.l.b.f.l.f.,.1.k.l.l.,.1.b.b.l.m.b.,.1.l.l.l.l.l.,.f.1.,.f.=.=.-.4.l.l.f.>.l.S.c.l.f.b.f.;.,.l.l.v.b.1.:.<.,.<.l.l.,.l.>.>.>.<.1.,.h.1.l.l.l.h.h.<.:.,.>.>.h.h.,.-.$.#.>.$.J } #.$._ I I P ( P P ( P I P ( ( | -.>.x.x.f.f.=.f.f.=.=.x.x.r.<.<.=.=.=.=.L =.=.=.P L ",
"1X*XXXXX*X~.|.|.2X8XXX.XXX~.P.V.b.b.J.P.Z.V.R.N.B.6.2.3.<.5.5.5.@.2.3.4.6.2.2.2.6.B.Z.Z.Z.H.!.!.~.~.T.T.~.oX|.~.~.%X~.~.~.~.~.~.%X~.~.XXzXMXcX1XzXzX0X1X1X1XUX1X1X1X1X1X1X%XUX0X1X%XUX1X1X1X%X1X1XXX*XXXXX1X9X0X9X4X8X4X8X5X*X*X*X*XXX2X&XXX8X*X.X X&X&X2X8X8X*X&X1X5X8X8X8X8X8X8X3X8X4X2X4X8X4X8X5X8X4X8X8X8X8X4X4X4X4X3X2X8X8X7X4X&X>X7XkX4X4XkXkX7XkX8X8XcXkX5X8XkXcXjXcXcXcXcXcXcX5XjXjXUX6XUXUX].=.3 3 w p i ~ M.+XsXbXIXLXKXDX,XO.@XKXKXKXAXbXvXbXCXJXZXyXLXIXLXPXIXO.iXLXKXyXKXKXDXAXIXCXIXIXIX<X*.<X*.&.&.*.*.<X&.g *.,XIXKXiXyXZXbXE , * < q a q d * 2 ! @XS.;XI.&XoX X~. X=X X&XR.=XE.#X{.Z.G.R.R.H.D.W.$X&X=XW.W.=X9XR.=X$X{.$X$X$X$XQ.-X-X9X$XW.$X=X,X#X=X$X&X$X$X-X-X-X-X:X-X&X=X0X0X:X9X=X=X$X$X$XL.J.~.L.~.v.J.~.MX#X~.#X~.0X1X1X^.6.Q.6.Q.#X~.~.P.K.K.b.1.' C d * % & % & , < < , % % & > % & , % & & % & < < < < < * < * < < * < 2 2 0 0 2 0 2 0 2 < 0 q e 0 < < 2 < , > % > > , , < < < > < > > > 2 > > 2 < > 2 2 > 2 2 > 2 > > > > 2 2 > > 2 ; > , ; ; ; ; , : 1 , ; > ; ; , > > > > > 1 , , 4 t D ] D D p 5 , , , , , , > , , 2 1 1 1 1 2 1 2 4 4 4 4 5 4 4 4 9 u i m N A D N B T W 9.w.i.w.q.q.y.7.Q q.t.a.t.W 7.t.t.8.t.s.`.eXqX`._._._._.(.u._.t.rX/.Q w i i.a.i.a.8.8.T T m m U m V ! $.x.f.j.c.F.D.P.S.F.D.D.P.P.P.I.L.P.P.E.P.P.I.R.[.}.I.P.E.|.[.[.P.P.}.[.[.I.K.oX4X2X|.L.K.L.L.K.L.P.B.P.C.c.Z.V.H.S.Z.v.c.c.z.v.v.Z.z.z.z.h.z.v.z.b.v.n.x.n.K.P.v.b.l.b.c.v.v.v.l.v.v.b.v.l.c.l.l.4.n.v.v.x.b.1.1.l.l.,.b.b.,.l.,.,.,.1.1.1.1.1.,.l.b.,.,.v.,.v.1.l.l.l.l.,.l.v.v.n.x.1.x.1.=.,.l.h.1.<.;.>.f.,.,.h.l.x.l.z.h.l.f.1.;.#.>.,.>.f.>.h.$.$.$.P ` $.:.=.( _ I P I ' ( I P P I ( P _ f.x.f.l.g.f.f.=.f.<.=.x.<.5.=.=.=.=.=.=.=.=.P P =.",
"XXXX*X|.oX|.I.P.2XkX3X&XXXoXR.E.~.C.K.I.D.Z.V.6.4.4.2.3.3.3.2.4.2.2.2.3.2.6.B.B.N.N.N.Z.H. X~.~.~.~.I.~.~.~.~.~.oXXX~.~.~.~.~.~.~.~.~.1XMXMXzX5XcXzX5X1XUX1X1X1X1X~.1XcX1X0X5X0X5X1X~.1X1X1X1X1X1X%X1X1X%X1X2X4X8X4X8X2X4X=X2X4X8X2X*X&XoX X*XoX*X2X;X%X2X8X5X1X&X2X4X9X9X4X4X8X4X4X4X8X8X3X4X8X3X3X4X0XxX8X3X3X3X3X8X5X2X4X4X8X4X=X4X2X4X4XkX7X4X4X7XkX6XkXkXzXlXxX8XkXcXnXkXcXcXjXcXjXjXnXcXcX5XjXUXUX=.0 * 5 q p Y k.+XiXmXKXIXAXDXyXo.@XIXCXvXCXCXAXAXKXKXKXnXyXLXKXAXm.PXPXLXKXKXKXIXAXDXDXIXDXiX*.<X<X<X<X&.*.<X<X*.g *.e.iXmXaXiX+XD & * < < q a p < q %.].[.R.[.{. XR.&X%X X*X XE.{.{.$XR.W.R.3.B.H.Y.Q.$XE.{.R.W.#X=X9X X,X=X#X$X$X&X$X:X=X$X:X9X=X:X#X$X=X{.#X#X{.%X$X=X=X=X,X&X=X%X$X=X$X{.$X$X XR.W.T.T.~.I.I.J.6.~.MX0X-X~.#X-X-X-X-X-XQ.6.^.T.~.^.~.C.S.C.h.$.P f & & & & % & < , < < % & < % < * % , & < , < , < < < * < * < % < < * < 2 2 0 q 0 q q 0 q 0 < < < < * < < < > > > < > > > > > 2 2 > > > > > > 2 2 > > 2 2 2 > > 2 2 > > > > > > > ; > ; ; ; > > ; , ; , > 1 ; , , > 1 , , > 1 , 1 y n { { U S 7 * & , , , 1 , , , 1 1 1 2 2 2 2 2 1 2 4 6 5 4 4 6 4 9 8 p x m m m n m S S T W q.w.q.i.p.7.W 7.7.8.7.7.t.a.t.Q i.s.a.tXwXrX_._._._.p./.p.t._._.E 7 u 7.i.t.7.7.q.8.Q B c z z z D / ..f.h.j.S.P.D.D.P.F.R.P.P.E.P.[.{.L.I.P.[.D.P.[.E.I.[.[.|.;X[..XR.oX|.I.].P.|.2X5X|.I.L.L.U.b.C.E.K.Z.K.C.C.K.K.E.K.Z.v.c.C.Z.v.P.C.C.z.l.b.K.K.K.b.v.b.l.K.P.b.C.l.c.v.U.b.v.b.v.S.I.S.v.v.b.x.b.l.x.b.b.m.x.b.l.b.,.x.4.x.1.f.,.,.1.l.1.x.l.l.v.P.f.>.v.b.L.v.l.,.,.l.l.k.v.K.b.l.l.,.1.l.x.1.;.:.,.,.1.>.,.h.l.l.l.l.v.l.l.l.z.,.;.>.;.>.j.,.k.z.h.f.I ` -.` ` =.` _ P G I P G P P P / ( _ >.f.x.f.x.g.=.=.,.,.=.f.=.5.=.=.=.=.=.=.=.=.P P =.",
"oXXXoX~.K.n.[.oX2XcXlXXXE.XXE.L.P.L.H.~.$XW.T.L.H.L.^.4.5.5.J.6.Z.6.2.N.N.N.2.N.N.6.N.Y.Z.Y.W. X~.~.P. X~. X X!.~.~.oX~.~.~.%XXXXX~.~.UXMXcXzXzXzX5X0X0XUX1X5XUX1X1X%X1X5X5X0X1X5X1X~.%XUX1X1X1X1X1XXX2X1X3X1X=X8X8X4X2X2X*X=X4X4X2X3X2XoXXX*X&X*X*X.X2X4X;X&X;X2X2X5X8X8X8X4X4X8X8X8X5X8X4X2X2X5X3X8XzX8X8X4X3X3X4X=X4X3X2X3X3X4X>X4X4X7X:XkX8X&X>X4XkXkX4X5X5XkXkXkXcXcXcXkX4X5X5XcX5X5XcX5XjXjXcXjX5XXX=.0 * w y i Y ).yXmXKXCXZXAXDXBX%.G.IXCXZXDXAXDXKXKXPXJXKXiXKXKXKXLXLXLXLXKXKXSXAXAXmXSXBX&.<X*.<X*.<X&.*.&.<X&.*.&.&.@X+X+X).r % % & , 0 C y d 4 } @X}.;XR.{.[.E.%X%X XP.|.~.E.W.{.D.Y.W.Z.N.R.R.Q.D.D.$X$X#XY.{.$X%X$X$X$X$X$X$X=X$X$X$X=X=X-X=X&X$X$X&X-X:X$X=X$X%X=X*X#X$X#XW.$X:X&X-XW.{.{.Y.Y.W.~.oX~.~.K.K.J.%XMX1X1X#X-X-X#X#X0X6.^.^.J.T.~.T.P.K.Z.C.1.;.P Z d & & & < % & % < 2 , < % % , % % & % # & & , & < < < < < * < < < < < d d 2 2 < 2 0 < 2 2 q * 0 < < % , > * > * > 2 2 > 2 > > > < 2 2 > > 2 > > 2 2 > 2 2 2 2 > 2 2 2 > > > > > , , > ; ; ; > ; ; ; 1 > , ; ; > ; ; > ; 1 > , ; 4 D 0.E p q 4 & , , , 2 , 1 1 , 2 1 2 1 1 1 2 1 1 1 6 5 5 5 5 5 4 4 7 7 t u 9 i i m z m M T Q 9.9.9.y.8.8.q.t.8.Q Q t.7.t.i.u.t._.`.wXpXa.`.a.a.(.(.p.i././.Q 9 z i.t.t.8.7.8.T W N v i t 7 G _ #.>.h.k.C.F.I.P.R.D.P.R.P.R.I.[.P.P.I.}.R.I.S.oX[.[.{.}.{.;X[.&X.XE.E.[.I.I.P.3X5X|.P.P.K.v.K.v.b.K.v.P.S.K.K.P.P.Z.P.v.S.v.z.V.v.c.v.l.l.b.K.b.v.K.v.l.<.1.c.v.b.c.S.K.v.l.n.v.x.l.b.1.f.,.1.l.x.b.b.v.b.,.l.1.l.l.l.4.1.1.x.1.,.,.,.,.l.l.,.,.f.b.L.l.l.f.f.,.1.x.b.c.,.>.b.f.<.l.l.x.1.1.P.v.>.,.,.,.>.l.<.f.l.,.l.z.c.j.f.,.h.h.h.>.>.>.>.:.$.3.h.$.( +.` ` ( f.f.-.I L ( ( C Z P ' _ ( _ :.,.f.f.f.,.=.=.=.=.=.,.r.=.=.=.=.=.=.=.L =.=.L Z ",
"*X*X|.K.b.c.L.[. X4X|.C.P.W.Z.2.1.z.2.z.N.N.Z.Y.Z.Z.N.N.2.2.6.6.6.6.N.A.6.2.2.N.z.z.H.H.Z.L.T.Y.Y.H.E.~.~.~.~.~.~.~. X%X X~.I.%X~.~.~.1XMXcXzXzXMXcX0X5X1X5X5X5X1X%X1X1X5X1X5X5X1XXXXX1X1X1X5X1X1XUX1X1X1X1XXX%X1XUX4X5X1X8XcX1X5XxXVXNX X~. X X2X4X*X3X8X3X1X;X*X2X9X8X3X4X3X4X3X4X4X4X4X3X2X*X4X9X4X8X2X2X8X:X*X8X8X2X4X&X2X=X2X;X6X:X>X;X4X2XkX:XkXkXzX7X4X>XzX7X>X7XlXlXkX7X4X7X4XlXxXkXjXcXlXkXkXcXcXjXm.p 3 w y a ~ ).yXFXnXZXbXDXIXmX%.m.ZXAXGXKXKXKXKXAXLXnXO.JXLXLXDXDXVXDXDXDXnXFXZXbXBXBXe.G.*.&.&.<X*.*.*.&.<X*.<X#XG.).X.0 * % * * > e Y i q X.g.F.P.P.P.R.{.{.[.{.E.}.R.[.R.D.[.#X&X,X&XY.N.Y.:X0XY.#X$X=X#XY.{.Y.@XQ.-XE.Y.Y.Q.{.$XQ.{.{.#X#X#X{.9X=X=X#X&X#X{.$X#X=X=X$X$X,X#X$X&X#X=X&XW.$XW.W.R.$XW.P.R.!.E.3XxX3X0X$X1X!.=XW.T.W.^.J.~.^.~.Q.~.~.~.b.<.<.=.=.f = * & , * & % > * > * > * * > > % > > > > > < < < < 2 2 < < < < < < < 2 2 q 0 2 2 d 2 2 d < < > < < > < > * > % > < > > > 2 > 2 > < > 2 > 2 > > > < 2 2 2 2 2 > 1 1 > > ; ; ; ; 1 > ; ; , , ; , , ; 1 > , , : > ; ; 1 , , > 1 , 6 F i 2 2 , , & , , : 1 , 1 2 2 1 , , 2 2 1 2 5 5 5 3 5 1 3 2 5 , 5 6 6 w 7 u u p u m m M U Q W w.q.8.T w.y.W w.8.8.7.q.8.a.a./._._.wXwX_.q.(./.(.i.(.).i.W t y p.p.i.q.7.8.T 8.B N 9 y t F _ :.d.,.l.S.K.U.P.U.I.I.E.P.P.[.[.[.[.|..X.XE.}.{.E.I.~..XoX|.oX~.I.I.I.~.U.I.I.XXUX~.~.L.U.K.b.n.L.I.P.K.b.K.J.v.v.v.v.b.b.b.c.v.v.v.b.v.n.l.b.x.1.b.v.1.,.l.c.l.1.b.b.m.C.l.v.v.v.x.l.h.l.v.v.l.,.c.v.v.v.v.v.v.l.l.l.l.l.l.l.l.1.,.h.f.,.>.h.1.l.,.K.h.h.l.l.c.h.k.j.>.h.k.h.>.$.j.V.h.l.1.1.1.1.1.f.1.<.l.1.k.j.h.h.k.c.c.h.h.h.h.h.>.>.$.>.$.>.f.>.$.J %.} #.-.>.f.-.P G P I P J ' ' ` ( _ ` >.| f.h.d.g. . .=._ :.=.:.d.,.=.=.=._ =...^ / / ",
"oXoX~.P.P.K.K. X|.2X|.I.K.P.V.2.Z.Z.Z.4.B.N.^.N.2.6.5.6.6.6.@.2.A.A.5.3.3.2.j.N.2.4.N.Z.H.Q.L.P.L.~.~.~.~.~.~.XX~.~.~. X~.~.~. X%X~.~.UXcXMXzX5X5XzXzX5XUX5X5XUX5X1X~.UX1X5X5X5X3X1X1X*XXX1X2X1X%X1X1X1X2X5X5X2X1X5X8X3X1X5XxX2X4XMXxX9X*X|.XX&X3X4X2X2X4X4X8X*X2X4X2X4X4X4X3X9X3X3X3X5X8X4X*X1X*X4X4X2X3X8X3X3X4XzX8X:XXX&X;X4X;X;X4X;X=X&X>X7X>X:X>XzXzXkXzX8X>X7XkXkX7XkX>X4X4XjX7XkX4XjXkX5XkXjXkXcXlXvXjX}.h 3 q y x ~ ).mXsXbXvXZXZXAXvXe.e.ZXAXJXLXKXJXe.LXmXK PXLXPXLXDXnXFXDXDXDXZXZXZXIXIXBX&.*.&.&.*.*.*.*.&.&.&.<X%.0.S = % > > % % % f g.X.^ F.S.F.I.E.[.{.{.{.&X&X&XW.[.E.P.C.@X$XQ.W.T.D.N.D.H.$X{.$X$X$X{.W.#XQ.Q.W.$XW.$XW.#X=X&X=X#X#X$X$X=X*X=X9X$XW.$X&X#X$X$X$X$X$X%X X$XR.-X=XE.#XR.{.{.R.#X=XL.R.R.K.I.3XNX%X1X0X1X XW.T.W.W.^.J.6.~.^.~.T.~.J.6.b.=.1.I Z 0 > > % % & , > * > > > > > > % % > * * > < 2 < > < < > < > < < < 2 < < 2 q 2 2 0 2 2 2 < 2 * * < < < > < > > % > 2 > > > > > > > 2 > > > > 2 2 2 > 2 > 2 > 2 > > > > 1 > > > 1 > > > ; ; ; ; ; , , > > 1 ; , ; 1 , , > 1 1 ; , 2 2 2 < 2 < , 5 & , 5 , , > , 1 2 2 1 2 2 3 < , 2 < 2 1 3 5 2 & : , 3 5 5 5 t t u u i i z N U ] W 8.U T T w.8.Q 8.9.q.q.q.a./.a.i.q.`.wX`.(.(._.(.(.`.'.y.W q y (.p.i.q.7.U 8.8.B m i 9 y Y } | >.g.c.v.S.v.U.F.K.[.}.E.[.R.E.[.|.{. XE.[.{.[.[.P.P.P.|.[.oXI.~.|.|.~.I.P.~.oX5XoX].L.~.~.U.b.S.L.I.C.b.v.n.n.C.C.L.v.c.v.J.n.v.v.v.b.b.b.n.K.v.x.l.:.,.l.c.n.K.K.x.c.c.l.J.x.l.v.z.l.v.l.l.l.v.v.b.v.l.v.K.v.l.l.l.,.>.l.l.,.h.,.>.<.h.z.h.>.<.f.,.>.>.l.h.c.h.k.c.z.h.z.h.k.N.f.1.h.v.l.b.f.,.l.<.l.,.,.l.l.k.l.V.c.V.m.k.k.z.k.e.k.f.e.$.f.h.k.h.$.J $.` ` _ ;.f.=.P J P P Z J ' -.( ( | | :.f.:.:.:.:.} | =.d.k.f.d.=.=._ _ =._ ) ^ / / ! ",
"XXXXoX XXXE.L.P.&X&XE.E..XW.P.Z.T.~.#X^.A.B.B.2.2.3.@.3.5.@.@.3.5.4.2.@.2.%.@.3.<.4.2.B.H.Z.Z.~.H.I.Y.I.~.~.XX%X~. X~.~. X~.~.2X%X~.~.UX0XcXcX5X5X5X5X5X5X0X5X1X1X5X1X1X5X5X1X1X2X5X2X1X5XXX1XXX1X1X1X5X0X5XzX5X5X5X8X8X2X4X1X2X*X3X*X;X&XXX X2X3X2X2X4X&X2X*X&X2X*X4X4X4X4X4X2X3X3X*X5X8X4X5X5X2X*X:X2X2X2X3X4X2X4X4X*X:X:X;X2X;X2X2X:X;X.X;X8XkX:X:XkXkXlXlXiX8XlXkX>XiX7XkXkX7X7X7XzXjX5XlXlXlXkXjXlXcXnXcXxXOXV 3 w p a ~ '.+XyX'.vXbXmXrXBXe.e.IXyXIXPXIX@XLX}.,XJXJXJXJXvXZXFXFXDXDXAXAXOX<XPX,X*.&.*.*.g *.*.*.&.*.&.o.X.O.% * % * % > * < y { ].].k.x.].P.R.L.[.&X[.E.}.[.E.R.D.D.L.D.Y.R.E.{.E.R.{.#X2.$X[.=X=X#X[.{.R.#XR.$XE.$X=X=X&X&X=X-X{.$X,X=X%X=X0X&X$XQ.{.{.Q.$X=X$X{.%X-XQ.R.#X=X&XQ.$X$X$X$X{.%XY.{.P.3XL.2XMX%X=XE.$X%X!.$XQ.Q.J.^.~.6.^.~.~.~.~.J.v.J.<.=.J a * , > & , > % * > > > < < > > > > > > > > * > d < < < * > * * < 2 < d 2 e q 2 d 2 d 2 d * 2 < > < < 2 * > > > > 2 > < > > > > > > > 2 > > 2 2 < 2 > 2 > 2 > 2 > > 1 > 1 1 > , ; ; , , > ; ; ; , ; 1 , , ; ; > > , > ; 1 > , > < 2 , , , & & : & # & > 1 , , > 1 , 2 2 5 1 1 5 & < , < 5 2 , & : : 5 5 3 5 6 7 t t t i u m S Q Q U Q U 8.8.8.8.7.8.8.7.q.(._.(.a.i.qXqXqX_.qXwX_./.i.i.q.Y t u q.t.(.7.q.T T W B M v z 9 ~ _ :.x.n.m.x.S.v.v.S.P.I.I.}.E.|.}.[.[.}.[.[.[.{.}.XXoX|.|.oX2XUX~.|.].U.U.I.I.P.|.UXoXK.U.U.~.n.b.J.v.K.K.n.C.K.b.l.v.v.K.J.n.K.K.b.b.v.v.x.b.v.v.n.1.b.b.1.x.v.C.v.b.n.b.c.l.v.l.l.b.v.,.l.c.l.l.l.l.x.v.v.v.K.l.v.l.,.1.l.l.>.l.>.,.1.h.>.h.l.l.1.,.f.h.k.z.h.h.h.z.V.x.c.c.c.z.h.j.j.j.l.z.l.l.1.l.1.1.<.l.1.1.,.j.l.m.c.c.h.c.c.k.g.f.h.>.h.$.h.k.>.#.J #.#.#.:.,.f.,.' I P P P G P =.P _ ` P | d.l.f.:.d.k.g.x.k.g.,.=.=.=._ =.} ) [ X.} ^ ^ ",
"I.T.I.I.~.P.E.|.*X2X2X&XE.P.L.4.B.B.2.2.4.2.N.3.5.5.@.5.@.@.2.3.@.6.5.5.5.@.3.2.1.2.2.N.K.H.H.L.~.~.L.T.~.~.~. X~. X~.E.%X~.~.~.5X~.~.~.5XMXcXzXcX5X0X0X5X5X0X0XUX1X5X1X1X1X1X5X0X1X5X0X1X1X1X2X1X1X1XUX5X2X0X8X5X5X8X5X9X5X2X1X2X3X3X*X*XoX8X2X2X2X3X3X2X*X5X3X4X4X*X=X8X5X*X1X8X3X2X*X4X2X*X2X;X&X3X2X=X2X*X4X=X3X2X;X*X2X2X*X2X8X4X4X;X=X4X>X:X>XkX:X=XkXkXxXBXkXkXzXkXzXzX7XkX>X>X>X8X2XkXkX7X4X7X7X5X4XkXjXnXjXH d 0 w p F d.].yXjXaX+XK bXIXk.%.%.mXDXLXLXmXg %.PXPXPXAXZXbXFXnXAXAXZXvX&.BXBX&.*.&.*.*.g g *.&.<X&.K ( J y , * 0 < > * > , 2 6 / @X).x.c.D.F.D.C.E.R.D.R.R.R.D.D.P.R.L.R.R.D.E.{.R.R.L.j.{.$X#X{.$X$X#X#XW.$X,XE.$X7X$XQ.#XW.Y.#X{.{.%X!.$X#X-X&X$XQ.[.Q.$X:X-X$X%X$XE.W.{.Y.[.#XQ.%X{.%X&X$XZ.E.P.C.~.oXNX&X=XW.=X!. XW.#X1XW.^.#X-XJ.Q.T.T.~.6.K.J.<.=.o.f = , , & & * % > * > > > > > * > > > * > > > > 2 < < < < < * * > < 2 0 2 2 2 2 2 2 2 2 < 2 < < < < 2 2 > < > > > > > > 2 > 2 2 < > 2 < > 2 2 > > 2 > 2 > 2 > > 1 > > > > 1 > , ; > ; ; ; , , , > > ; > > 1 1 > 1 1 ; ; > , > > > > , & , , , , , , , ; 1 > , 1 1 1 2 2 , 2 < , 2 , , 2 , , , : # & 5 : 5 5 5 5 5 7 u 5 i z M U W U M T T 8.w.T T 7.8.8.q.i.`.a./.q.q.(._.rXqXwX(._.q.y.y.S q x i.p.p.7.q.7.8.U B B U v y E } x.x.c.k.S.n.n.v.L.P.I.[.R.P.E.[..XR.[.}.E.[.[. XoXP.I.I.[.I.|.U.|.I.I.~.U.K.~.oX5XoXK.K.J.I.v.b.K.J.K.K.J.n.I.C.L.v.v.K.K.b.I.P.K.n.b.l.b.x.v.x.v.v.C.m.l.l.c.b.l.x.l.l.c.b.c.x.v.v.x.l.l.l.v.l.v.v.l.v.v.l.v.v.v.K.l.f.l.l.l.,.h.j.>.>.>.,.l.1.h.h.v.z.c.c.x.l.c.c.k.V.S.h.h.h.h.c.j.c.l.l.1.<.,.1.,.l.:.x.,.,.h.k.h.G.k.V.k.c.l.x.h.h.j.h.$.$.j.h.>.$.X.$.$.( -.:.>.-.-.' ( P I I P I _ -.} P P ` _ :.:.g.g.f.:.:.r.=.} =.=._ | =.} | _ _ ^ [ ",
"T.U.P.P.~.P.E. X XXX XP.V.4.3.1.2.6.3.6.2.3.N.6.5.5.5.2.6.N.H.B.^.B.2.3.3.2.5.2.<.1.B.H.H.H.H.T.!.~.!.~. X%X~.~.~.T.~.~.~.~.~.~.UX%X~.XX5XMXzX5XzX0X5X5X5XcX5X5XcX1X1XUX1X5X1X1X5X9X8X5X2X3X1X2XUX5X5X5X0X5X5X3XkXlX2X8X5X5X4X3X2X2X2X=X&X;X*X2X=X*X1X;X2X*X5X4X2X9X*X2X8X8X3X2X9X2X5X*X4X2X2X4X3X4X*X*X4X9X:X:X&X5X2X8X4X7X4X;X2X7X4X>X4X4X4XkXkX:XkX:X:XkXkXkXzXkXkXlXlXkXlXkX7X7X4X>X8X8X5X4XkXkX>X7X7X>XjXlXxXcXOXH 3 5 4 w V 0.).yXiXiXyXCXGXDXF.l BXPXPX0XnXl g @XIXIXIXJXIXAXGXDXJXmXe.G.BX,X*.*.*.g g g *.*.<X<X&.j J x q d q e 2 < < > < 0 q q D m.x.v.m.c.D.P.D.R.{.D.D.D.S.D.N.@XD.D.V.R.D.D.H.P.E.Z.{.$X$X$X{.Q.$X{.W.$X$XR.W.$XQ.{.W.#XW.{.B.W.$X{.Q.$XW.W.$XQ.$X=X$X-X:X=X{.W.{.W.#X{.$X#X&X%X%X$XW.$XL.L.~.P.E.|.NX4X%X&X=XW.&X!.!.Q.Q.Q.^.^.Q.^.Q.!.~.H.J.C.K.f.X.C = % , = % , % < < > > > > < > > > > > * > > % * 2 2 < < < < < < * < % d 2 0 d 0 2 2 2 < > * 2 < < 2 > < > > > > > * > 2 2 2 2 > > > 2 > > < 2 2 > 2 2 > 2 2 1 > 1 > > > 1 > ; , ; ; ; , ; 1 ; ; ; ; , , , , , > > , , > , ; > > 2 , > > > > , , , , , , , , , , , , , , , < , 5 5 , , , , , : % : & : 5 : : 5 5 5 7 9 7 i m N F T U Y T W /.q.w.9.8.q.a.q.a./.p.(.i.q.(.qXwXqX(.a.9.T 0.N w x 9.i.t.8.8.Q U B B T Q S u Y X.f.k.l.S.v.l.S.n.P.I.L.I.E.[.[.[.[.{.{.}.&XoX.X|.oXE.[.I.[.|.oX~.|.~.].I.I.~.P.U.2XoXJ.v.J.I.v.K.U.U.I.K.L.L.K.K.K.J.b.K.K.v.P.C.K.P.b.b.n.J.K.x.P.v.l.b.v.x.b.n.m.b.c.x.v.l.b.l.x.l.v.l.c.v.K.l.K.v.v.l.v.v.b.x.v.K.v.l.l.l.l.l.c.j.c.z.h.;.>.>.>.f.j.c.z.S.z.k.c.c.c.S.h.h.c.S.,.1.,.f.z.h.>.h.,.,.,.:.l.l.1.,.k.h.h.j.c.m.>.S.k.V.k.e.d.h.$.$.>.f.e.#.$.$.$.+.=.;.,.=._ ` _ P ( ' P P P P ( J / ( $.d.d.:.=.x.k.=.=._ _ =.=._ _ } | ..[ ) ^ ^ ",
"~.E.L.I.E.E.P.P.~.E.P.P.B.z.B.3.5.2.3.3.%.4.2.3.3.5.@.5.4.A.H.Z.T.N.3.3.3.2.j.N.4.A.H.H.Z.L.H.P.~. X XQ.XX~.~.1X~.~.~.~.~.~.~.XX~.1X~.1X5XzXcXzXcXcX0X5X5X5XUX5X0X0X5X1X5X5X5X0X5X3X0XxX1X3X1X1X1X0X1X5X8X5X5X8X5X2XzX8X4X8X5X1X4X3X4X*XXX=X2X8X;X:X4X4X2X4X4X2X2X8X5X9X8X4X8X4X3X4X2X=X1X*X9X3X4X7X2X:X2X4X4X:X*X2X=X3X8X4X4X8XkX8X4X4X4X2X:X4X:XlX>X8XkXkXkXkXkX7XkXxXlX:X>X7XlX>X:X7XkXjX4XlXkXlX7X>XjX7X:XkXcXcXnXOXV 3 & & 0 p o.@XyXyXbXbXZXDXIXG.&.,XiXA.LXBX<Xe.iXBXDXDXAXKXIXDXIX,X*.BXMX&.*.&.*.g *.g *.*.<X&.a Z x e q < 2 d < < < < < 2 2 0 q H d.:.z.C.V.V.D.D.D.E.R.D.S.V.V.C.C.H.D.oXP.R. XE.R.R.$X#XE.D.Q.$X$X$X$X$X#XZ.H.$X#X$X:X#X=X{.W.Q.{.Q.=X9XW.{.$X{.*X,X$X{.-X&XQ.#XW.W.$X=X%X=X$X=X&X=X XW.L.R.T.E.|. XMX&X!.W.%XW. XW.Q.!.%X^.-X~.^.#XJ.J.~.T.K.P.c.c.>./ a % % , & & < < % > < > * > > * > < > % > % > 2 2 * < 2 2 < < 2 < < < < 2 2 0 2 2 2 d 2 2 < 2 < * < 2 2 > < > > > > > 2 < < 2 > > 2 > 2 2 > 2 > 2 2 2 > > 2 1 1 > > > > > ; > ; , > , ; > , > , > ; , ; 1 > , 1 , ; , ; > 1 > > > > < 2 2 > , , 2 1 , , , , , : , , , , , , , < , , , : & # # # , : & # & : : , , , 7 7 9 u x N U U B U Q t./.8.W q.i.q.(./.7.i.(.w.q.qX/./.8././.9.M W n q z 7.a.q.Q 8.U B B M T T Q z R } $.x.k.k.n.n.v.K.I.P.I.I.P.[.R.}.|.|.&X|.[.|.E.}..X{.R.I.[.~.oX[.|.|.|.I.P.I.I.I.2XoX].J.K.n.~.K.K.J.K.K.v.L.K.L.n.n.K.K.C.v.K.K.K.b.v.1.b.l.l.,.P.v.x.b.l.K.n.v.l.b.x.b.x.v.l.n.b.v.v.l.l.l.c.v.l.l.l.v.v.v.v.v.v.l.v.z.l.v.c.l.k.h.,.f.h.>.j.f.j.j.j.f.z.n.k.l.x.S.c.c.h.h.l.c.x.l.l.c.z.l.l.h.f.l.<.,.<.,.l.f.h.h.,.h.k.c.k.V.k.k.c.k.f.h.h.f.k.$.g.,.V.>.#.#.:.1.f.>._ ` -.I I ( I G k ( ( Z ( | _ >.:.| | d.:.:.=.=.=.=._ =._ =.} ..) ^ ^ / ",
"oXE.L.T.K.P.C.b.L.T. XE.Z.2.3.5.I @.5.2.6.B.4.3.3.5.5.2.A.Q.B.Z.N.@.%.2.2.1.B.N.V.Z.V.H.Z.L.T.T. X X%X~.~.~.%X XXX~. XXX~.~.~.XX~.~.~.~.5XMXzXzX5X0X5X5X5X1X5X5X5X5X1X5X5X5XUX1X1X4X4X3X4X9X1X8X0XUX5X0XcX0XcX0XlXkX8X5X3X3X4X2X4X5X4X;X;X*X*X2X4X2X8X8X3X4X8X*X&X4X4X4X2X4X4X3X4X8X4X8X9X2X4X2X4X2X2X4X;X&X;X>X2X4X7XkX8XkX8X8X4X7X7XkXlX8X>X=X:XkXkXkX>XxXkX7XkXzXkXzXBX7X7X>XlX7X>X4X7X8XlXcXkX:XzX>XkX7XlXlXkXcXcXcXXXV = = & q n d.m.rXiXbXZXZXJXnX%.g g e.LXLX,X&.IX,XIXIXAXKXIXIXmX&.@X<X*.*.*.<X*.*.g g g &.&.s a 0 * & % * % % % > < < 0 2 4 3 q q V _ k.k.c.V.S.[.D.S.D.S.C.V.V.C.c.D.L.E.P.E. X{.{.E.[.E.{.{.R.$X$XQ.#X{.#XD.Y.R.D.D.{.=X%X{.$X{.[.{.&X=XT.W.W.$X=X%X=X-X=X-X:X=X$X%X,X1X9X=X=X-X&X&X$XW.%XR.R.~.XX~.MX9X=X=X9X&X=X X!.!.!.Q.Q.~.Q.6.J.J.!.~.~.P.K.v.l.$.J r = % % , < < < < * > > < > * > > > % > % > * * < * < < < < < 2 < < 2 < < * 2 d 0 d 2 d 2 2 d 2 < < < > * > > < 2 > > > 2 2 > < 2 < 2 2 > > 2 > > > > > 2 1 1 > > ; ; > > ; 1 ; , ; , ; > ; ; 1 1 , , ; 1 1 ; > 1 1 > > 1 > 2 > < > > > > & , , , , , , > : > , , , & , , , , & , & : & # $ # : 5 : # # : : : 5 5 5 5 t i x B Y B U U U Q 9.w.7.7.8.i.i./.i.i.q.a.a.i.w.7.U w.(.8.v Q M 4 y 8.q.q.q.8.T M v v v Y Y c G X.$.$.k.S.n.K.K.K.S.E.].E.[.R.E.R.{.[.{.[.{..X{.}.{.[.}.[.I.oX|.oXI.~.I.oXI.I.~.I.1XUX~.v.J.K.b.K.I.K.I.K.K.K.U.S.S.b.v.K.C.v.J.n.K.K.J.l.v.K.x.b.l.K.v.K.x.J.n.K.v.b.c.c.c.l.b.n.v.l.K.v.l.l.l.v.l.l.K.l.K.K.v.v.l.c.l.v.l.l.l.l.j.l.f.j.h.j.j.f.>.c.V.x.c.k.f.j.c.V.z.c.h.x.k.l.l.z.l.l.l.l.x.l.1.,.,.l.>.,.>.,.j.h.h.k.h.h.C.c.k.S.k.j.c.h.k.j.>.$.f.k.F.>.$.k.f.:.:.>.:.` | ( / P ( I P _ ( / I P / | _ | d.:.=.=.=.=.) _ _ _ ) _ _ _ / / _ ^ ",
"P.L.L.K.Y.C.B.C.B.P.z.4.<.5.@.@.@.@.3.2.6.2.6.3.5.3.5.@.j.Q.B.B.2.N.4.1.6.N.Z.B.z.Z.H.Z.L.Z.T.E. X XXXXX X~. XXX%XXXXX~.~.~.~.~.~.~.~.UX0XMXcX5XzX0X5X5X5X5X0X0X2X5X1X5X5X5XcX0X8X8X9X3X4X4X4X*X5X0XzX5XcXxX5X5XlXlXkX8XlXkX5X1X&X&X3X*X;X*X2X4X4X9X5X8X4X9X4X=X X2X4X8X4X9X9X3X3X4X4X2X4X2X;X*X7X4X7X6X=XkXNXzX2X7XcXlX4X4XkX7X4XkXkX8X8X8X>X;X:X8X8X:XkXkX7XkXzX>XlXzX7XlXMXlXcX7X7X7XjXkXlXkXzXkX>XzXzX>X:XkXcXcXcXcXcXOXV = * * q S r.@XyXbXbXAXIXnX=Xg g *.PXPX&.*.BXG.IXIXAXIXSXIXiXK IXiX<X*.&.<X*.*.g g *.*.g s d & * % % > % % % > * < 2 2 2 q 4 4 w h } d.h.z.S.L.P.P.R.c.c.c.h.h.j.S.F.S.R.F.R.R. XE.R.{.=X&XR.{.$X{.E.,X{.H.Q.D.N.#X=X#X=X,X$X#X$X=X-X{.$X&X=X=X=X9X9X=X:X:X&X-X$X=X3X9X=X-X=X&X=X=X X!.&XW.&X%XXXXXMX&X:X9X&X&X=X&X9X#X#X!.Q.^.^.~.Q.T.T.T.P.~.oXI.m.G.>./ 0 , % % > % % > > > > > < > % % % > % > > > > 2 2 < 2 2 < 2 < 2 < 2 < < < 2 2 2 2 2 2 < 2 2 2 2 * > > > % > > > > > > > > > 2 > > > > 2 < 2 2 2 2 2 2 2 1 1 1 > > > > > 1 > , ; , ; > ; 1 > > > ; , , ; , > > , > > > 1 2 > > > > > > 2 , 2 , , , , , , , , , 5 , , 5 , , , : , , , , # # & 5 , : & : # , : : : : 5 4 9 p N Q Q Y T U Q 8.9.Q W 7.a.a.i.i.a._.a.i.(.i.7.T M 0.] z Y A 5 u T 7.Q q.U T M v t z S U v V ] | f.k.x.n.n.P.S.U.P.F.I.I.P.[.P.}.[.[.oX}.{.[.I.oXoX{.[.oX~.|.oXI.U.I.I.P.].[.|.2X2Xv.n.K.U.I.n.b.m.b.K.S.K.P.K.K.K.b.C.K.K.b.C.b.x.K.x.4.n.v.v.K.K.v.K.v.v.n.b.x.l.,.l.c.c.b.K.P.v.v.v.l.v.v.v.v.l.l.l.l.v.v.v.v.l.l.l.h.x.>.l.c.j.h.h.f.l.j.k.l.c.c.k.V.c.l.c.S.x.c.x.c.c.G.c.c.l.l.c.l.,.h.1.x.v.l.l.,.1.l.,.k.h.j.j.,.h.k.k.j.k.h.k.f.>.$.$.$.h.>.f.S.>.>.>.x.l.,.;.=.` ` ` P P P P P ` ` ( Z Z P | |  .|  .' ' =.=._ =.=.} _ =.} ) _ / ^ ) ",
"E.K.C.L.D.D.B.N.4.Q.2.3.3.5.@.' @.@.2.3.2.6.4.2.5.3.@.1.R.D.Z.N.N.N.5.2.3.3.2.N.N.N.Y.Y.T.Z.K.P.%X X X%XXXoX~. X~.~.~.~.~.~.~.~.~.oX~.XX5XMXzX0X5X5X5X5X5X5X5X5XUX2X5X0X8XkXcXkX4X4X1X*X4X4X8X4X>X4X7XkXxXkX7XkX8X8XkXkX7X7X;X;X&X;X&X;X*X*X2X8XzXzX8X8X8X3X8X3X&X2X*X8XlXkX8X7X2X8X4X4X3X2X2X2X2X2X4X4X;XzXxX7XkX7X7XkXkX7XlX7X7X4X7XkXzX>X9X:X7XlXkX7XzXlXlXzXMXlXxX:X8XlXkXlXkX7X:XkXiXkX7X:XzXkXkX7XjXkXkXkXkX4XlXxXxXmX}.Y & * 3 e G g.+XiXvXZXAXGXiX*.g g ,XPX&.*.<X%.IXAXIXHXAXIXG.,XKXKXBX,X,X<X*.g g *.*.s * % = = % % = = % % % % % < 2 < 3 w w 7 m E D } | h.c.v.n.v.g.m.d.| | f.>.-.l.l.S.L.E.P. X.X X{.&X.XW.&X{.$X{.#X&XR.N.E.Z.$XW.$X-X=X$X$X$X#X{.{.H.W.=X3X=X3X=X=X=X=X=X$X=X=X=X$X$X{.$X&XW.{.W.W. XR.{.W.{.:XxXR.$X&X{.#X*X9X*X%X~.Q.!.T.Q.#X^.^.~.~.~.~.J.~.J.K.b.=.G < % > > * * > > > < < * > % > % % % > > > > > < 2 < 2 % d 2 2 * < < > < < < < < < > < < < < < > > > > > > < > > > < > > > > > > > > 2 2 2 2 2 2 2 2 2 2 1 > > > > 1 1 1 > > ; > > ; 1 , ; > > 1 , , ; ; > 1 , > , > , , > > 2 > > 2 < 2 2 > > 2 > > 2 , > , , , 2 < , , , , , , & & # # ; , , : ; ; O ; # : : , 5 4 7 u m N U W Q Q W Q Q Q Q W W t.a.(.i.'._.y.t.p.9.N M { U i y u 2 8 8.8.8.W W U M c b v S S v c o...d.k.m.S.S.U.P.E.I.P.E.P.P.[.[.[.[.}.[.{.}.[.[.[.{.[.;XoX[.I.E.I.P.~.I.oXI.I.~.UXoXK.I.n.b.I.v.S.S.S.U.I.P.P.K.v.K.K.K.K.K.K.b.v.v.b.v.v.b.c.v.v.v.K.z.v.z.l.v.c.b.l.v.S.v.I.v.v.v.f.K.l.l.b.v.v.x.l.l.c.c.v.c.v.v.v.l.c.c.c.f.c.j.h.k.>.j.h.j.l.k.l.x.k.c.c.c.S.x.c.h.c.k.S.k.z.c.c.h.z.h.z.c.v.l.h.h.h.>.j.>.j.h.j.>.%.k.f.h.m.G.c.k.f.V.h.f.h.f.$.$.h.z.S.h.f.:.h.>.f.:.-.` ( J ( ! J ( ( ! a f f J ( ' _ ..=.=._ _ _ _ _ } ( | } X.^ X./ ! ",
"E.P.Z.D.j.N.2.$.<.b.z.4.3.5.@.@.@.2.2.2.A.6.6.3.3.3.G.Q.Z.Y.$XN.N.j.2.$.3.1.@.4.2.j.z.G.Y.T.Y.L.~.1XXXXX1X1X1X1X~.XX%X0X~.~.I.~.~.1XXX~.5XMXcXzXcX0X5X5X0X5X8X2X1X2X5X5XxXkX8X0X8XzXkX3X7X3X3X8X9X8X4X7XkX7XzXkXcXlX7XkX7XlX4X>X2X&X;X&XkXkX3X8X8X8X8X8XzX8XzX8X4X&X2X3X3X2X7X7X3X4X*X5X4X*X&X3X*X=X4X4X8X4X9XjX>X:XkX7X7X>X7XlXkX4X8XlX>X7X>X4X:X7XkXkXkXlXlXlXlXkXBXlXzXBXxXxXkXjXkXkXkXlXzXlXkXjX=XiX7X7XkXkXxXcXlXkXNXxXvX].H & 3 3 p Y ).+XyXmXZXZXBX&.g g &.PX<Xg g G.AXAXAXIXSXG.G.KXLXIX,X%.iX&.*.g *.g s & % = + % * % % % > 2 > % % % < 2 6 w 7 t ] 9.] N =.-.>.f.g.x.d.d...X.R [ / ` :.-.c.P.S.P.{.R.R.&X.X X{.W.W.W.#X[.$X=XZ.W.E.Y.W.&X&X$X&X$XQ.Q.W.$XR.R.%X9X=X=X9X9X:X%X%X%X&X=X:X&XW.$X%X=X%X%X$X&XW.R.H.R.{.>XMX4X{.-X&X:X,X7X8X0X0X X#X#XQ.#X^.T.Q.Q.~.~.J.1XUX6.4.=.#.C < = % > > > > < < > > > > % % > % > > % > < > < 2 * > < < 2 < < < * > < < < < < > < < > * > > > < < > > > > > > > > > 2 > 2 > > > > > 2 > 2 > > > > > 1 1 > > > > > > 1 > , ; , ; , > , 1 ; ; > ; ; ; ; > 1 1 , > 1 , , > , > 2 > > 2 2 > 2 2 < > > , < , , 2 2 , , , , , , : # # # # ; > > ; ; ; ; ; # : # : : 5 4 t i m N U { Q W Q Q Q W 7.t.t.t.(.(.(.(.y.t.9.W N N N z t 6 5 , b B T T T T M M v t y c M M z o.=.>.h.x.m.S.U.I.].I.P.E.[.E.E.E.R.R.{.{.E.[.{.{.[.[.{.cX[.R.I.].].~.P.[.oXI.|.2X5XXXK.K.K.K.v.K.L.v.U.P.C.S.I.L.I.J.b.v.b.K.S.b.K.K.v.v.n.K.v.v.v.l.L.U.v.x.l.v.v.x.l.b.v.n.S.b.v.v.b.S.v.h.v.n.b.K.v.z.l.v.c.c.K.l.l.l.l.l.l.c.V.k.k.j.j.f.h.k.c.c.k.S.c.m.m.V.S.k.k.x.c.c.k.c.c.c.h.h.k.h.k.k.l.z.h.j.f.1.>.,.h.$.h.h.m.k.h.h.h.m.c.m.c.j.f.>.h.$.h.z.v.n.n.f.f.>.:.>.>.:.-.=.` I P / J ! ( J j f f k J X._ #.| | _ =.| } =.} _ } .._ ~ G / ! ",
"P.B.2.z.N.z.z.N.1.N.2.1.3.@.@.@.3.5.3.6.6.2.2.2.2.B.$XD.Q.{.Z.2.N.2.3.@.2.6.N.2.N.N.Z.Z.V.Y.P.C.~.XX1X1X1X1X%X~.1X*X~.XX~.~.~.~.~.~.~.XX5XMXcXcX0X5X5X5X5X2X1X5X5XUX5XcXkX8XzX4X8XMXcX8X3X3X2X4X4X4XlX7X7XkXlXlXzXlX7XkXkXxXlX7X>X&X&X&X8X2X8X8X8X4X8X6X8XcX8XcX8X*X&X&X8X4X;X;X3X4X=X3X2X1X2X2X=X>X4X4X7X4X7X6XzX7XkXkXlX7X7X7X7X8XkX7X7X7X>X:XlX7X4X4X7X7XzXMXkXkXkXlXzXzXkXkXkXkXkXlX7XlXzXkX7XkX7XiX4XlXzXlXcXxXzXxXxXnXMXcXn.h * < 0 p { m.+XiXZXbXVX<X*.g e.IX,Xg *.&.iXDXJXBXG.<XIXPXPXIXW.&.,X&.*.g *.g * = % # % % % + % > 0 0 < % & % & 3 4 4 p A u.t.t.W m / =.:.r.r.0.{ ] y.M.W F / ` -.h.h.S.P.E.R.{.[.;X{.$X{.%X$X$X$X$X$XL.%XW.&X=X=X&X#X{.Q.#XW.W.&XY.{. X=X*X=X&X=X-X%X%X$X&X=X=X=X$X$X$X X%X=X=X=X$XT.W.{.{.=XMX&X:X=X8XzX=X#X%X=XJ.%X X1X1X!.-XQ.^.~.J.J.~.~.I.K.I.<.$._ a = * * > > > > > > > > % > % % > > > % % > > < > < 2 < % > > < > > * > < < < < * < < > % > > > < > > > * > > > > > > > 2 > < 2 > 2 > 2 2 > > > > > 1 1 > 1 ; > > > , > > > 1 , > ; > : , 1 , ; ; ; ; ; , 1 , , > 1 2 2 > > > 2 2 > 2 > > 2 2 2 2 > , 2 , , , < , , , % , , & : # # ; # ; > ; + ; ; # # # : , 1 5 6 t u u n N D B F U U U T Q t.t.Q q.w.i.q.Q U U N m u i 8 7 5 2 , 8 8.T B U B S v z z 6 y v n y /  .g.x.x.c.c.U.I.I.P.F.P.[.[.[.I.[.[.[.{.}.{.}..XI.[.P.R.P.P.I.P.I.P.|.I.oX~.I.oX1X|.I.I.I.n.v.U.P.K.P.P.F.I.[.S.b.K.U.b.K.C.K.K.b.K.v.b.b.b.x.b.l.,.v.K.v.l.l.v.c.l.b.l.l.1.v.c.l.C.v.h.l.l.l.v.l.l.l.l.v.l.C.v.K.v.v.l.l.c.x.l.z.h.c.j.e.f.c.k.V.V.z.V.m.G.m.V.S.m.S.c.k.c.S.x.S.c.c.h.z.j.k.h.,.x.z.>.h.1.l.h.$.$.$.$.>.>.f.h.h.k.k.V.S.k.h.f.e.>.$.,.P ,.c.v.h.>.| -.:.>.>.#.` ( _ +.+.+.` ( Z f f C / _ ..$.=.` _ =.} | _ ' } } } } ^ ^ } } ",
"b.Z.L.D.L.D.N.N.4.2.4.4.6.6.5.@.2.2.2.2.2.3.@.6.A.Q.=X#XE.G.N.N.N.B.6.A.2.1.N.N.V.N.C.N.J.P.T.~.L.XX2X3X%XXX%X%X~.~.~.~.I.J.~.%X~.~.~.1X5XMXMXcX5X5X2X2X2X1XUX1X1X2X2X1X5X8X5X5X1X3X3X4X2X*X3X4X7X7X7X:XlXlXcX6X7X4XlXkXkXkX7X4X.X{.oXR.XX8X5X3X9X8X9X4X3X3X5X5X4X2X7X;X9X4X&X:XMX2X*X5X2X4X3X3X7X4X7X:XlXlXkX7X4XiXkX7XjXkXkX7XkXkXkX8X>X=X:XkXkX7XxXkXxXlXlXkXlXMXkX7XkXkXkXzXlXzXlXkXlX7XiXkX7XjX7XkX>XlXlXzXlXlXxXxXNXxXxXmXoX:.h & 3 w p [ M.+XvXbXBX&.g g <XIXBX&.BX,X*.iXPX,X%.IXPXPXKXBX<X,X<X*.*.g g - = = + - % @ % , 0 e y e w a % % # & 3 4 w D u.t.q.i.W m ~ ~  ...0.0.q.i.p._.t.F ! I -.h.v.P.P.P.R.{.W.R.{.$X!.$X$X$X$X:XW. XT.~.#X=X&X$XE.Q.&X{.=X=X=X#X%X=X=X%X=X:X=X=X4X-X*X%X=X=X-X&X%X$X=X1X3X=X&XW.{.{.{.:XMX=X8XW.#X:X[.$X1X8X1X#X!.1XW.%X#X~.#XQ.~.~.J.J.~.v.x.b.j.$.! d % % * > > < % > * > > > > % % > * > > % > > > < < < % < * < * > * < < < > < < 2 d % % > > * > > % > > > > < > > 2 > > > 2 > > < 2 > > > 2 > > 2 > > > > ; ; ; > > 1 > 1 ; ; > , ; 1 , ; > , 1 > > > ; , , , , 2 , < > , > < > 2 > 2 2 2 2 2 > 2 2 2 2 2 , > , > , : & > & : & # # ; ; ; # # ; ; : : # # : , 1 4 4 7 7 z m N B B Q B B T W U T t.8.W T U B N N m i u u 4 < : : , 8 T T U M M v c z 8 6 b v v y ! ..g.n.x.n.S.S.n.S.F.P.P.P.E.}.[.[.[.[.}. X{.[.|.}.{.L.[.L.].E.P.P.P.P.I.I.I.UXXX2X~.I.I.K.J.K.K.K.D.S.F.F.C.[.U.n.K.v.K.b.K.L.K.v.b.S.K.v.l.v.x.c.v.v.l.v.v.l.C.c.l.l.m.c.v.v.n.v.v.h.l.v.l.v.v.K.x.v.c.v.l.c.S.v.v.v.v.l.c.S.h.h.c.k.x.k.j.k.k.x.x.m.c.c.m.V.x.m.V.S.c.c.c.x.F.c.j.k.c.k.V.c.V.c.c.c.f.,.l.l.h.c.z.c.h.h.f.>.j.>.f.>.c.c.h.,.f.k.>.>.#._ >.x.v.f.>.$.:.-.l.d.:.` $.$.| $.#.f.f.` j f Z ! } $. .=._ =.=.=._ [ ) } } | } } | X.^ ",
"P.L.K.P.H.L.B.Z.6.^.6.6.6.4.@.^.6.2.3.4.4.2.N.J.Y.=X$XW.Y.Y.z.j.N.N.N.j.2.Z.N.B.B.R.Y.Z.H.P.Y.E.~.XX X X2XXXXX~.~.%X~.~.~.~.oXoX1X~.oX~.5XVXcX5X0X5X5X5X1X2XoX2X8X8X5X5X8XzXzX8X5X2X5X3X*X4X2X:X7X6X4X7X8X8XlXkX7XkXkXzX8XlXkX7X6X:X&XE. X2X1X3X6X5X1X1X1X5X1X5XkXxXkX5X7X7XNXMXlX8X>X4X9X2X2X8X7X4X4X>X4X4X4XkX7X4XlXcXcXkXlXjXlXkXkX7X7X&X>XzXlXMXMXNXlXkX8XxXlXlXlX7XkXlXzX8XlXkXlXMX4X>X7XkX7X7XkX:X7XlXzXxXlXxXxXxXxXxXlXxXOX].d.a < 3 0 p / ).yXiXyX&.*.g <XIXPXBXIXPXiX&.iX<XBXPXPXIXIX&.*.,X<X*.*.d & % @ % + + + = < q s f j V j A Y w & # & 5 5 p { p.i.a.a.0.M D ~ { r.i.i.a.s.tX_.r.Y P _ :.k.S.F.R.[.R.[.R.W.3X%X%X$X{.$X=XW.{.T.%X{.$XW.Q.$X&X%X#X=X&X&X$X*X1X*X3X9X9X8X$X*X%X1X*X=X9X=X*X&X%X1X9X=X*X%X&X#X&XE.&XMX8X0XR. X&X X=XW.T.W.=X=X2X=X!.#X~.#X6.~.~.~.J.J.K.n.x.,.>.( f % * > > > > % < > > * > % % % > % % > > % > % < < < < < < < < > > < > < * < < * % % % > < % > % > > > > > > > > > > > > % 2 > 2 > > > 2 2 > > > 1 , > > > ; ; ; > > 1 > ; 1 , ; > ; > , ; 1 > ; , , 1 > > 1 , , 2 > > < 2 , > > > 2 2 2 2 2 > 2 , < , 2 , , , > , > , , , > # : ; # ; # + + # + # # O : : : , 5 4 6 7 u i z M B U U U B U Q Q Q B U B N B U T Q S M z 5 1 1 > > v T U v M v c z z 8 8 8 v z 7 ~ =.:.x.c.n.n.m.S.I.I.I.P.P.E.}.[.[.{.[.$X[.[.[.[.}.E.}.[.P.P.P.P.|.I.I.L.I.~.*XUX2XoXP.v.n.b.n.K.P.F.P.D.R.F.D.D.v.J.v.K.K.K.K.v.n.v.<.,.K.v.n.1.f.U.L.v.z.l.S.v.v.v.x.c.c.l.c.l.c.c.c.c.x.v.l.C.v.v.v.l.c.c.c.c.v.K.c.v.v.l.z.k.x.c.c.k.k.,.k.j.k.m.l.V.m.c.c.S.c.j.c.k.k.V.z.V.m.c.k.c.h.z.c.x.x.h.j.j.x.z.h.h.k.h.$.f.,.k.>.>.k.k.x.V.n.v.c.h.d.$.$.#.` d.l.x.f.f.,.:.:.,.,.>.$.:.:.>.>.h.k.f.$.J Z P  .:.d. .d.=.:.d.=.| .. ._ } =. .....X.^ ",
"L.Z.z.N.Z.Z.z.3.@.@.5.6.4.3.3.N.3.5.3.5.2.B.Z.E.~.%X&X=X=XL.N.N.Z.j.Z.Z.2.B.N.Y.H.H.J.K.J.J.H.H.~.~.%X X~.~.~.XX%XXX~.~.~.~.~.%X1X~.%XUX5XVXMX5X5X5X5XcX5X5X1X2X1X2X5X5X4X4X8X2X4X4X8X5X2X;X2X5X2X8X7X2X4X8XlX8XkXlXlXlXkX7X7X:X;X=X;X.X*X4X2X5X4X4X6X*XXX4X5X5X3X8X8X5X>X7XzXzXkX7X7X4X7X8X:X4XkXkX7X4X4X4XkX4XlXkXlXkX4X7XkX4XlXkXkX>X>X7X:XkXlXkXkXzXlXkXBXlX7XkXlX7X7XjXkX>X7XzXkXBXkX7XkXkX7X7XjXkXkX7XlX7XjXlXkXkXxXxXnXMXOXOXF.0.w & 3 w n o.@XyXyXG.g g &.BXIXIXIXKXPXBX&.,XPXPXPXPX,X*.*.BX<Xg d = = - % - + = * 0 r f n O.J ! J D ! 0.a 5 : 5 5 t z W a.i.a.(.y.Q { t./._.a.s.s.eX_.W Y ! )  .f.c.S.D.{.{.&X&XW.!.&X%X$X$X{.$X$X{.E.=X&X{.{.$X$X=X=X=X&X=X1X=X=X=X1X=X=X=X=X1X=X&X1X*X3X=X=X=X1X=X9X3X=X=X X X{.[.{.&XzX=X&X X9X=X*X%XE.E.*X=X%X*X*X*X-X#X%XT.^.^.J.^.oX2X~.I.[.n.#.G d % % % % % > > > * > < > > > > > % > % % > > < > d > < 2 < * * * < < < < > < > > > < > > > > > > > > < 2 > > > > % > > > > > > > 2 > 2 2 > > 2 , , > > > > > > > > > > , ; , , ; > , ; , ; , , , , > ; > : % , 2 > > < , , > > > < 2 2 2 2 > > , , , > , , > : > , , : , , > > ; # : > ; ; # ; # # : ; O & : , 1 5 4 8 8 z U D Q Y U Q Q Q T U N D U Y 9.7.7.7.q.Q E M 8 : : # z T B B M v v v z y t u z z t ! | :.x.U.K.P.I.P.U.[.|.I.P.I.[..X&X}.[.}.[.&X[.[.{.[.R.R.[.[.U.P.oXI.P.P.UX2X5X6X5XUX~.P.L.K.K.U.P.F.D.F.F.S.P.@Xn.U.v.n.C.K.K.n.S.v.x.l.v.l.b.x.b.U.S.v.c.c.h.S.1.l.l.,.v.b.v.k.h.c.l.c.v.S.c.C.v.c.c.l.h.c.c.C.v.v.h.l.h.>.f.j.z.k.z.k.k.j.h.k.c.z.x.l.F.V.x.V.G.k.l.h.f.h.h.k.c.k.h.h.h.k.V.c.k.h.c.k.h.k.z.S.c.c.S.c.j.k.k.m.V.c.S.S.U.c.c.m.k.>.d.` h.f.x.x.x.v.x.>.=.>.:.| $.:.h.f.f.>.k.g.$.( Z Z $.d.d.:.:.=.d.g.| r.=. .r.=...} { } ^ ~ ",
"Z.Z.Z.B.6.2.6.2.2.%.5.5.2.5.@.5.3.6.3.3.N.L.P.H.Z.Y.{.$X XR.Z.T.Z.Z.H.B.4.A.B.Z.H.J.Y.~.K.L.!.P.I.~.XXoX%XXXI.~.~.~.~.~.~.~.~.~.~.~.oXXX0XVXMXXXXX2X1XUX5X5X2XXXUX2XXX5X4X1X5X2X2X8X4X3X2X2X2X2X8X8X8XkXkXkX8XlXkXkXjX7X7X7X7X>X;X>X>X&X4X6X5X4X5X5X5X5X4X4X5X5XkX5X5XlXjX7XkXkX7X7X:X7X8X2X4X8X7X8XkXkXkXjXkX5XkXlXlXlX4XkX6X4XlX7X4X7X7XlXkXkXlX8XkXlXzXkXkXkXkXiXjX7XkX7X:XxXzXlXkX:XkXlXkXlXlXiXkXkXjX7XjX7XxXcXlXlXMXlXjXcXjX6XOXm.) w * * q f %.M.}.&.g g g ,XIXBXBXKXIXIXiX&.iXIXIXAX,X*.g <XR.g d - = % % + + * q a V Z o.o.^ } #.X.G ! r.m , & & 5 9 m Q i.p._.(._.(.(.(.a.s._.eXeXa.{ E Q Y ^ $.h.c.V.D.R.E.W.&X XW.%X$X{.{.{.&X XR.&XE.W.&X&X:X,X=X&X=X X&X&X*X*X*X1X&X&X&X*X*X2X*X1X&X&X=X&X*X4X4X*X&X&X&X*X X X{.=XzX1X X2X2X9X4X3X0X3X=XE. X X*X;X~.~.-X~.~.~.6.0X~.S.K.K.v.S.l.-.O.+ % % % % > > > % > * > > < > % > % % % % > % > > 2 > > > < < 2 < < < < < > < < > > 2 > > > > > > > > > > > > > > > > % > > > > 2 > > > > 2 > > 2 , , > > > > > 1 , , > , > > ; > ; 1 ; ; ; , ; , , , , , 2 , , > > > > > , > > > > > , > , , , , , > > > > : > , 1 , , > > > ; ; ; # ; + + # # O # & ; # : , : : 1 4 9 N E B N T Q Q =.Q Q Q U B W t.W t.r.7.9.W T S t > ; ; v T B v v v v u b y 8 6 z y a ^ =.k.m.U.P.].].].[.oXoXoX[.|.XXoX;X}.&X&X}.&X[.[.}.{.D.P.|..XXXoXI.I.~.P.4XXX5X*X5X5XXXI.I.P.I.UX&X;X.XD.F.}.OX].].~.~.K.n.K.U.U.~.K.n.x.v.K.x.K.v.v.v.v.n.S.v.c.c.v.U.v.v.K.K.v.j.z.z.S.C.c.n.F.v.S.v.h.l.x.S.S.v.v.n.C.v.c.h.f.z.h.j.j.j.h.h.c.G.k.z.c.S.m.V.m.m.h.k.f.f.k.z.l.x.S.k.G.$.k.c.V.c.k.f.c.h.j.m.x.c.c.c.x.x.G.c.V.F.x.m.G.v.n.x.n.S.f.f.].].f.=.f.x.x.n.f.| :.:.`  .:.>.d.:.f.k.k.g.d./ _ r. .r.d.=.:.:.f.=.=.d.d.d.d. .0...} [ } ",
"D.C.Z.D.6.2.2.2.5.@.@.%.5.6.@.@.5.5.4.B.V.T.6.2.Z. XE.E.T.Y.Y.H.G.Z.6.B.B.B.6.N.z.L.L.L.I.~.~.~.~.oX~. XXXXXoXoX~.~.~.~.~.UX~.%XXX%X%X%X5XVXxXcX5X1XXX1XUX5X1X5X2X2X3X5X1X6X2X4X9X5X9X3X=X4X8X9X8X8X4X4X4X2X4XkX8X>X7X7XkXkX7X:X.X.X=X2X=X>X5X5X8X8XcX5X8X5XcX5X5XkXkXxXzXzXlXjX7X4XjX7X4X4XkX4X7XjX7XkXlXxXlXkXxXMXMXNXMXcXcXkXlX8X7XjXkXlXlXzXkX7XkX7XkXlXxXkXkX:XkXkXzXiX:X>X7XlXxXlXxXxXzXlXkXlXkXkXkXkXkXkXlXcXBXkXjXxXxXxXOX6XOX}.n.[ 0 * d d r K e.&.g g g &.e.l iXIXPXKXBX,Xe.<XiXIX+Xg &.e.O.d = = = + + + * 0 a f J / X.:.$.d.k.:.+.o.V  .n 3 5 & 3 w x W /.i./.u.qXqXwXqXeXeXeXeXtXeX(._.E ! ..>.$.S.F.E.D.{.E.R. X4X}.Q.&XE.E.=XV.E.=X X:X&X:X:X=X&X&X=X8X=X&X X&X3X*X:X&X=X=X*X8X%X1X2X=X;X$X3X1X3X*X X X X&X X{.7XzX*X&X X1X3X0X8XMX8X2X X X*X&X&X1X~.1X%X~.~.^.^.T.J.J.I.[.I.U.v.X.d = % % % % > > > > % > > > > > > % % % % > > > > > < > < > < < * * > > > > > > > > > > > > > > > > > > > > < > > > > % > > % > > > > > > > > 2 > > > > > > > > > ; > ; 1 1 ; , ; > ; , , > > , , , , > > # , > > > > > , , > > 2 > 2 , > > , , > > # : > # : : , , , > : ; ; > < > ; ; ; ; ; : # : # : ; : : , 5 4 6 i B { u.t.=.t.u.u.u.u.u.u.u.i._._._.p.s.a./.u.0.c 1 # ; v 8.B M v v z y 8 t t 6 u 6 H  .=.m.U.U.|.|.oX|.6XUX.XOXOX2X2X6X&X:X>X>X:X>X.X;X;X;X>X.X;X2X4X2X6X*XUX5X2X6X4XUX5XUX5X5XUX~.2X5XkXkXjX4X>X>X>X;XUXXX|.I.I.~.|.~.K.I.I.~.~.I.I.I.I.P.P.U.I.I.P.}.I.K.v.l.l.f.K.I.[.F.].].E.U.[.|.I.I.I.v.l.S.D.R.K.].I.P.I.I.I.I.F.k.h.$.k.j.j.c.S.F.m.S.S.S.S.F.F.P.S.S.S.D.@XF.@X[.].].k.F.].@X[.@X].@X].].].].@XF.F.m.F.m.m.m.c.m.x.m.x.n.S.k...g.k.P.}.OX].n.x.| f.K.n.c.n.x.h.-.( _ J ( _ X.! ( _  .x.x.x.m.'.m.m.).).m.).M.).M.g.} [ ] ! G ",
"R.P.D.L.N.2.2.D.B.4.@.5.3.3.@.5.5.5.5.5.6.Z.Z.Z.N.J.Z.W.H.Z.J.b.J.b.4.b.J.Y.Y.T.S.J.b.J.E.I.I.~.~.~.~.~.XXXXoX*XoXXX%X X X%X~.XX~.1XUX1X5XMXMXcX5XcXcX5X5X2XUX1X4X:X;X2X4X4X;X1X*X;X9X2X4X8X0X3X:X8X4X8X8X5X5X5XkX4X6X2X5X4X4X;X;X>X;X>X:X>X>X:X5X5XcX4X5XzX5X5XlXkX8XlXxXxXMXMXkXkX4X8X8X4X8X7X7X4XkXkXkXcXMXxXzXlXxXVXxXxXxXzXlX7XkX8XlXlXlXlXkXlXzXlX5XkX8XzXlXjX7XkXkXXX2X4XcXNXzXzXNXzXkXlXkXkXlXkXlXlXxXzXmXNXxXxXVXxXMXxX>XjXOXOXOXm.^ * = * 0 g g *.*.g *.g *.g <XNXPXBX&.,X,X*.&.BXBX<Xe.d * = = + = + & 0 r a f Z / _ :.k.x.x.m.k.d. .( D 0.n & # 3 4 t m 9.t.7.N t.pXaX_.s.hXhXs.s.eXa.a.p.L / =.=.x.K.K.I.K.|.&X{.&X{.}.}.[.[.$X&X{.1XXXXX1X2X3X2X~.2X!.1X1X3X1X8X0X0X0X3X X*X1X*X9X4X8X1X9X9X3X8X5X1X1X1X1X~.1X1X8XMXMXMX*X3X3X4X9XNXzX9X9X=X:X*X9X9X0X9X=X9X9X:X:X=X>X[.}.[.].].C.j.P 0 % % & , > , < * > > > % * * > > > > > > > % < > < < > < < > < > < > > < > > > > > > > > 2 > > > > 2 > > > > < 2 > > 2 > 2 > 2 > > 2 2 2 > > 2 2 > 2 > 2 > 2 > > 2 > > > > ; , , , 1 ; > 1 , , , , , , & , , , , > > , > , < > 2 > > > 2 > 2 > 2 > 2 2 2 > 1 , 1 1 , , > , 1 2 2 > > ; ; ; ; ; 1 > ; ; ; > : 5 4 7 u v D 9.=.t._._._._.i.(.p.p.(./.(.i.a.qX_.`.`./.c 5 # , v 9.U B M v z z y 8 t 6 t 2 ! | d.F.].U.oX}.}.oXoXUXUXUXUXXXUX5XUX5X6X6X;X,X6X4X;X}.>X:X>X>X4X2X8X4X4X;X2X6XkXoXUX~.UXUXUX1XUX5X2X6X5X5XjX;X>XjX4X6X;X>X>X4X;X4X8X6X>X.XoXI.[.}.XXoXoX|.}.E.}.|.}.oX[.}.2X|.XXoX.X[.[.[.[.I.[.oXoX.XoXoXoX.XoX.X|.[.P.P.D.P.D.F.P.].[.[.P.I.U.c.x.S.k.S.S.F.S.V.S.D.D.S.S.V.S.F.F.P.F.F.S.V.S.F.S.V.m.m.G.S.F.n.m.n.x.x.x.:.:.h.l.f.x.h.f.,.:.k.b.I.|.oX].~.].U.n.x.l.x.x.l.l.x.:._ _ ( _ | | :.=.m.m.=.=.=.M.b.u.n.].'.U.U.'.m.).F.).M.g.d.d.r.",
"L.R.{.Y.Y.V.3.3.4.3.@.%.6.J.3.3.3.6.2.3.6.D.Z.Z.Z.B.V.J.Y.R.T.~.~.J.J.J.B.K.!.J.J.L.~.I.L.T. X|.XXXXXX~.I.*X*X*X~.XXXX2XXXXXXX1X1X5X5XzXkXVXcXcXcXMXMX0X8XcX8X5XkXkXkX7X8XkX3X4X3X&X8X4X*X8XkX8X8X4X8X8X5XkXcX8X5X5X4X3X5XkX4X6X>X{.:X>X7X7XkXzX8XzX8XcX8X5XcX8X8XcXkXcXxXcXcXcXzXlXkXlXlXcX8XxXxXkXlXcXkXMXVXVXxXlXkXMXNXNXNXNXMXkXzXzXkXMXlXxXzXzXxXcXlXlX5XcXMXMXkX>XkX6X>X4X4XMXNXNXMXNXBXNXxXzXxXMXBXxXxXMXMXMXNXNXNXlXlXnXjX}.OXOXOXOXm.E d * < e g g g g *.g g *.<XPXPXiX*.<X<X*.e.PXmX%.j * = = = = = 0 a n V G J _ >.k.U.n.S.}.}.U.m.k.f.` F M.A 5 & 5 4 y N t.r.B _.dXpXB N s.pXwX`.tXeXtXwX'.! / =.1.K.oX~.XX,X:X6X>X:X&X7XMXkXkXkX>X*X5X5XcXzXMX8X8X8X8X5X0X0XzXzXzXMXNXMXMXMXzX8XxX1X4X8X8X8X0XzX9XzX8X4X0X8X8X8XxX0XxX8XMX0X8XzX0XMX0X0XzX8X8X8X0X0X9X9X4X9X:X8X:X:X:X=X$X&XR.[.}.[.$.J * , % < > , % > % % > > > > > * > > > > < < > < < < < 2 < 2 d < 2 < > < 2 < 2 2 < < > > > 2 > 2 > > > > > > > > > 2 > > < > 2 2 > 2 > > 2 > 2 > 2 > > > > > > > < > 2 > 2 , > 1 > 1 > > 1 & , , : & , , , , , , , , , , , 2 2 > 2 2 2 > 2 2 > > > > > > 2 , 1 , , , 1 1 > 1 6 2 > ; ; > > , , ; > > > 1 1 1 5 5 4 t z m M B B { t.u._././.).(._.(.qXa.eXqXwX_./.i.M 4 # & z 8.U v v z v z b y 6 6 t 6 X.d.k.F.].].].}.].}.~.oXoXoXoXoXXXXX1XXX*XXX}.&X>X;X;X>X&X&XoX{.&X}.{.}.}.[.[.[.|.].].I.I.~.|.oX|.oXE.I.[.[.}.P.[.[.}.[.E.[.[.oXoXoX}.|.[.I.I.L.P.P.U.I.P.I.P.P.P.E.P.S.K.P.K.P.P.].[.P.U.U.F.P.I.P.P.F.D.P.D.S.P.]..X}.P.P.].F.S.S.P.P.P.I.P.E.F.k.S.z.V.S.F.P.@XS.c.].F.F.F.F.].P.S.S.V.l.m.V.m.m.S.c.V.S.].@Xn.x.m.n.n.v.l.n.x.f.x.x.f.f.f.k.k.n.n.'.n.m.x.4.u.f.f.x.f.=.=.=.=.=.:.l.>.x.x.d.k.g.m.m.M.x.=.=.,.M.x.f.=.x.u.x.=.r.r.g.=. .| r. ...",
"Z.D.D.D.G.N.2.N.4.z.b.J.Y.R.V.v.3.V.N.N.N.B.Y.L.Z.V.Y.T.Y.T.L.L.L.E.L.L.H.I.I.~.I.oX~.oXoXoXXX X|.2X5X.XXX*X4X1X2X2X2X5X1XUX8X5X5X5XcXcXcXMXVXcX5X5XcXcXcXMXzX5X7XlXMXxXxXxX2X8XkXzXzX4X4X8XzXxXzX8X8XkX5XzXcXzXzXzXxXxXxXxXzXkX4X4XkXkXkX7XlXkXzXcXxX5X5XcXcXcXxXcXcXlXzXkXkXlXcX8X8XcXxXxX8XlXxXlXMXMXxXlXxXcX7XlXlXxXcXzXkXlXkXkXlXlX7XlX8XkXzXkXkX4XkX8X5XcXkXkXkXkXMXkX5XK.>XxXxXzXlXlXlX8X7XlX7XxX8XkXlXMXnXMXmXlXxXlXNXNX>XkXcXnXnXnXjX].o., , d y g *.g g *.g g &.BXPX<X*.<X<X*.<XPX,Xd * @ - = = % 0 a h Z / ^  .f.k.n.U.|.[.}.].[.].].F.k.) ^ ] 3 2 5 3 7 w M Q t.HXGXHXQ U fXSXfXhXhXhXSXSXfX=.=.~ =.m.].oXUX;XjX7XjXlXzXlXMXBXlXzXzXcXxXMXMXMXMXxX3XxX0XxXMXNXMXzX0XMXMXzXMXMX0X8X0X8XMXzXzXMXMXxXMXxXzXzXxXzXzX0XMX9X8XMX8X0XzX0XzXzX0X8X8X4X0X9X7X0X:XiX:X=X>XkX:X:X:XE.}.F.@X{.P.[.n.>.a , , > < , , , , > < 2 > < , > > < < > 2 > 2 > < 2 < < 2 < < 2 < 2 2 > 2 > > > > > > > > > < < > > 2 > > 2 2 2 > 2 > 2 < 2 2 2 2 < 2 2 2 2 2 2 2 2 2 2 2 < 2 > > > 2 2 > 1 > > 1 > , ; , : & , & : , , , , , , , , , , , > 2 2 2 2 > 2 > > > 2 > 1 > > 1 > > 1 > , 1 , 1 , 6 6 , ; ; > > > , ; ; > 1 1 ; : , , 5 u u z z N N N N U 9.i./././.a.t.7.(.eXqXi.8.w.w.Q m : : y T B M c b z y y y y y t 6 ^ g.m.m.F.@XF.].[.].~.UXoX].XX~.~.oXXXoXoXoX&X&X;X&X&X}.}.{.}.[.[..X.X&X}.P.].|.|.].I.U.I.U.P.~.].oX}.;X}.oX}.F.].].P.F.S.F.F.L.P.].[.P.L.I.I.P.P.P.L.K.c.c.n.S.L.F.S.S.n.F.n.S.S.S.F.L.K.C.L.F.S.v.F.U.S.c.S.m.F.F.S.R.}.P.D.c.c.c.c.D.P.F.c.m.h.z.l.j.S.S.F.I.@Xl.m.c.F.F.F.F.[.S.F.c.f.].@XF.V.c.d.k.S.S.F.F.].].U.U.K.m.v.U.U.U.F.F.P.F.n.F.K.'.'.K.b.v.u.=.=.x.x.x.1.f.1.f.x.=.f.x.l.x.x.x.n.x.m.n.u.x.=.x.u.=.=.=.r.r.=.=.=.r.9. . .^ ..[ / G ",
"[.}.}.>XjX&X{.{.}.I.|.UX&X&X5X2XE.4X6X[.L.R.&XL.~.~.oXP.oX2X XXXXXXX1X2X5X4XXX4X2X8XkX8XcXzXjXkXkXcXcXcXcXxXxXxXcXxXxXxX5X8XNXnXnXxXMXVXMXMXxXMX5XMXcXMXNXMXcX2X;X2XxXxXMXxXMXzXzXzXzX8X8X4XxXkXkXkX8XzXlXzXNXzXxX8XkXkXkXkX8X5X4X8XkXkXkX4X4X>X6X8X8X3X8X5X2X4X5X4X2X2X7XkXkX8XkX8XkX5X8XlXkX8XlX8XlX8X8XzXkXkXkXjX7X7X4XkX4X8XkXkX>XkX7XkX8X5XjX&XkXkX4XlX5X5X:XkX:X[.xXzXzXNXMXkXMXlXxXlXMXkXlXlXMXlXxXMXxXNXMXMXnXzXxXmXxXMXlXMXNXVXVXnXmXjXF.^ * 2 y g g g *.g *.*.g <XBXIXiX<X&.*.BXBXq 0 s e = - % 0 y O.Z I =.:.k.z.S.I.oXXXoX}.}.I.[.[.].x.x.` r.L , , 3 5 p i D u.HXHXLXpX=.fXHXHXSXHXSXHXfXSX_.F H / ,.f.n.K.}.&X=X;X,XkX7XkXMXzX>X&X4XzX8XcXNXcX5X5XxX8XzXMX0X0X8X8X8X9X1X4X8X0XlX0XzX0X8X0XzX0X8X0X0X0X9X%X%X2X1X1X=X&X:X&X8X2X*X*X%X3X3X X X&X XW.*X X#X#X&X$X:X:XoX,X].E.R.E.S.F.c.c.-.! d % < , , < < , < , * > > , * * * > > > > > < > > < < 2 < < < < < < < < > * > > > > > > > > 2 < 2 > > 2 > 2 > 2 > 2 > > > 2 > 2 2 > > 2 > > > > 2 > > > > > > > > > > > ; , ; ; ; , 1 ; : , : & , , , , > , < , , , , > 2 2 < > > 2 2 2 2 2 2 2 2 > 1 2 , 1 1 1 2 > > 1 2 6 y 2 > ; > ; > ; ; ; ; ; ; ; : ; : 5 5 7 7 u 9 u m m m A W 9.t.i.i.t.8.7.qXtXi.w.q.t.0.U : 5 u T B M v z b y 8 y 8 8 6 4 ! g.k.m.F.F.K.[.I.].].oXoXUXUXI.UXoXoXI.oXoX}.[.}.{.[.&X}.[.;X{..X}.oXoX[.P.I.|.|.[.K.I.K.U.P.K.I.|.|.}.}.oXF.S.S.S.L.S.C.S.S.c.z.S.S.C.F.S.S.F.U.U.I.F.F.c.c.c.K.P.S.C.v.z.c.z.h.C.c.S.c.F.n.L.F.C.c.E.F.S.S.C.D.c.c.S.].P.C.c.j.c.k.z.C.c.V.c.z.z.c.m.x.S.S.F.F.c.x.c.c.S.S.S.D.F.k.V.k.c.V.x.c.>.z.k.h.c.m.S.S.m.v.n.x.n.m.m.n.x.n.n.].F.U.v.K.U.U.1.u.b.n.J.f.1.x.x.m.x.x.m.b.x.d.f.f.f.x.x.M.x.m.n.1.=.=.=.=.b.M.x.,.=.=.=.=.=.......[ ) ! / ! ",
"nXVXnXNXnXnXIXIXFXVXFXVXnXnXDXnXOXNXVX2XjXcX5X2XkXkXcX2XcXkXcXnXnXVXVXxXkXNXcXxXnXMXnXNXNXVXNXnXnXxXxXnXNXVXPXVXVXNXVXVXVXNXNXNXMXnXMXxXMXxXNXMXUXzXcXMXMXxXzXzXzXlXlXzXlX8XkX4XzX0XMXMXxXNXVXMXMXxXMXNXxXxXxXxXcXxXzX8X0XlX4X7X8XlXlXxXxX7X4X4X8X8XkX5X4X4X7XjX5X5X6XkXkXlXkXlX9X4X8X8X8XzX8X8X8X8X8XkXkX8X2X8XkX8XkX8X8X7X4X5X:X7XkX7X8X4XzX8X:X:XD.kX0XxXzX8XlXBXxXcXMXxXzX0X7X8XzXMXMXzX7XlXkXzXxXMXMXMXMXNXNXxXxXxXlXlXkXkXlXNXBXxXMXxXjX>X].m.D = * d g g g g &.<Xg <X,XBXiX,X&.<XBXo.= d * = = < s O.V o.) -.l.v.m.].U.U.x.x.=.U.OX|.oX[.[.S.c.:._ X.A 3 5 5 9 h N =._.pXfXGXu.HXHXHXhXtXs.eXeXgXtX_.E H ~ =.>.P.I.oX}.&X.XoX&X&X}.&X&X&X8X5X8XkX5X5X9X1X0X1X5X0X9X1X=X1X1X9X=X%X=X=X:X0X1X%X*X=X=X3X1X1X%XXX1X%XoX1XXX~.{.=X=X&X&X=X&X&XXX~.:X=X#X&X#X{.!.E.T.{.R.[.[.{.[.[.D.P.[.P.S.D.v.c.f.=.V * % > > > > % > > % > % > > > , % , % > > > * > < > < 2 < < < > < < > > > > > > > > 2 2 > > > < > > 2 > > < < 2 > > 2 2 > > > > > 2 2 2 > > > > > > > > > ; ; > > > > ; ; > , , ; > ; # # & : : % : : > > > & : > , 1 > < 2 > 2 2 > 2 2 > 1 2 > 2 1 1 1 1 , > 1 > > > 2 t y 6 > > > ; ; ; ; ; ; ; + ; # # + 1 1 5 6 7 t p u u z m B N B 7.t.t.9.9.i.tXi.q.q.q.7.Q , : 8 T T M m z z y 8 6 8 6 6 a d.>.f.m.m.K.P.|.].].U.oXoXoXXXoXUXoX|.E.[.R.R.}.R.F.].[.$X{.].{.}..XXXXXXXI.U.].I.|.U.K.I.I.].|.L.U.}.|.].[.P.I.P.P.F.L.S.S.S.S.n.P.F.S.F.V.L.F.P.E.P.S.S.S.S.F.P.E.I.C.S.c.F.c.F.L.C.v.v.S.F.S.S.v.C.m.h.S.h.z.c.l.h.k.P.P.k.c.>.m.l.h.x.S.S.n.S.S.S.S.c.m.F.D.F.V.V.k.h.C.S.S.S.m.k.h.h.h.,.$.>.h.h.>.x.l.c.f.m.l.m.m.l.l.v.M.n.m.n.U.U.].'.U.U.n.'.'.v.b.K.x.u.=.x.x.m.x.x.x.=.<.,.f.=.g.g.x.f.M.f.x.x.x.M.g.r.g.d.x.=.r.=.=.=.W [ } ..^ G L J G ",
"DXVXDXnXAXVXDXVXnXVXVXnXVXVXPXPXnXPXAX5X2X;X2X>X4X2X4X|.XX2X3X3X3XkXcXnXxXVXkXnXNXcXcX5X8XlXcXlX5X2X2X2X4X3X6XkX5X2X5XcX5X5XcXcXcX0X0X5XcXxXcXMXMXcX5XcXcXcX5X5X2X8X8XlX5X1X8X8X8X3X0X4X3X3X8XxXkXzXxXxXxX4X2X8X2X5X8X3X8X4X;X:X2X7X3X7X:X=X4X.X{.&X XoX&X:X:X&X~.~. X5XxXcXxXPXPX5XXX1X8X8X2X7X2X5X=X2X4X4X4XkX7X2X8X4X&X&X4X*X&X:X7X=XoX X%X&X:X4XW.*X%X1X5X1X9X=X3X8X8X8X5X5X3X&X>X7X X&X{.{.{.;X:X>X:X>X6X4X4X&X:X>X8XzXcX;XxXlX5XxXxX8X.X}.@X].g.G * * d g g g ,XiX*.&.,X<XiXG.<XBX0.% % < * % % q f C J ..=.f.c.n.F.I.I.].U.U.I.XX|.[.}.E.R.S.c.k.#.Y Y 4 w w 9 z N t.pXhXsXHXt._.hX_.wXhXuXhXuXfXtXpX(.{ L ) =.f.S.U.oX.X|. X.X.X&X&X>X=X2X5X8XkX2X1X1X~.1X1X1X1X1X1X=X&X1X=X=X=X=X&X=X=X=X1X=X&X1X%X1X XXX%X%XXX XXX X X=X&X&X&X&X{.#XW. X%X{.{.{.E.{.#XE.T.E.W.#X{.R.[.R.L.E.R.D.P.R.D.P.v.n.>./ 0 % > , * , * * > * % > % % > , > % > % > % > > > 2 < 2 > 2 > 2 > > < 2 2 > 2 2 > > > > > > > > > > > > > > > > > 2 < 2 2 < > > 2 2 > > 1 > > > 1 > > > ; 1 > > > > > 1 > , ; , > , 1 , , , , & : , % > , , , , , , , > 2 2 2 2 > 2 2 > 2 > > 1 > 1 > > 1 2 > > 2 G 0 1 y c y , > # > ; ; ; ; ; ; ; ; : ; + ; 1 5 6 7 7 9 7 u i m m N N N W { Q 9.p.rX7.q.q.W 9.Q 5 : u U U M v z y 9 8 t 6 2 2 y } f.g.x.x.n.U.].].I.].].oX].].].~.|.[.}.}.[.].R.].[.].R.].].}.{.,X{.I.[.oX].U.P.I.I.U.I.K.K.K.~.I.K.L.}.[.}.].P.].P.S.P.S.c.C.F.c.c.c.c.L.P.oX|.P.P.P.F.S.S.S.S.S.S.c.n.C.K.S.S.I.S.F.S.S.S.z.S.U.K.C.c.k.h.c.x.S.S.h.z.P.F.j.c.j.V.c.z.h.h.c.C.F.c.S.S.V.S.F.@XF.S.c.k.k.V.V.h.k.j.h.h.h.h.%.$.$.f.h.>.h.k.h.>.k.m.x.x.b.M.x.b.n.U.U.n.U.F.F.].I.'.v.K.b.u.1.r.<.x.x.x.m.m.m.b.M.=.r.f.f.f.=.f.,.=.f.f.=.=.f.x.g.d.r.:.r.=.r.=.=.[ ) [ ^ ) ! o.R V ",
"2X2XXX X2XXX1X6X2X2X5XUX5XnXnXnXcXFXnXnX4X.X XE. X&X&XXX X1X2X X=X4X7X:XoXoX1XXX1XUX1XoX2X2X;X2X3XXX2X2X2XXX3X9XUX2X3X1XUX1X~.5X5X5X0X5X5XzXzX5XXXUX1X%X~.~.~.~.*X*X X X~.oXXX&X=X*X X*X X%X2X2X X XXX8X;X2X*XoX~.~.{. X&X&X>X{.W.W.E.&X;X{.W.E.E.{.{.W. X&X&X$XT.T.~.XX8X5XxXcX2X X X*X*X*X2X3X8X&XoXoX*X&X&X2X2X X X.X{.{.oX X{.:X=X{.~.~.~.!.~. XR.~.XX~.XX1X&X*X1X1X1X1X4X*X X%X&X;X[.&X{.&X&X|.;X&X;X4X2X7X2X&X*X4XkX3X=XOX6X4X5X4X>X&X>X&X}.OXF.g.K d d d g O.:XmX&.*.<X,X<X,XBXk.> > * % % % < r C ( #.m.x.b.K.n.].I.|.|.|.oX|.[.[.;X[.P.K.F.F.>. .! V y p p m =.t.eXeXhXwXfXN N T t.tXtXhXhXgXgXhXeXqXa.E L =.,.n.U.I.[.E..X|.&X{.&X=X>X&X2XkX3X9X2X9X X2X%X X X1X2X%X=X*X1X%X*X=X%X%X=X$X=X$X%X%X%X$X%X X1X X X!. X X!.&X&X$X#X=X&X&XW.E.E.W.#X&XW.$X}.E.{.Q.E.E.E.[.[.R.D.R.{.].P.{.L.v.c.c.c.-.H & : > * % , < % > % > > % > % > % > > > % % > > < < 2 2 < < 2 > > > > > > > > 2 2 > 2 > > > > > > > > 2 > > > 2 > > > > > 2 2 < > 2 > > > > > > > > > > ; > > > > > , , > > ; 1 , ; : & # & , & , , , , > , , ; > > 2 2 > > > > 2 > 2 > 2 > 1 1 > 2 1 > 2 > > 1 y 2 1 t z y , > + # + ; ; + # ; ; ; ; + ; ; 1 1 5 4 6 6 4 7 9 u u z m m N N Q t.(.`.8.q.q.W 7.Q 5 : t T T M N b u t t 2 6 2 4 < o.} f.n.m.U.U.].].I.~.oX].].oXoXoXUX|.E.I.[.[.R.@XD.R.@XY.R.{.R.}.].|.}.I.I.U.I.I.U.P.U.K.P.~.|.~.n.K.K.P.P.}.P.S.F.n.z.x.C.h.c.S.S.v.U.S.S.P..XoXP.K.S.F.S.S.U.S.F.S.S.S.S.P.F.F.c.v.S.S.P.c.F.S.U.F.c.S.F.z.l.z.P.S.h.F.L.m.k.l.C.c.c.z.c.F.S.S.S.F.S.V.F.S.F.S.c.k.c.h.c.c.c.h.x.j.z.$.$.f.>.$.>.>.$.>.z.h.f.f.x.M.b.m.f.f.m.n.x.m.x.m.F.n.U.n.n.b.M.n.x.x.m.x.r.M.m.'.K.n.M.<.=.:.,.l.=.=.f.,.=.:.=._ =.=.d.g.g.x.f.=.=.=.=.=.~ } X.} } / _ ( G ",
"~.~.Y.B.J.~.XXoXXXXXXXXXXX5XjXcXcXxXkXnX6X|..X&X XE. X~.T.XX XE..X&X{.&X%X*XXXXX2XoXXX1X&X|.E. X2X2XXX~.|.oXoX X1XXXoX1X~.~.~.~.XX1X1X1X*X5XUXXX%X2X%XXX1XXXoXoXXX!. X X~.XX%X XE.oX~.~.W. X!.~.~. X*X&X~.~.!.E. X%X&X=X=X X=XY.E.E.E.E.9X=XR.E.R.Q.L.Y.$X$X$X{.E.E.~.XX5X%XXX X%X%X%X XXX&X&X2X2X&XXXXX*X&X&X*X&X X&X X X X X1X&X{.E. X X1XXX1X~. XL. X%XXX~.*X&X XoX X1X1X1XXX X X;X$XE.{. X.X{..X.X;X|.4X4X2X&X>X;X8X4X2X;X.X;X6X5XXX>X&X>X&X;X&X}.].G.f = d d K F.,X,Xe.&.G.G.iX+XO.* * * = % * e C / >.h.c.x.v.P.K.I.I.I.|.I.I.[.|.}.I.[.I.P.S.v.>.| Y i t w p Q p.a.s._.hXqX'.9 B p.eXeXeXtXeXs.s.eXhXeXeXu.H ~ =.x.K.I.I.[. X&X.XE. X[.;X=X4X5X5X5X3X%X~.1X%X%X1X1X%X&X$X$X=X3X1X=X=X%X9X0X=X=X=X3XXX1XXX1X!. XXX X1XXX X[.&X$X&X:X:X$X{.W.{.{.{.{.{.Q.#XW.$XW.W.#XE.[.E.E.[.[.R.R.P.R.[.I.P.K.C.f._ s & % % * % % > > * * > > % < > % , > % > > > * > < > < > < > > > * > > > 2 > > > > > < > > > 2 > > < > > > > > > > > 2 2 > > > 2 > 1 > > > ; > > ; > : 1 ; > > > > ; 1 , 1 ; , > 1 , , # , : & # : & # , % , > , 1 2 > > 2 > 2 > 2 > 2 1 > > > > > > 1 > > 1 > > > 2 2 2 2 , > > > > ; ; ; ; ; # ; ; ; ; , 5 4 6 4 4 6 7 t 9 u u u z z m N T ] ).u.S W 9.7.9.T 5 5 z U M v z z u u y 6 2 2 4 2 V | >.m.K.K.n.U.].].].].|.~.|.oX|.oXoX[.{.].[.[.[.R.{.].[.{.{.}.}.&XI.oXI.oX~.I.].U.P.I.].U.U.U.U.K.S.n.F.I.F.P.P.F.F.c.h.h.S.c.S.P.c.h.c.v.S.F.P.S.P.E.S.C.S.v.K.S.n.S.S.c.S.L.S.S.c.c.n.L.S.S.v.S.C.S.z.z.c.S.m.c.n.z.F.L.V.l.l.c.c.c.m.l.c.l.c.S.S.S.V.S.S.V.m.S.c.c.h.j.l.c.h.j.h.$.h.h.>.f.>.,.>.h.>.>.h.k.z.x.x.b.f.,.x.x.x.b.x.U.n.n.F.'.U.F.m.m.x.x.m.m.n.b.m.U.U.U.n.x.x.u.f.=.=.=.=.=.=.=.=.:.=.=.=.=.=.d.=.g.=.=.] =.=.[ [ } ^ / J ^ / / ",
"L.Y.W.T.T.L.XX5XE.E.T.H. X;X4XjX6XcXnXnX>X X&X;X XQ.R. XE. X X XE.&X X&X*X2X X&X&X:X;X7X4X&X{.{.XXXXXX1XXX XXXXX~.~.~.~.%XXX%X~.~.XX1X2X1X1X1X~.~.XXXX~.~.~.~.XX X~.~.~.~.~.~.T..X XE.T.E.Y.!.$XE.!. X!.Q.{.W.$X#X#X!.$XW.Y.Q.Y.Y.Z.Y.T.W.{.E.Q.R.#XE.W.Q.E.{.[.E.Q. X2XkXXX~.%X XQ.XX%X&X X;XoX X&X X[..X|.E.|..XE.E.!.!.~. X~. XW.~.W.E.{. X X X XH.~.~.~. X X2X~. X X*X X*X XoX~. X XE.{..X&X1X2XXXXX;X4X8X2X2X1X3X4X5X1X3XUX>X2X4XkX6X6X2X&XXX&XoX[.[.k.( r d O.k.}.yXG.g G.yX+Xo.* = * % * * 0 O.o.=.v.b.v.v.K.K.K.I.[.|.I.E.I.E.E.[.I.I.I.S.n.z.>._ A 3 q i M 9.a.(.s.(.eXwXu.N t.wXhXeXeXs.eXeXeXeXeXeXuXt.S ! ` m.c.F.E.[. X.XE.{.&X[.:X;X2X:X4X4X1X1XE.1X~.~. X X X1X~.%X&X$X%X1X=X=X=X1X*X1X=X1X1X1X1X1X X~.%X XXX X=X~.*XW.*X=X&X X{.[.[.:X[.&X=X&X#X$X#X$X#X=X{.E.[.E.{.{.[.R.[.R.F.P.R.@XS.C.g.X.V , % , % * > , * < > > > , % % > % > > > > > > > % > < > > > > % * > % > > > > > > > > > 2 > > 2 > > > % > > , , > > > > > 2 2 > 2 > > > ; > ; > ; ; : > : ; ; > 1 1 > > > 1 > ; & : , , , , , & > > > > > > 1 , 1 1 > 1 1 > 1 > > 2 > 2 > > > 1 1 > > 1 > 1 2 1 1 1 > 1 ; > ; ; ; ; ; ; ; ; ; ; # # : > 4 6 7 7 4 4 4 7 7 9 u i u z z 9 m Q 9.t.v M W q.7.U 7 1 b U M v n z u u 6 t 4 6 q 0 a ( k.U.x.v.K.K.U.U.].|.].oX].].oXoX[.[.P.{.R.}.R.[.}.[.&XE..X}.}.[.oXoX}.[.E.[.I.I.I.I.K.K.K.n.n.U.S.P.P.S.F.oX.XP.z.z.z.z.S.x.S.S.S.c.S.c.S.m.S.S.v.K.v.S.n.S.v.U.S.S.K.U.P.L.U.S.v.S.v.c.v.S.S.v.c.S.v.c.K.U.K.K.c.S.L.P.l.h.z.z.l.h.j.h.x.h.c.x.k.h.j.f.h.c.c.x.S.h.h.f.h.,.,.,.f.>.>.,.#.,.,.x.>.f.>.j.f.l.m.x.x.x.l.b.m.M.x.=.b.K.n.m.u.x.n.U.m.m.m.'.4.m.'.b.b.'.~.U.b.M.4.b.x.d.=.:.:.d.=.>.d.d.=.=.| ..r.:.=.=.=.=. ... .....} } / ! J ! J ",
"~.Y.P.W. X|.5XxX&X*X&XY.R.OXUX>XoXjXcX5X.X.XW.E.>X4X&X X~. XE. XoX X X.X&XXX X|.&X}.{.{.4X&X[.&X*XoX~.~.1X1X2X~.%XXX~. X~.~.~.~.~.~.~.%X1X1X%X~.~.oX%XXX~.~.~.~. X1X~.~.~.~.^.oX*XW.P.R.R.J.Z.W.T.Q.W.%X{.E.W.E.W.W.W.T.R.Q.W.{.E.Y.E.T.R.#X$X#XW.{.#XR.{.W.$X#X X X.X5XzX2X X~.%XT.!. X X X X|.|.|.|. X|.E.&X&X X X XT.~.!.Q. X X X X XE.&X~.!.%X*X~.K.~.~. XXX1X~. X~.XX3X*X X XXXXX&XE. X{..XXXXX2X*X.X2X9X2X2X4X4X4XUX2X2X2X;X;X5X2X;X2X4X8X2X;X;XOX.X].F.#.f f G m.}.yX@XyX@Xr.0 > * * = * 0 O.! =.x.n.U.K.I.K.K.I.~.|.oX|.oX|.XXR.P.|.I.[.S.c.l.| _ h q t a A 9.qX_.qXeXeX_.wXQ Q wXhXgXhXeXt.i.hXhXhXhXhX9.m ! ..f.S.D.F.L.E.|. X.X&X{.=X:XjX;X4X2X%X1X X%X XQ.~.1X X%X1X%X%X$X%X=X=X9X=X=X9X=X1X1X%X X X~.1XP.%X&X X X*XXX*X=X&X&XW.$X$X#X#X=XE.#X&X{.$X&X{.{.Q.&X X&X{.[.E.&X{.{.[.E.@X].D.Y.C.c.z.>.$.J e % > d % % % % > % > , , % , > , % % % , > > < > > < > % > % > > > > * > > > > > > > > > > > > > > > > > > , 2 > 2 < > > > 2 > > > > ; ; ; ; ; ; > > > > > > 1 > 1 > ; 1 , , , # % : # , # # ; ; > > : , > , > > 1 > > > > 1 > > > 1 > 1 > > > 1 1 > > > 1 1 1 1 1 1 ; ; ; ; ; ; ; ; + ; ; ; : # : 1 i u y 7 7 7 6 6 5 7 9 t 9 u z u i z M M t 7 M w.9.U y 5 9 U Q S M z u i y t 2 w 4 2 s / f.S.].n.U.U.U.].|.].|.].].~.oX].[.].R.@X].R.F.[.].F.R.].[.|.P.[.&X;X[.[.}.|.U.I.K.I.U.n.S.K.K.I.P.P.F.S.F.P.U.K.S.S.F.l.c.S.C.c.C.n.S.z.j.h.n.S.K.S.n.S.S.v.K.v.S.S.K.S.S.K.K.c.l.v.h.c.K.P.v.v.v.c.S.c.K.K.S.I.S.C.F.P.l.h.h.k.x.c.,.,.k.z.c.c.f.>.f.h.$.z.$.f.f.>.;.>.,.>.$.>.#.#.>.>.#.f.>.z.h.j.>.h.z.k.m.k.x.m.m.m.n.v.m.x.x.M.m.U.J.J.'.J.n.n.n.v.m.m.m.m.n.I.'.K.m.b.u.x.=.=.,.=.:.| | =.f..._ | } ..=.:.r.:.=.=./ ^ ....^ R X.} / J G J ",
"*X;X X&XXX2X2X5XOX4X>X5XkX6XjX6XUXcXnXcX X&X2XXX;X;X4X*XXXR.2X*X4X2X&X;X&X=X=XoXE.&X{.&X&X&X&X.XXX=XoXXX~.*XoX~.2X1X1XXX~.~. X~.J.~.~.XXXX~.~.~.T.I.~.3XXX~.oX~. X~.E.I.XXT.C.I.R.R.R.R.L.W.Y.T.T.Y.^.{.#X#XW.#XT.T.Q.W.W.W.Q.R.W.Y.W.Q.Y.Q.E.T.{.,X[.Q.R.W.{.$X%X4X X8X8X2X%X!. X%X~. X X~. X X X X=X&X X$X X3X9X X~.J.!.E.&X{.E. XE.E.R.W.XX!. X~. XW.~.!.%X1X X~.~.~. X X=X&XH.&X X&X{.{.&X&XXX X2X1X*X&X5X2X4X1XUX3X1X1X5X5X2X;X*X2X4X;X;X8X2X3X6X;X>X X}.F.m.J s X.@X}.+X).M.n * * * * * e C / $.k.n.K.K.P.U.].~.~.~.~.oX~. X XoX|.|.E.I.P.v.S.v.:.! V q t i D w.qXi.s.wXeXwXpXwXt.wXhXeXp.7.7.t._.hXhXeXhX_.E G ^ $.h.c.K.P.[.oX[.{..X.X4X=X;X2X2X&X1X%X XXX!.~.1X1X1X!.!.1X!.1X$X*X=X*X1X=X*X1X1X X X~. X%X%XXXXX%X X%X X X1X*X X{.&X$X&X&X,X$X,X{.$X{.#X$XE.W.{.$X{.&X{.{..X$X.X].].[.[.E.E.P.V.S.V.j.>.#.X.j G / w = = & , > % * > % % & & % # = % % X.O.+ % > > > % > > > > > > > > > > > > > 2 > > > > + ; % ; > > > > 2 2 > > 2 1 > 2 > > > ; ; + ; > ; ; > : ; > > 1 > > > > , ; , , % > % , # : , ; ; ; ; ; : > , 1 > 1 > > > 1 > > 2 > > > > > 1 > ; 1 1 1 1 2 > > > > > > > ; ; ; ; ; ; ; ; ; ; : : 5 9 A S N m i 9 9 5 4 8 8 7 9 y 7 9 9 u t t 5 n S W 9.U y 5 v T Q U v z u t 6 6 2 t q 2 r ` d.c.n.U.U.U.].|.|.U.oXoXI.U.~.|.].{.].{.{.D.D.F.$X}.}.E.R.].|.|.oX}.{.4XUXoXI.I.U.U.n.n.b.v.n.U.I.F.].P.P.F.].S.n.c.n.c.n.v.c.h.z.S.n.c.c.n.c.S.K.c.v.v.v.S.v.K.c.C.v.S.K.v.c.v.v.n.v.c.c.c.c.v.v.v.v.c.S.K.K.n.z.S.n.K.h.f.f.h.1.l.v.l.j.C.h.h.1.>.1.1.h.3.#.h.,.>.>.:.$.+.$.$.#.,.#.$.$.$.` >.f.j.h.f.k.k.f.h.x.m.b.m.n.m.m.x.u.K.m.n.U.'.b.p.u.U.n.n.n.v.M.K.U.'.K.n.m.K.m.x.=.=.d.:. .| =.=.=.| =.=._  .} ..} =.[ _ ! } ..| ! P ^ P J G C G ",
"oX6XOXXXOX2XoXUXoX}.2X4XoX>X6X6X5XxXnXxX.X2X>X;X7X4X4X:X4X*X*XXXE.2X X XE.P.[.;X&X&X&X{..X&X&X&X4X*XXX1X2X~.~.1X~.~.~.~. X~.~. XXX~.~.~.~.oX~.~.T.~.~.XX~.~.~.~.~.~.T.T.~.1X~.~.W.W.T.Q.H.T.W.T.Q.$XT.Y.R.Q.Y.{.W.T.$XE.{.Q.E.#X$XT.&X$XR.Q.W.W.~.#XR.$X-X%X=X=X1X X2X8X8X1X~.!.~.%X%X%XW. X&X=X&X=X%X X X X$X&X X X!.~.Q.Y.E.E.W.E.$X&X*X~.!.E.H.R.!.&X XXX1X2X~.oXXX~. X%X&X&X|.*X=X*X$X$XE.&X XoX1X*X XXXXXXX2X2X*XXX1X%X1X5X:X2X*X2X*X2XXX2X;X2X&XXX.X.X.X}.@XF.Y f o.k.0.g.O.s a r d 0 a Z $.f.S.F.n.K.U.I.~.~.oX~.oXoX~.~. XoXE. XE.P.P.K.P.C.v.>.( G 2 q i N T q.t.qXeXpX_.hXSXp.p.s.p.t.t.t.qX_.uXeXeXeX(.9.D / #.h.L.F.P.P. XE.[.{..X&X:X;X.XoX&X X1XoX~.~.~.1X!.%X~.1X!.1X!. X$X=X=X*X=X!.1X X X|.XX1XoX~. X1X*X*X*XXXXX X!.~. X&XW.&X X X#X&X$X&XE.W.$X$XW.Q.{.{.oX{..X{..X X&XR.E.$X@XS.[.].D.S.j.f.>.$.=.=.X.Z e Z e , % & % % & % & & % 1 y a > a + % % % > > > > > > > > % > > > > > > > % > > 2 > > ; ; ; > > 1 > 2 > > 1 > > 1 > > > > ; ; > ; ; ; > : > > 1 > > 1 > 1 , ; 1 , , : , : , , > : 1 > > > > , , , 1 > > > 1 > > > > > > > > > > > > 1 > ; > > > 1 1 > > 1 ; ; ; ; + ; ; ; ; ; ; ; # : 5 z U W W E N m i 9 7 7 8 y 7 7 7 9 u u t 7 8 Y 9.] ] U y 1 z U Q M c z u t t q 6 q 4 q a _ -.d.n.U.P.].U.I.|.].oX].|.].I.|.@X&X&X[.[.F.S.D.R.].C.F.R.[.|.[.}..XD.>XoXI.].[.K.U.L.I.K.K.I.J.c.S.P.S.L.F.U.c.z.c.z.x.v.S.I.z.h.h.l.v.S.c.v.L.S.c.z.K.K.C.K.v.c.c.c.c.z.l.l.x.c.v.v.K.K.K.v.S.v.v.S.K.S.S.v.b.c.n.v.K.z.2.>.h.l.x.v.v.v.c.z.,.,.$.>.>.$.$.#.$.h.h.<.-.;.$.+.+.@.( ' 3.#.>.+.#.$.1.j.c.j.h.k.h.x.b.M.b.v.m.m.x.n.v.b.'.U.b.n.K.v.n.m.M.M.=.'.b.U.b.'.'.p.4.u.b.g.,.[ :.:.=.:.=.=.=.| | _ | } _ =.=._ ^ / ( ! ^ G G G L G C V C ",
"oXOXOXXXXX6XkXcXkXOX6XkXkXjXUX6XUXxXNXcXoX2X;X;X>X4X>X*X4X2X&X*X|.XX*X|.oXXX[.XX>X=X&X&X{.&X#X>X X|. X{.~.I.~.I.~.~.~.~.1X~.~.L.I.J.I.L.~.~.%X%X~.~.T.J.oX~.~.~.~.I.T.XX%X1X~.I.Y.D.R.Y.L.#X#XY.R.W.4X#X#X#XQ.R.%XZ.B.D.E.W.:XzX8X-X$X{.Q.,XR.Y.W. XE.W.#X=XE.T.%X!. X8XcX1X!.Q.!.Q.1X#X!.!.&X%X=X&XW.&X$XW.!.$X X!.R.E.T.T.W.W.W.W.#XE.%X&XE.Q.T.E.W.W.1X1X2X1X1XXX~.%X*X&X:X%XW.&X&X&X&X#X{.&X~.oX%X1X2X~.~.%XXX3X1X5X1XXX1X%X1X1X1X1X3XXX*X*X XXXXX2X>X7X:X>X;X}.F.X.f V ..w.S V V _ J Z / >.k.S.U.P.U.n.I.P.].~.oX~.I.XXoX~. XE. X X X|.R.P.E.Z.v.>.#.P r t a m n D E r._.fX_.fXHXwXW W Q t.qXeXuXuXeXeXqXa.p.Q V Y | l.F.F.I.P.|.|.E.[.{.;X2X2X2X2X X%X%XXXE.T.!.1X!. X X!.!.%X X X%X!. XXX*X&X=X XoX~.*X6XXXoX~.1XXX X X~.XX%XXX X X&X&X XE.W.W.E.{.{.$X&X[.$X{.{.$X{.{.[..X.XE.|.{.R.E.[.{.[.R.D.P.c.j.S.h.f.g.>.d.$.| X.Z 0 & & % & & % % & M N T o.2 % % = + % > > % > > > > > > > > > > > > > > , , > > > > > > , 1 , 2 > > 2 > > 1 > > > > > ; ; ; ; ; > ; > ; ; > > > 1 , ; , ; ; ; ; , , > # : > : ; > ; > 1 ; > 1 > > , , > 1 : > > > > 1 1 > > > > 1 ; 1 > 1 > > > 1 > ; ; + ; ; ; ; ; ; ; ; ; ; : : 5 m E W w.q.u.W U u u 6 6 8 u t t 6 t 6 7 6 6 M T Y Y S t 4 b M B T N z c y y 6 t 6 4 4 a ' =.f.m.U.U.|.].oXoX].oX|.|.].I.oX{.[.R.[.}.R.G.}.[.[.F.@XK.|.].I.P.P.[.I.I.~.P.K.K.K.U.~.v.K.|.v.j.S.I.}.K.v.c.v.v.l.l.l.S.K.S.v.S.v.S.c.K.v.b.m.S.U.C.U.K.l.x.v.v.x.b.n.v.h.z.l.v.l.v.K.v.K.n.K.S.K.K.v.v.v.v.v.v.l.v.n.h.j.l.l.x.v.b.v.v.l.l.l.>.-.;.>.$.1.1.3.l.<.>.-.#.#.#.+.' #.' ` $.3.( +.>.;.1.k.h.k.h.k.x.M.b.K.n.m.b.'.m.n.'.v.'.b.U.'.U.K.J.u.x.<.n.n.'.K.'.U.n.M.m.m.k.r.f.f.=.:.=.:.| | | | } | / _ | P P P P P P ! G G P J G G Z G ",
"kXnXXXXXOXUXOXjXkXcX5XjX6XkXOX6XcXjXnXcXoX X&XXX&X4X2XE.|.=X2XoX3XE..X XE.E. X|.R.}.{.&X&X&X}.&X X X[.{.~.~.~.~.*XT.XX~.~.~.I.~.~.J.I.~.~.~.~.UX~.~.~.~.~.L.~.~.~.~.~.~.~.%X0X1XW.R.E.W.R.$XH.E.Q.$X-X{.W.{.W.$XW.T.$X$XW.Y.-X:X:X#XQ.E.W.E.Q.$X XW.{.W.#X%X=XW.!.E.~.8XkX~.Q.~.!.$X1X!.!.~.W.$X$X%X%X$X$XE.&XW.W.W.Z.R.D.T.{.#XE.{.W.$X$X X XT.R.~.W.%X1X9X8X1XoX1XXXXX X&X$X{.&X&X*X,X{.$X=X&X~.%X2X3X0XXX~.XX3X3X%X1X1X2X1XUX2X4X1XXX*X*X*XoX&X&X&X&X=X;X:X2X,X}.F.x.J a G R Y ^ | d. .$.f.x.n.U.K.].I.P.I.I.I.].~.oX|.XX1XoXoXXXXXXX|..XXXE.L.K.v.l.:.^ V w u u z m N Y p.hXtXfXGXhXt.m T s.tXfXSXeX8.t.(.i.p.B m L | g.F.n.S.U.[.|.].{.{.>X6XXX2X2XUX2X1X*X*X~.XXXX~.!. X XXX&X*X!.XXXX*X2X&X&X&X;XXX6X4X5X4X*X2X6X*X2X1XXX2X.X1XXX&X;XE.E.{.{.{.{.{.[.{.{.[.$X$X[. X.XoX&X.X{.}.{.|.P.}.XX{.E.F.P.S.G.S.c.c.c.c.k.f.>.>.| _ Z = * & & % % & & i m Y S > > % % % % + % > > > > > ; > > > + > > > > > > , > > > > > ; , , 1 2 > > > > > > > > 2 > > ; ; ; ; ; ; > ; ; ; > > > ; , ; ; , , > : > ; > , , > > > > > > > > > > > 1 1 > > 1 > 1 1 1 > > > > > 1 ; > ; ; > > > > > > > ; ; ; ; + + ; + ; ; + ; ; # & 5 m D U w.y.y.p.w.W M z u 9 n U S c z 6 7 7 6 t c z c c 7 1 z U T U N m z y u t 6 q 5 3 H | =.x.v.U.U.].U.|.oX}.oXoX}.I.[.|.[.[.{.@X[.{.}.[.{.[.R.R.K.F.I.P.|.|.I.I.P.P.].P.I.U.U.L.v.K.l.z.h.c.P.K.v.n.K.P.l.l.,.c.v.v.v.S.K.h.h.c.n.v.v.b.v.S.L.P.K.b.v.L.v.b.U.v.l.l.v.v.v.l.v.v.K.K.K.K.v.v.v.c.K.S.K.v.b.l.U.C.h.l.j.x.b.v.x.v.c.l.,.;.-.>.>.-.$.$.$.>.>.,.,.,.;.;.>.>.,.,.;.#.;.( I P ( #.f.f.f.j.>.x.m.b.b.u.m.m.x.n.m.n.M.U.U.K.'.b.m.'.n.x.b.u.m.m.m.n.b.m.m.b.'.m.x.,.d.=.d.d.f.d.| | } _ / / P / P L G P Z G J ^ J J P ! / ! G Z ",
"xXkX6XUX2X2XOX5X6X4XjXkXkXcXjXjXkXkXnXcXoXoXE.&X&X4X.X X&X&X[.E.[. XXXE.E.XX|.oX:X#X[.{.&X[.{.{.{.;XE.{.*X1X1X%X1X1XXX%XP.J.~.L.~.J.~.~.~.~.~.~.I.~.I.I.T.~.~.~.XX~.~.~.L.~.%X5X9X&XW.W.W.#X#X$XY.T.W.Q.W.{.W.#XW.R.#XW.{.E.E.#X:X&XQ.E.!.$XE.T.R.E.W.Y.L.Y.#X X~.~.4XkX8XXXY.Y.!.Q.~. X!. XW.!. X=X9X*X=XW.&XW. X&X!.$X#X{.%X%XW.{.{.$X%X&X=XE.T.!.=X%X1XXX1XXX~. X X%X%X=X&X=X%X$X=X$X=X#XE.&X5X1X%X1X5X2XXX%X1X1XXX*X%X X*XXX4X1XXX XoX.X1X;X=X;X&X4X>X4X:X6X>XoX[.].F./ V H o.| >.z.$.>.x.n.S.].].U.].].].oX~.oXoXXXUXXX2XXX2X2XXXXX|.oXXX|.P.P.S.z.f.$.P p w w t i m B a.hXhXfXLXfXu.i Q eXgXuXgXi.Q q.a.a.9.a a !  .g.F.].U.}.OXoXOX>XoX>XUX6X5X5X5X1X6X4X3XXXXX;XXX2X*X2X;X2X2X2X*X2XoXXXXXXX;X4XcXcXcXkXcXcXjX5XkX2X2X2X5XzX5X5X3X.X>X4X.X{.}.&X&X;X&X;X$X}.}.#X{.&X}..X&X{.oXoX|.[.E.oXP.}.[.[.R.[.@XS.D.F.j.c.x.f.f.g.` G = & = & & = & i D U T c % % % % % % % > > > + > > > > > > > > > q > > > > > > ; ; ; > > , 1 2 2 > > 1 > > > 1 > > > ; > ; ; ; ; ; > 1 > ; ; > > ; , , > 1 > > , > > : > > : > ; > > > > 1 > > 1 > 1 > > > 1 1 > 1 > > > > > > ; > > ; ; ; ; > 1 > ; + ; + ; ; ; ; + ; ; ; ; & # 5 x B T 9.q.y./.y.0.9.8.S u N Q W W U z p 7 , 6 5 6 7 7 6 5 v U M M v z t y t t t 6 4 5 H } -.m.n.].].].].|.|.|.oX|.|.I.[.oX{.[.[.[.{.].}.[.>X7X=X@XP.P.].P.].|.I.].I.I.K.C.n.K.L.P.U.U.v.c.c.h.F.c.U.v.c.v.K.c.l.v.c.z.S.l.c.v.v.v.c.l.v.K.P.v.v.K.v.v.K.K.v.v.S.v.v.l.K.K.v.v.v.v.K.l.v.v.l.v.v.v.v.K.K.v.l.v.K.K.v.c.l.l.l.v.l.l.l.l.l.l.>.1.;.#.#.$.>.h.,.l.l.>.:.<.-.>.;.>.+.' #.' ( #.#.$.>.z.z.h.z.x.m.m.K.x.x.m.v.n.b.'.K.K.U.'.J.u.m.'.K.n.n.x.u.4.4.n.n.'.n.n.m.m.x.k.f.g.f.f.d.=.=._ | _ P / J G L Z Z G G G G G ! P G ! J G C ! ",
"6X6XUXoXoX}.UX6XcXkXUXOXjXcXcXcXjXkXNXNX|.|.K.I.[.|.&XP.E.XX X[.*X|..X[.E.R. X XE.}.&X{.{.W.[.{.&XR.{..X~.*XoXoX~.L.L.~.~.T.~.L.I.~.~.~.~.~.T.T.~.~.T.I.~.I.~.~.~.~.T.~.~.~.~.%X-X&X-XW.R.L.B.E.{.W.W.Q.W.#XW.#XW.Q.T.&X#XW.#X:X-XE.Q.#XW.{.T.E.T.Y.Q.R.R.Y.W.W.T.1X1X8XcX=X#X~.T.~.Q. X$X~.W. X~.1X=X$XW.{.-XR.T.W.%X%XW.{.$X$XW.$X$X%X=X#X$XW. X%X~.~.3X1X3X1XoX*X3X1X&X{.&X&X&X$X;X$X&X&X=X:XXX1X2XXX1X1X2X1XXXXX~.XXXX X X%XXX*X%XoX1X*X3X3X4X7X2X4X;X7X6X;X;X2X>X.X}.F.( P ( $.f.h.` c.S.I.].[.[.OXoXOXXXXXUX~.oXUXXX5XUX1X.X*X6X*XXX2XXX*XoX].S.S.x.f.=.H 4 5 3 y 9 m =.wXeXSXLXhX(.N B a.uXuXeX8.t.i.q.q.U y c ^ r.x.m.F.].oX6XOX>XjX6X6XjXcXcXcXcXcX6X5X2X;X2X4X2X3X5X5XkX5X4XkX5XkXkX6XcXkXcXcXcXcXcXkXxXcX4XkXkX3XcX5XkXcX5XlX5X2X4XlXzXxXkX>XOXoX,X:X>X;X:X;X>X>X>X4X>X}.}.;X;X;XoXoX{.&X.XE.E.[.[.D.].F.F.F.c.x.c.f.:./ = = = & & & < c W 9.Y q + % % % % % > > > + > > > > + > > + + A c > 2 > > > > ; ; > > ; : > > > 2 > > > > 1 > > > > ; + ; ; ; ; ; ; > ; ; > ; ; > ; ; ; ; ; ; ; > : % > : > ; > ; ; ; > > > > > , > 1 > > > > 1 > > 1 > > > > ; ; + ; + ; ; ; > > ; ; ; ; ; + ; ; + ; + ; + # # 5 u M S W 9.y.t.i.0.W ] w.U N T q.q.8.Q M y 5 5 5 1 1 5 4 4 v M v v c z y 7 t 6 t t 4 3 H ' =.x.m.K.U.U.[.].oX].].[.U.[.}.{.].E.@X[.[.[.[.D.[.R.].R.K.I.I.|.|.oX~.I.U.U.I.P.K.K.P.L.L.P.K.v.c.S.L.P.S.v.v.v.v.v.v.C.v.S.c.n.S.S.x.v.K.c.K.K.L.v.K.K.K.U.v.K.v.z.K.K.l.v.K.c.x.b.l.v.v.z.b.K.K.v.v.l.K.v.v.,.l.l.v.S.l.,.l.l.l.v.v.l.1.:.,.>.,.>.>.>.3.>.,.1.l.f.<.1.f.;.-.#.>.>.>.>.$.+.#.>.h.1.z.c.k.f.h.k.x.x.n.m.m.n.v.'.n.K.U.M.K.'.b.1.'.b.'.x.m.<.u.m.u.m.n.m.m.U.m.n.x.M.k.k.g.=.d.:.} } _ } P ^ ^ P L G G G F J Z P / J G G J G J } ",
"XX5X6X2XoX|.UXjXUXjXcXMXcXjX6X5XkXjXVXnX|.[.S.z.K.|.*XoXXX*X~.P. XE..X;X*X2X X&X2X X X{.[. XE.P.&X X2XE.P.W.T.XXH.~.~.~.1X~.~.W.L.~.L.1X~.~.~.~.~.T.~.J.~.~.~.~.~.~.~.~.~.~.~.~.W.W.E.Y.Z.W.W.B.Z.R.L.H.#XQ.Q.{.Y.{.Q.$X#X&XE.&XW.Y.Y.W.Y.Y.Q.$XR.Q.W.&XE.T.W.!.~.1X2XzXxX1X!.~.Q.~.Q.$X!.$XR.$X$X&X{.$X=X:X=X{.W.W.W.{.E.$X=X X&XW.$XW.%X&XW.{.%XW.W.$X=X;XXX2X1X2X1XXX X=X&X$X&X{.&X$X,X&X*X$X1X*X1X%X2X1X1X2X*XXX~.~.XX%X1XXXXXoXXX%X1X%X1X1X*X6X1X2X2X1X;X=X.X>X;X2X&X].n.,.>.>.f.N.R.F.F.{..XUX6XOX6X>X6X;X7X2X4X8XkXzXjXjX5X6X5X5X5X6X5X6X6XoX].].P.n.k./ q 5 3 3 p a Y _.wXHXGXHXpXi.N U t.u.Q B u.i.i.W x y r Y d.n.@X@X].>XjX6XjXmXjXjXjXjXjXjXxXkXcX5XcX6XkXcXcXcXcXnXxXxXkXxXcXxXxXcXxXkXcXxXcXjX5XcXcXnXcXcXcXcXcX5XcXcX5XnXxXnXcXMXcXnXcXcX8XcX5XcXjX7X6XjX>X4X6XkXlX6X>XjX6XcX6X6X;X;X.X;X;X;XoX}..X}.}.@X}.].n.m.g.g.^ F e % % & 3 i U W N & # % % > % > > % ; % + % > > > # > > y t > > , > > > # ; # ; > : > 1 , , 1 1 1 ; ; > > > ; # # ; ; > # > > # ; # : > ; ; ; % : > > > > ; ; > > ; > : ; ; ; > > : > > > > , ; ; ; , ; , > ; , ; ; , ; > : # # # # # : : > , : ; # # + > ; ; ; + ; ; + # : 5 7 u m U ] q.y.y.M.9.9.w.9.S U W 9.7.{ t.N t 6 1 2 5 1 2 2 v S z z y u t t 6 q 6 t q 3 Y :.g.k.m.S.].].{.}.}.[.[.}.[.[.}.|.[.I.E.[.{.R.].P.S.R.I.P.P.D.I.oXXXoX|.U.P.I.|.P.I.I.I.I.K.C.K.K.b.K.P.6XS.v.v.P.v.v.z.S.b.S.v.v.c.v.v.K.U.K.v.C.v.v.v.v.v.v.v.K.v.v.K.b.v.v.v.v.v.l.c.l.v.z.z.z.U.K.v.v.K.v.v.v.l.,.K.K.l.l.,.l.b.c.m.1.1.,.,.,.h.<.f.<.h.,.l.l.>.,.,.<.,.>.>.;.>.,.l.l.>.-.:.1.h.j.h.z.h.>.f.c.m.n.n.m.m.m.m.M.K.U.'.m.n.'.n.v.'.K.m.m.u.<.u.4.u.u.J.U.m.m.m.b.m.M.m.x.d.d.:.:...} | ..! J P Z C Z Z Z G Z Z G P L L J J G L / ",
"UXUXXXUXXX6X6XcXcX5XjXcXcX6XoX5XjXXXxXcXE.P.c.[.E..XXX3X*X4X5X2XoX&X&X*X5X*X*X2X&X&X{. XE.{.E.&X X&X[.L.V.R.E.=X1X1X~.!.&X~.~. XE.~.~.~.%X~.L.~.I.~.I.I.~.~.I.XXUX%X~.~.~.~. X1XE.E.Q.Y.L.W.0X=XQ.Q.$X&X{.{.#X#X#X#XE.[.$X#X{.Q.E.{.W.W.{.$XW.W.R.W.W.{.Q.E.$XT.T. X~.zX8X X#X!. X$X!. X=X=X!.&X$XW.Q.{.W.#X$XW.E.R.W.$XW.W.$X X$XW.E.W.W.$X{.#X XW.W.=X=X*X1X1X1X2X1X X X&X*X X&X=X:X$X X!.{. XXX*X%XXX1X4X4X2X1X~.oXXXXX~.XX1X1X0XXXXX1XUX2X5X1X XoX~.XXXX2X2X X.X&X&X|.P.~.P.D.L.@X@X[.{..X;X2X6X5X5XxX6X5X6XcXcXcXnXNXNXnXxXnXcXcXcXxXmXxXcXjX6XOX}.I.n.n.=.r < 3 5 w p U _.eXfXHXhXtXwXY m N D m N W 9.W M p q q i X.g.F.+XOX>XjXmXcXjXcXmXjX6XcXnXNXnXcXcXjXjXjXcXnXcXnXxXnXNXnXxXnXxXnXxXxXNXnXcXcXcXnXxXnXcXcXcXnXcXcXxXxXcXMXcXMXnXcXcX5XNXnXcX5XnXcXjXcXnXxXcXjXlXcXnXcXnXcXcXkXjX6X2XkX6X6X4X6X6X>X>X>XOXOXOXOX}.].m.m.m.k.d.0.r % 4 M E Q T 4 & % # + % % + # % ; # ; ; + ; > > ; t , + ; ; > > > > ; > > > > > > > , , 1 > > > 1 ; > > ; ; # # # # ; ; ; ; ; ; : ; ; > ; : # > : # ; , > : : > > ; % : ; ; # > > ; > , , , , ; > 1 ; 1 1 ; > , > , : # # # # # # # : , > : ; # ; ; # # + ; ; + + ; : : 5 5 9 i M E { w.0.W ] 9.0.q.7.U U Q W t.t.{ M c u 6 6 3 2 2 z S z y b t t 4 t t q 6 6 q a  .g.V.S.D.P.P.].].R.}.I.E.oXI.[.].P.P.}.E.}.[.R.P.F.P.[.[.P.[.I.|.U.K.oXI.P.|.oXP.L.K.K.I.K.K.n.C.v.K.L.K.v.K.K.K.l.l.b.l.v.v.v.P.v.c.l.v.v.C.K.n.v.v.x.v.c.b.v.v.v.U.K.l.v.v.b.x.l.l.b.v.x.b.x.v.S.b.K.n.v.v.v.v.v.l.l.c.>.l.c.l.f.1.l.l.>.l.f.1.f.1.1.l.l.c.l.l.l.l.1.f.,.>.>.:.<.f.l.l.,.;.<.f.c.c.k.>.>.>.f.h.x.c.x.f.n.n.m.m.P.'.U.U.n.U.m.U.m.m.M.b.x.x.x.x.<.4.m.m.x.1.=.u.x.x.g.g.f.d. .d.| ( _ / G Z H V V Z Z Z C V Z G P J L G Z G L I ",
"XXjXUX6X6X6X6X5XcX5XXX6X5X6XUXUX;XoX4XXX].}.I.[.[.oX&X*X2XXXXXE.|.&X3XXX1X2XP.*X X~.~. XE.H.R.*X!.P.R.&X*XE.L.Y.L. XE.E.E. XW.W.T.~.~.XXXX~.T.T.%XXXXX~.~.~.~.~.~.~.%X~.~.XX%X%XR.{.$XY.R.D.W.W.E.W.#X#XQ.#XQ.Y.#X{.#X#X#X{.{.Y.R.W.W.Y.W.8X:XE.#XW.#X{.W.Q.E.Y.~.~.E.5X5X X!.#X$X%XQ. X$X X~.!.%X$X$X{.&XW.=X%X*XW.W.W.E.W.$X$X$X%X{.{.{.$X=XW.E.%X%X$X=X1X&X3X1X2X1XoX{.E.W.&X-X&X;XE.$X$X$X$X X*X XXXXX1X8X*X1XXX~.1X1X~.*XXX1X5X%X1X1X1X5X5X1X~.~.1X1X1XoX=X{.{.|.&X|.[. X[.{.}.&X{.[.R..X;XXXXX6XcXkX5XcXxXlXcXxXlXxXxXlXxXcXxXcXcXcXcXcX6XjXOXoXXXI.U.l.,.Z 5 3 5 w p h W rXsXJXCXhXpXU 9 x i p z m z x m p 2 < < x o.k.@X}.OXjXjXvXcXjXcXjXjXcXnXcXxXnXNXxXnXnXNXNXnXNXNXVXVXFXnXNXNXxXnXnXVXNXVXnXxXxXcXnXNXNXMXcXxXnXxXnXxXnXcXMXVXxXcXVXVXVXnXnXNXcXnXnXNXxXxXmXnXlXcXnXnXcXnXvXcXcXxXlXjXcXzXcXjXjXlXjX>XOX>XjXyXoX}.@X].}.).m.] w i { W W N & & # & # % # # > # # # + ; > ; # > , ; > + > , > 1 > > > > # # # : > 1 1 > , > , , , , , > # # > # # ; # # ; # # > ; ; > > > > > > ; ; : : > > : > ; ; # > ; > > > : > ; : ; , ; > ; , , , > , ; ; 1 ; , # # : : # # : ; > > : ; # # ; > + ; + ; + ; ; # : , 5 w t x D Y Y S z z z W r.9.Q U Q W 7.t.t.Q Q U S M y t 2 z c c z y t t 6 t t 6 q 7 3 3 P f.m.m.S.].[.F.[.}.[.P.P.[.P.P.[.|.E.[.P.}.P.P.S.C.L.}.P.F.{.v.I.I.L.P.|.P.~.I.|.I.P.P.n.K.I.K.K.K.P.I.U.P.S.K.v.v.b.l.1.v.l.K.v.v.K.l.l.v.z.l.v.v.b.v.v.v.v.x.z.v.K.v.v.v.v.v.v.l.,.x.v.v.n.v.K.v.v.v.v.v.v.v.l.l.l.m.c.,.l.l.l.,.l.l.1.>.,.,.l.h.,.h.h.,.,.l.l.v.l.l.l.,.,.-.-.,.l.1.,.:.;.;.<.h.h.x.h.>.:.f.x.c.l.x.f.g.k.x.m.m.n.].n.M.n.'.K.U.K.m.m.m.n.m.b.u.x.'.b.x.M.<.u.d. .g.g.d.$.| | } / _ J J G Z Z C G G G C V C Z L J P L P P L P ",
"XX5X6X5X6X6X6X6X5XUXUX6XkX*XXX5XXXXXNXzXoX&X*X}.S.L. X4X*XoX1X~.XX&XXX*X*XoXR..XW.K.P.T.P.R.E.*X=X XL.L.Z.E.%XE.E.T.!.E.E.%XW.R.~.L.T.XX~.~.~.I.~.1X~.~.~.~.~.~.~.~.~.~.~.~.~.~.W.$XW.T.%X-X=X*X#XY.Y.{.Q.[.{.Q.R.Q.&XQ.Q.{.#XR.R.Q.R.W.&X-X&XW.W.{.E.W.Y.W.$X!.T.T.~.2X2X1XQ.!.!.~.W.%XW.W.!.%X=X&X-X%X&X9X:X=XE.R.W.W.E.$XW.&X&X=X%XW.{.=X&X#XW.$XW.&X=X&X*XXXXX1X=X~.R.W.%X X{.#X&X{.{.{.{.Y. X=X X X X X1X1X~.XXXX2XXXXX%XXXUX0X1X1XUX1X1X5XXX XoXXX*X2X2X%X X X X X|. X[.|.{.$X}.&X[.c.[.;X.X2X5X2X2X2X4XkX;X>X4XlXkX2XjX6XkXcX5XjX6XkX6X;X>X|.}.[.U.v.x.=.L d * 3 5 p h N =.aXLXCXfX_.m 9 9 p 9 9 p u F R w 2 , % > x / g.].OX>XjXkXjXcXmXjXOXkXcXcXNXcXnXnXxXnXnXnXNXNXnXNXVXVXnXVXNXnXMXNXNXnXnXcXnXnXxXxXnXnXVXNXNXxXNXcXMXcXcXnXNXxXnXnXnXcXcXnXxXnXcXnXNXcXnXNXnXxXnXcXnXcXVXnXcXcXnXcXmXnXnXmXcXlXmXmXjXjXjXOXOX>X}.+X@X].@Xm.g.p t N Q Q B & # # # # ; ; > # > ; # ; ; ; ; ; ; > ; ; # > > > , > > ; : > > > , , , 1 1 , 1 1 1 > 1 , , > > ; ; ; # # ; # > # ; ; ; : > : > ; ; > ; : > ; > > > ; % > ; ; > ; > > : > , ; , , ; , > 1 > 1 > , , > 1 , : : # # : ; # # ; # % ; # ; ; # ; + ; + ; + + ; : 1 5 5 t i z x z u 7 z D ] w.w.{ W 7.7.{ a.t.W Q W Q U M y w c S b t y t 6 4 2 8 6 2 3 3 3 C ..k.c.m.F.D.F.}.}.[.[.}.I.}.I.R.P.|.}.P.L.P.D.V.F.C.L.P.L.}.K.P.I.I.U.P.S.P.K.P.I.K.L.L.~.P.K.P.K.P.P.K.v.P.v.K.v.v.v.l.b.b.l.1.1.l.b.z.v.v.l.l.n.v.l.z.v.l.l.v.v.v.v.v.l.v.l.v.l.l.l.l.l.l.v.v.v.v.S.b.l.v.l.l.l.l.<.b.l.l.c.l.l.l.l.,.l.l.l.1.,.,.,.h.l.l.l.l.c.1.l.,.l.,.>.;.>.,.,.>.-.-.:.>.>.>.>.>.,.>.,.h.x.f.x.f.x.g.m.m.x.n.m.M.b.m.m.m.'.n.m.x.u.b.x.u.1.x.x.M.b.r.x.x.g.k.k.g.d.$. ._ _ / / ! G P P G Z P G C Z G C P L P ~ P P G Z J ",
"oXoX6XOX6XoX4X6XUXUX6X6XcXUXXXXXoXOXnXzXoX[.[.;X.X}. X&X6X1XoXoX*X XL.E.P. X&X3X X XL.R.H.~.~. XE.*XL.E. X%X%XW.R.W.R.T.T.H.Y.E.T.J.~.|.I.L.K.~.T.~.XX~.~.XX~.~.!.I.E.E.T.T. X~.Y.R.E.$X%X&X XW.R.Q.Y.R.#XQ.E.Y.#X#X{.Q.Q.$X{.Q.W.H.Y.H.R.W.W.$X{.W.W.R.Y.E.Q.Q.!.~.~.8XzX1XQ.~.T.Y.~.!.~.Q.Q. XW.R.-X{.$X=X:X&X#X{.W.W.W.!.W.W.W.*X$X#XW.$X$X{.W.W.$X*X9X*X%X XoX1X*X*X X XW.{.Q.[.{.{.{.{.{.W.XX X$X~.~.oXXX1XXX~.XX1X1XXX%X1X1X5X%X%X1XXX%X1X X X XoX&X&X3X1X X%XE.E.|.|. XE.E.{. X|. XE.oX.X|.XX*XoX&X&X&X*X&X{.4X4X;X2X;X;X>X;X*X2X6X6XoXOXoXXX|.I.n.n.c.f._ e 3 5 0 0 p n =.hXJXHXfXt.9 8 5 5 7 3 t t w p 5 3 < : % % a / x.@X}.>XjXjXcXlXjXjXjXcXnXcXcXnXlXcXcXcXnXcXcXnXnXnXnXxXnXnXxXnXnXxXnXcXnXnXcXcXNXcXcXcXcXcXxXcXcX5XcXcXcXcXzXMXcXcXjX5XxXMXcXcXxXcXkXnXlXcXnXxXnXkXlXxXnXnXcXcXmXNXnXNXnXxXcXnXcXjXjXjX>X>XjX6X}.}.+X@X@XM.G < p B W m % % # & # # # # : # : # ; ; ; + ; ; ; + > # ; > > > > > > > : # ; 1 , , 1 , , 2 , > > 1 , 1 : ; ; # # # # # # > ; , ; ; > > > ; ; ; ; > ; > : > ; > > ; ; > # # # > > : > 1 1 > > , > 1 , 1 1 , 1 1 > > : : # ; : : : : # # # ; ; + + # ; + ; O ; + ; O ; ; : 1 2 2 2 8 6 t y Y E E ] ] W 8.] 9.{ t.t.t.8.8.W Q U U v y z S c y u y t 2 5 7 5 5 3 3 0 Z ..f.m.S.F.R.P.].}.{.P.[.[.I.R.].I.[.E.P..XE.R.[.I.P.F.C.K.P.U.P.L.I.P.K.v.P.P.~.~.K.K.n.I.K.K.I.v.v.v.v.v.C.P.K.v.K.l.l.1.v.n.l.1.C.b.v.2.,.c.v.c.v.K.v.S.S.l.D.v.v.v.v.l.v.l.v.v.l.l.h.l.l.l.l.v.v.v.P.I.v.x.v.l.l.n.v.c.1.c.1.,.,.1.1.l.l.,.,.,.,.h.,.h.l.h.l.b.,.l.1.l.,.,.,.>.;.,.,.;.-.-.>.>.>.>.$.h.$.d.,.d.f.n.x.x.m.m.g.u.m.n.n.M.=.m.m.b.x.M.f.f.x.x.x.K.x.v.n.x.u.x.x.d.d.:.d.:.$...} } } _ _ _ _ / / P P G Z G G G P L P P P J G L J ",
"UX5X6XOXXXUX6X6X2XoX5X5XOXXXUX*XoXjXxXcX}.E.E.XX;X;X&X.X6XoXoX XoX2X}.E.E.P.|.2X8XXXE.~.E.P.P.E.Y.P.oXE.*X%XE.T.Z.W.W.Z.Z.R.W.W.I.J.J.~.~.I.J.J.%XXX~.1X%X~.~.%X1X~.T.T.1X~.~.~.W.$XW.{.=X$XW.W.E.T.Z.Z.Q.Y.$X{.Q.R.#XR.#X$XR.H.$X{.E.L.W.=X{.%XR.W.Q.E.E.E.W.W.I.I.~.1X8XXXT.~.T.Q.~.~.Q.Q.!.!.E.Y.T.E.W.$X-XW.W.W.{.$XE.T.R.W.W.$X&X%XW.%X$X#X&X$XW.$X XXX!.XX XXX3X1XE.~.W.E.#X{.$X#X{.$X{.E.XX X!.XXE.~.XX1X1X1X~.XXXXXX~.XX1X%X5XUX%X%XXX~.XX|.~.~.=X%XXX&X X&X&XXX X XE.[.[.[.$X X!.~.~.~.!. X|.%X~. X&X&X&XR.}..XoX.X|.&X.X[.|.|..X|.[.E.v.K.P.K.n.b.l.f.=.H * d 3 3 q i =.rXbXfXhXs.i.Q 9 5 5 5 7 5 5 5 < , , & > # + a o.g.@X+XjX>XjXjXjXnXcXjXkXjXcXcXkXcXcXjXjXjXnXcXcXcXcXjXUXjXcXxXnXxXlXcXMXnXcXxXnXxXcXcXcXjXcX5X5X5XcXcXcXcXnXcXjXcXcXcXcX5XjXcXcXxXcXcXjXcXlXcXkXcXjXkXlXlXkXcXNXnXxXnXxXcXxXmX4XvXjXcXkXsXjXUXyXOXOX@X].].d.Y p N U 9 & # # # ; # > ; # > # # + ; ; # # % # ; ; # # # ; ; ; , ; ; > ; ; > > > 2 1 2 1 1 1 , ; ; > ; ; ; > ; ; > : ; > ; ; > , > > : , : % > # ; ; > > > : : > ; : > : > ; > > ; ; ; , ; , 1 ; , > > 1 > , , , , , , , 2 5 2 2 , > > > > ; # # + ; + ; ; ; # ; ; ; 1 , 1 1 2 2 2 2 c W W W U v M S M m U 7.i.t.q.q.7.Q U U S z z U c z u t 6 6 5 5 5 5 3 5 a _ $.k.c.S.V.F.F.P.}.{.[.[.I.I.[.E.P.[.R.[.[.P.I.{.I.L.R.K.P.P.K.P.[.|.I.v.v.P.|.~.I.I.I.K.P.K.C.n.v.l.f.z.v.v.v.c.l.l.1.l.1.1.b.1.l.v.C.z.l.l.>.l.l.z.v.v.c.S.c.j.v.v.v.v.v.v.l.v.x.l.l.v.l.,.l.l.b.v.v.K.v.b.l.l.l.,.b.n.n.l.1.:.<.=.,.;.l.f.:.<.,.,.,.,.h.c.l.l.f.1.l.f.l.>.>.>.>.;.f.;.,.#.-.>.$.>.k.f.h.$.$.>.:.x.x.x.f.g.x.g.1.m.m.m.m.x.1.u.M.b.n.m.g.l.M.x.m.x.u.b.x.4.4.u.:.=. .$.|  .:. .$.| | X./ ( / P L Z G G P P G G G G L G Z Z Z G ",
"XXUX2XOXoX|.oXUX6XjX6X|.|.oX6XcX6X5XlX8XS.I. X}.;X2X&X|.~.~.I.~.&X*X*X|.[.E.E.|.~.E.L.L.H.E.~.K.K.V.E.|.2X%XE.R.Z.W.R.Z.L.Y.R.R.~.~.L.1XJ.I.I.~.1X%X~.~.~.~.~.UX%XE.L.H.v.2.J.T.$X$X#XE.W.E.E.W.T.Y.T.R.Q.R.$X$X$X{.R.Q.W.%XT.Y.%XE.H.H.$X=X{.#XE.E.W.W.%X$X!.E.~.~.~.XX8X*XQ.~.Q.L.Y.Y.Q.^.#X#XQ.L.B.H.{.&X%X%X$X%X$X&X$XW.Y. X$X$X$X&X{.W.W.W.W. X!.1X%X~.|.XXXX X X~. X XT.R.&X@X[.&X&X{.#X[. X|.%XT.~.oX1X2X X X%X1X~.XXXXXXoX1X1X1X%X1XXX~.~.~.~. X*XXX&X%X*X&X X|. XoX XP.E. XW.E.~.Q.E.E. X%X!.%XE. X&X{.E.[.R.{. X~.~. XoXT.L.H.T.P.Y.v.J.v.K.v.l.l.f.>.} P 3 3 4 3 t p 9 U =.p.SXeXeXa.Q 9 7 5 3 3 5 < & , & , , % # % s o.d.F.OXOXyXjXlXjXjXjXcXjXkX6XjXjXcXjXcXjXcXxXcX5X6XjXcXcX5XjXxXcXcXxXxXcXcXlXcXcX5X5XUXXX2X2XUX5XjXzX5XcX5X5XcXcX8XjXcXcXnX8XjXlX4X6XjXjX5X>X2X6X;X;X2X XXXXXjXnXxXcXnXjXcXmXmXcXkXvXjX>X6XjXOX>XOX}.+Xm.m.M.D D B * & % # : ; # # > > # # # ; ; ; ; # ; # # # # # ; ; ; ; ; ; # : > # ; > : > , 1 > , ; ; , > > # # # # # # # ; ; > > , , > > > : > : ; ; > > : > ; ; > > > > > > # > : > ; ; > , ; , ; > 1 > ; ; > , > ; 1 , # , 2 4 7 6 6 4 2 2 1 > > ; ; ; ; O ; # # ; : , 1 1 1 1 , 2 2 5 7 t x c z x M M M b 8 B 7.t.u.7.8.8.Q U S S c x U v z t 6 q 6 7 3 5 : 3 3 H =.g.k.x.c.S.F.L.I.}.].R.P.P.I.[.}.}.[. X[.{.P.].{.E.P.K.L.K. X8XS.P.|.|.l.K.v.K.I.K.~.I.P.K.b.v.K.v.;.<.v.v.l.c.c.b.1.v.b.<.:.<.1.z.z.v.C.z.l.l.v.z.x.c.c.c.j.c.c.v.v.l.v.v.v.l.l.l.z.f.,.v.l.l.v.x.l.b.x.x.l.c.l.1.>.l.v.1.l.1.<.-.:.;.<.b.l.>.;.,.,.,.,.<.l.l.,.l.,.,.1.<.>.,.l.f.;.>.>.>.,.>.>.j.h.h.z.>.#.>.f.f.f.f.f.k.x.k.f.x.m.4.x.M.m.b.u.=.M.f.x.x.M.g.M.u.4.=.=.=.b.u.<.:.:.d.d.| | $. .| _ ^ / / L Z Z Z C Z J G G L P P P G G L Z G Z ",
"6XkX6X6X6XjX5X6X6X4X5XjX5XcXkX5X5X5XxXcXE.P.P.L.P..XI.E.I.I.~.~.XX|.oX3XXX2X&XE.L.T.P.XX1XoX!.~.Q.~.T.~.%XT.T.E.R.R.Z.Z.Y.L.Y.H.~.~.J.~.T.T.~.~.5X%X1XXX~.%X~.J.!.~.T.~. XQ.P.T.{.$X%X{.Y.T.Q.R.Z.B.Z.Z.Y.Y.D.Q.W.Q.^.{.9X9X$XE.E.L.G.N.Y.Q.E.V.Z.R.W.$X%X~.!.!. XE.~.*X8X X^.J.H.^.Y.^.^.^.^.#XE.Q.Z.Y.W.#XW.%X&XW.W.$X&XE.W.W.W.E.{.W.W.&X$XE.W.1X*XE.~.!.~.~.~.!.~. X X XR.P.$XQ.{.$X#X&X#X{.~. X*X!.I.XX*X XXXXX~.XX%X1X1X1XUX%X1X%XUX%XUX~. X|.~.|.%X~.oX X X*X&X.X|.|. X XoX X1XE.P.T.E.~.E. X!.T.~.E.,X#X#XW.R.E.1XXXT.E.P.W.K.~.XXZ.J.b.Y.v.v.v.1.c.x.,.-.^ d 3 3 3 q q 9 h N Q pX_.eXs.i.Q W Y p 5 < & 5 & , % & % % % % q Y d.m.OX}.>XjXUXOX6X6X>X>X2X6X4X5X2X4XkXxXcX5X5X6XkXkX5X6X5XkXxXnXxXxXnXcXcXjX2XUX1XXXXX~.UXUX1X5XcXcX5X5X5X5X2X5X5XxX5X5X5XxXkX2X5X2X&XXX1X.X;X[..X&XoX~.|.>X:XjXlX6XjX6XcXlXjXcXjXjXjXjX4XOXOXyXOX].].'.m.=.N N & # % # # # ; # # # ; # # % # # # # # ; # # ; ; # # # ; ; > > # ; ; ; : > 1 , 1 , , > > > > ; ; # # # # # ; # ; > ; , ; > > ; > : > # ; > > > : > > : > ; : > > > : > > : > ; ; , ; 1 , > , > ; ; , > ; : : : 2 t i u t t t t t 6 1 1 > ; ; ; ; ; O # O # : ; ; , , , 2 2 6 5 y m U U W 9.7.8.T W { 7.i.t.W 9.q.T T S U c z v y y 6 6 7 t 5 5 5 & 3 = P =.g.g.F.S.D.F.P.P.[.R.}.[.[.].I.].{. X}.{.}.I.P.R.E.P.K.K.K.P.].E.P.I.P.K.K.K.P.P.L.K.P.K.|.XXP.l.v.v.U.P.v.h.v.h.,.-.L.n.v.b.v.v.S.z.v.l.z.l.c.l.z.l.l.c.v.c.c.c.v.v.v.v.v.l.l.v.v.,.b.v.v.l.v.v.l.l.l.l.1.1.v.v.l.,.l.v.f.<.<.=.-.;.=.-.,.,.:.-.-.-.#.-.:.1.h.l.f.,.>.>.,.:.1.l.;.>.>.1.>.-.>.>.h.>.j.h.>.>.z.k.h.h.f.h.d.x.m.g.u.x.u.x.,.x.n.b.f.m.=.M.x.,.g.m.b.u.x.=.u.<.<.=. . . .|  . . .|  ._ ( ! G G Z C Z V C G Z P Z Z G G P J J L L Z ",
"6XUXn.U.UXkXUX6XoXOX6X6XjXcX[.UX6XkXxXcX|.P.~.1XoX*XoXL.P.L.~.XX*X=XE.XX X*X;X8X*X X X X~.P.Y.K.J.L.E.~.T.~.L.I.&XH.R.T.L.H.N.T.H.H.4.J.J.K.^.%X%X~.~.~.!.~.T.H.XX$X~. XQ.$XW.R.R.$X$X#X{.#XE.#XT.Z.E.E.$XW.H.Q.%XT.Z.T.$X{.W.~.T.Z.4.4.B.L.$X%X~.H.T.~.~.Y.L.B.T.~.E.%X0X!.T.Q.A.A.^.^.^.#X#X#XQ.Z.A.N.^.Q.$X#XE.=X#XW.!.W.!.%XW.W.E.$X!.Q.E.!.!.=X!.Q. X!.!.T.R.{.Q.Q.R.H.R.R.R.R.[.#X{.$X{.{. X XXXE. X X X~.~.%X1X1X%X X%X1X%X%X~.~. X X~.~. XT.~.XXXX~.E. X%X|.~. XW.&X X X X X~.E.E.~.T. XL.~.E.~.E. X X X~.E.I.P.T.T.E.!.Q.P.H.T.oX!.L.J.P.J.J.K.L.l.h.l.` J * < < < < < 5 p i W pXeX_.a.a.t.t.E p 3 < < & , & : & & * & % < e G d.F.@X}.OXOXOX&X>X&X;X=X].&X&X;X.X=XlXlX5X2X%X1X2X8X*X;X4XkXxXkX>XlXxXjX2X2X~. X X%X%XXXoXXX:X4X2X&X&X;XXX2X2X4X2X X>X;XjX7X&X>X X&XY.E.~.~. X~.~.T.~.I.E..X;X|.XXUX5X2X5XUX6XUX6XcXUXUXOXOXOX}.}.+X].x.=.D A % % + # # % # # # # # # : + > ; # # # # ; ; ; ; # ; # # # > > ; ; # : > > > 1 > > ; ; ; , , : # # # + + ; # > > > : > > > : # > ; : % ; > : > > : ; > ; ; > : : > > : ; > ; , > , ; , 1 , ; ; # : > , : : : , 5 t z u y t 7 6 7 6 4 1 1 , ; ; ; ; ; # ; ; : ; : : 2 t z c S Q Q Q w.] 7.q.9.7.W t.7.7.p.u.9.i.t.T B D N m z c t t u 6 8 6 4 5 : 4 w a _ $.x.n.K.P.L.P.P.P.[.[.{.E.E.P.F.[.[..X|..X{.L.P.{.[.I.D.F.S.S.S.L.I.[.L.c.c.S.R.F.K.v.S.S.S.R.S.C.c.C.D.S.z.h.h.h.;.K.c.1.1.c.j.c.z.l.S.C.z.c.c.j.h.j.j.j.h.k.C.c.S.c.C.D.S.c.S.C.j.$.j.>.z.c.z.C.l.f.f.l.1.<.l.x.1.>.l.C.1.x.f.<.;.:.;.` -.1.;.` ` ' ` -.-.,.f.,.l.,.h.,.<.h.l.f.1.h.>.,.,.,.>.h.h.j.c.j.e.j.h.,.x.f.=.1.=.x.x.x.b.n.x.=.x.x.m.x.g.d.g.g.d.m.g.g.x.<.5.' =.=.=.=.:. .|  .$.$._ _ _ ( ) / L G Z Z H C V J P G Z Z Z L G L P G Z L ",
"}.I.U.I.XX5X5X6XoXOX2X4XjXkX6X6X6XcXnXkXK.P.~.K.T.I.E.T.~. XoX~. XP.P.E.|.2X4X2X&X X%XL.B.L.L.H.E.L.E.J.~.~.~.!.E.Y.Z.H.Y.T.Y.Y.B.B.H.Y.T.J.~.~.T.~.~.~.~.1XE.Y.!.!.W.E.R.W.Q.$X$X$X$XR.#X#XE.Q.Q.R.T.Y.^.H.R.#X$XE.W.Y.$X=X=XW.W.E.Z.Z.Z.P.Y.T.^.P.~.Q.E.!.T.H.T.L.Y.$X0X!.J.A.A.A.A.^.A.A.^.<XY.6.3.A.G.Q.#X#X#X$X&XQ.!.T.Y.~.W.R.E.^.!.E.Y.~. X!.T.E.Q.~.H.Y.W.$X{.R.{.Q.R.{.$X#X{.=X&X{. X{. X X!.~.XX X%XXX~.~.1X%X X!.XX1X%X~.~.%X~.~.~.~.~.T.%X%XE.~. XE. X~.E.oX*X&X XE. XXX X X X X XXX~.!.~.~.!.%XXX!. X~.Y.~.~.~.E.~.T.~.~.~.!.T.K.L.K.K.I.L.K.v.c.f.J s d < < < , < * 3 p n (._.a.a.t.t.r.W p 3 3 , , , , , , , & , % < < d C g.k.].}.OX.X}.&X}.;X&X{.$X}.$X{.{.9X4X1X X~.XXXX2X|. X;X=X>X4XkXkXlX;XoXoX~.E.~.~.!.~.R.W. X&X{..X&X[.1XoX.X2X X{.{. X&X&X&X&X X{.P. XXX XE.E.K.I.I.L.E.L. XoXoXoXUX5X4X~.XX6XjXUXOX+X}.oX+X].].].@X@Xr.=.D % % % # % # % = # O & # , + # ; # # ; # ; ; # ; > ; # ; > > > ; ; ; ; > > , > 1 > , ; ; 1 , > ; # ; # # # : > ; ; # > > : > ; > ; ; ; ; : > ; ; > ; , , ; ; , > : > # ; > ; ; ; ; ; > ; , > ; : # : # : # : , 5 y y i 7 1 3 1 3 4 5 6 5 5 1 ; O O # : ; : : : 8 M Y W 8.8.q.9.7.8.t.7.w.q.q.7.8.7.7.t.s.i.7.a.t.D U U m m u z 8 6 8 8 6 6 4 p H R / X.X.>.x.l.v.K.P.I.P.P.}.I.[.}.R.[.E.D.P.}.|.}..X|.].[.[.E.P.E.P.C.F.P.].[.P.D.R.P.P.R.K.S.v.v.C.S.S.c.c.j.c.z.C.1.j.j.1.;.z.j.j.,.1.z.S.C.z.b.z.h.h.c.c.c.h.c.c.j.h.c.S.l.S.c.C.S.c.C.V.j.f.1.h.h.c.m.l.l.l.k.x.l.l.x.1.f.l.n.l.,.l.,.>.;.>.-.-.>.$.;.;.-.:.<.>.1.1.,.1.l.l.l.f.<.h.1.<.>.,.,.l.,.1.l.f.f.h.>.h.k.k.f.,.b.1.=.b.b.M.m.U.U.b.u.f.x.b.u.,.:.d.d.=.k.k.m.k.=._ =.=.=.I =. .| }  . .} _ ! _ / _ / / P G G Z Z C Z G P G G L ! L L L L Z Z ",
"oXOX6XXX|.}.].].I.].OXUX6XcXkXUXcXnXMXkXP.L.~.~.I.T.I.J.~.L.~.~.C.K.E.P.I.|.:X|.*XR. X8XXXT.T.!.%XT.T. XI.%X0X X=XC.B.T.Z.Z.T.Y.!.J.T.B.J.J.L.L.~.~.~.%X1X X~.~.W.T.Q.T.{.Q.Y.Y.Y.Q.{.Q.W.Y.#X{.R.Z.H.H.H.Q.Y.Y.T.#X$X~.!.%XT.R.T.Z.Z.Z.Z.W. XT.T.T.Y.T.Q.H.J.Z.!.T.~. X1X^.6.6.6.A.6.A.A.A.A.^.A.6.2.N.^.A.W.^.Q.T.#XE.!.$XW.E.!.Y.E.W.T.!.~.!.Q.~.Q.~.~.^.L.~.Q.#XQ.[.Y.Q.Q.$X{.R.R.$X.XE. XE.E.P.E. X%X X&X X~.*XXX X~.~.I.~.%X~.~.~.~.~.L.~.~.T.~.T.E.P. XE.E.XXE.~.*X XXX~.R.%XXX X*XXXT. X X X1X*X!.~.$X X~.1X X1XT.~.~.T.~.I.L.~.!.I.E.E.J.K.J.J.P.S.n.-.e d d d * 2 0 0 3 5 q U y.Q U U Q N U B p 2 < < , , : & & & , & & < < & 0 C X.c.@X].P.[.[.,X,XR.#X&X{.&X{.{.=X&X X~.T.%X X XE. X;X*X5XkX&X7X7X&X~. X~.L.~.1X~.~.H.L.|. XE.E. XW.~.oX X*XE.{.&X{.&X&X{..X=X{. X&X X~.~.~.E.~.~.|.~.I.E.I.I.~.|.2X5X].oX|.UXXXoX].].}.}.].].].F.g.=. .Y q > # # # # # & # # : # # + ; ; # # ; ; # > # # ; ; # + ; > ; ; > ; ; ; ; 1 > 1 , , > > 1 1 > > # # # # ; > > : ; ; > : > > ; > : ; # > > : > > > > ; ; > > ; ; > > > > > > : > ; > , > , 1 , 1 1 4 1 , 5 1 , 4 u y y 6 1 , , 4 7 6 4 4 5 : 1 ; O ; ; 1 2 y i S T T E W w.i.7.7.7.q.7.q.7.q.Q 7.q.t.i.s.(.i.t.7.Q U D N z z z t 8 8 6 6 1 D ^ `  .$.g.d.k.x.c.S.K.P.|.[.P.E.[.|.R.I.I.[.P.V.E.P.I.[.[.[.{.[.R.[.I.P.S.D.I.P.P.F.C.R..XP.S.L.K.L.I.D.S.S.V.C.z.c.h.z.z.<.` z.j.v.V.c.j.1.c.z.C.h.c.l.V.z.l.j.c.V.V.V.h.c.C.C.S.S.C.c.j.C.m.V.k.,.,.j.z.z.c.l.m.b.l.l.,.l.1.1.f.x.K.x.,.,.,.>.<.>.#.,.>.$.;.<.>.>.,.f.l.l.l.l.l.l.l.<.>.1.,.f.l.,.>.,.l.h.l.3.f.h.$.f.h.c.>.f.l.x.x.u.4.x.m.M.J.n.b.M.x.m.m.x.r.d.=.=.r.f.k.g.f.=.=.=.=.=.=.| | | $._ } } J ) ( _ ^ P P G P ! P G J P ! J L I ! L P J G k G ",
"[.oX6XUXUXxXxX5XOX|.U.}.XXUXkXcXcXxXxXkXK.~.oXI.T.I.I.T.L.~.oXXX1X|.|.~.E.E.E. XE.R. X X1XXX X1X2Xb.T.~.T.~.!.XXE.H.L.~.W.W.T.W.#XJ.Q.~.J.J.J.^. X^.1X X1X~.!.E.D.Y.T.$XD.Q.Q.R.$X$XW.W.W.#X&XQ.Q.Y.!.!.Y.D.Z.Y.T.W.!.$XH.T.H.Z.Z.E.Y.H.L.T.!.!.!.T.T.!.L.Y.E.H.H.H.T.1X1X^.6.J.A.6.A.A.^.A.^.^.A.A.6.6.Z.H.Q.^.Q.$XE.T.W.~.T.T.Y.Y.T.Y. X~.Q.T.E.Y.!. X%XQ.~.T.E.W.D.#XQ.[.R.E.{.&X{.&X X X{.{. XE.~.E. X X X&XT. X~. XY.T.~.~.oX~.~.~.T.~.oX^.T.I.T.~.E.~. X X X&XE.%X&X X XE. X%X X XE.*X&X%X!.%X1X*XXX1X X%X1X X%X XXX~.%XXX~. XI.~.~.T.~.~.J.P.L.K.Z.c.l.` = d < 3 2 0 2 2 3 & x `._.t.W M z z p w 5 & , > < , , , , < , & % , < < > e C X.g.k.S.P.[.{.{.R.$X{.{.#X{.W.T.H.L.^.J.Q.T.W.~. X X&X*XXX}.&X;X&X~.~.T.~.~.~.~.T.T.T. XE.E.{. X XoX X X X{.{..X{..X{.{.&X X|.T.W. X~.T.~.L.oX~.~.I.T.XXE.~.L.P.1XUXI.|.U.oXUX].F.].+X@Xm.).m.f.0.F x c A 4 # % # # # # # : # # : # # # # ; + # ; # > # ; > # ; > ; ; ; > : ; > , , , > > , > , 1 , > ; > ; ; ; ; > # # > > # : > > # ; > ; > ; > % ; > : ; ; , ; > > : > : ; ; ; : > ; , ; 1 > , 1 2 6 6 7 3 6 i 7 4 y u u q : , 1 1 6 y 7 4 6 3 8 1 ; ; > 6 z A U D Y W 8.w.w.q.8.w.q.9.Q 8.q.8.8.q.7.q.t.a.s.s.i.t.7.U 7.U M z v c z u 6 t t 1 y _ #.f.k.g.m.x.n.c.K.P.L.U.I.[.[.[.|.R.].D.I.R.E.P.P.E.[.oX{.[.P.}.[.P.P.L.S.D.R.E.P.L.P.&XI.C.C.U.I.I.S.j.S.S.z.V.>.C.;.1.c.l.l.h.3.P.V.c.j.z.h.z.z.j.V.c.l.l.h.c.V.V.c.c.j.>.c.l.c.j.S.S.c.c.V.V.1.h.c.k.c.C.v.b.c.c.v.x.l.l.l.>.l.K.b.l.f.l.f.l.>.-.;.>.#.+.;.>.,.,.,.1.,.<.,.l.f.<.l.l.l.h.h.h.l.>.>.>.,.f.j.h.h.>.f.j.c.k.,.m.m.f.,.,.f.,.b.u.m.'.n.m.m.n.m.k.:.=.f.k.x.x.x.k.=.=.=.I =.I | } | } _ | | G / } ( ( / P G P P J G G G H Z P P P Z L Z L G G ",
"n.U.}.oXUXUXoX|.oX.X.X6X5XjXcX6XcX5XcX3XK. X~.~.oX1X XI.P.L. X8X9XXX X.X[.P.b.F.P.T.E.~. X~. X X~.J.~.T. X X1X~.R.H.Y.!.R.!.T.Y.!.Q.!.B.J.J.J.T.~.~.~.~.!.~.H.T.W.Y.Q.R.Y.Q.E.#X{.{.$X{.W.$X$XW.{.Z.Z.Q.Y.E.E.Q.E.#X!.!.!.~.~.^.P.H.H.!.T.!.T.L.L.J.T.!.~.L.L.J.T.H.Q.$X9X^.A.6.A.^.6.6.6.6.^.^.^.^.6.6.A.A.H.Y.#X#XY.Y.Q.E.Y.#XE.Q.P.Y.Q.~.Q.!.$X$X!.Y.Q.!.T.T.Y.W.R.{.W.R.Q.{.%X X X X*X%X XR. X~. X|.E.E. X%X X!.~.~.T.Y.K.~.~.~.L.~.~.~.~.I.I.L.T.~.~.~.E.~.E.~.&X X X%X&XXX%X X&X X XXX XXX~.XX1X!.!. X~.XX1X X1X1X1X X~. X XT.T.~.T.H.~.L.H.H.H.L.V.S.v._ * d d 3 < 3 3 < & & u E 7.u.u.] 4 w w 4 2 < * 0 * , , , & * , & & < < < < * d f ^ $.V.R.R.[.D.Q.$X{.Y.Q.!.W.Y.Z.Y.Q.Q.^.^.T.E.E.~.~.oX*X1X1X3X~.T.~.~.%XE.!.~.~.E.~.E.~. XE.&X*X&X&X X{.[.{.{.E.{.{.[. X X&XE. X~.~.T.T.E.E.E.P.~.Y.~.I.~.~.I.~.oX~.P.P.].UXI.U.].P.n.n.x.k.:.G t i D D p # # & # # # # > # ; # ; # + # # ; + # ; ; ; # ; # # # # ; , ; ; ; ; > > 1 1 , , > 1 , , > : ; > ; # > > # ; > ; > : > ; ; > # > # : > : > ; ; , ; ; > : > ; , ; : ; # ; ; > > > > , 1 1 3 6 7 4 5 7 u y 6 y y 7 3 , 1 : , 5 6 6 7 4 1 1 1 ; ; 1 z c M D Y { Y 8.W 8.8.{ 7.t.t.7.t.8.t.i.(.i./.p._.s.i.9.t.9.U { U U z z U S z 6 8 6 6 < C $.f.k.k.n.F.I.K.U.I.K.~.L.P.P.].[.P.P.R.E.P.[.I.E.}.P.E.R.[.[.P.S.L.L.S.S.P.{.[.P.L.E..XP.P.K.K.S.c.C.c.S.[.S.S.V.c.2.z.l.3.z.V.z.z.h.j.1.h.>.1.j.h.j.h.h.S.j.c.j.>.c.k.l.l.c.c.V.V.c.c.V.z.V.j.f.j.z.l.c.c.l.k.1.v.b.x.l.l.l.l.l.K.h.h.h.,.l.z.l.,.j.$.+.#.-.;.<.>.>.,.;.>.,.>.,.>.h.1.,.,.>.>.b.z.j.j.h.k.h.k.j.h.h.h.l.h.1.l.x.:.x.f.b.m.m.x.b.'.K.m.m.m.m.k.r.,.x.g.d.g.g.k.g.=.=.I =.=.|  .| | } $. .G P _ _ / / P P / P P G G G Z G J L Z G G G k Z Z ",
"n.XXoX].|.UXOXXX6XoX6XjX6X2X6X6XjXXXcXjXK.K.L.~.E.1X|.~.L.L.J.oX4X~.XXE.E.&XP.*X=XE.L.E.E.L.L.~.L.J.J.T.~.~.~.!. XE.~. X XT.Q.!.!.!.^.5.@.5.2.B.6.~.^.~.%X!.W.H.Z.Z.Q.L.D.W.{.Q.Y.Y.Y.W.$X%X-X{.Q.Z.Z.Z.Q.Q.E.H.T.!.$X%X!.T.L.T.J.H.Y.Q.!.!.T.Y.T.T.!.!.!.I.J.J.Y.Y.E.-XzX^.6.^.6.A.A.^.^.#X#X6.6.Z.A.A.B.Y.Y.^.H.{.Y.R.E.W.R.&XL.Q.Q.T.T.H.Y.E.!.!.~. XT.T.I.T.R.Y.Y.T.Y.R.R.L.{. X&X%X*X&X X X X XR.E.~.~. XXX XL.T.P.K.T.T.T.J.6.K.J.I.~.I.~.I.T.E.~.oX[.P.E.T.E.XX XXX=X%X*XXX~.~.&X%X*X=X*X$X~.1X X!. X X!.1X!.~. X X%X X!.%X~.Y.L.H.I.~.~.L.P.P.K.L.K.n.^ * d 3 3 3 3 < < , 3 4 p m D r.R 7 4 3 5 0 < 0 G r * < , , , , & & , < , < * < * a / k.c.P.F.Q.$X[.Q.R.#XT.W.Y.Y.H.Q.Q.#XQ.T.{.E.T.%X2X4XUX1X%X~.~.~.%X~.!.~.%X X!. XE. XE.{. X*X&X.X.X X[.{.&XR.&XE.{. XE.&X~.~.~.T.~.E. X|.~.I.P.~.~.~.~.~.I.oX|.~.P.I.~.oXI.P.F.F.m.k.x.d.} V m U Q U w # # # # % % # + # ; # # : > # # # ; ; # # # ; > # ; # # ; > > ; ; ; 1 1 , ; , , 1 > 1 > ; ; ; : > ; ; : > # # # > ; ; > # # ; ; ; ; > > > ; , ; , ; 1 > > ; , > > : ; ; ; : > : > > > > , 2 2 , , 5 4 6 1 3 6 5 1 1 , : : , 5 6 5 5 1 1 ; ; 1 y c A A U Y E U T W S b B t.7.8.t.u.p.p.p.a.i.i.s.a.i.t.W W U U Q Q M i N S Y v u 6 6 4 1 , V _ k.g.k.F.K.n.K.K.K.n.[.I.[.E.R.E.P.L.I.}.}.E.P.[.E.}.}.[.D.I.P.L.[.P.R.L.P.F.P.c.F.I.[.P.P.S.S.z.z.z.C.j.c.[.D.S.z.>.3.S.c.V.c.<.j.z.h.j.1.1.j.j.j.c.c.c.h.h.h.h.>.h.j.l.j.V.x.S.S.c.c.C.l.k.j.$.l.l.l.z.l.b.v.x.l.l.x.b.h.,.1.l.h.l.h.<.,.l.l.l.>.#.#.>.=.;.,.>.,.l.l.f.l.l.,.>.,.f.,.,.h.f.h.z.l.j.$.>.h.h.$.h.h.h.k.c.x.x.x.l.=.<.u.1.M.m.m.n.U.m.m.m.M.U.n.m.x.m.:.g.r.x.g.,.=.=.=.=.} ..$. .| :.:.G P | _ ^ P / ) ^ P G Z Z Z Z G Z Z L J Z G Z L Z ",
"S.[.;X}.I.;X6X4X6XoXoXjX}.oX2X6XXX].kX6Xv.P.I.~.oXoX~.J.I. XE.~.~.P.E. X~.&X;X&XE.P.P.J.P.~.!.~.T.~.~.K.!.~.V.%X~.R.W.W.T.H.N.T.^.H.5.' 5.<.3.B.J.J.J.Q.!.T.Y.Y.W.H.Q.H.H.H.Q.L.^.E.Q.Q.W.T.#XY.Y.Y.Z.Y.H.Y.Q.Q.T.^.!.!.^.J.T.L.Q.T.Y.L.J.T.T.T.!.~.~. XT.T.L.T.!.J.^.=X0X^.^.6.^.6.6.A.#X6.6.A.A.^.^.A.H.Q.#XG.Q.#XQ.R.Y.E.Q.:X~.T.~.Y.J.J.R.%X%X!.!.T.T.T.Y.L.T.Z.W.W.W.Y.R.E.W.&X=X X X X~.oX*XE. XR. X|.oX!. X~.~.~.!.!.E.T.~.L.J.J.~.~.~.~.^.~.~.~.~.P.T.~. XoX~.&XXX*X X1XXX XXX!. X1X=XXX!. XXXP.J.~.!.!.!. X~.~. X1X~.~.T.Y.L.L.~.!. X!.~.T.T.T.L.L.n.| * * 3 3 3 < * 3 d 5 3 3 w i h p w 3 3 3 < < p  .o.p < , & < < % & < < & > & * % = r / 3.G.S.L.L.Y.T.E.R.T.W.Q.G.Y.-XY.Q.Q.W.W.R.I. X%XXX%X%X%X X X%X~.~.&XW.&X!.$X X&X*X{.$X X=X=X}. X|.{.$X}.W.%XP. X.X X%X&X~.E.E.oX~.~.E.E. X~.E. X~.L.P.T.~.~.I.P.L.I.I.K.n.S.x.k.d.>.[ L x U { Q z 5 % # & # # # % # : ; + # ; # ; # # # ; # # # # # # ; # ; > > > > ; ; > ; , > , ; 1 1 ; > # # ; > > ; # # # ; ; # > # > ; > > # # > > > ; > > ; > , ; ; > , ; ; ; > ; ; ; # ; # : > > > : > # : , , 1 1 , : : , : : ; : : : , 4 4 5 5 5 1 : : 2 z c n c S S S M n z 2 S W t.7.t.t.t.q.t.t.y.i.a.p.q.t.i.W Q U Q Q D z i m U U S z 6 6 6 1 1 1 ! X.d.m.m.n.U.U.K.~.].I.I.oXR.}.[.E.}.I.I.R.E.E.[.}.{.E.}.L.}.L.F.D.P.P.F.L.[.L.P.z.S.P.P.K.z.v.P.I.c.c.f.D.V.j.j.1.z.;.}.b.l.z.c.j.3.j.z.z.z.1.c.c.j.2.j.h.j.j.1.$.1.>.z.j.c.V.j.h.l.h.z.h.h.j.h.l.h.l.l.l.l.f.b.f.1.1.f.h.j.l.l.,.,.h.1.h.<.,.f.>.>.3.$.<.f.>.>.;.>.<.>.,.l.>.<.>.l.l.,.h.h.h.c.h.f.h.h.j.k.j.h.k.e.$.h.f.,.l.f.1.=.=.x.b.M.m.n.'.m.M.x.m.m.m.m.m.r.,.=.d.m.x.r.=.=.I =./ _ | | :. .$.! L _ _ _ ^ I ( ( P Z Z Z G J G G J L L G G Z Z L ",
"|.oXR.[.I.|.OXXX&X>XjX6XoX2XoXoX>X}.XXE.K.C.E.oXI.~.L.K.I.%XE.~.E.|.oXR.L.|.E.S.|.H.Y.I.T.K.L.T.L.~.L.L.L.Q. XL.T.Y.W.R.W.W.Z.Z.^.^.6.J.J.6.J.J.B.J.T.~.E.W.Y.W.W.W.Y.B.Y.Y.Q.#XG.T.#XT.Q.Z.Z.H.B.Z.H.H.Q.{.Q.Q.^.T.!.~.Q.!.J.%X%XT.H.A.J.J.~.!.!.~.L.J.H.J.J.~.T.L.Q.1X9X^.6.6.6.6.^.#X6.#X#X^.6.#X^.^.^.^.Q.Q.Q.T.W.Q.Z.^.D.H.H.!.E.Y.Y.~.Y.~.~.!.Y.Y.L.Y.H.Y.T.Y.R.R.R.E.W.{.-X:X*X2X%XXX XW. X XE. X~. X!.*X XT. XE.~.~.I.Y.J.I.I.L.~.L.L.J.~.~.oXT.~.~. X~. X X~.&X*X%XXX*X1X*X%X XXX*X1XXXE.~.~.I.L.~.%X X X~. X~.~. X1X~.~.~.I.~.!.XX X!.I.T.K.P.L.S.x. .3 d 3 < < < 3 5 & & & 3 4 w w w 5 3 5 d < , j k.g.! a 0 < & , & & , < & = , * * * d V X.,.z.S.S.Y.E.$X#XW.R.W.Q.#X#X#XW.E.E.W.$X%X~.1X1X%X1X%X1X X~.~.~.$XT.!.{.!.&X X X&X&X X$X X&X&X X&X&X&X{. X*X&X X X[. XE.~.E.~.L.E.|.~.~.I.~.I.T.T.L.E.Y.|.~.L.P.I.|.I.S.m.S.g.d.../ D u m t.Q u & # & # # % # # # # ; # # # # # ; # # # # # # ; # > ; ; ; ; > > > ; > > > > 1 , > , > > > : # ; > # > # # ; # ; > # : > : > # > # : # ; > > > , , ; , ; > > , ; > ; , : ; > > : > : > : > : : : : : , , # : # : : 5 7 3 # : 5 7 6 , 1 5 1 : 1 t n c x z y t y t z c U w.7.Q t.7.t.t.q.t.t.i.t.7.q.t.q._.Q U U U Q B m z M B U T v y 4 4 6 6 , y X.$.m.x.m.U.I.~.I.~.[.|.}.P.R.E.P.F.R.I.[.I.{.P.E.[.[.E.P.[.L.D.P.P.R.L.F.F.D.P.L.S.c.E.L.S.S.c.P.S.C.h.S.z.h.h.j.h.v.C.h.c.1.z.c.c.c.C.z.c.j.h.j.,.1.h.j.j.j.3.#.1.j.C.j.c.V.j.z.z.l.h.j.j.j.h.l.l.l.k.b.l.l.l.<.,.v.1.l.;.:.K.>.j.>.c.h.;.;.l.j.h.@.1.>.<.,.,.l.1.f.,.1.:.>.;.,.x.v.z.z.h.j.j.1.h.3.$.$.h.>.h.j.k.h.h.f.1.x.x.M.b.,.M.b.x.f.=.,.b.M.x.m.m.m.m.n.,.=.=.=.f.x.f.=.=.=.=./ _ | | | | | / L _ | _ _ ^ ( / ! Z J J G / P G G J L L L L L Z ",
"2X.X{..X#X{.}.].&X,X;X;X>X>X>X:X>XxXxXjXP.E.[.&X$X$X].L.~.~.R.P.$X&X[.&XL.R.E.P.!.*X XE.~.K.E.H.~.L.J.J.!.9XI.~.~.~.#XQ.T.H.P.H.A.B.^.T.J.J.Y.J.Q.Z.#X!.Z.E.$XQ.Y.Q.Y.^.Q.#X=XT.A.Y.E.Q.T.W.#XQ.Y.Y.A.Z.Y.Q.Q.=XT.Y.H.Y.Q.Q.J.L.^.T.^.6.6.6.6.J.~.~.J.T.~.~.~.T.z.H.!.1X9X^.6.^.^.6.6.^.^.6.#X^.6.^.^.6.^.#XQ.Q.^.Q.W.W.Y.Z.$XQ.Q.Q.J.Y.T.!.Q.Y.Y.~.^.L.J.!.Y.Q.W.Y.R.Y.H.W.$X&X&X=X$X:X&X=X;X XXXE.!.|.~.~.~.&X~.W. X X X~.T.E. XT.Y.K.Y.Y.T.E.T.~. X X X&X XE.&X X=X*X2X=XXX%X&X*X1X%X1X*X*X*X%XXX XE.~.~.&XXX!.~.1X%X1X~. X X~. X~.~.%X%X X XE. XT.R.K.Z.n.g.w d d 3 3 * 3 3 & & & 3 3 4 0 4 5 3 & & < * L v.S.x./ p * < , < * % < % = * < * < < d O.K %.h.G.D.Y.E.{.Q.Q.$X$X=X$X$XW.Q.E.Q.E.{.#X$X$X*X$X=X%X%X X X!. X!.$XW.E.W.{.&X$X&X&X%XXX X%X%X X XXXW.XX~.E.E. X X XXXE. X X&X X X XE.T.P.~.T.R.T.P.L.R.R.L.F.F.I.U.c.$.! f w a p m M D 9.W Q # & # & # # # # & # # # # # # # # # # # # # + # # > # > > > > > > : # > , , : , > > > ; , ; ; # ; ; # ; ; # ; ; ; ; > : # > : # # > : > : > > > : % > : : > > > ; > % ; # > ; > > > ; ; ; ; ; ; ; : : ; ; ; ; ; > b z t 2 > 1 2 : : : # ; , , z z y t 6 2 6 c c B T Q 7.7.7.7.t.i.q.t.8.8.t.q.8.7.q.t.s.Q U B U U B m 9 m U B Q c z t 6 5 5 5 5 V ` n.n.U.n.K.L.P.[.E.I.R.E.R.I.P.R.].R.}.[..X|.|.[.[.{.E.].E.P.L.P.R.[.I.R.P.D.K.Z.F.C.F.S.S.V.S.z.h.>.v.,.<.l.b.1.U.,.z.j.1.j.j.c.b.h.z.l.l.1.v.z.h.z.l.1.h.>.j.C.l.j.v.v.z.v.z.b.z.2.>.j.j.$.j.h.h.c.h.h.j.h.h.h.z.h.,.$.1.D.$.j.f.>.$.#.3.j.j.$.$.$.>.>.>.>.;.>.<.h.f.1.>.>.,.h.l.v.l.l.l.l.l.,.,.>.$.3.3.f.$.$.h.h.l.>.f.k.f.k.k.f.b.x.M.=.x.x.x.x.m.x.x.m.M.r.=.<.=.<.=.=.=.=.I L / / _ ` I =.=.L G =.=.=.=.J =.k L J L L Z J P L L / P P L G J J ",
"|.2X>X;X@X].&XF.].oX>X;XoX}..X7X4XcXxX7X[.{.R.[.[.[.R.{.!.I.E.E. X{.{.{.P.P..X X1X X|.~. XH.~. X%X~.~.XX~.~.H.T.L.H.P.H.T.H.T.H.W.Z.A.Z.A.B.W.H.B.T.-XE.^.Y.Y.E.Q.Q.Z.W.Y.^.Y.Y.H.^.Q.Y.^.Y.^.Y.Y.Y.Z.A.H.T.Q.T.W.Z.4.Z.b.4.B.!.^.~.6.6.b.J.6.0X~.T.T.~.T.~.T.^.H.E.Y.1X9XA.Q.^.^.6.6.6.6.#X#X6.^.6.^.^.6.A.G.Y.^.Q.T.Q.Z.R.Q.Z.Y.P.~.!.~.~.T.L.H.~.T.P.L.~.T.~.!. XW.E.E.*X&X=X{.&X&X;X=X X*X.X&X X~. X&X&X2X1X XW.~.~. X1XXX~.~.L.~.~.~.P.T.E.~.~. X!.XX X X&X~. X&X&X&X%X X1X*X3X&X*X*XXX*X*X=XXXXX X X X*X%X%X XXX*X X X X!.~.~.I.!.%XXX~.~.W.&XE.R.S.K.c.d.d 0 3 0 3 * 3 * & < * 5 q q 3 3 3 3 3 & < < =.[.P.K.,.P r & , > < < % % % < < < < < < d e D +.h.D.Y.Q.Y.E.E.{.#X$X{.#XQ.Q.E.&XE.E.#XW.*X%X X~. X X!.!.$X X%XE.T.Y.W.{.$X$X{.$X&X X XXX X%X X XR.E.E.|.E.E. XE. X XE. X%X X~.E.E. X XE.E.P.E.R.[.[.P.F.I.S.K.n.l./ 0 * w U 9 U Q W { { z $ $ # # & # # % # # # # # : ; # ; # # + # + ; # # # ; ; : # : > > > > : ; , , ; ; : ; , 1 ; ; # # # # ; & : ; # # : > # > # > # > # # ; # # ; # # : # # # # ; # ; ; : : ; ; ; # ; > ; > > ; ; ; ; # # # > + ; > 2 y y t 2 > : ; ; : : : ; ; ; t t 6 6 1 2 b Y Q W 8.7.7.t.8.7.t.7.7.7.8.8.7.8.t.q.7.7.a.Q T U Q U D m z N T Q Q c z 6 6 6 t 4 5 w ^ d.x.n.v.v.K.L.[.P.P.[.[.[.I.P.P.[.{.[.E.[.{.E.[.R..XI.[.I.P.I.P.D.F.[.[.L.P.S.S.C.c.D.c.l.c.c.j.h.h.l.v.l.<.1.1.I.1.z.z.j.l.h.1.z.j.C.v.z.v.z.C.1.,.l.1.<.-.-.j.>.h.,.z.z.l.h.j.>.j.j.z.j.$.3.h.h.z.c.h.V.j.$.h.j.h.h.h.h.F.$.j.$.3.3.#.>.$.3.$.$.3.1.>.>.$.>.>.>.,.,.1.1.>.,.>.,.l.h.l.l.l.l.f.h.<.$.$.h.h.h.j.f.c.f.,.,.f.k.f.=.k.r.m.b.x.b.u.x.M.M.x.x.m.x.g.=.=.=.<.4.=.=.=.=.I _ _ } _ =.I I L k P P I =.=.P =.P L G J Z Z G P P _ G L L J G Z ",
"&X;X=X&X$Xh.R.:X>XOX.X}.}.}.OX>X6XxXzX8XD.[.&X&X#X[.R.R.H.C.L.P.R.R.R.{.W.[.&XE.2X*XE.1X XP.%X*X~.I.%X~.K.~.Q.~.L.!.$X!.!.H.Q.H.B.Y.Y.4.J.J.Y.B.A.Z.Y.Z.Y.E.R.T.T.T.W.Z.Y.T.^.^.^.Z.H.Z.Z.N.N.J.Y.W.Q.Y.Q.!.W.W.A.N.H.A.J.Q.^.J.J.J.6.6.J.~.J.0XVXVXVXVXzXT.T.T.J.V.B.$X9XQ.^.A.6.6.6.^.^.^.6.#X6.G.A.6.A.A.^.H.Y.Q.W.Q.Q.H.B.H.T.P.L.Z.E.!.!.T.~.Q.H.Y.H. XT.T.#X&XW. X X$X&X*X=X=X&X=X2X1X&X*X=X X XXX&X X2X X X X X~. X!.~.~.!.I.T.Y.Y.~.~. X~. X X%X%X1X%X*X*X X*X*X*X2X2X1X3X2X1X XXX%X&X=X&X XXX~.*X&X&X1X X~.!.1X1X|.1X~.Y.T.~. XXX X X~.{.{.{.E.R.P.S.| * 0 0 3 d 3 3 & & * & 3 3 3 q 3 * d < < 2 a n.[. XR.S.h.J a * < , < * % % * % % * < 2 d 2 0 C #.c.Z.H.R.Q.{.Q.E.$XE.W.{.Y.$X{.#X,X X%X1X1X4X*X X%X XE.!.!. XW.W.T. XW.{.{.{.-X&X|.E.~. XoX%X%X XE. X X X3X&X X X X2X&X X.X X X X X|.E. XT.P.E.E.[.[.I.P.I.P.K.>.G = 3 t E m Q u.t.{ B & & $ # # % # # # # # # + # ; # ; # # # # # # # # ; # # ; # # ; ; ; ; ; > , ; ; , > 1 ; 1 > ; ; # # # ; # : # # # # : > : > # : # ; ; ; ; ; # > ; : # # : ; # ; ; # > # > > : > # > # ; # # # # # O # # # ; > > 6 y b y t 5 : ; O O : ; O + ; ; 1 1 1 8 6 y U T 8.8.7.7.8.t.8.8.8.8.8.T T 8.7.8.7.q.t.q.t.W W Q D B M x u N Q 8.T v z u t t t 4 5 & H :.f.m.n.K.K.P.[.[.|.I.R.I.[.oXR.}.oX[.{.[.[.R.[.[.[.E.[.E.P.P.{.F.c.S.P.F.F.P.P.S.v.D.S.c.j.h.z.h.j.<.K.v.b.l.1.b.1.j.h.j.c.j.j.1.c.C.l.l.l.h.1.2.1.1.<.<.<.<.,.3.1.,.l.l.1.1.>.l.l.V.c.$.>.$.$.$.j.j.h.j.,.j.N.$.j.3.,.j.P.h.#.$.>.$.$.>.>.$.$.1.3.>.;.>.-.>.-.>.>.h.h.h.,.>.>.<.,.>.>.>.l.1.>.,.>.$.h.$.f.$.e.h.h.l.f.,.f.f.f.f.x.M.1.x.M.x.x.M.x.x.M.l.x.M.x.m.f.=.=.5.=.=.=.=.=._ _ ` } =.I =.P Z P =.=.L =.=.I P P L L Z H L L L ( L P G Z G L ",
";X&X.X}.}.[.[.>XOX;X.X].F.>X4X.X6XlXlX>XR.D.E.R.}.L.L.R.P.=XL.L.L.P.$X&X>X&X.X=X|.T.Y.P.Y.~.R.~.~.J.L.~.!.~.L.K.I.~.!.T.E.!.E.W.T.J.J.6.Q.^.T.A.B.N.B.T.W.Y.Y.H.A.T.T.^.J.W.Y.=X$XW.Q.T.B.4.N.Y.Q.Q.Q.Z.H.H.^.^.A.T.A.B.J.L.B.B.J.~.6.6.J.~.~.~.#X1XMXMX1XJ.J.T.Z.J.Y.1X1X^.A.B.6.6.6.6.^.#X6.6.6.A.A.6.A.#XQ.A.Z.H.W.W.E.H.H.Z.T.J.Z.H.T.Q.T.!.T. XY.H.T.Y.~.T.W.$XW.%XW.=X%X&X&X&X$X$X X%X&X&XXX%X=X X~. X X X~.E.T.!. X XE.~.~.!.%XXXXX~. X~.!. X!. XXX*X%XXX XXX=X*X2X1X=X%X%X3X4X%X1X*X XXX*X X X1X&X1X*X1X*X!.~.~.!.1X%X XXX!.~.E.$X%X!.~.E.$XR.R.I.P.F._ * d 3 3 5 * 5 3 < < & * 3 3 3 4 3 3 < & < ^ ].|.&X|.E.P.k.( f d < % , * < < < * * < 2 2 < * d K ( f.D.R.{.#XR.#X-X$XQ.#XQ.&X-X&X=X=X X1X3X9X%X X X X%X$X*X!.E.$X&X*X X$XQ.&X$X=X X&X1X X XXX X~.%X&X1X*X8X1X1X X X&X=X&X&X%XXX X~.E.|.E.~.E.R.}.|.[.P.F.I.n.n.` C - 5 4 U W r.u.y.E 3 $ $ $ # # # # # % : : # # # # # # ; + ; # ; # # # # ; # ; # > > ; ; # : > ; , > : > , > > , : ; + # + ; ; # # : : : # # > : ; ; % # > # # % ; # # ; # # : > # # ; # # : # ; > > ; + ; # # ; ; ; ; ; # # # + > 2 y y y 4 2 # # : # ; $ ; ; ; ; , c c S A v T Q 8.W 8.q.7.q.8.Q Q 8.Q T T U T T Q T Q T T 8.U U Q B A N i i m Q 7.8.S b t t t 4 4 5 < < P -.g.n.n.P.S.}.E.P.P.D.L.F.P.E.E.R.[.[.}.P.].[.[.[.P.K.S.K.L.P.E.I.L.&X{.P.S.L.S.c.l.j.C.,.f.z.1.>.l.l.1.l.1.x.l.v.h.j.j.>.,.1.1.c.1.l.1.1.1.1.l.b.1.<.<.;.;.;.;.2.2.<.1.1.1.j.z.j.h.h.3.h.$.h.z.z.j.h.h.f.>.h.$.h.,.$.h.G.c.j.#.3.3.#.$.;.>.$.$.$.>.;.;.#.-.$.<.,.1.h.h.3.-.>.>.-.>.l.1.l.,.:.,.>.$.j.h.3.h.$.>.f.f.k.>.>.x.,.=.=.1.M.b.x.g.x.x.x.v.x.x.x.x.f.f.x.<.=.=.5.=.=.=.=.| | _ | =.=.=.I L =.I =.=.P =.I I G L P Z k k H Z R P P J G G L ",
";X>X}..X&X}.>X>XoX2X}.&XzXlX6X2X4XkXcX>XZ.P.C.L.{.R.Y.D.E.{.T. XE.E.R.{.*X XR.P.L.E.P.P.C.L.J.R.XX~.I.%XL.~.%XQ.E.R.%X!.Q.H.B.H.B.T.T.A.J.!.^.J.2.Z.J.H.H.E.Y.J.Z.Q.!.Y.Z.J.Y.W.W.^.Q.#X%XT.^.H.H.Q.Y.^.Y.Z.W.Q.T.~.6.^.^.J.T.^.6.^.T.6.6.6.^.#X-X6.T.^.T.6.J.T.J.Z.H.=X9XJ.Z.6.6.6.6.A.^.#X6.A.^.^.^.6.^.#X^.G.Y.^.Y.R.Y.B.Z.Z.B.B.P.H.E.T.T.H.!.!.H.H.L.J.T.~.T.!.$XW. X%X%X*X=X X%X1X*X2X&X XXX X X X&X&X%X X~. X X~. X%X%X!.~. X1X1X1X1X~.~. X X X1X%X X X X%XXX*X3X1X*X=XXX1X*X1X%X X1X*XXX&X X&X*X X&X=X2X X X~.~.XX!.1X%X1X X!.I.1X%X X X{. XE.[.E.@XD.j d d 3 < * < < d * & & < < 3 < < 0 < 3 < 2 k.}.}..X.X X[.P.l.( a * * * * * < d , * < < d d < * d j X.c.D.R.W.#X#X$X-X#X&XW.&X*X%X%X%X%X3X0X3X%X%XXX X%X%X$X&X%X&X&X=X&X&X=X=X$X=X&X&X*X=X X%X X|. X;X4X7X3X1X*X&X&X X X&X X X&X.X&XR.E.E.E.E.I.P.E.P.P.I.n.n.l.=.r & : 9 N t.i.p.i.9 & $ $ & $ $ # # # # ; ; + + # ; # # # # # # # ; # ; # + ; ; # # ; ; > # > > , : ; > > , > > : : # # # ; # # : # # # # : : : # ; # ; # > > ; ; ; ; # # ; ; # ; : # # ; # ; : # ; > ; # # ; ; ; ; + ; O : # O ; ; 1 8 8 8 1 ; # # + ; ; ; O ; # ; : u S U Y T W W 8.7.8.8.T 8.T B U T U B M N N B B N v v v N z m N N m N u i N T 7.8.8.v z y 9 5 4 5 < & h =.d.x.x.L.I.P.|.P.C.S.S.P.L.R.I.[.[.}.R.S.P.[.P.R.L.E.K.C.v.K.K.K.P.|.~.P.P.R.K.C.j.c.j.h.P.kXE.<.-.j.l.z.v.x.b.l.1.h.l.1.j.h.j.j.1.l.1.<.<.4.b.l.l.<.,.<.1.1.1.1.1.<.l.z.>.1.h.j.j.,.,.,.j.h.j.j.$.2.j.j.j.h.,.;.1.>.>.P.3.j.#.#.%.#.#.#.#.;.$.$.-.#.-.+.#.-.,.l.>.1.>.>.$.>.$.$.>.,.z.h.1.:.3.$.j.$.h.$.$.#.$.>.>.>.>.>.f.,.=.=.g.r.v.g.f.x.f.1.x.x.x.x.l.M.,.r.=.=.=.=.I =.=.I ( _ ) =.=.=.=.I k I =.=.J =.=.k L J P G Z V H Z Z L P ~ ^ / L L ",
" X.X;X&X&XE.&X[.oX>X2X2X6X;X;X;X>XkXxX6XK. XP.L.[.D.R.L.K.C.P.R.E. XE.{. XXXR.E.H.H.J.H.V.H.E.T.T.6.J.J.~.J.~.Q.E.W.#XR.E.T.R.Z.A.W.Y.^.T.J.Q.T.Z.Y.H.^.T.Y.b.H.Q.Y.T.^.W.Y.Z.A.Y.Z.Q.1X!.Q.Q.Y.Y.Y.Q.Y.Y.Y.$XY.J.6.T.J.^.J.J.T.~.^.J.J.~.~.T.Q.~.#XT.~.~.~.6.T.T.P.Y.3X9XZ.^.6.6.6.6.^.^.6.6.6.6.6.^.#XY.^.Q.Y.^.H.Z.Y.Y.G.Z.B.Y.T.T.J.Q.T.E.L.Y.!.~.H.T.~.H.~.!.&X X~. X1X&XXX*X3X&X X X=X%X*X&X X~.*XXX&X XoX%X%X X1X1X~.XXE.P.1XXX!.oXT. X~. X X~. XE.E.XX X~.%X3X&X2X1X X%X.X~.|. XXX X%X X*X X!.*X~.%X%XW.%X!.!.!. X X1X X!.~. X X~.%XXX~.$X#X[.[.[.P.h.d d 3 * * * 4 < < < % % < 3 0 < 2 3 3 < , r F..XoX.X.X.X.X[.K.x.( f d > 2 < < d < * * * 2 2 d 2 < d f / f.S.[.$X{.W.:X&X$X$XW.*X%X=X=X=X1X1X1XXX X%X1X3X3X$X%X*X*X1X&X=X=X>X:X:X:X%X*X3X&X X3X:X X.X=X&X=X3X*X2X&X=X&X|. X X&X:X=X|. XE.E.R.}.[.E.[.[.[.F.K.x.f./ * & 5 m B t.7.u.{ & $ $ $ $ $ : # # # % # # + + # ; : # + # ; # # # # + ; # # + # # + # # # ; > > ; ; > ; > > > : # # # # # ; # # # # : # # # # # # ; ; # ; # > ; + # ; & # O : ; > > # # # # # # # # ; ; ; ; + ; + ; ; : O # : ; ; 1 8 1 ; > ; # # ; ; # ; ; ; ; # 1 5 y c U Q T T Q 8.T T B N B B M N v b z z 8 z z z b b 9 b u 9 z m z z m i m N 8.8.7.T v z t 7 5 4 5 : & L d.v.l.P.I.P.K.E.I.P.S.P.P.P.P.R.[.R.{.[.R.[.E.E.P.P.K.K.v.v.L.S.Z.P.K.P.v.b.C.b.l.S.j.j.oXC.v.1.1.,.;.<.b.,.4.,.l.;.<.;.<.,.;.1.l.l.1.1.<.1.1.b.4.<.<.<.<.-.-.1.2.4.1.,.<.>.j.j.j.1.,.,.j.$.h.j.;.h.j.h.h.3.>.;.>.#.;.S.$.j.1.#.#.+.#.$.+.%.$.#.#.+.` -.+.-.l.,.>.f.h.>.3.h.h.>.>.h.h.h.>.-.-.#.$.$.h.h.#.#.#.$.:.:.-.=.,.x.:.=.=.x.x.x.=.<.M.=.=.,.r.,.=.,.:.:.=.=.=.=.=.=.=.=.=._ I =.I I =.=.=.P k P =.k J =.( / I L P Z G H L P P ^ P P P L ",
".X.X{.{.;X=X=X:X7X6X>X4X2XXXoX}.[.;X2XoXI.E.P.P.E.E.R.C.1.Z.|. XL.L.E.L.L. X XE.H.E.P.H.J.T. X~.J.J.I. X%X~.1X!.Q.T.#XZ.Y.Z.T.Y.$X!.Y.J.^.T.Q.L.^.Z.H.Y.H.Y.J.Q.W.Y.^.Y.Q.Q.Y.T.$XY.Y.J.A.!.W.T.W.W.Q.Q.Y.Z.^.T.T.T.~.6.6.^.J.T.~.^.Q.^.J.~.Q.^.Q.~.6.6.6.^.~.T.T.T.H.*X1XZ.^.J.6.#X6.^.A.#X#X6.A.G.N.H.^.Y.H.#XQ.Y.Y.Q.Z.Y.T.Y.T.H.T.H.H.!.~.Q. XE.~.Q.!.!.~.%X1X%X1X~.W.=X3X1X*X*X*X X%X&X X X XT.E.XX X X X*X2X3X3X1X*X|. XE. X X!.XX%X X X%X X!.XX X X X*X%X&XXX$X1X*X*XXXXX1X*XR. X X1X1X2X~.~.!.%X*X=X=X&X~. XXX%X1X X X1X X1X*X!.!. X%X~.[.{.}.$X[.D.$.d d d 3 d 3 3 5 * * % % < 3 0 < d < 3 < * J }.&X.X.X.XoXXX.X[.P.l.o.f 0 < d < 2 < 2 < d * * < * * d 0 f _ c.R.@X=X&X$X{.$X&X X*X=X&X XXX1X9X4X1XXX2X&X*X1X&X X%X X&X X X&X=X&X&X:X*X*X X*X&X*X=X&X&X;X X X&X>X X&X&X}.&X.X.X&X:X{.{.{.oXR.[.R.[.E.}.R.S.F.v.>.-.h = 5 9 Y Q t.t.t.i $ $ = # # # # # ; ; + # # + > # + # # # # # # # ; ; + # # # ; # > ; # : # ; > > ; ; ; ; ; ; ; # # ; # # ; # # # # # : # # # # # # # ; # # > # ; > q y z z z 7 c n 6 , ; ; ; O ; > # # + # > ; + ; + ; ; # ; ; ; ; > ; > ; ; ; ; + ; + + ; ; ; ; ; , 5 z M U U B M S S N v v v B U U B v z b 8 7 7 7 y 6 6 6 6 5 8 9 w p u p i m m T 7.8.8.B z t 6 6 6 5 & % V ( f.n.U.P.K.L.P.L.P.F.L.S.P.R.I.P.E.P.P.P.I.I.D.Z.K.K.K.L.U.b.S.K.K.L.P.K.z.b.K.S.2.z.c.b.,.1.;.;.z.1.<.l.<.b.b.1.;.l.b.<.l.1.1.<.<.l.b.,.1.2.4.1.<.1.4.5.;.2.5.>.1.1.<.+.1.j.h.j.h.,.j.;.$.#.#.3.>.j.1.,.>.>.#.<.#.1.z.>.1.#.j.#.#.@.#.+.#.@.$.#.#.` -.` >.,.>.>.j.$.#.f.j.j.3.h.h.h.h.>.;.-.:.3.h.$.h.$.$.#.>.;.-.-.-.| k.l.,.<.,.b.r.x.=.u.<.=.,.:.,.=.' =.=.I =.=.=.=.I =.I _ ( _ _ =./ =.=.J k =.=.J =.=.k / / _ L G G k H Z L G P ! L L P ",
"[.{.&X>X;X>X>X>X:X2X;XoX;X&X;X[.|.kXNX8XP.P.P.*X>X$XP.1.2.E.&XE.E.R.E.L.E.R. XL.H.Y.H.T.Y.E.W.T.L.J.J.T.~.~.J.~.T.Z.T.Y.Z.Z.Z.Y.$XT.B.J.#XL.~.J.Y.H.!.Y.Y.H.!.Q.Q.Q.W.T.Y.T.^.#X^.Q.Y.Y.Q.W.^.Y.W.Q.H.W.Q.Y.Q.^.T.6.J.^.^.6.^.6.^.6.^.6.~.6.T.^.6.T.T.~.#X~.^.~.!.Q.T.1X9XZ.T.J.6.6.^.6.6.^.#X#X6.2.A.A.A.^.A.Y.Y.Z.Q.Y.T.Y.E.Q.Y.T.L.L.Y.!.~.!.!.!.Y.~.~.1X~.1X1X=X X X%X&X*X1X8X2X*X&XXXE. X X X XR.~. X1X1X*X&X3X=X&X&X X%X*XXX X1X*X XXX XXX XXX1X1X XXX&X&X XXX%X4X=X3X3X%X2X2X=XoX X&X*X%X1X X~. X=XXX%X&X XQ.~.~. X%X~. X~.~.*X!.*X$XXX|.{.{.{.}.[.D.#.= d * 3 d 3 3 3 3 < * % < 3 0 < 2 < < < * k.}..X.X.X&X[.|.oX~.P.P.k.#.Z e < * < < < d 2 * * < d * d d 0 j X.c.@XQ.{.$X=X%X X X%X XoX1X1X4X8X1X1X*X*X*X*X1X&XE. X X&X X X*X X$X:X:X3X*X~. X&X2X2X*X X.X X&X{.{.=X.X&X{.&X{.{.{.{.&X.X|.E.[.R.R.I.[.E.F.n.z.l.=.P d & 5 i W =.t.Q h & $ $ # # # # # # ; # > 1 , + + # + # + # + # # # + # ; # # # # # # : > # # ; ; ; ; ; # ; ; ; # ; # # ; O # # # # # # # # # # # # ; # # # ; # : 1 c n c A S D n M t , , ; ; ; ; # # # ; ; # # ; + ; ; ; + ; ; # ; ; ; ; ; ; ; ; ; O + ; ; + + ; ; : , 1 8 c v c z v v v v z z M 8.9.q.u.T v 8 6 6 4 6 5 6 6 6 5 & 5 5 5 7 9 9 p b v m B Q B M v 7 6 7 1 5 : % 3 G | m.n.v.U.[.L.L.K.D.S.C.[.[.[.}.[.I.L.S.I.I.I.~.P.P.v.v.J.b.J.K.C.J.L.K.B.z.v.b.2.V.z.1.<.<.<.-.+.;.1.b.4.=.b.1.<.2.l.;.<.<.1.l.<.<.<.1.1.1.1.1.1.4.<.1.<.<.<.<.<.1.2.#.>.<.c.V.,.3.$.;.C.<.%.#.j.h.,.,.3.;.;.;.+.>.z.1.%.3.$.+.@.+.+.+.+.$.>.#.;.;.-.-.;.;.>.j.h.j.f.>.h.f.$.h.>.` >.>.$.+.#.$.#.#.#.@.$.#.$.-.$.-.' =.,.:.=.=.=.f.x.b.=.x.,.=.f.-.=.I =.=.=.=.=.=.I =.=.=.I ' ) ) ( I =.P / =.k P k =.P J =.( P L P P L L H G Z G L P ~ J L ",
"R.[.{.}.7X>X=X.X>X4X*X[.4X5X6X2X;XlXxX5X[.|.|.*XE. XP.P.P.W.=X{.|.E.!.~. X%XXXY.T.T.J.Y.~.Q.J.J.L.Y.Z.Z.Z.Y.Q.Y.H.Y.B.H.H.Q.H.Y.Z.Z.E.#X!.^.L.J.L.Q.Q.^.H.B.J.T.Q.#X#X!.#X$XJ.^.Y.T.#X^.T.#X#XY.#XT.Y.W.Y.Q.W.Q.T.J.6.J.T.6.J.J.2.6.J.J.^.J.J.J.J.J.J.T.Y.B.J.Y.R.Y.E.=X9XZ.^.A.^.6.A.A.H.A.Q.^.^.Q.^.H.Z.^.^.^.Y.H.Z.T.Y.H.T.L.Y.T.Y.H.~.T.T.%X!.T.~.!.~.=X1X1X X!.E.~.~. X1X*X1X&X*X XXX X~. X&X XXXXX1X1X*X*X1X*X*X*X1X X XXX!.!. XXX%X1XoX~. X X*X3X1XXX1X2X1XXX%X9X3X3X8X*X%X*XXX X%X X X X$X$X$X%X%X=X%X{.{.R.#X*X%X&XE.E.~.~. XT..XW. X&X XW.[.[.E.S.X.d d d 4 3 3 3 3 3 * % * & 0 0 < d 3 < 0 ` }. X;XoX*XXX XXX|.~.E.P.@Xx.g.J r < & * * & & & d d < < d d d w G d.S.R.{.#X{.[.&X&X%X&XXX XXX3XzX8X1X1X=X=X*XXX X X*X2X*X&X~.*X%X&X X1X XXX%X=X X XXX.X X&X X&X{..X{.&X}.{.[.[. X&X&X&X{. X{.{.[.[.[.D.v.v.x.,.f.( h * 5 5 N W { t.N & $ $ # # # $ # # # > > 4 x z 6 % ; + + # # + O # + # # # # # # $ + # # + ; ; : # # ; ; # # > > # # # # # # # # # # # O O # # $ $ # # % + > > 2 2 q M S A c c M n y : ; ; ; + ; # ; + ; + ; ; + ; ; ; ; + ; ; ; ; ; ; ; ; + ; ; 1 > # O # O ; # ; # : : : , 4 t u t b z S T U v T q.u.y./.q.Q M i 5 5 5 1 1 8 1 : , 5 : 5 4 4 5 p z z z v M U c b u t 6 6 1 1 : # a } f.S.F.F.P.P.I.D.P.I.P.E.[.}.E.R.P.P.R.L.E.E.P.L.C.K.b.b.K.b.K.v.K.K.J.b.1.b.l.z.v.J.l.<.1.1.1.<.1.,.U.<.1.1.1.1.K.J.l.1.1.l.1.b.l.b.l.l.1.-.<.<.<.<.<.<.<.<.1.4.4.1.j.>.z.>.j.1.3.>.z.z.>.>.S.j.h.>.h.;.;.>.$.+.#.j.$.@.3.$.%.+.+.+.+.#.$.@.#.+.+.` #.;.$.>.h.>.>.,.h.h.f.h.h.>.>.>.#.#.#.+.#.$.+.` #.+.#.$.>.>.>.:.>.>.d.d.>.:.:.:.f.f.,.f.f.,.g.=.=.=.=.=.=.=.=.I =.I =.I =.I =.I =.) ( _ I G P P =.I P =.P / / L Z G P L G G G G L P P Z ",
"[.R.{.[.=X4X6XkX4X2X;X5X6X2X>XXX2XxXlX3X~.P.L. X|.*X X X X|. XE.W.S.K.H.E.P.P.Y.Q.I.T.K.L.!.~.Y.Y.T.T.Q.Q.Y.D.R.D.Q.Y.Y.Y.R.Q.R.T.Z.Z.Y.!.$XT.!.~.Y.~.E.J.J.J.J.Q.$X!.Q.!.^.Y.Z.Q.T.=X!.T.#X#XT.T.W.W.Q.T.^.Y.T.~.6.6.T.T.6.J.^.J.J.J.6.J.T.~.J.B.B.B.~.T.H.J.J.Y.T.^.=X=XH.Y.J.^.6.6.A.A.^.A.^.^.^.^.A.^.^.Y.A.Y.Y.Y.Y.T.W.Q.Q.T.~.E.H.Y.!.~.~.!.!.Q.~.%X%X~.~.1X X~.E.~. XXX%X%X X X X&X%X XXX%XXX~.%X4X2X*X1X&X1X4X1X3X1X X XXXXX*X=X%X*XXX XoX*X3X=X%XXX&XXX*X*X1X4X3X3X4X1X X X X X*X2X=X~.$X=X{.$XW.{.$XW.%X$XW.W.%X XW.W. X!. X XE.E.|.{.E.E.E.P.F.D.! * d d 5 d 3 3 3 3 * & * < 2 0 2 2 0 < V oX&X*X3X%XXX X X!.XX X|.E.E.S.x.f./ a * = * * = = % = = * * d 0 a o.d.S.N.Y.{.R.#X&X%X&X2X3X=X8X0X8X1X1XXX X|.XX X X X X&X*X X X X&XXX1X*X XoX=XoX1X*X=X X.X&X&X{..X{.{.{.$XE.E.{.|.|.{.[..X{.[.[.{.$X].D.L.n.P.z.| V & 3 5 u Q r.9.E : $ $ & $ # # & : : ; : > 4 y z c i 4 , 1 ; # O + # O O O O # # $ O # + + ; ; + + # # + # ; ; # # ; # # # # # # # # # # : # # # # # # # > y z c c c 4 z y 2 2 t y 2 ; ; ; ; ; ; # ; ; ; ; ; + ; ; ; # # ; + + ; ; + + ; + ; + 1 ; 1 : O O # + O ; # O ; & , , , 4 4 z M S W 8.7.M v Q 7.9.t.9.W U z 6 6 5 1 1 1 1 : , : 5 : 5 9 9 t y v z b v c v z t 6 2 6 2 1 & & = Z f.k.x.L.P.E.I.L.R.P.P.E.[.R.I.E.P.[.P.P.F.P.P.K.v.v.n.b.v.J.J.b.C.J.K.n.b.b.b.z.<.b.,.1.l.<.b.<.<.b.b.1.b.<.2.l.<.<.b.C.1.b.b.1.<.1.<.<.<.2.1.4.1.1.1.<.1.<.1.<.,.1.>.h.3.1.1.h.,.>.z.h.1.;.j.1.3.>.1.1.>.1.3.' #.j.h.@.#.#.+.' @.#.%.#.#.#.3.#.#.#.;.$.>.;.>.>.>.h.>.f.$.h.h.>.f.h.h.$.+.#.#.$.$.+.#.$.>.,.f.,.>.| :.:.h.:.$.| >.f.x.=.=.=.x.=.=.=.=.5.=.=.=.I =.=.=.I I =.) P =.=._ _ _ | =.L I I =.P =.P P P / P P / P L Z G Z G ! / P L ",
"{.[.R.;X{.6X;X4X4X*X2XoXoX>X.X;X6XlXxX5X|.P.P.P.I.XX=XE. X XC.V.R.P.V.P.T.L.E.Y.H.T.T.P.L.Y.T.Y.R.T.E.H.N.E.E.Q.Y.Y.Y.W.$X#XQ.R.!.W.^.J.A.H.~.%XQ.^.J.H.J.H.~.T.H.T.T.!.#XQ.^.Q.Y.^.E.^.E.-XW.Y.Q.Q.%X#XT.^.H.H.T.T.T.Q.^.J.~.6.^.B.J.J.J.T.~.^.J.Y.T.~.L.J.B.J.A.W. X3X2X^.Y.Z.^.6.6.6.6.^.A.A.6.N.A.A.G.H.Q.Q.^.Q.Q.E.T.E.!.Y.T.Y.Y.Y.L.Q.W.!.!.!.1X1X1X%X X1X~.~.E.Y.E. X*X*XW. X X XE.*X%X&X XE.|.%X~.&X=X X X2X3X=X2X X%X X1X=X1X*X2X1X=X*X*X*X*X*X*X X X*X*XXX1X3X%X=X*X3X%X X X X*X*X|.E.=X&X=X,X$X$X{.%X%XW.W. XW.E.{.{. X!.~.!.R.R.{.{.~.P.R.I.@XD./ * 3 d 3 3 3 * 3 * * & % < d 2 2 d 2 0 e F.E.%X1X%X!.XX X~. XXX&XE.P.L.S.S.f._ V * * = = = % % = * d 0 0 e G #.j.E.D. X=X$X%X&X X XXX2X=X3X8X9X2X%X X~. X X~. X&X XoXE. X X%X X3XXX%X X4X%X&XXX X X{.{.{..X{.oX X*X=X{.&X{.{.E.E.E.E.{.W.E.{.C.@XD.K.v.<.-.r = & w m Q 7.u.u.u = $ $ : $ $ # : $ # # : ; ; % q z z y y y 6 , # + # # # # O # & 6 : # + + ; O + # # # # # # + # # # # + # # # # # O # # : , 5 5 5 6 6 2 y x A x q , > > # > ; ; ; ; # # ; # ; ; ; ; ; + + ; ; ; ; ; # # ; ; ; + ; + ; ; + ; ; 1 1 1 ; + # # ; + O ; : # : : , , 3 7 v T T B T U B T T S B B U M N i 6 5 5 1 1 1 : : : : ; : 5 3 5 p c v z b b z z t t 6 2 6 5 , : # % * _ g.z.S.P.P.I.P.P.L.P.P.P.L.F.P.P.R.I.P.L.C.P.b.K.K.v.b.l.v.b.b.K.K.K.b.v.v.1.1.1.1.4.1.1.1.b.x.<.b.v.b.l.1.2.1.l.v.<.1.1.4.l.<.<.<.;.<.1.l.1.1.1.<.1.4.l.<.1.-.<.<.z.j.<.>.h.j.1.h.z.j.1.+.>.1.j.z.1.;.1.1.;.#.#.D.N.#.@.#.+.@.#.#.$.3.>.3.3.3.#.#.#.3.>.>.>.>.>.>.f.j.k.k.j.>.>.>.1.#.#.#.$.$.$.#.#.$.>.$.>.h.-.| -.>.>.:.=.>.:.g.=.,.,.=.=.=.=.=.=.=.=.=.=.I I =.=.=.I =.=.I =.I ' _ ' ' =.P =.=.=.=.L L / I / / / P ! L G G G L P / G L ",
"}.[..X}.{.{.;X&X&X&XoXXX~.oX;X4XkX5XxX5XoXR.E.!.L.B.P.C.P.H.Z.Z.P.T.Z.L.L.I.~.L.Y.Y.T.Q.T.L.J.Y.W.Q.H.D.{.-X#XL.Z.H.B.Z.Z.Y.H.#X%X1X0X!.Q.Y.Q.Y.J.L.J.Y.!.%X!.L.!.!.!.%X!.W.W.-X$X^.#XT.Q.Y.Y.^.Q.W.^.Z.2.Z.T.Q.~.T.J.^.T.T.J.^.J.T.J.J.J.J.!.#X~.Y.^.T.T.J.J.T.L.W.T.3X=XH.Z.A.^.^.6.A.A.6.3.3.B.A.G.A.A.^.^.Q.#X#X#XE.!.W.!.~.~.E.T.~.!.!.!.E.!.#X1X%X$X%X X%X~.~.%X!.E.E.~.R. XXX X X~.*X X&X=X X&X*X X&X&X%X~.*XXX3X1X&X*X XXX%XoX*X*X*X*X*X1X*X%X X%X X1X1X1X=X1X4X3X3X1X X*X X&X X X*X~.~.W.{.:X$X$X$X$X&X#XT.Y. XE.W.W.{. X X~.~.Y.R.E.{.E.Z.K.P.C.k.C < d * 3 * < * * * & % * < < 2 0 2 0 2 * $.XX1X9X9X1X~.!.~. XE.E.W.P.W.L.S.v.f.P r * = = * % = * * < * d 0 Z +.V.R.R.E.,X&X&X$XoX*X%X=X3X1X8X%XXX%X X~.$X X X X*X X X XW. X~.XX1X=XXXXXXX=X&X%X XoX}.;X{.&X=X.X{.&X&X{.}.E.{.[.I. X}.R.E.D.D.C.D.D.b.1.-.G = * w n W { r.u.E $ $ # $ $ $ : # # O O # # + # + > > q t y t 4 1 3 1 1 , 5 1 7 9 u u 8 , ; + > ; + O + # + + # ; ; > + # ; # # 5 7 7 7 6 t t t t u 7 u z y z c x > , > % # > # # ; O ; # # # # ; O ; O ; ; ; + ; ; + ; ; ; ; # ; ; ; ; ; ; + + O ; ; 1 ; + + ; + ; O ; # : : : , , , 6 v M N U W T 8.i.p.q.T v N m v z 9 6 6 5 5 1 1 : 1 5 ; 1 7 5 4 7 z c v b y b y b u 6 6 1 5 , : : * m ( >.m.C.F.K.P.R.S.P.I.R.P.[.E.I.P.P.P.[.P.L.K.P.J.C.4.K.b.l.b.K.J.K.J.K.J.v.z.z.l.b.b.l.l.2.b.1.4.=.b.b.1.v.l.<.<.1.;.<.l.1.<.>.<.<.<.<.<.<.,.4.1.<.<.l.l.<.<.,.<.>.,.j.j.l.j.j.h.N.j.1.S.+.#.>.,.z.1.>.>.>.;.;.>.B.j.#.$.@.+.;.-.%.$.$.#.>.$.$.$.#.#.+.>.>.>.>.f.>.h.h.k.e.h.>.,.,.$.+.X.+.$.$.>.$.#.#.>.>.>.>.;.| f.f.>.| ( | =.f.f.,.=.=.=.<.=.=.<.=.=.=.=.=.=.=.I =.=.I I =.( =._ =.=.=.=.=.=.=.P J =.=.) ) ( ^ L / / L G Z L L / ! G G ",
"Z.h.{.}.}.L.D.>X[.U.P.<.c.S.P.S.|.;XlX5X|.T.K.~.XXH.K.4.Y.Z.B.E.Y.W.T.Z.T.L.Q.T.Y.T.!.!.Q.Q.Z.L.T.P.^.T.W.Y.B.Q.Q.Z.Y.Z.Z.Y.Y.T.!. X%XQ.J.T.~.^.J.#X#XT.Y.T.J.!.T.T.T.Q.H.Q.$XT.T.W.#XY.Q.Y.T.E.Y.Z.Q.Q.A.H.T.Q.T.J.T.T.J.J.J.T.Q.J.L.^.J.T.#X%XQ.!.~.!.Q.T.T.J.H.H.T.1X9XH.Z.A.A.H.A.A.^.G.2.6.A.6.A.A.^.Y.$X#X#XQ.R.$X X!. X#XQ.Q.T.!.!.!.~.Q.!.#X1X1X1X!.~.1X~.~.T.~.E.!. X X X*X X X~. XE. X~. X X X X X X X X*X=X1XXX%X%X*X X%X XXX=X3X1X1X5X4X%X%X%X~. X*X*X1X1XXX9X=X4X1X9X&X$X$X%X$X X$X$X$X$X{.{.$X#XE.R.E.R.#XW.W.E.E.!. X$X&XE.R.=X{.~.E.D.P.S.( * d 3 3 3 3 < * * 3 * % & * < < 0 2 < 0 d V  X&X&XMXXX X{.E.T.W.R.W.E.Q.J.Z.C.v.:.P a * % % * = % * * * q C ( h.D.R.E.*X&X X X X X*X~.XX*X%X4X XXX X X X X X X X X XE. XW. XE.oX X X~.=X X&XXX~.E. XE.&XE.~.W.{.~.R.{.R.E.E.E.I.E.P.R.[.E.D.R.D.S.S.<.5.=.k & 5 p W 7.r.t.u.i = # # # # # # # # O # + # # O # # + ; > 2 6 6 2 4 4 6 4 6 6 y u z m x z y i c x c x y y y y x x y y w t y x u t u y 4 4 7 u t t t y u t 1 1 < > # ; ; # # ; # ; # # ; + ; ; ; > + ; + ; ; ; ; + ; + ; ; ; ; ; ; > ; ; ; ; ; + + ; : ; ; ; + ; ; + ; ; : : : , 5 3 7 u m N U Q q.i.y.(./.7.U M Q Q U M m 9 7 7 5 1 1 : > 1 ; 2 6 q 2 6 v v v y z y 8 t 8 6 1 1 : , & p H } :.x.v.v.L.K.P.L.P.P.E.P.P..XE.P.E.E.S.P.P.D.K.L.C.J.C.L.J.b.n.J.P.U.n.J.P.v.v.b.l.l.b.1.1.b.b.1.x.b.4.1.b.,.l.1.1.<.<.<.2.<.-.1.l.1.<.<.<.<.<.1.1.<.<.1.,.<.-.1.<.<.>.;.>.<.,.>.#.>.#.z.j.h.z.;.>.j.z.1.3.-.#.2.3.z.1.` @.#.#.;.3.@.$.3.h.>.j.$.>.+.#.#.$.$.f.f.>.>.k.k.>.k.h.f.3.$.#.#.+.+.$.3.:.;.#.$.>.>.>.>.>.>.d.>.f.$.I | -.,.d.f.=.=.<.<.x.=.=.<.=.=.I =.=.=.I =.=.=.=./ =.=.=.' ' | =./ =.=.=.P =.=.^ _ _ P J L P P J G Z H G G Z H ",
"G.S.;X&X X&XI.&XXX|.[.oX|.P.v.v.|.2X4XE.~.XXE.Y.J.K.L.T.&X=XL.R.Y.Y.L.L.L.P.Y.E.Q.~.!.~.L.Z.z.B.Z.H.4.H.Z.L.Y.Z.Z.Z.B.Z.D.G.T.E.#XE.!.!.~.#X~.T.L.Q.~.T.H.H.!.Q.^.T.^.Y.Y.H.Y.^.T.Y.Q.W.^.Y.^.^.^.H.N.Z.Z.Y.Y.J.J.T.T.J.6.6.J.^.J.T.T.J.^.L.Q.!.Q.~.^.T.!.~.Q.T.Y.H.L.=X=XN.^.Y.^.Z.6.6.6.6.6.^.A.6.^.Y.L.^.~.!.W.W.W.$X!.!.$X%X~.E.W.$X~.!. X!.!.!.!.!.~.T.~.~.~.T. X!. XE.E. X X X X~. X XE.R.E.%XoX XoX1X XE.E. X X*XXX X*X X*X1X1X2X&X&X=X2X8X=X*X X XXX X&X2X1X2X*X*X2X=XXX&X&XR.E. XW.E.W.#X$X{.$X$XQ.R.{.W.Q.P.Q.E.W.W.#X$X~.W.$XW.W.{.#X{.R.[.F.j.r < 0 0 3 3 3 3 3 3 3 < % & < < < 0 2 0 < 0 0 z.{.P. X~.!. X{.E.R.R.W.E.T.P.T.K.Z.2.-.J s * = = = * d d r J ( h.D.E.[. X X*X X X~.%X.X~.%X&X~.3X&X X X|. X X X X&X X X X X~.E.E. X XE.E. X XE.R.T.R. XY.$X&X&X XE.~.P.[.{. XW.E.C.E.|.E.E.E.R.R.D.C.m.6.=.P * & 5 h E W 7.Q U = $ # # # # O # # # # # # # # # # + # O + ; > 2 1 4 4 5 1 6 q t t i z i y 2 2 q z c n c c z c c c z c c z i x i t , # : : : 4 u u y y 1 > ; # # ; + # # ; ; # # # ; # # # ; # ; ; ; ; ; ; + ; ; ; ; ; + + ; + ; > 1 1 1 ; ; ; ; ; ; ; ; ; + ; + + ; + ; : : , 1 7 z m M S U T Q t.i./.(.(.p.q.i._.(./.r.W M v t b 6 8 5 1 1 1 6 6 6 6 y z c v v b t 8 6 1 5 1 1 : w V ) :.x.h.C.v.U.P.K.P.K.P.P.}.oXP.{.[.}.I.P.D.P.F.L.L.P.~.K.I.P.v.~.J.K.I.b.J.K.J.K.J.1.1.l.l.l.l.b.4.b.<.4.4.1.x.b.<.1.<.;.-.;.<.-.<.1.b.<.<.-.,.,.<.1.:.<.<.1.;.<.<.<.;.;.<.l.1.,.h.3.3.;.>.3.$.3.3.j.1.z.1.$.3.#.#.,.S.z.1.#.#.#.+.#.$.#.#.#.1.%.%.$.;.$.#.$.>.>.h.j.h.h.e.>.>.h.j.>.$.#.$.#.#.#.#.h.1.%.#.$.>.,.>.$.>.:.$.:.:.| ( _ :.:.:.x.g.,.1.=.=.x.x.=.=.=.=.=.=.=.=.I =.I =.=.=.=.=.=.=.=.=._ ( ( P =.I =._ ( _ / / L ~ L L Z Z H G G L Z ",
"[.D.&X.X|.}.[.XXoXP.2XkX4X4X>X|.XX5XxX2XI.~.~.H.Z.H.E.L.Z.Z.Y.R.{.E.Q.Y.T.L.L.H.L.L.E.%X~.H.J.H.Y.~.L.Z.B.H.Y.Z.Y.Y.Z.Z.W.W.Y.Q.E.Q.T.^.Q.!.~.Q.T.~.!.#XY.J.Y.B.Y.W.Y.Q.Q.^.^.H.H.^.Y.Y.T.Q.^.Y.J.T.H.J.J.^.T.Y.J.J.T.T.J.J.L.~.^.T.Y.6.J.J.Y.~.Y.Y.T.J.J.^.^.Y.E.Y.L.=X=XZ.Y.A.Z.6.A.A.6.^.^.6.^.^.T.J.L.^.Q.!.1X1X$X X!.Q.1X~. XQ.~.$X X~.E.!.!.~.~.3X#X%X!. X$XXX~.~.T.~. X XE.XX X X X&X X X X&X X X X=X1X&XE. X|. X%X X X X&X2X1X&X%X%X*X*X4X=X&X~. X XW. X%X4X1X2X*X2X X=X*XT.R.W.W.E.T.W.[.#X#X$XW.W.$X#X$X{.Y.W.Q.E.#X{.!.E.!.!. X{.Y.{.E.E.R.S.J d 0 0 0 3 0 0 0 3 0 3 * * % < < < 2 0 0 2 0 d f h.F.[.~.W.W.W.T.Y.T.W.!.E.R.H.L.K.z.1.#.G f q = d = e f o.$.j.N.@XQ.R.&X X X X XW.oXE. X X*X1X3X*X*X!.~.W.E.R.E.XX~.~.%X XE.P.&XE.E.XX XE.oXXXR.P.L. X[.E.E.E.E. XT.L.R.R.E.E.P.P.E.R.L.F.K.L.S.S.C.x.=.=.h * & 5 i Q 7.=.9 * = # # # # O O # : # # O # O # + O # + # + + + : > 1 , > : : , 2 4 p x t + + + + @ + > 2 z c n c x x y 2 > > 5 : : O # O : # ; # : ; O # # # # + # ; ; # # ; ; # # ; ; # ; # ; ; ; ; ; ; ; ; + ; ; + + + ; ; ; ; 1 1 8 8 1 1 1 ; : : 1 ; ; ; + ; ; + # # : > 1 t x A T Q T T 8.q./.i./.(.qXwX(.qX'._._.p.p.u.Q U N v 8 9 1 1 2 6 q 6 6 y y v v u z u 6 8 6 5 1 , y H ) :.d.v.v.K.U.~.U.b.P.K.P.E.F.E.S.[.[.D.E.[.I.R.P.S.l.n.I.J.%XJ.K.oX~.v.b.J.J.K.L.v.c.v.<.<.1.1.b.1.<.<.<.1.,.b.b.1.<.<.1.1.;.=.5.<.1.b.1.<.,.;.l.l.1.l.1.1.<.<.1.<.;.;.;.;.;.;.;.1.#.>.#.3.#.;.1.1.>.>.<.3.;.#.#.@.#.3.z.z.j.@.$.@.#.#.@.3.$.$.$.#.>.>.;.$.#.>.>.f.>.#.f.>.g.f.h.k.f.j.$.#.$.$.$.$.$.#.#.$.#.+.$.>.$.$.>.>.$.:.:.:.` | >.:.,.,.:.x.m.f.f.1.,.=.=.=.=.=.=.=.=.I =.=.=.I =.=.-.=.=.=.=.( _ =.I =.I =.=._ _ _ } / P L L G Z H Z ! P G ",
"}.R.}.&X&X.X[.XX*X;XoXXX|.oX;X&X2XcXxX9XI.T.L.T.K.C.!.$XR.W.=X X$XW.R.Q.E.K.B.H.Y.Q.!.!.Q.L.V.J.Y.$XE.Z.L.Q.Q.Y.D.H.E.Z.Q.$X$XE.J.J.Q.~.Q.~.J.Q.Q.J.~.T.Q.E.A.Q.H.J.W.Y.T.Y.Z.H.A.T.W.^.Y.T.Q.Y.Y.H.Z.Y.H.Y.J.^.J.L.I.J.^.J.6.T.T.~.J.~.Q.~.T.~.T.T.J.J.H.H.Y.J.H.H.L.=X3XZ.^.A.^.H.6.^.A.^.^.6.A.J.^.T.Q.J.^.#X%X%X$X$X$X$X!.!. X%X!.!.$X~.Q.#XQ.~.!.1X1X1X~.~.!. X~.~.XX X%X X X XXX~.=X2X*X*X X|.~. X X X X X X|.~. XXX*X XE.%X*X=XXX XXXXX*X*X1X&X X|.E.|. X~.1X*X=X=X*X&X*X XE.Y.W.#XR.Q.{.Q.Q.R.#X{.W.$X$XQ.:X#XW.W.{.&X$XE.T.E.$X{.R.R.E.E.{.R.` 0 0 0 * 0 3 3 0 3 0 3 3 < % * < 0 0 0 0 2 0 0 < 0 j >.C.~.~. XW.E.T.R.E.E.W.Y.P.V.C.z.1.$.+.o.Z f = s O.X.>.h.V.D.Q.E.#X X XE. X~.E.%X X X*XXX X*X=XE.P. X XXX~. XE. X XXX X X~.R.E.T.R.T.E.E.~.~.E.L.T.E.P.L.E.E.P.P.T.R.E.W.K.P.P.R.P.K.S.F.S.c.c.S.z.<.L d = & 3 9 Q t.{ & - # # # # # # # # # # # # # # # # # # # # # # + + # + + + + o + + + @ # + ; + + + > + + + > 2 2 < 1 > ; % + + $ # # # O # O # ; # # # ; + ; # # ; ; # # ; # # ; + ; # # ; ; + ; ; ; + + ; ; + ; ; ; + + + ; + ; ; 1 2 y 8 8 1 1 : 1 1 1 ; + + ; + + # : : , 2 t x D ] 9.w.9.w.q.q.a.qXqXqXwXrXqX_._.(.(././.i.t.8.W U N v t 2 2 6 6 6 6 y y b v z z z 6 8 8 1 1 a D } :.x.x.v.v.v.S.K.K.L.U.L.P.P.D.P.E.L.F.P.P.P.P.S.D.[.~.K.K.I.L.1.b.K.b.K.b.v.v.J.n.J.b.b.b.b.<.4.v.l.4.=.1.1.x.b.b.4.<.<.;.-.' 5.<.<.l.4.1.<.<.;.l.b.1.l.,.<.:.1.<.>.-.-.-.-.;.-.-.-.3.>.+.#.#.j.3.>.>.1.>.>.;.#.+.#.+.#.c.z.,.#.@.$.@.` $.$.$.3.3.$.>.$.;.$.+.>.>.h.f.h.h.h.g.f.>.h.>.$.>.f.3.$.#.#.#.$.#.$.;.#.>.$.$.#.$.>.-.$.>.:._ | :.=.r.:.,.=.=.,.u.4.x.=.=.=.5.=.=.5.=.=.I =.I =.=.I =.' =.=.=.=.=.=.=.I =.=.=.=.=._ _ / P G G Z Z L ! P ! G ",
"R.[.&X[.[..X{.>X{.;X&X.X.XXX|.[.>XoXkX2XK.Z.Z.Z.L.E.E.T.Z.E.&X$XL.R.H.H.R.Y.H.T.Z.Y.Y.R.L.Q.W.Y.D.Z.Z.Z.Z.V.Z.T.E.#XY.Z.E.Y.T.D.Q.Y.T.W.H.Y.Y.J.Y.J.L.Y.H.Y.T.J.W.Y.Y.T.^.B.N.^.Y.^.R.Z.^.T.W.!.H.Y.J.Y.T.T.Q.Y.J.^.Q.T.J.^.^.T.J.J.J.J.J.J.b.J.K.T.J.T.T.J.J.J.H.!.T.=X3XZ.J.Y.J.J.^.A.^.Q.^.H.^.^.Q.W.#X#X$X!.#X1X%X%X#XQ.!.%X!.%X X!.~.~.~.T.~.!.!.1X!.%X~.~.T. X%X%X X XXX X X%X~.~.*X&X%X XE.~. X X X&X&X X X X X~.XXE. X%X X X&X&XXX*X XE.XX~.~.R.E. X~. XXXXX X%X X X X&X X{. XT.!.E.W.$XW.W.#XW.Q.{.Q.{.Y.{.R.W.Q.[.W.Q.W.W.E.E.{.&X{.R.@X,Xe.s 0 0 0 0 0 0 3 0 < < < < d % % < 2 0 0 d 3 3 3 3 * d ' 1.L.T.Y.T.Z.H.Q.{.W.E.Z.K.Z.C.z.j.c.3.#.+.K j J +.$.N.N.D.D.Y.{.{.~. XE. X~. X~. X.X X|. X:X XR.E.E. XE.!.P.~.~.E. XE.W.R.{.R.R.E.Y.P.P.P.I.T.P.H.E.~.L.I.E.E.I.L.K.E.P.K.K.P.P.P.Z.S.v.v.n.l.,.:.` C = & & & w r./.M # # % # + # + > # # + # # # + # # + # # # # + O + + + + + + + + + + + + + + O # # O # + # # # # : ; # # ; # + # # + # # # # # # # O : O # # # # # : ; # ; > # # # ; # # ; # ; # ; > # > : # ; # # ; ; + ; # ; ; > 1 1 6 y y 6 4 5 6 6 4 1 ; + ; + # : # : : 5 4 i D 9.0.9.q.q.q./.i.i.(.(.qXwXrXtXqX`.(././.q.(./.y.w.w.W o.z t 6 6 6 t w t t z z m i u t q q p A o.[ d.d.S.b.v.S.S.I.K.K.K.P.K.C.K.I.[.[.I.R.I.[.F.P.E.}.[.E.|.P.P.Y.K.l.b.b.K.K.K.v.C.L.b.b.l.1.1.4.b.1.1.b.1.<.1.b.1.x.1.<.1.-.' +.' ' 2.;.1.;.>.1.1.z.c.3.>.1.>.#.;.;.,.,.,.3.$.;.#.;.+.;.@.;.@.#.#.#.1.3.>.$.1.#.@.#.+.#.+.c.j.j.#.+.+.@.+.@.$.$.#.;.;.%.$.$.$.$.$.h.h.h.$.>.h.g.>.h.h.$.>.$.h.>.$.$.>.>.>.#.#.#.#.$.$.$.>.#.$.$.:.$.:.| | =.=.-.| | =.r.,.=.f.<.=.I =.=.=.=.=.' =.=.` =.=.=.=.=.=.=.I | | :.=.` :.:.| | } _ _ ^ / J P L G F P P P ! P ",
"}.$X].$X,X.X X|.R.[.oX}.XXXX.X|.|.4XkX&XS.b.K.Z.H.L.H.Y.E.W.W.R.Z.N.L.L.^.R.D.Z.R.W.H.H.Z.H.Y.Y.R.Y.B.Z.Z.E.Q.Z.Y.Z.Q.T.Z.Y.Z.Q.W.T.Y.Y.J.Y.Q.Y.Y.H.H.Z.J.4.J.Y.#XY.Z.Y.W.^.Y.H.^.T.E.^.H.Q.Y.Q.J.Q.W.^.Q.T.Y.^.J.T.~.!.T.J.T.Q.~.Q.J.L.T.^.J.J.J.L.T.^.L.T.T.Q.J.L.E.=X1XZ.H.^.^.^.^.^.A.^.^.H.A.#XY.R.W.-X$X#X!.1X%X1X%X%X#X~.%X$X#X~.~.~.T.~.Q.!.~.#X%X!. X!.~.XX~.!.1X X*X X1XXX X~.&X&XXX~. X.XE. X X~.~.E. X!.~.XX%X X X&X X X X~.~. X X%X*X XE.&X XE. X X X%X~.!. X&X~. X~.E.T.W.W. XW.W.E.E.{.{.W.{.Q.Q.Q.{.Q.$XQ.E.R.{.{.W.%X&X#X{.W.D.G.G.o.d 0 0 0 0 0 4 0 3 3 0 < < < % % < 0 2 0 < d 3 d 3 3 d | v.P.Y.D.Z.Z.D.Y.Y.E.W.Z.L.D.D.Z.C.S.c.j.$.$.#.+.$.h.z.R.E.Y.T.R.E.~.&X XR.~.~.XX!.E.W. X&X&X{.R.{.E. X~.K.H.R.P.~.E.{.E.E.W.R.E.{.P.Q.~.E.H.K.Y.L.L.I.~.P.I.I.J.b.H.L.T.L.C.Z.b.C.b.S.K.v.l.x.l.` ( j $ % & & 9 { { # % $ + ; ; + # ; ; + # + + # # # # # ; + + O O # + + + + % + % + + % % + % + + # # # # # # # # ; ; # ; > # # # # + # # # # O # # # ; # : # # : O # O + ; # # # ; ; # # ; ; # # # ; # # : ; > : > : > ; ; ; ; > > 1 2 6 8 t t 6 4 4 6 6 6 6 > # # ; # O : : : 4 i A W 0.0.w.0.y.y.i.M./._.`.qXqXqXqX_._.(././.q.(.i.q.q.y.w.q.B 9 t t t u y y u n } .._ G V Z R /  .d.k.x.k.S.K.K.S.K.P.|.K.K.oXL.P.I.E.I.[.[.].I.R.[.[.R.K..X|.P.P.E.L.b.v.J.b.v.L.J.b.C.b.1.b.1.l.4.1.v.v.b.l.,.1.1.1.b.1.b.2.z.1.<.;.;.1.<.<.,.2.<.l.j.1.j.z.>.1.1.2.c.>.j.>.1.3.>.#.;.#.+.>.#.>.#.#.+.3.>.$.5.#.;.3.$.#.@.@.` 1.j.j.+.#.+.` @.$.#.#.+.#.$.3.$.$.$.+.#.$.>.$.$.f.k.>.>.$.k.h.$.h.j.$.>.$.$.$.$.$.#.` %.$.$.$.:.$.$.>.$.$.| | ` ` -.=.=.-.:.=.=.,.,.=.=.=.=.' =.-.-.=.=.| | =.P I =.=.=.=.=.=.=.=.=.=.| | | | } } _ _ ^ / G Z P G G F P ! L ",
"&X].@X[.&X}.[.}.}.&X&X[.>X&XoXoX|.kXzX;XZ.b.B.Y.%X~.L.Y. XY.E.Y.Y.Z.Z.Z.T.Z.T.Y.!.$XT.Z.B.D.W.R.Q.Y.L.Z.Y.Q.$XW.^.W.Y.Z.Y.W.Q.Y.Y.^.Z.Y.^.H.T.J.J.B.H.J.B.B.J.J.H.A.A.Z.^.T.Z.^.Y.Y.A.H.Q.T.T.^.H.J.Y.H.^.Y.T.W.T.6.~.#XT.~.^.~.T.T.T.J.J.J.^.J.T.~.~.T.T.T.Q.~.Y.T.$X3X9XT.$X9X$XW.Q.H.A.^.^.A.^.A.Q.-X1X9X%X$X%X1X1X$X X%X!.1X X%X1X~.T.~.~.~.Q.~.~.%X~.1X!. XXX!.*X%X X X*X1X*X X&XoX%X%X XE. X XE. XE. X&X X X~. XXX XE.~.~. X XR.~. X~.XX X X X~.E. XE.E.R.R.E.~.!.~.E.$X%X XW.R.!.W.~.T.!.W.W.$X#XQ.#X{.E.{.W.$X#X#XR.Q.#XW.W.$XW.R.{. XD.m.#.d 0 0 0 0 0 0 q 3 0 0 0 2 d < % * 2 0 0 0 2 3 3 d 3 3 * | K.J.H.Y.L.L.Q.R.Z.Y.Z.L.Z.L.V.V.V.N.c.j.>.>.V.j.j.Z.G.#XL.Y.{.Y.{.|. X XE.E.E.~.I.E.E.{. X*X&X#X{.|.H.L.L.P.L.P.L.E.E.R.L.R.P.L.Y.T.~.E.L.K.J.L.I.J.K.L.J.J.P.K.K.v.L.v.J.K.P.C.K.c.z.S.c.l.,.-.=.` V % + & & 5 m 3 # # + ; + # # # ; + ; + # # # # # # # # # O + # # # + % + + # ; + ; + + # + + # + # # # # O # # # # # # # # # # + # + # O O O # # # # # # # # # # : # # # ; # ; # # # # ; ; # # ; # : > > > > ; , > > > ; > > 1 1 1 2 6 y 6 2 4 6 7 7 6 t 4 ; # # # # # : & 5 t i D { w.0.q.0.t.q./.y.(././.wX`.(.wX)./.q././././.i././.q.w.w.E n z z z z y y u S  .d.,.x.>.:.d.k.m.k.n.c.F.P.I.I.I.|.I.P.I.P.I.K.P.I.I.[. XP.{.R.[.{.I.L.S.[.P.P.P.U.L.E.L.T.C.P.K.J.J.K.K.l.v.b.b.I.K.b.1.b.K.b.4.,.1.1.1.1.1.1.l.<.2.l.>.;.<.;.;.j.2.l.c.j.j.>.3.h.-.1.z.>.>.3.3.>.3.;.;.$.#.;.#.#.@.+.+.#.@.+.;.$.#.#.$.+.` @.#.1.1.' -.@.#.#.;.;.#.+.#.;.;.$.#.$.#.#.>.$.$.h.>.>.e.d.$.j.3.$.$.$.>.1.d.$.#.>.$.>.` $.+. .>.f.$.#.| >.$. .| ` | =.=.-.d.:.<.,.,.=.=.=.' ' _ =.| =.=.' | } I I =.=.=.=.=.=.=._ =.=.| =.| _ } | | } _ } [ J Z G G Z G ! ! P ",
"&X&XE.$X&X{..X=X&X&X}.[.&X.X;X}.I.5XxX&XG.Z.B.Y.E.Y.Y.L.T.Y.!.H.Y.Y.Y.Y.D.Y.Z.Y.E.W.R.W.H.H.D.Q.Y.B.Y.T.W.T.Y.!.=XW.A.Z.Z.^.Y.Y.B.Q.Y.Y.W.$XW.T.Q.H.B.4.B.H.T.B.N.A.E.H.Z.^.Y.Y.Q.W.Q.W.J.Q.%X~.T.!.T.T.T.Y.Y.Q.~.J.Q.%X~.Q.J.L.T.T.T.~.J.^.T.Q.T.J.~.!.Q.Q.T.T.Y.Q.%XzX9X X=X%X^.J.R.H.Z.Y.Y.Q.^.#X#X#XQ.$X$X1X$X!.~.!.#X1X X#X~.~.T.~.T.T.%X~. X~.~. X X1X~. X~.E. X%X X~. X XXX X%X X XXX*X X*X~.E.~.E.~.%X X X~. X X~.~.~. X XW.~.E.~.!.$X X X!.~.E.~.~.!.P.T.~. XE. X!.!.*XW.W.$XW.~.Q.E.~.$X#X{.T.R.$XE.#X#X&X#X#XE.Y.Q.{.R.Q.{.Y.W.W.T.G.V.j 0 0 2 0 0 0 q 0 0 0 3 < 0 * * % * 2 0 2 0 2 3 3 3 3 d * _ C.L.B.Z.G.L.R.Y.R.Y.D.D.Z.C.2.N.Z.V.G.N.z.j.D.j.N.V.C.R.R.R.R.E.$XW.W.E.R.T.~.~.~.L. X[.=X:X X[.[.{.P.E.E.E.L.T.T.P.E.Z.D.E.Y.D.R.L.P.E.C.v.b.B.K.J.I.E.v.v.J.J.v.J.K.Y.E.K.K.S.C.c.V.z.c.l.>.-.' o.0 * + # : < & : % # # + ; # # # # # # ; # # # # ; # # + # + O # # # # # # # # + + + + # + # ; ; + # # # + # # # ; # ; # ; ; # ; # ; # ; # ; : ; # : # # # : # ; & # : > # # ; # > > ; ; > # > ; > > : > > , ; > > > > > > > > 1 1 1 2 t t 6 6 4 7 p 4 4 4 1 ; # # # # # & : w i m T 9.w.w.q.y.r.u.i./.(._./._.`./.`.(./.q./.i./.q.q.w.q.w.w.q.{ W U S M x z y i H d.g.l.x.x.c.c.S.S.k.U.S.E.F.P.].|.|.|.I.I.I.~.I.P.[.|.E.E.P.{.P.}.|.P.E.P. X|.~.I.L.v.U.K.K.K.~.J.K.C.v.b.4.1.1.1.v.b.1.1.1.1.b.1.,.,.b.v.4.l.<.1.1.,.<.2.>.>.>.;.<.l.l.z.1.z.j.>.1.,.1.j.h.>.,.,.,.h.3.;.;.5.#.+.+.+.+.+.+.' +.+.$.3.@.@.#.' ' +.;.1.` ' -.#.+.+.#.;.$.` ' $.#.$.$.$.+.$.$.$.$.f.f.>.$.>.$.f.$.$.$.f.3.e.>.` #.>.$.$.$.$.>.#.>.#.|  .$.#.#.:.-.` | ;.=.:.>.=.=.:.<.-.=.=.=.| =.=.-.| =.| _ I =./ =.I =.=.I =.' =.=.=.=.=.| =.=.| } } ..^ / ! L R P P ! ! ! ",
"[.E.c.D.[.}.&X{.&X&X[.R.{.[.P.[.[.6XxX2XZ.B.Z.Z.T.H.b.J.K.J.H.T.A.Z.R.E.D.Q.Q.Q.Q.Q.Y.Y.B.Z.B.Q.-XH.D.Z.^.^.T.W.Y.Y.Z.Z.A.B.Z.Z.Y.Y.Y.Z.Z.Y.Y.H.N.A.A.B.H.A.Y.A.B.Z.Z.Z.Z.^.^.^.J.Q.Y.Y.Y.^.T.!.T.Q.B.H.J.J.Y.T.~.#XQ.^.T.T.~.J.~.!.Q.Q.^.~.Q.^.T.~.T.T.~.Q.~.^.^.Y.!.8X8X%X!.%X$XT.E.Y.Q.Q.Y.T.Q.W.!.E.!.!.#X1X$X!.!.~.#X%X!.Q.~.~.~.~.T.~.%XT.T.T.~.%X1X X%X1X X XXX&X X!.XX*X X X XXX=X XE.XX%XP.C.~. XE.~.XX~.P.!.~.I.!. X~.E.~.XXY.I.!.~.~.!.oX~.!. X~.!.~.~.~.!.Q.Q.!.!.!.W. X X!.~.!.$X$XW.W.W.R.#X$X$X$XW.=X#XW.L.L.Y.E.Y.T.E.Q.W.R.Q.].>.d q 0 d 0 0 2 q 0 0 0 * d < 0 < * * > 2 * * 0 d 3 d < < d C m.K.L.^.H.D.Z.B.C.Z.N.V.L.Z.Z.N.Z.N.N.B.B.N.D.B.Z.D.V.Y.R.C.D.W.Y.Y.R.$X{.~.~.].oXD.E.E.{.&X{.E..XP.S.R.K.T.E.P.P.L.L.Y.Z.D.C.D.Z.J.v.K.H.C.L.C.K.K.J.I.v.J.C.P.C.b.C.C.K.K.L.Z.v.K.l.v.l.l.,.;._ J - , % % + % + # # # # # + # # # # # # # # # # # # : # # # # + + # # : # # # # ; + # + ; # ; ; # + # # # # + ; # ; ; : ; ; ; ; > # # > : : # > > : ; > > > > # ; ; : # # : # # # > ; # # # ; > # > : > # , , : , ; > > : > ; > > , 2 6 8 6 6 6 6 7 t 4 5 : : # # # O ; ; : 5 w z S 0.q.q.q.0.q.u.y.M.i.u.i.u.'.(.'.(./.q.q.q.q.i.q.0.q.0.q.w.8.W { Q U S A c x x V d.k.x.x.n.x.S.U.I.U.P.P.[.K.I.I.].|.oX~.U.~.|.I.P.K.oXI.E.|.[.P.}.R.].R.}.P.P.I.I.L.P.S.J.S.K.L.K.J.v.l.C.b.b.1.1.n.b.b.,.,.<.1.b.1.=.l.v.b.l.l.z.l.<.>.1.1.;.-.,.1.2.h.j.j.h.,.;.c.z.>.1.3.;.j.$.j.2.;.>.>.$.3.#.+.+.#.#.+.#.$.$.3.+.+.+.( ' +.+.;.h.' ' ' ( ` +.#.#.+.( ( +.$.#.#.#.#.$.#.h.h.h.h.h.$.$.$.>.h.h.,.>.d.>.$.#.#.$.$.$.$.$.$. .| ` ..+.| X.| | ` ` | :.:.:.d.l.,.,.=.=.=.=.=.=.| =.` :.| | | _ =.) I =.=.=.=._ ' =.} =.| | | | =.....} _ _ _ ! G ! G F P ~ ! ",
"[.F.&XE.D..X:X}.}.$X@XR.].|.[.[.}.5XxX2XR.Z.Z.H.Z.L.J.L.T.L.L.T.Z.D.Z.Z.Q.H.V.H.Z.E.Y.E.Z.Z.B.Q.-XY.H.Y.L.Q.H.W.H.B.B.^.Z.^.N.B.N.N.Z.^.W.Q.A.A.Z.N.A.Y.T.Z.H.H.A.A.Z.A.N.Z.H.^.Y.Y.Z.^.Z.^.Q.!.~.T.L.Y.H.Y.Y.~.T.Q.~.T.T.T.T.T.T.Q.%XT.~.!.~.~.!.Q.!.!.~.Q.T.^.^.J.~.9X1X3X$X=X XT.~.T.H.H.Q.Q.H.H.J.Y.~.%X X%X1XQ.Q. X$X X~.1X~.~.~.~.~.T.T.~.~.T.~.%X1X1XXX1X X X X XXXXX%X&X*X*X X~. X X X X~.T.P.~.T.T.~.!.E.Y.T.T.T.!.XX!. X~.!.Y.!.~.~.~. X~.~.%X!. X X X~.Y.~. X!.$X X%X!.!.!.!.$X!.!. X$X%XW.$X{.$X&X$X=X=X{.E.Y.T.T.Q.T.Y.W.T.Y.R.L.C.C d 2 d 2 d 0 0 0 2 0 2 < < < 2 < * * 2 2 d 2 0 3 3 * 3 < d f h.K.Y.H.Z.Z.2.Z.Z.Z.N.Y.Z.V.D.D.Z.B.z.z.Z.N.Z.Z.L.D.Y.D.Z.Z.F.[.>X4XE.[.[.I.K.FXDX6XF.P. X.X.XR.[.D.E.E.E.K.E.L.Y.R.R.Y.K.Y.Y.Z.D.K.J.K.K.K.J.b.L.K.b.K.J.b.L.K.b.b.K.H.K.P.S.l.z.H.v.v.f.f.;.=.( Z * % + + % + % # # # # + # # # ; + # ; ; ; ; ; > ; # + # # + O # : > : > # # # ; ; ; ; ; # ; ; ; + # # # # # ; # # > > ; ; > > > : > ; # : # , > > > # ; # : ; : ; > # % # ; # ; # ; ; > ; ; > : , > , , : : : ; , > > : : ; > > 1 6 u 6 t t q 7 7 t , : # $ # ; # ; ; : : 4 i c ] q.i.0.q.i.M.u.i./.y.u.u.i.p.`./././.q./.q.q.q.q.w.q.q.M.w.q.9.W W Y U n M x x S g.k.m.V.n.c.n.n.I.U.P.P.P.U.|.I.oX~.oX].~.I.[.[.[.L.U.L.K.P.P.L.P.I.[.R.[.R.oXoXK.v.L.S.K.K.C.J.J.C.b.K.n.b.v.1.J.1.,.b.<.v.b.l.b.,.<.b.4.4.z.l.>.<.2.>.>.>.<.1.;.>.>.j.1.h.j.j.+.-.>.j.j.>.;.,.3.3.#.;.;.3.1.#.+.@.@.#.+.+.+.+.;.+.( +.+.+.+.' +.>.3.' ' +.( @.+.#.-.` ' ` #.( ` ` ( #.#.+.$.%.>.>.>.3.>.#.$.$.$.$.>.$.$.$.$.#.#.X.#.d.$.d.` #.$.` } ` ( ` | / ( _ | d.,.>.:.=.f.=.>.-.=.' _ =.=.-.d.} | _ / _ / =.I =.=.=.=.=.=.=.=.| ..:.=.| | | ..) / ! / ! J ! P ! ! P ",
"[.P.[.}.F.D.&X&X&X&XE.&X{.{.[.R.I.2XxX:XD.Z.Z.T.L.H.E.J.T.~.1X~.Q.Z.#X{.H.Z.H.Y.Y.Z.Z.Z.Q.Z.D.H.E.H.Z.T.T.Z.W.Q.H.B.^.A.Z.Z.Z.Y.^.Z.Y.A.A.A.N.Z.Z.N.Z.W.Z.^.H.Z.Z.Z.Z.A.Z.Y.E.Y.^.Z.A.Y.Q.Y.J.T.J.J.T.Y.L.Q.J.H.T.~.T.T.J.T.Q.^.Q.#X!.~.~.Q.Q.T.!.T.Q.~.~.J.T.^.Y.H.T.9X9X$X~.~.T.L.Y.H.H.!.!.T.Q.Q.T.~.!.!.~.!.!.!.Q.$X X1X1X!.%X~.T.~.~.~.~.%X~.XX X1X1X1X1X1X&X X&X X X~. X%X*X X*X&X=X*XXXE. X!.L.T.~.Y.T.L.~.E.!.~.T.~.%X~. X X%XE.~.oX1X X X XXX$X!. X%X%X~.E.!. X!.!.1X!.$X!.!.$X X!.~.~.#X&X{.#X X=X#X$X9XW.!.E.T.T.!.Q.Q.E.E.L.D.Z.F.$.d d q 0 d 2 d 2 q 0 0 0 d 2 d < < < * 0 q 2 0 0 3 3 < 3 < * 0 >.V.N.Z.B.3.V.D.H.L.Z.Z.Z.Y.Y.Y.N.N.L.V.B.D.Y.L.R.E.W.R.T.D.@XvXaXsXsX].U.<.UXLXLXFXjXS.].{.{.{.V.P.L.Z.R.P.T.D.L.D.Y.D.N.Z.L.H.K.C.L.T.K.K.H.b.L.J.I.L.b.b.K.J.v.C.J.I.J.C.C.C.P.K.K.l.b.;.-.' I o.q > % % % + + # # # # # # # # # # + # # ; ; : > ; : # # # # O + > : > > ; # ; ; ; # ; ; ; ; ; # # + # # ; # ; # # > , ; ; # # # ; > ; : % : # ; # > # # ; ; > # : > : ; # # ; ; # # > # > ; > > > > > > : : : ; > : > ; > # > > 1 6 q 2 2 2 4 5 5 9 : $ # # # # ; ; ; 1 1 7 i A w.0.y.0.q.i.w.u./.u./.).'./.p._.q.q.(.0.q.q.w.w.9.9.y.0.q.w.0.9.9.W Y U M M n c A d.k.S.S.c.F.S.].I.U.P.I.I.P.I.I.~.I.].~.I.].[.|.|.P.U.K.L.P.D.R.P.S.E.[.R.P.XXK.K.L.b.b.v.b.v.L.I.K.~.b.K.b.b.b.J.b.1.b.v.S.4.l.b.x.4.1.b.S.c.1.>.<.j.>.<.;.z.z.3.h.1.c.C.C.c.j.;.1.j.1.2.$.1.>.>.>.#.#.;.;.2.#.' ' @.+.#.$.#.3.,.>.>.@.+.+.+.+.+.>.$.' ` ' ` ( +.` #.` ( ` #.#.` ( ( ' #.#.#.$.>.>.>.#.$.>.$.$.$.$.>.$.#.$.$.$.$.#.$.$.$.=.| ..X.` X.` ` ( ' / ( ( | $.:.f.=.=.=.=.=.=._ =.=.| _ :.:.| } | =._ =./ I =.=.=.| | | =.=.=._ } _ } =.} ..^ _ ^ / ! G ! ! F H G ",
"[.$X.X,X&X&X&X[.E.}.}.}.R.R..XR.XX6XxX:XZ.Z.Z.$X%XR.E.J.T.1X~.~.D.Z.R.Q.R.Q.Q.E.Y.Y.Y.^.Q.R.Y.Y.L.H.T.Z.Z.T.^.T.Q.W.W.Y.Z.Z.A.^.Z.N.Z.6.Z.Z.B.N.B.^.^.Z.Z.W.J.Z.^.Z.Z.Y.Z.Z.Q.Y.Z.A.Z.Y.T.H.Y.T.^.L.J.J.J.J.J.T.Q.!.Q.T.~.!.Q.~.~.^.!.!.!.-X%XT.T.Q.~.T.^.T.L.J.Y.^.W.8X=XW.~.!.Q.L.Q.H.H.W.T.J.Y.Q.Q.!.!.#X!.!.~.!.~.$X1X%X$X!.!.~.~.T.~.~.%X!.~.%X1X1X~. XoX1X X%X X X~. XXX1X%X X*X*XXXE.T.~.oX~.~.Y.E.P.~.T.|.~. X~.~.!.%X1X!.~.=X X!.1X1X1X3X1X1X1X%X%XXX X X~. X!.T. X1X%XW.E.Q.!.Q.!.!.Q.#X$X$XW. X$XW.,X9XE.W.W.R.T.E.T.E.T.T.Q.Y.Z.P.&.d 0 d < < d 2 d 0 0 < 2 < < 2 d < > > 0 0 2 q 2 3 3 * 3 0 0 d ` 1.N.N.N.2.Y.Y.Z.H.D.Z.D.Z.N.D.Y.R.Z.Z.D.E.Q.Y.H.E.Y.D.D.k.yXrXaXCX+X'.U.H '.CXGXGXGXm.}.{.R.R.L.P.E.R. XR.R.D.Z.E.R.R.Z.K.R.B.Z.L.K.Z.H.P.K.J.P.J.L.K.K.v.v.K.J.P.K.L.K.P.C.K.C.C.K.l.l.1.;.=.I C @ > + % > % > # # # # # + # # ; + # ; # # ; # # # : # # # # + # # # > # > > : # % % ; ; # % ; ; + ; # # # # > # ; > > ; # # ; ; # # ; # # : > > # : ; > # # > : # > , > ; ; ; # > > # : # ; ; > # : > # # # : : ; ; ; # # # ; ; , 6 1 1 1 > > : : 5 5 : # # : ; O ; ; : 5 t n E w.q.q./.8.i.M.).9.W r.i._.`.(.M.q.M.q.q.M.q./.q.9.q.w.w.8.w.i.9.9.W W U S M M x V d.k.c.S.F.P.].].].].I.I.E.].|.U.U.I.K.I.~.K.P.|.L.P.P.K.L.U.F.P.P.P.[.oXE.[.I.].b.U.K.v.J.S.b.K.L.J.v.b.K.b.b.x.K.v.v.b.b.4.1.v.b.b.b.4.1.n.V.h.1.;.>.>.;.j.h.j.>.,.>.h.,.1.1.1.>.1.1.D.#.#.;.>.3.>.+.$.;.;.>.#.$.+.( ' @.;.3.#.#.+.+.+.+.#.+.' +.z.3.+.;.+.( ' +.' +.+.( ` X.+.#.` ' #.$.+.#.>.#.#.$.$.$.>.+...%.$.+.#.#.#.$.#.#.$.$.:.$.$.$.$.$.#.| $.$.} ` ' | _ ` $.:.d.<.=.=.,.:.:.:.-.| | =.=.$.:.| | =.( P =.I =.=.I | | _ | } =. ...} =.| } } } ^ ^ ^ G ! o.! J G ! ",
"&X[.#X;X7X>X&X&X&X{.E.R.R.[.}.{.oX;XkX2XL.B.Z.H.W.R.~.I.L.T.~.~.T.H.Z.J.Y.H.Q.W.W.W.Q.%XQ.#X#XY.H.Z.D.H.&X#X#XZ.Y.Y.Z.Z.Z.Z.^.Z.N.Z.Y.Z.N.Z.B.A.Z.Y.Q.^.T.Z.Z.A.^.Y.Z.^.H.Z.^.H.N.^.H.^.J.J.J.J.L.Q.J.L.H.J.T.J.Q.~.!.~.T.~.Q.~.!.!.!.~.!.!.~.#XT.^.^.J.J.J.J.J.T.J.%XMX=XE.T.T.Y.!.!.Y.^.W.Y.Q.Y.Y.Y.!.!.~. XW.!.%X!.!.$X X!. X~.~.%X%X%X~.%X~.^.%X1X1X~.XX~.1X$X X XXX X!.1X&X XXX XXX X~.XX!.~.T. XT.~. X~.~.!.~.!.~.T.!. X1X~.%XXX~.%X1X1X%X3X1X1X1X%X~.~.~.!. XXX X~.!.!.!.!.~.!.!.$X!.$XW.{.#X{.#X$X!.T.*X$XW.W.W.E.H.~.W.L.Y.H.E.E.L.L.I d d d d * * * * < d < * * < < < * * * 2 0 2 0 0 3 3 * 3 3 d * P z.V.N.N.Z.Z.R.Z.Y.Z.B.Z.Z.Z.E.Y.Z.H.Y.Y.Y.Z.Y.Y.L.L.D.C.m.qXtXdXpXwXn.g.p n UXGXKXGX+X}.{.F.P.R.R.[.{.R.W.R.C.D.R.L.R.D.R.L.R.L.E.L.L.T.P.L.K.J.K.P.I.L.K.K.L.S.C.P.K.B.K.b.L.H.L.Z.v.f.j.$.#.J d % % + % % + + ; # + # # # # # # # # ; # ; ; ; # ; # # # # # + # > > ; ; ; ; ; # ; # > # # ; ; # + # # # # # # # ; > , ; # > # ; # ; ; % ; > > > : ; > ; # # ; # ; > > > # # > > ; # > > ; > > ; > # ; : # # # # # : # O ; $ $ + > 5 1 : : # # # : 5 : 5 $ : $ O : $ : 5 5 i U w.y./.i.t.t.u.y.0.U N y.r./.u./.y.q.q.9.t.q.9.q.M.w.w.9.7.W 8.q.w.8.W Q U S M n m D g.,.v.K.K.U.P.I.].].].~.I.|.U.I.~.U.K.I.I.I.S.Z.P.S.P.P.P.K.K.Z.E.P.P.E.L.[.K.I.S.K.1.K.J.v.v.b.J.4.K.K.S.v.b.b.b.n.J.b.S.b.l.v.l.b.b.l.,.1.z.;.1.;.>.<.1.>.>.3.h.j.h.1.j.j.1.#.;.;.>.<.$.@.;.>.;.;.3.#.>.;.1.$.#.;.3.>.3.;.+.+.+.#.@.+.' +.' ' +.V.1.#.+.+.' ' ' ` ` ` #.` +.` #.` ` ` $.#.#.>.+.` #.+.#.$.$.$.#.#.+.+. .#.#.$.$.#.#.$.$.$.d.$.#...$.#.$.X.| $. .#.| $.$.$.=.=.=.=.-.=.=.=.| | =.:.| :.| =._ ( P ) ) _ -.=.=.' | | d. .|  .0.|  . ...} } ..! J ^ / ^ / ! ! ",
"$X@XE.>X&X.X:X:X&X.X}.D.R.[.&X}.[.;XxX&XE.K.H.L.=XT.T.H.T.H.J.L.T.H.P.H.H.E.W.W.#XZ.T.Y.R.Y.D.B.Z.#X#X#X#XY.Q.E.#X-XW.W.Q.A.Z.N.Z.Y.^.A.^.N.B.6.N.^.W.Y.B.A.Z.Z.^.Y.H.Z.^.^.Y.Y.T.T.-X!.^.J.L.Q.J.B.^.J.H.H.J.Y.T.Y.T.!.!.!.-XQ.Q.~.%X-X-XT.~.J.^.~.~.J.J.J.~.~.Q.Y.%XxX=XT.Y.Q.T.Y.T.!.Y.Q.#XW.Y.J.H.Y.~.Q.!.Y.Y.~.!.!.!.$X!.#X%X~.~.%X%X1X~.~.J. X X~.~.%X5X3XXXXX1X=X!.oX4X3X&X*X~. XXX~.~.1X X X~.P.L.~. X!.~.E.!.|.~. XXX3X%X1X%X%X1X1X1X1X~.1X X%X1X1XoX~.1X%X!.T.!.~.Y.!.W.Q.!.~.!.E.!.~.#X&X$X{. X XQ.~.W.T.R.T.E.T.W.Y.H.Y.Q.~.E.T.H.` d d < * * > * * & % % % % % * * > * < < 2 0 2 0 3 d * 5 3 3 0 C c.z.4.z.D.Z.R.Y.E.D.Z.R.L.Z.L.Z.D.R.D.D.D.H.D.H.E.D.z.:.'./.tXgXhXpXg.=.e F M.p.HXGXCXm.m.].mX}.E.R.[.L. XD.D.V.C.L.Y.D.Q.E.{.Q.I.H.K.Y.I.T.K.~.I.J.J.J.C.b.J.S.Z.P.L.P.L.P.P.K.v.b.l.1.,.$.>.a = % % % % + > % # # # # ; # ; # # + ; # # # # # ; # ; ; ; ; ; + # ; ; > ; ; > ; ; # # ; ; # + ; > # # ; ; # > ; # ; > > ; # ; > # > ; > : ; ; ; > > > # ; ; ; # ; : > > > ; : > > : ; > # ; ; # # # # # # # # # # # O # O $ O # ; > , ; : # O ; # # O : # O # # # O & : 2 w n W 0.q.M.i.r.i.t.0.U N U y.p./.{ i./.9.9.8.0.q.9.9.w.8.Q W W W U Q w.W ] W U S S n m N g.x.v.n.v.n.S.I.[.].].|.oX|.U.U.oX].K.I.~.].P.P.K.P.P.I.~.U.C.S.R.K.C.z.P.E.I.K.J.K.K.4.S.v.J.K.K.P.b.J.J.U.b.l.v.b.S.K.J.b.b.l.v.b.b.v.b.4.l.1.1.h.1.>.>.1.>.3.3.,.h.z.>.z.j.1.#.;.;.;.;.$.3.#.;.$.j.>.1.3.>.5.#.+.+.#.+.$.+.+.' ' +.' +.+.@.+.' V.j.#.#.` ` ` ` +.` ' #.` ` ( ` ( +.#.$.+.| $.#.` +.( +.#.$.$.X.#.$.+.#.$.+.` +.X.$.$.#.$.$.$.+.X.#.$.| $.$.$.} $.$.d.#.$.' =.=.,.:.=.=.' :.| | | :.=.:.| =./ ) =.| | =.=.=.=.| =. .$. ...$...} d. .|  .X.J Y ! o.! ! ! ! ",
"R.[.{.#X&X[.oX=X:X}.{.#X&X&X.X&X}.:X8X;XE.Z.J.L.L.J.b.V.J.~.~.~.E.Y.B.H.T.T.E.H.Y.Z.Z.E.H.^.D.Y.W.R.D.B.Z.Y.H.B.Z.H.H.^.#XY.B.N.N.Z.Q.^.6.N.N.N.N.^.T.Y.Z.A.4.N.Y.^.N.Z.R.W.Q.T.Q.!.^.W.E.T.L.T.J.H.T.J.Y.J.~.T.J.^.^.~.Q.~.~.T.^.~.T.!.!.Q.!.Q.%X%X~.T.J.~.T.^.^.Y.$XxX*XH.Y.!.~.T.Q.Y.T.Q.W.Y.B.Y.H.Q.!. X1X1X1X$XQ.~.!.~.!.W.~.~.%X~.1X%X~.~.~.~.~.%XT.~.%X2X=X X1XXXXXXX X*X~.&XZ.[.=X!.%X X!.%X~.~.H.!.1X XE.~.*X!.~.~. X9X~.~.~.%XUX%X1X2X X1X%X%XT.1X1X%X=X X%XE.!.!.!.!.E.Q.T.E.~.!.~.~.$X!.W.W. XQ.T.W.E.Q.Y.Q.T.T.H.H.L.Y.Y.!.T.H.H.<.r * * * * % % % = * % % % % % % > * > > 2 * * * < < < d < d d C h.K.C.V.j.z.R.Z.Q.L.Z.T.Y.Y.L.R.Y.Z.L.D.Z.Z.Y.Y.H.Y.z.:.M.S tXdXfXhXf.=.d 0 5 D HXHXCXT sXFXGXIXD.D.E.D.{.R.D.V.D.D.R.R.R.L.[.Q.T.I.P.Y.L.H.I.L.K.K.~.L.J.K.C.K.v.P.R.K.v.K.L.K.l.S.z.l.$.#.' = = % + % + % + % ; # # # ; # # > ; # # # ; # # > # ; # ; # ; + # # ; > ; ; ; ; ; > + ; ; # # # ; ; ; ; # # > ; ; # # > > # # # # # > # ; > # # ; ; # # > # ; ; ; # ; ; > > > ; > > : > : : > ; : ; # # # # # O # # # # # O O O O # , , ; # O # # $ O : : O # : # O : # & 3 9 Y 9.w.y.i.w.u.M.u.{ N N 9.i.i./.y.'.q.0.9.9.9.0.0.T 9.9.W u.B U U W W T T W U M A c m n =.,.b.n.b.U.K.I.I.[.I.~.oX|.~.].I.~.~.].~.].U.C.K.F.K.[.|.E.C.V.K.P.P.C.K.K.I.~.U.K.b.l.b.b.v.J.b.x.b.v.b.J.b.4.S.J.P.b.4.x.l.K.1.b.b.b.4.,.j.h.>.j.1.h.>.2.j.h.,.>.z.h.>.1.z.j.;.+.#.j.1.,.;.>.+.+.>.;.>.#.#.3.$.+.+.+.+.$.>.;.;.;.$.@.#.+.+.` ( j.2.-.@.' ' ' -.+.-.` #.#.+.` #.` ` +.$.#.#.#.#.#.` #.$.>.$.$.+.#.$.#.e.m.#.( #.#.$.$.$.$.$.$...#.$.d.$...` #.$.$.$.$.| _ ' _ =.<.-._ ' =.d.:.:.d.:.| | | _ ( I =.=.| =.=.=.=.=.}  . ... .| =.#.X. ...0.../ Y ! ! ! G G ! ",
"D.P.{.}.&X&X&XE.{.&X[.&X X{.>X;XR.4X5X.X%XW.J.Y.H.K.K.J.~.!.!.J.V.H.Z.Z.Y.Z.W.W.R.$XY.R.B.G.Z.H.G.H.H.Y.Q.#XH.A.H.Y.Q.H.-X1XY.N.^.^.Y.H.V.N.2.A.H.Z.Z.Z.A.^.Z.Z.Y.Z.Z.N.N.A.A.Z.Z.B.#X1XJ.T.Y.Q.J.J.T.H.J.B.J.H.L.T.L.Q.Q.~.Q.~.J.J.Q.~.~.Q.T.T.T.J.^.T.^.T.T.T.T.Y.!.zX*X^.Y.Q.T.L.Y.#XT.Y.Q.Y.^.H.H.!.!.Q.$X%X%X9X9X%X!.!.!.!.1X~.~.~.%X%X~.#X~.~.~.~.2X1X%X1X3X%X2X*X X1X1X%X&X=X X~.|.~.T.!.!.~.~.Y.~.I.~. X X XE.~.XX!.1X1X%XoX~.1X~.%X2X~. X1XXX9X0X2X9X%X1X1X%X~.Q.!.~.~.H.V.Z.T.W.!.E.T.E.Q.E.E.Q.$X X~.!.T.L.T.~.Q.Y.~.!.J.T.T.P.P.H.<.C * * % % % = = % = % % % % % % % % = % % % > % = & & & , * d r -.l.z.;.V.Y.Z.Z.^.B.R.Z.N.Z.W.E.D.W.Q.Q.Z.Z.D.D.Z.V.>./ 0.S tXaXfXtX=.) = d & D HXHXdXS bXGXGXJXvXS.R.[.}.{.D.V.D.V.Z.Z.Z.Z.G.P.L.E.~.I.~.P.L.~.I.J.K.I.U.b.K.C.C.Z.S.b.b.v.C.K.l.C.l.,.` +.I - % # % # % % % + ; # > # ; ; ; # # # # ; # # ; ; ; # # ; # ; ; + # ; > > ; > 1 > > ; > ; > # # ; # # # ; # ; # # ; + > > # ; ; ; ; # ; # # ; # # # ; ; # > # # > # ; : : > > ; > ; ; % ; ; ; ; # # # # + O $ # # # O O O # O $ O + # ; # # # # O O O 5 5 # # # # # # # 5 4 a W r.i.M.w.y.u.t.t.N m { u.r.9.i././.9.t.7.9.w.8.8.T q.9.9.w.y.U c w.w.U W 7.Q S S c m A x.g.l.n.K.U.I.oXU.].K.].~.~.oXI.I.I.I.].|.~.U.P.S.C.Z.P.I.K.S.P.R.E.~.P.P.R.I.K.J.K.U.b.L.v.K.K.v.b.v.J.n.b.b.l.b.K.K.b.l.b.b.b.l.b.x.b.1.l.j.j.j.j.>.1.;.;.1.1.h.j.j.1.>.1.z.h.#.#.#.+.;.1.2.>.>.>.<.;.>.;.#.3.#.@.+.+.#.@.@.#.;.#.$.;.#.@.#.@.+.>.;.` +.+.` ` +.' +.` ' -.#.$.>.+.+.#.#.$.` %.+.+.$.$.#.$.f.$.$.#.$.#.$.f.#.` X.#.#.X.#...$.:.$.d.$.$.$.#.} ` | | | } ( _ P / =.=.| =.| =.| :.|  .| }  .| =._ _ =.=.:.=.:.=.| =.=.=. . . .0.......0...X...X.^ ! ! R G G G ",
"R.[. X{.E.{.E.XX{.{.R. X[.{.,X.X}.jX7X X X XY.T.J.T.XX1X1X~.1X~.L.H.W.T.Q.H.E.Q.Z.Y.Z.Q.B.B.Z.B.A.Y.Y.Z.T.Z.^.H.^.Q.Y.^.T.W.^.N.Z.W.Y.A.N.N.B.Y.^.Z.A.Z.Y.W.T.Z.T.^.Z.A.Z.A.Z.Z.Z.Z.^.Y.B.H.L.J.H.H.P.Y.J.J.H.Y.T.^.T.T.J.T.T.T.T.^.!.~.^.~.%X~.J.J.Q.L.T.~.Q.T.L.6.!.MX1XT.~.Q.T.T.!.!.W.Q.Y.H.H.T.H.T.!.T.L.~.$X%X1X$X$X$X!.!.~.~.~.~.~.~.~.~.~.~.~. X1X X%X~.%X X*X&X X*X&X*X1XXX XXX2X~.!. X~. X X~. XH.Y. X!.~. XXX!.~.~.$X~.oX%X~.~.~.~.1X~.*X1XXXXX%XXX1X1X=X!.T.Y.Y.T.H.J.V.H.J.H.T.Y.T.!.W.~.Q.T.T.~.!.!.T.Y.E.~.Y.T.E.H.H.T.T.T.L.Z.2.I * & * = % = = = % % % % % % % > @ @ = % % % % % @ % = % % @ = j ;.;.' <.b.J.B.H.H.Z.H.V.Y.E.Y.T.Q.D.V.j.C.L.R.L.J.1.I g.S rXfXhXfX=./ = * 5 ] HXGXhXm { =.u.FXJXF.R.E.{.[.V.V.D.D.H.R.Z.W.R.Y.I.~.~.~.I.~.~.~.J.oXJ.P.L.K.b.C.P.C.C.K.K.D.D.S.P.v.C.>.$.>.r # % + % + % % % % # # # > # # > > ; # # # # # > # # # ; # + ; + ; # ; ; ; ; : : > ; > > > ; # ; # > # ; # # > ; # # # ; ; # : # # # # # ; # # # ; ; # > ; # ; > # ; > # ; > ; # ; # # ; # ; # ; # + # # O + # # # $ O # O O # $ O # O $ # # # O # $ O 5 : # : # # : # : 5 w n r.p.).8.w.q./.{ N m m 9.y.9.9./.i.y.u.0.M y.9.W q.Q /.8.9.q./.0.y.y.w.U S S S M S m i H :.f.b.x.K.U.U.].].~.|.U.I.I.~.].~.U.I.~.I.].C.~.K.v.v.L.P.I.K.K.P.K.P.L.P.J.K.L.I.K.v.b.b.K.b.b.v.v.K.I.S.4.,.b.b.K.v.b.1.b.C.1.b.m.4.1.b.K.j.z.2.>.>.;.1.>.,.h.3.S.c.z.3.h.z.>.3.#.;.#.3.>.1.2.>.j.3.#.$.>.+.#.$.' +.$.#.@.@.3.>.$.#.#.+.>.3.+.' -.>.` ' +.$.` +.` #.@.#.$.>.$.>.#.#.+.$.$.$.$.$.#.#.#.#.#.#.$.$.$.$.#.#.#.` +.#...+._ _ #.$.$.#.$.d.$.$.#.#.| X._ | | P ( ` | =.d.| | =.=.| | =.$.| _ | | ^ _ ' =.| -.=.:.=.=.:. . . .$. .$.X.0.$.=.....#...../ G G F G o.",
"R.W. X[. XR.R.E.[.W.E. X{.&X&X[.[.R.;XE.E.T.L.H.I.~. X~.E.L.~.H.Z.Z.T.!.R.Y.Z.H.Z.T.Q.Y.B.H.H.Y.Y.Z.N.Z.Z.T.A.H.Y.Y.Q.Y.Y.W.Y.A.Z.Y.A.Y.T.6.N.Z.H.Z.N.Z.Z.B.Z.A.^.Z.Z.N.A.H.Z.Y.^.Z.^.Y.Q.Y.J.Y.T.H.J.Z.B.J.H.H.T.T.T.J.J.J.B.Z.6.J.J.T.T.Q.Q.T.L.Q.L.H.T.J.B.J.J.6.~.0X1X^.~.J.J.T.!.~.Q.Y.^.H.L.J.B.R.$XE.Q.Q.!.!.$X!.W.~. X XT.~.%X1X1X%X~.~.~.~.~.%X~.2X2X1X*X&XXX%X%X X&X=XXX=X X X XE.~.~.E.T.~.1X XI.~. X~.T.~.~.P.T.~.~.~.%X~.~.%X%XXX%X%X%X*XXX%X X X%X%XXX~.L.T.L.L.T.Q.L.Y.E.~.Q.H.T.E.T.Q.E.E.T.T.~.$XL.L.T.~.T.~.Y.W.W.R.T. XZ.V.2.X.j = = % % = = % % = % % % @ % * @ @ % % % % % % % = = % = = = - L | 1.P.L.K.K.V.V.Z.R.Y.E.Y.Z.E.Y.H.Y.T.Z.W.B.B.B.-.G D V rXfXfXhX[ L = * w `.HXfXsXN 9 5 9 vXJX].R.E.P.E.R.D.D.G.H.R.R.L.D.V.~.1XXX1X~.P.I.I.I.I.K.I.L.K.L.I.[.L.K.K.P.S.F.c.C.c.c.h.` I * > % ; % + % + + % # > # ; ; > ; ; ; + # # ; ; # > ; # # # ; ; ; + # ; ; ; ; : ; ; ; # ; > ; > > # ; # # ; # # # ; ; # ; # # ; > ; ; ; # + # # # # # # # ; ; > # ; ; # # # ; ; # # # # # # # # # # # # + # O # O # O # # # O # # # # # # # # # # O $ $ : O # # # O # : 5 5 w D u.i.0.w./.y.9.A m m m W r.t.M./.0.9.u.9.z w.q.W 9.{ W y.M.y.y.y.y.y.8.T Q W T U M c z M f.x.x.n.P.U.U.K.K.U.~.I.I.].].~.].~.~.U.~.~.I.P.L.S.v.K.P.P.~.~.L.J.P.T.K.L.L.K.J.J.v.J.v.K.J.v.K.b.b.U.b.b.l.v.b.K.b.b.v.b.b.1.,.b.1.b.b.b.j.j.>.>.>.2.j.1.3.>.>.3.j.1.>.j.j.>.1.3.3.>.#.#.$.>.3.h.2.#.1.>.;.3.#.+.+.#.;.#.#.$.>.;.;.;.;.-.-.+.' z.j.#.' +.+.$.-.( #.#.$.$.$.>.>.#.$.#.#.$.$.N.j.$.#.#.#.#.#.h.h.$.$.#.#.#.#.#.` #.` ` ` | $.` X.#.d.$.$.X.+.} ` $.| -._ | :.:.:.:.=.| | =.=.| | | _ _ _ } =._ =.=.:.:.=.=.=.=.=. .|  .0. . . . . .X... .0. ...X.! G C D D ",
"R.R.W.W..X&X X%X X XL. X X&XR.[.&X&XkX&XY.H.I.~.!.~.E.Y.L.H.~.~.!.B.Z.Y.G.Y.B.L.R.Y.E.Q.Z.N.Z.Z.Z.Z.Z.R.H.B.Z.N.H.Y.H.Z.N.W.W.A.A.^.A.L.N.2.A.^.Z.^.W.Y.H.Q.^.Z.^.B.Z.A.Z.B.A.A.^.Y.Y.Z.A.B.J.H.B.B.J.J.J.Z.H.H.T.T.J.L.J.J.B.B.J.b.6.T.T.J.Q.~.Q.T.J.^.~.L.J.6.J.J.$XzX1XT.T.%X!.^.#X#XW.H.^.^.Z.Y.B.T.T.T.L.E.!.~.!.~.Q.~.!.H.~.~.~.%X~.%X~.1X1X~.~. X%X1X1X~. X|.%X%X X&X X*X*X X X~. X X~.E.H.E.~.~.~.~.T.~. X~.%X%X~.Y.E.~.%X~.%X~.~.oX1XoX1X1X1X1X1X%X%X%X~. X$X!.~.Y.H.K.J.H.Q.Q.~.~.Y.Y.Y.T.L.T.T.T.Y.!. XH.T.T.T.T.E.T.Y.L.R.$XE.Y.N.Z.,.o.d = * % % % % % % * > * % % % = @ % % * % % % = % % % % = = - a =.1.b.L.K.b.Z.L.D.Z.D.Y.R.Q.W.Y.N.N.Z.D.E.Z.b.,.:.V 4 v /.dXdXaXL G = * R GXHXHXfX=.5 5 5 sXKX+XD.E.E.{.C.S.D.D.D.R.P.R.E.Y.I.oX~.I.J.K.K.J.J.J.K.v.J.I.U.I.[.K.L.S.R.K.C.C.c.c.h.$.$.H - % % % + = + + % % # # # # # # ; ; # + + ; # > ; # # # # # O ; + O + ; + ; ; + ; ; # ; ; ; ; # # # # # # # + # # + ; # # # ; > > ; ; # # # # # # # # > # ; ; # # ; > # # ; ; # # ; + + # # + # + # + # + O # # O O # # # # O # # # # O # # # # # # # # # # # # # : # : : p W 9.r.w.] i./.q.U m u i T 9.t.u.u.r.y.W T W W 8.0.W ).w./.Q T M 9.y.y.w.8.Y U U M S A c z A f.>.l.C.K.P.K.U.K.I.U.U.~.I.~.I.U.K.].|.].I.P.E.[.I.L.U.I.L.P.I.I.T.~.L.K.T.K.K.K.J.K.J.J.b.v.b.J.n.b.J.P.b.b.b.b.J.K.b.K.4.1.b.,.4.l.b.l.x.1.>.>.<.,.j.z.h.>.1.1.>.3.h.1.,.j.;.>.#.;.#.;.3.3.>.>.1.>.3.1.3.;.#.;.@.@.#.@.+.+.,.3.;.#.;.+.@.+.+.' z.1.' I ` +.( +.` ( #.>.$.$.$.$.+.$.$.$.$.$.$.$.$.#.#.$.#.#.$.>.$.$.#.$.#.#.X.| #.#.X.X.#.| #.X.$...| #...` _ $.| :.-.f.,.d.:.=.:.=.:.:.:.| _ | _ _ _ ( ) _ ' =.=.} =.=.:.=.=.| =.=. . ...X... .X...=.d.0.0.X.^ / ! F Z C ",
"L.{. X&X XE. XE.E.&XE.{.{.{.[.&X}.>XlX;X!.L.L.J.T.~.~.J.~.Y.~.J.L.Y.Z.T.Y.Z.A.Z.Y.Q.Y.D.D.N.N.N.N.Z.Y.Z.Y.Z.Z.W.W.^.Q.Q.#X^.Z.Y.N.N.B.Z.4.N.H.Z.Z.Z.H.A.Z.$XT.A.Z.B.B.N.N.Z.N.Z.Z.H.Z.^.Y.Z.Z.Y.J.H.H.H.J.V.B.J.J.J.B.4.4.B.J.H.4.J.J.J.L.J.J.L.J.J.4.J.B.J.T.J.H.^. X0X1XT.T.!.T.T.Q.!.T.T.Q.Q.6.H.J.T.$X%XQ.!.T.!.T.~.~.T.W.Y.%X%X~.~.~.~.~.~.%X X~.%X1X2X*X%X%X*X*X XXXoX X~.|. X~.W.E.R.~.~.E.~. X X~.~.!.%X X X X XQ.~.XX X%X1X*X~.~.~.%X1X%XoX%X%XXX%XXX~.=X*X1X%X~.H.T.J.C.T.Q.P.T.T.L.!.Q.W.Y.Y.E.H.Y.T.Q.Y.T.~.!.!.Q.T.Y.Y.Z.Z.Y.D.V.V.e.d.O.= % % % = % % % % % % % % % @ + % % % % % = % = % = % > + = * I l.v.K.J.K.L.H.C.Y.Z.W.{.W.R.R.V.Z.Y.T.Z.Z.b.h.| j 3 m tXfXhXhXL Z - = N CXHXHXHXfXH : : UXLXOXD.R.H.@XP.S.P.Y.Y.D.Y.Q.R.E.~.~.~.K.b.b.K.J.K.K.J.J.P.K.L.L.I.Z.K.Z.E.L.S.P.c.h.h.c.f.J + % + + # + + % + + + # + # ; # # # ; # ; # ; ; # # ; + # + # # + O O + + + + ; + ; + ; + ; # ; ; # # # ; + # ; # ; ; # ; ; # > : > > # ; + ; # + ; # ; # ; # > ; ; # # # # # # # + # # + # + # # + # # # # # O O # $ # O $ # O # O # # # # # # # # # # # # $ : # # : : 9 =.r.y.w.w.M./.M.8.m u u N ] 9.9.0.q.t.w.] S Y W 9.7.0.y.q.r.w.Q N 9.0.9.w.8.W 8.8.U M A c x n d.k.x.n.K.n.K.U.U.L.K.U.oX~.oXI.K.I.~.I.].oXP.[.[.I.I.~.[.I.P.T.~.L.L.P.K.b.J.K.b.m.J.I.K.K.J.v.K.J.K.J.L.b.S.S.S.b.v.v.4.l.4.,.x.4.1.b.b.b.j.h.j.1.-.>.3.>.,.1.z.;.h.1.>.h.3.,.h.,.1.3.,.1.,.h.3.1.;.$.;.3.;.@.#.+.+.#.$.;.#.;.;.<.#.+.#.#.+.+.' z.l.' ' ' ` +.#.+.+.#.$.$.$.$.+.` +.+.#.#.#.h.$.#.#.$.#.#.$.$.$.$.f.X.#.X.#.` ` ` ` ` } $.#.....` ` +.X.#.| ` ` | :.:.:.f.h.d.:.:.| | =.-.=.| } | =._ ) | =.=.=.=.:.f.=.) | | | =.d. . .} }  ... . .d.d.$.....^ ] ^ o.o.R ",
"K.T.~.!.~.oXE.~.~.E. X X XoX XoX{.:XxX;XXX XT.H.P.Y.B.L.&XT.Z.2.Y.T.Y.N.N.A.N.A.N.B.^.L.Y.^.A.N.^.Z.^.Y.J.A.Y.Y.^.E.Y.Z.Q.H.#XZ.H.Y.^.W.Z.N.N.N.B.A.L.A.Z.^.Z.^.Z.H.Z.A.Z.Z.N.^.A.Z.Z.Z.Y.Z.Z.J.B.H.^.J.L.J.L.H.L.J.J.B.B.J.!.T.H.H.Y.J.^.B.H.T.J.6.6.J.J.L.Q.L.J.Y. X0X=XH.Q.~.Q.T.T.J.H.G.^.^.A.N.Z.R.#X$XQ.Q.Y.R.Q.Q.H.Q.Q.Y.~.~.^.Q.~.1X%X%X!.!.T.~.=X$X X%X X~.~.!.~. X X X~.~.~. X XE.E.%X%XXX~. X~.~. X~.!.I.~.T.T.~.$X&X1X~.~.%X X X&XXX%X X%XZ.#X;XW.&.A.&X=X-X{.Y.H.H.D.Y.Y.H.L.Y.Z.H.H.Y.Y.E.!.!.T.~.Y.T.E.!.~.~.Q.Q.T.T.E.~.L.V.Z.L.S.d.C % > , , * & , & & & & & & , % # % > % % % > % * > % % , % % = ! j.C.P.V.B.B.J.K.P.!.Q.~.Y.H.^.J.b.Z.V.N.N.3.h.( a 0 H rXfXSXgX0.C & * p /.GXGXHXHXF 5 & sXGXU.v.K.R.D.R.[.R.C.R.E.L.L.L.L.P.~.Y.I.J.C.L.b.C.S.J.J.I.L.I.I.K.C.K.v.L.P.K.z.C.k.j.f.d.O.+ % = % + % + = + % ; # # # # # ; ; # # ; # # ; + + ; O + O ; ; ; O O + ; + ; O ; + # O # # # ; ; # # # + # # # # # # ; ; # : # # # # # & # # # # : # # ; # # > # # ; # # # ; + # # ; + # # # + # # # O # O # # # # # # # # # O # # # $ # # # # # # # : $ # $ # # : : 5 W u.M.y.M.M./.w.r.A u u z Q 9.9.9.0.w.w.9.W U Q Y 0.y.y.M.M.T w.8.v U w.8.w.W U 8.S B S M c x c >.k.V.F.|.S.S.S.S.K.[.I.[.}.|.P.K.I.|.].I.I.U.I.E.I.I.I.J.~.I.I.~.I.I.I.v.J.K.J.v.v.K.I.J.c.v.P.K.J.J.J.I.S.K.v.v.b.v.b.z.z.l.2.b.l.1.l.b.l.h.3.1.#.-.#.3.l.j.>.2.>.,.2.l.h.1.j.,.>.3.h.>.;.1.1.j.1.,.$.@.#.$.>.#.#.5.3.+.$.#.3.>.;.#.-.-.-.-.=.' l.l.` ' ' ' =.+.-.` ' +.#.+.#.$.#.( @.X.+.#.$.$.$.| $.$.d.d.d.#.$.X.` +.X.( _ } ` +...X.$.} ` #.X.#.$.} | X.` #.` $. .>.$.#.| :.d.| | _ } | `  . .| | | | =.=.=.=.=...=.....=... .=...} [ [ } [ .. . . .0.| [ / ^ [ ^ / ! ",
"L.P.E.P.E.E.E. X|.~.E. X|.|.~.I.{.>XlX.XE.R.L.P.~.E.T.L.T.T.D.Z.W.%XQ.$XN.A.Z.N.N.A.Q.Z.A.B.B.H.Z.A.W.=X=X$XW.^.Y.W.Q.#XH.A.Z.H.A.Z.Z.Z.A.^.Z.H.Z.T.Z.Z.Z.Z.Z.Y.Z.Y.Q.T.Z.Y.^.Y.J.L.^.Y.^.Y.J.J.J.H.Y.T.J.J.T.^.T.L.J.T.J.T.L.H.J.J.J.H.B.z.B.T.J.J.B.J.J.^.^.T.L.Y.=X9X%XQ.~.Q.~.Q.~.^.^.H.H.A.6.A.Z.Y.$X%XW.W.Q.Q.{.H.D.R.Q.R.~.~.~.~.~.#X%XT.~.!. X!.$X1X%XXX%X X~.~.%X~.!.~. X~.E.~.E.Q.~.!.~.!.~.~.~.E.~.~.XX X!.I.R.E.W.W.~.XX1X1XW. X%X%X1X$XW.&.*..X$X2.G.&X&X&X$XR.R.W.H.N.Y.Y.H.L.Z.Y.Y.E.Q.E.Q.!.E. X~.T.Q.Q.!.T.H.P.Z.H.Y.Y.B.Z.D.V.V.X.e , > < , , & < , , < < < 3 , # # % % > % % < < , < % < 3 0 < = J h.c.c.V.V.b.b.J.T.~.T.~.Y.Z.V.Z.L.Y.V.Z.N.z.f.J s e m y.dXfXfXM.H * < e 0.LXGXGX`.h & : UXGXb.S.P.C.D.R.{.E.P.E.R.H.K.K.L.I.Y.L.~.P.H.C.v.v.L.I.~.I.K.L.K.J.v.v.K.S.C.F.S.N.j.h.$.X.* % = @ + % + % + # + + # # + # ; # # + ; ; # + O O + O O + ; O ; + O O + O ; + ; O + O # + + # + # # + ; # # + # # ; # ; > # > > % > # & # : # : # # > # # # # # + # # + # # # ; # ; # # # # # # # # # # # # # O # # # # # # $ # # $ # O # # # $ # # # # # # # : # : 5 m { u.q.y.q./.r.w.] M u z S ] ] ] W 9.] w.] Y D T U w.(.).W U U W T c S 8.T W S v M S v c c v u n g.x.m.S.P.U.n.K.U.K.I.E.P.[.|.I.I.P.[.|.I.I.I.U.P.L.I.U.I.I.~.~.~.I.I.I.K.K.J.T.v.J.b.L.P.J.b.C.K.K.P.K.v.v.J.J.K.l.l.b.b.l.l.1.v.v.b.2.l.2.l.l.<.>.>.,.1.1.z.>.>.z.l.1.h.z.c.j.1.,.h.j.h.,.1.h.>.,.3.>.>.#.;.;.;.5.#.#.#.#.#.$.-.;.-.#.#.+.-.;.' 2.l.` ' ' ` ;.-.' ' +.` $.$.$.| %.( ( ` #.#.$.#...` $.=.$.$.$.#.$.( _ ( ( ( ( ( ` | | +.#.+...` ` ` X.` ` } ` | $. .$. .$.| | | :.:.| :. .| } :.:.:.| | .._ | } =.=.=.=.[ [ =.=...=.} .. .}  .}  .:.r. .....} [ } ..[ [ ^ ",
"E.E.Q.E. XL.T.T.P.!.%X&X X XXX~. X6XlX&XE.oX XE.oXY.E.Z.T.E.$XW.H.Z.Y.Y.B.N.N.N.Z.H.^.H.N.N.2.L.Z.B.A.Y.T.T.Z.Z.W.Q.Q.H.N.Z.Z.Z.^.H.A.N.Y.Y.^.T.T.^.B.A.Z.^.Y.H.Z.A.6.A.A.T.Y.Y.Y.6.B.B.Y.J.Z.Y.Y.J.J.^.^.T.T.T.Q.J.^.B.J.~.T.J.H.J.B.K.Z.J.Y.J.A.B.B.6.6.J.T.^.H.L. X0X=XQ.T.~.Q.T.T.^.Y.Q.Z.A.N.N.B.Y.W.$XE.W.L.Q.Y.4.H.Q.Q.W.~.~.~.Q.~. X%X^.!.T.Q. X$X X!.~.!.!. XXX1X%X!.XXXXT.Y.~.%XP.$X~.T.~.~.~.~.E.T.~.!.~. X~.E.Y.T.R.~.!.~.%X$XW.=X:X%X=X%XA.&.Q.Y.,X>X&X&X$XY.Y.R.W.D.H.R.T.J.H.Q.~.~.J.T.~.T. X~.Y.E.!.~.W.T.L.J.H.H.J.T.Y.D.Z.Z.c.k.J * * , > % % & < & * < < < < > % % > % % # % < < 0 2 < > < < * = O.>.z.C.V.V.b.z.b.T.T.Y.B.H.Z.Z.N.Z.Z.Y.Y.N.j.+.J d 0 n /.gXfXfXtXF & < < g.LXHXGXu.9 * = +XGXf.J.K.C.C.S. X;XE.L.R.L.T.P.L.H.P.K.-.C.~.z.z.C.L.K.~.P.J.U.C.C.c.b.K.c.D.c.c.V.c.j.f.G = + % % + % + + + % + # # # # # + # ; # # # # O O O + O ; + O O + ; O O ; + ; ; O + + # + O # O # + # ; # + # # ; ; # ; > > > > > , , & : : & # , # : # ; # ; # # ; # # # # # # # # + ; # # # # # # # # # # O O : O # # # # # # # # # # $ O # # # # # # $ # # # # : 5 5 x ] 9.w.y.y.M.M.] M z u z U T W Q W ] W W T M U T T 9.).`.U v 8.8.B M S U v B M v b z z c c z u A >.f.z.S.c.U.S.n.K.n.P.P.K.K.P.K.I.].|.|.I.|.~.I.L.K.J.I.I.I.U.I.I.I.~.K.L.~.K.I.L.b.b.v.b.T.J.L.T.J.U.J.K.b.K.I.K.J.b.K.b.z.b.b.K.b.l.1.h.1.j.1.3.h.>.2.2.>.>.>.>.j.>.1.z.j.1.>.>.j.j.3.>.3.$.1.>.3.3.>.3.@.h.2.>.#.@.#.$.$.;.;.#.>.>.>.-.-.` ` | ,.l.;.' I ' -.-.' ' ` +.#.$.$.#.` o.( ( #.#.` $.` $.| $. .| $.` ` _ ( J / ( ( _ ( ( ` ` X.$.#.$.$.$.} | | +.#.} ..:.$.| | | | :.:.:.| $.:.| :.:. .=.| ..=.=.=.=.=.=.=...=.......} =.=.| =.} ..}  . .....| ..| ) ^ ^ [ / ! ",
"E.L.P.L.E.K.P.V.R.E.~. XXXXX2X|.P.XXBX&XE.E.L.R.E. X~.L.Q.$X-X=XH.Z.H.Y.Y.6.Z.Z.N.Z.A.N.N.N.N.A.Y.H.Y.^.N.N.A.#X#XB.Q.#XB.B.B.6.2.N.Z.N.A.Z.6.Z.B.B.A.Y.Z.^.=XA.B.N.Z.Z.Y.#X#XW.Y.^.Z.J.H.Z.W.Y.J.Y.~.~.T.^.J.T.Q.~.~.T.Y.Q.J.T.J.H.B.J.J.J.J.B.B.B.6.B.J.^.!.L.Z.B.!.0X!.H.T.I.J.J.T.Q.H.Y.^.^.N.A.A.Y.R.$X$XQ.L.Y.Z.N.W.{.W.W.~.~.~.^.J.%X%XT.~.!.~.!.$XT.!. XXX1X1X X*X~.~.!.!.~.~.P.~.E.~.~.~.P.E.~.L.T.~.oX~.!.T. XE.T.E.%X1X~.~.~. X{.&X#X X=XXXXX#X#Xl &.#X&X>X{.{.W.D.Y.Z.T.$X X!.L.T.Q.E.H.T.!.T.T.T.Y.Y.T.!.E.Y.H.E.~.B.K.T.Y.Y.Y.V.b.d.c % % % = % % # # & % # % & # % % + % % = # % , < 2 < < < 2 < < = 0 } ,.V.P.4.b.J.L.H.H.z.H.P.T.D.Y.L.Y.L.D.B.j.+.C d e S wXdXfXfXrXV * < 3 ).LXLXJXrXp * * ).DXl.C.K.z.D.D.;X;XE.E.R.Y.I.L.Y.I.J.-.Y.P.E.b.l.v.b.~.I.~.~.K.C.C.J.n.b.c.S.c.C.S.k.h.#.= = % @ @ % + % + % - # # # + # # # + # O + # O O O O ; ; ; ; O O ; ; ; ; + + ; + ; ; ; # ; # # # # # # # ; ; # # # + ; ; # : > : : & , , , # & # # # # # # # # ; # # ; # ; # ; # # # ; # ; ; # ; # # # # O # # # O ; O # # # $ O # $ $ # # # # # $ # # # # # # $ : : : 5 p B { u.M.r.] T M z z 8 z S Q W W W T E Q U v S M S T W T S M S T U U B v B U U b b y 8 z u y 6 V d.k.c.S.v.U.K.I.n.U.P.I.K.F.P.K.P.K.].I.~.].P.P.I.L.K.I.I.~.~.|.|.L.I.~.K.K.K.v.b.b.b.v.K.L.v.b.I.U.J.C.C.b.b.H.J.K.v.C.v.v.l.b.b.b.1.1.2.b.1.1.>.1.1.j.h.c.j.1.z.1.3.>.h.j.3.h.h.j.>.>.3.>.j.1.;.1.>.3.#.3.3.#.>.3.#.#.5.#.#.>.>.;.;.;.:.;.-.;.-.>.,.` ` P ' ` -.' ( ' #.#.#.#.+.` +.( ( +.$.| $.| }  .$.$.:.#.| X.} ( +.X.! _ ` X.` X.#.....| | | | $.$.$.} ` #.$.$.$.` | | | :.:. .|  . . .:.d.| } ..| | _ =.=.=.=.....=.} ) =...d.=.| } .. ... . .=. .r.d.r. ...} ^ / ~ ",
"Z.L.~.P.E.P.T.R. X X~.E.~.~.~.XX|.4XxX;X[.E.R.E.E.V.Y.G.W.W.$X#XG.H.Z.B.B.Y.H.B.Z.Z.N.6.Z.Y.#XY.Q.Y.Z.B.6.A.W.Q.Q.Z.A.^.H.N.Z.4.6.N.N.A.Z.Z.Z.Z.A.Z.Y.Y.Y.^.#XY.^.Z.Z.A.$X%X=XQ.Q.Q.J.Y.J.Q.!.Q.J.T.~.~.~.J.J.~.T.~.T.Q.J.!.J.^.L.T.T.T.#X1XJ.V.A.^.B.6.6.J.J.J.N.N. X9X#XY.Q.Z.~.T.J.Z.A.Z.^.Q.G.N.A.H.W.$XW.W.Q.Q.{.Y.Q.E.Q.R.%XT.Q.Y.T.T.T.J.Y.!.Q.Q.!.E.!.XX%X X~.XX X~. X%X~.~.E.~.E.~.Y.Y. X~.E.E.E.I.T.T.!.*X~. XW.T. XW.~.^.W.W.T.W.-X{.!. X%X1X6.6.6.6.Q.{.&XW.$XQ.Q.D.Y.Y.!.W.W.L.!.~.T.Q.Y.~.T.J.!.!.Y.Y.H.~.P.J.H.Y.Y.H.P.H.H.Z.A.h.C < = % % % % % & = # & % # % % % + o + # # + % = % % , % * % % # = < ( 1.c.D.z.B.J.L.B.B.4.B.Y.R.Y.L.B.E.Y.T.N.j.#.C d r { tXgXfXfX).a * , 5 +XGXGXGX'.p d * +XDXx.z.C.K.K.S.2X&X|.L.~.~.L.T.K.K.[.T.E.P.P.P.b.K.K.J.J.K.K.P.P.K.K.L.v.v.v.v.c.c.1.j.Z = % % % = + % + + + % # # + O # # # # O + O ; + + + ; + O ; ; ; + + ; + O ; + ; + ; ; + # ; # # # # # ; ; ; # ; # # # # # ; # ; # % , : , & # # # # # # # # ; # # ; # > # ; # # # ; # # ; ; # ; # # # # : O # # O # # O # # # # # $ # # $ # # # # # # : # # # # O # : : 5 u m U U E M M c z u 8 z c M U Y Y T W E Q c z z b v S S S v v S T 8.U B v 8 U M v M b u b u y 4 n >.:.v.l.l.K.n.v.K.n.I.E.I.U.K.S.U.I.I.].~.I.I.P.I.b.K.I.I.I.].].~.J.K.I.I.6.b.L.K.K.J.v.K.v.b.C.1.b.K.K.C.K.v.K.b.v.z.v.b.b.2.b.b.c.j.z.j.z.z.>.h.1.>.1.j.h.j.h.j.>.1.j.h.j.3.,.,.j.>.3.j.h.>.3.3.>.1.#.$.$.#.#.1.$.#.@.#.3.;.-.;.f.;.;.` -.` ;.>.l.l.+.+.( ' ` +.` -.` +.( ( ` @.' ( P ( ( $.$.$.#.` +.$.$.#.#...#.` } ( / ( ( ` } ` ` $.#.#.#...$.X.#.$.$.+.} ` |  .|  ._ ` :.:.:.:.|  .$.:.d.:. . .| ..| =.=.=.=.:.=.=.=...[ ..=.>.r.=.=. .r.r.| =.=.=.=. .d. .^ [ [ ) ^ ",
"P.H.L.E.P.R.E.~. X&X~. XI.~.OXXX X4XMX4X{.[.E.T.H.V.Z.Q.-XD.H.{.Q.H.H.B.N.4.2.6.Z.N.N.N.H.Y.T.T.^.Z.A.N.3.Y.Y.W.Y.Y.Y.^.N.A.B.N.B.Q.Y.6.N.Z.Z.Y.B.A.N.Z.A.Z.Z.^.H.Z.T.Y.Y.!.-X!.#XW.Q.J.J.T.~.L.B.B.H.Y.T.T.~.T.T.T.^.T.T.^.~.J.L.Q.~.^.!.T.J.B.A.B.B.6.J.J.N.H.Z.H.T.9XW.H.#XQ.~.J.Z.Z.Q.^.Y.Q.^.^.W.Q.W.,XE.T.Y.Y.Y.H.T.W.W.Q.!.~.Y.L.~.~.T.~.~.$X~.E.T.~.T.~.!.!.E.~.~.~.E.~.XX~.H.H.I.E.~. X~.H.Y.T.L.J.T.L.~.~.!. X!.E.W.$XE.Q.E.$XY.$X&XQ.!.!.!.^.&.&.,XG.G.{.{.$XR.{.D.B.L.Y.Y.&XT.Y. X XE.H.T.4.V.B.H.Q.L.Y.!.~.T.H.H.B.T.K.Z.J.H.z.4.Z * - = % = # % % # % = # % % % % % + + + + = + % # % > % % > > % = # d / h.j.c.N.C.J.b.C.b.B.K.T.L.Y.Y.Z.L.Y.R.C.j.%.C 0 a i.gXgXfXfXi.d * & 3 sXGXGXfXQ p 5 h bXnXx.v.B.Z.Z.S.>X>X|.~.I.oX~.J.( E.T.S.R.T.H.L.J.J.v.K.K.J.K.J.C.v.I.K.K.K.I.v.z.S.h.$.e % @ = + @ % % + % + + # # # ; + + # # # ; O + # + + ; + O ; ; + ; ; + ; + + ; ; + + + ; # # ; # # # ; + # # # # # # # ; ; # > ; # , & , , : # # # # # # # # + # # # ; # # ; ; + # # # # # ; ; # : # > # # # # O # # # # # # # # # # O # # # $ # # # $ $ # O # # : ; : : 5 5 7 z u u u z z u t 8 t v M M U Q T Y W T M z y z v v v v v v U W T S M v b M M M v u 8 8 t t 7 x :.k.l.v.v.U.K.n.K.P.I.I.S.I.P.P.K.[.U.|.|.|.~.P.P.K.K.J.J.I.K.~.~.I.K.K.U.J.P.J.J.v.c.b.J.J.b.v.b.K.b.b.v.v.J.v.K.b.b.z.C.b.b.v.v.l.j.h.z.j.z.1.1.>.>.3.j.j.1.3.>.h.1.,.l.,.1.,.,.1.1.>.3.1.3.$.$.$.3.@.#.>.;.;.1.$.#.#.#.+.-.:.;.-.:.-.-.=.-.;.<.,.l.' ' ' -.' ' ' ` ` ' ( ( ( ' ' ( ( ( +.$...#.$.| } $.=.d.$.#.X.` ` ( ( ( X.X.` ` | ..#.$.X.#.` $.#.$.$.$.#.| | $.$.#._ _ _ =. .:. . .:.d.:.| | | | | | _ =.=.=.=.=....._ =...=.r.=.=.=.} | [ .. ...{ .. .{  ...^ X./ ^ ",
"~.C.H.I.E.T.R.E. X~. X XP.oXXX[.P.;XxX;X[.{.R.K.L.T.[.R.L.B.H.R.Y.H.Y.Q.B.6.N.H.^.Z.A.Z.A.Z.B.N.^.H.Z.Q.Z.W.Y.^.N.N.N.Y.B.N.B.6.B.Z.B.N.Z.Z.T.^.A.B.^.W.T.Y.Z.Y.J.Y.T.^.^.W.#X!.%XQ.^.^.$XQ.!.^.Y.J.J.Y.J.J.J.^.!.~.Q.T.~.!.!.!.~.T.~.T.Q.T.J.Y.J.J.Z.B.J.H.A.H.Z.Z.%X0XW.T.Y.Q.Q.^.^.J.^.Q.Q.Q.^.Z.Y.Q.Q.$XW.#X{.Q.Y.Q.W.R.#XR.!. X!.T.^.~.T.T.Y. X~.E.!.~.~.T.Y.I.Y.~.~.~.T. XT.L.Y. X!.~.~.XX~.~.T.L.T.L.H.~.~.~.~.T.&XE.E.R.Q.T.T.E.W.$X#XW.!.W.#X^.&.&.<X6.%.$XE.E.Q.D.N.C.N.H.E.W.Y.E.Q.Y.T.Y.L.B.4.K.Z.H.H.L.!.!.T.J.B.J.H.Z.C.H.H.z.I d = % - % % % % $ # % # % & & , & % + % % % + % % % % % % % % % + # - r %.C.j.B.C.H.V.V.J.Z.b.K.T.H.L.Y.Y.Y.T.Y.N.j.+.C 0 c /.tXdXfXgXu.* 3 < =.CXGXGXsXN 0 d =.GXvXm.L.K.E.D.S.>XOXI.P.I.~.~.~.P.E.E.E.|.T.L.P.I.v.C.L.n.K.K.K.b.v.J.v.v.b.v.c.c.j.h.+.% = % % @ % + + % + % + # # # # # # # # ; + O # + # + + + O + ; + + + ; ; O + ; + ; O ; O O # + # # # + # + # + # # # # # # > : # : : > , , & # # # # O # # # # # # # + # # # ; + # # # ; # > ; # # : # # # # # # # O O # $ # O # $ # # # O # # # # # # # # # # # # # : : : 5 5 5 7 6 t t 6 6 8 6 8 z v c M Q U Y E W T M z c v v z b b v T W T v v v 6 v M v u 8 8 6 t 6 5 x =.,.c.l.c.n.K.K.n.U.I.].P.P.U.K.n.K.~.oXoXoX|.|.I.L.K.v.K.U.K.I.I.I.J.K.K.K.K.L.K.K.b.v.K.L.K.b.J.K.v.b.b.v.b.v.b.b.z.z.C.C.l.z.b.1.h.j.j.j.h.$.;.3.>.1.1.c.1.1.j.z.z.v.1.1.2.h.,.,.h.1.,.,.1.,.1.h.$.3.1.>.$.,.>.$.#.$.@.#.` ;.,.;.-.+.-.+.+.| -.;.;.` ( ' ' ' ' ' ( ` ' ( I I ( o.I ( ( ` $.$.$.$...| $.d.| | ` #._ #._ X.( ` ( ` | #.#.$.$.+.X.| } X.#. .$.X.` | $.#.| ` | | =.| d.:.:.| :.$. . . . . .} =.} =.=.=.=.) ..) =.=.=.=.d.=.=.=..... . .{ [ ....[ [ } [ [ ) ^ ",
"P.C.H.P.P.~.E. XE.&X~.P.~.I.*X*X X|.|.P.[.R.H.Z.Z.~.$XH.H.Y.W.Q.Z.H.Q.B.N.N.Y.Q.A.4.N.Z.N.6.Z.^.Z.B.Y.Q.$XT.^.W.Z.Y.^.N.N.Q.Y.H.N.4.2.Y.#X^.H.Z.Z.H.#X$XW.T.Y.T.^.H.Y.Q.#X!.#XQ.!.Y.Y.T.!.Y.H.b.J.T.T.~.T.T.J.^.T.Q.T.~.#X!.Q.T.^.J.^.T.T.J.J.J.A.A.A.6.6.6.Z.L.Z.Z.$XzXW.Q.#XY.!.T.T.J.A.^.H.^.Q.^.H.B.H.R.Q.Y.D.^.Y.R.Q.$X{.Q.Q.Q.!.Y.H.^.L.L.!.T.T.Q.~.T.~. XT.~.T.E.R.~.!. XT.~.~. X~.~.T.~.~.E.L.J.K.J.T.T.~. X~.L.R.Y.Q.W.E.T.T.W.W.E.{.{.$XW.#XQ.Q.^.#X#XW.D.Q.Q.{.Q.Z.Z.Z.L.Q.H.H.T.!.T.Y.Y.E.Y.H.~.B.Y.Y.J.!.L.Y.Y.P.T.H.J.L.C.l.@.e & % % % $ = + = % % % & & & & , & % + % % % % ; % % % % ; % % % % % # j >.z.j.V.C.B.B.V.Z.L.J.J.J.Y.Y.Y.H.L.T.A.N.j.#.f 0 a y.wXgXfXgX/.* * 3 sXGXHXHXsXh e 0 r.JX+Xc.l.K.v.C.S.oX2X[.I.[.U.I.l.l.I.E.P.~.P.P.I.J.J.K.b.J.~.~.K.K.b.K.L.J.S.l.1.c.G.z.J = = @ @ % + % + + # # # # + # O # # O + # O ; + # + # # + O + + ; + ; + ; ; O ; O + ; + ; # # # + # + # # # # # # # # > : : > % : # # & , , : & # # # = # # # + ; # # ; # ; # # ; # # # ; ; # ; ; ; ; # # # # # O # O # # # $ # O O # $ O O $ $ # # $ # # O # # # # : : : : 5 5 5 5 4 4 4 6 1 2 6 6 u t z c S Y Q U 8.] S v v S c c b z U T T S v v v z M z z u 8 t 6 2 2 5 n d.:.l.x.x.c.n.n.K.L.K.S.n.U.U.U.S.K.U.~.I.I.K.n.P.K.~.K.b.v.~.b.K.K.I.K.U.J.E.P.v.b.v.v.C.J.K.L.v.~.K.4.b.b.b.v.b.v.l.z.v.z.C.v.z.f.j.j.c.j.1.>.3.>.3.h.1.l.h.,.1.,.j.j.j.>.>.,.1.>.3.,.,.1.,.j.h.h.#.$.$.>.>.3.+.+.@.$.+.+.,.>.;.` -.' +.-.-.` ` -.l.( ' ( ' ( ' ( ' ` ` ( ( ` ` ( I J ` ( ..$...#.#.$.d.| $.$.#.X.( ..$.` ` ` _ } #...$.} ....` ` ` ` $.$.$.` | ` .._ ` | ` | :.| :.:. . . . . .| :.$. . .=.=.=.' ........=...=.=.=.=.r.=.=.....=. . . .....[ ..~ ..} { ^ ",
"T.Z.K.J. X|.E.T.R.T.K.T.|.~.oX~..XjXkX.XP.P.Z.B.I.E.Y.Y.R.W.T.E.Y.Z.N.B.Y.Z.Y.W.T.N.N.N.Z.^.N.B.6.N.Z.A.Z.^.Z.Z.B.Y.Q.H.B.Z.H.A.^.Z.^.$X$XQ.^.N.Y.T.H.A.^.T.Y.^.Z.Y.W.W.Q.W.W.Q.T.T.T.Q.!.Q.Y.J.H.Y.^.~.Q.T.~.^.Q.T.Q.T.~.!.~.^.J.B.J.^.T.^.H.H.A.A.N.6.^.A.H.Y.Q.Z.#X0X#XT.^.Y.^.^.#X#XA.#XA.^.^.^.Q.H.Z.H.#X{.W.T.T.Y.T.W.Y.Q.T.T.W.T.H.Y.Q.W.$X{.Y.T.~.J.~.~.~.L.L.~.~.E.~.~.~.T.~.~.~.~.Y.~.~.L.H.J.L.^.^.T.T.T.L.~.E.E.R.W.Q.Q.@XR.{.W.Y.Y.B.A.Y.#XY.Y.Q.E.{.E.Q.W.{.Y.H.B.Z.Y.P.T.H.Y.Q.Y.H.L.T.L.Y.L.L.T.H.H.E.Q.H.C.C.Y.L.H.C.v.z.k 3 3 % = % % = + % # # & % & & % & % % + + % % > + > ; % % ; # % % # + - a 1.j.j.C.N.V.V.A.H.L.Z.b.L.L.J.R.L.H.E.Y.D.j.( r e a D _.gXgXgX/.> < a yXGXGXGXrXp e * m.GX@Xc.l.D.c.Z.Z.OXOX}.R.@XP.:.P ( ;.P.P.P.K.L.L.P.J.K.v.b.I.J.L.J.K.K.Z.K.V.V.k.j.k.g.V = % = + % + # + # # + # + # @ # # + # O # ; O # + # # ; O O # ; ; O O ; + + O # # # # # # # # # + # O # # # # # # # : # > ; ; # ; # > , , , & # # = # # # # # # # # > # # ; > + ; ; # > # > ; ; # # # # # + # # + # # + # # # # ; O O O ; # # # # # : $ # O ; O ; ; ; : : ; 1 : 1 1 1 1 1 2 1 1 1 6 8 8 u v v S U T ] W Y M v c v B v B B U B M v 8 v b z u z t 4 6 5 5 4 5 z $.$.k.x.n.;.v.n.U.n.n.I.m.K.n.v.I.K.U.I.|.].~.U.K.K.~.K.K.K.oXI.K.b.I.I.4.b.I.~.L.C.v.v.K.K.J.K.J.P.K.v.l.b.K.K.K.C.b.C.v.C.h.j.c.j.l.c.c.c.j.h.j.z.,.2.h.2.1.j.,.h.j.,.1.>.3.>.3.3.h.h.j.j.j.h.j.h.#.#.>.>.3.3.$.$.#.$.+.#.;.;.-.-.-.-.' ` #.-.` +.v.` ` ` ( ` ( ' +.#.' I ( ' ( ( I P ( ` +.#.` $.| #.} $.$.$...` ( $.$.X.` ( ( | ` X.} ` X.#.$.` ` X.#.+.| } ` | | } ( X.| $.$.d.$. .$. .| | } :.:.=.=.| | _ _ =.) =.) =. . .=.=. . . ..... .=.=.r.{ [ [ ..{ ..{ ^ ..] ^ ",
"L.K.L.b.E.E.~.P.R.R.R.P.P.~.P.~.{.MXNX6X XE.C.R.P. X{. XE.Y.#X$XY.Q.A.N.^.Z.W.Q.Y.2.6.N.N.J.B.Z.Z.Z.Y.N.B.Z.^.Z.Q.Q.^.H.A.Q.E.Q.Z.^.Z.H.H.H.A.B.Z.^.B.B.Z.^.Q.Y.N.Z.^.T.%X=X!.!.Q.T.Q.Q.#XT.T.J.J.L.J.L.J.^.T.L.!.L.T.T.Q.L.L.^.J.T.~.T.T.L.Y.A.J.A.A.H.^.^.^.Z.G.N.%X9XW.Y.^.Y.#X#X^.6.6.^.A.^.^.^.A.T.Z.H.E.Y.Q.!.T.Y.B.B.H.Z.H.P.^.T.Z.D.Y.Y.Y.R.T.Z.T.T.~.~.H.T.~.~.T.~.~.~. X~.P.~.L.I.T.~.~.T.J.~.L.L.T.~.{.Y.H.Y.Z.Q.Y.E.R.Y.Y.Q.Y.Y.D.Y.D.A.Y.Y.L.E.R.Q.T.W.Q.Y.Q.E.{.H.H.Y.Z.J.J.L.Y.E.H.H.H.Y.Q.J.H.L.Y.!.W.E.E.J.L.L.L.Y.B.l.$.w < & = = = % = % > = % & % % % , & & % % % > % > % > % ; % % > % % = # % s >.N.G.Z.V.4.B.H.J.J.B.J.I.J.V.Z.H.H.Z.V.Z.2.+.r 0 p x q.uXfXgXM.* < e M.dXSXGXi.p s d sXGX).S.c.C.D.P.S.OXOX].}.R.k.n.>.:.U.P.L.C.H.P.H.K.K.b.L.E.L.v.v.L.B.C.K.C.D.D.V.c.k.>.O.* = @ @ % % # # # # # # # # # O O # + # # O O # O # + + + O # # # # + + + O + + + + # O # # + # # # ; # # # : : # # > : > > > > # > # # , & , & # # # # $ # # % # # # ; # # # # + + # ; > > ; > # ; # # # ; + # # + # # O O O # O ; ; $ $ # # # # # $ # # ; ; ; ; ; ; ; : ; ; ; ; ; ; ; 1 1 > 1 , 1 6 6 8 8 z c v S w.8.] S M M M N B U U N B v v v v v v 8 6 6 5 4 6 4 4 5 a ..d.k.m.c.j =.n.U.b.v.K.v.K.x.b.K.K.K.U.J.I.~.I.oXb.b.K.K.K.K.K.I.K.I.I.U.U.P.v.K.b.z.z.b.K.v.K.v.K.v.b.v.J.K.J.l.v.v.C.l.v.j.h.c.V.x.D.S.c.l.z.h.1.h.z.c.>.j.1.1.1.j.1.h.3.3.#.$.z.3.j.>.3.$.h.j.j.3.#.1.>.h.$.3.#.$.$.#.+.=.-.-.=.-.' ` <.-.` ` -.v.` ` ` +.` +.( ` $.` ( ' @.( I J o.( ` +...| $.$.} | | #.$.$.X.X.| #...| } ( ( #.$.$.` ( } $.( ( ( } X.#.$.` | ` ` ( ( ` `  . .$...$.| | | |  .:.=.| =.=.=._ =.=.=.=.=.| :.=. . .=.=...=. .=...:.=... .r.....[ [ ^ { ~ ",
"L.E.E.P.L.P.C.P.~. XE.|.*X*X*XXX;XxXxX;X~.P.R..X XE.L.N.N.Z.Z.Y.L.Y.Z.Z.Y.Z.^.A.H.6.N.4.6.N.^.Q.H.Z.A.B.Y.Y.W.Z.N.Z.N.Y.H.=XT.Z.Y.A.Y.T.H.A.Z.A.Q.Y.Q.Q.^.E.-XQ.N.H.A.W.#XQ.Y.#XT.T.!.#XY.H.L.J.J.Y.!.~.J.B.!.#XH.J.J.J.J.~.^.L.L.J.T.Q.T.J.J.^.B.6.B.A.^.G.^.A.N.N.#X0XQ.Z.Q.Y.^.^.Q.G.^.A.^.6.6.G.A.^.#XY.Y.Q.Q.E.~.J.Z.Z.Z.Y.E.Y.R.Y.Z.Z.Z.Q.L.H.T.E.~.L.J.~.T.L.~.~.I.~.%X X~.~.Y.L.I.Y.H.~.J.J.L.H.J.L.L.I.H.L.P.].R.D.Z.L.Y.R.F.Q.Y.G.e.F.B.C.L.R.{.E.L.D.Z.H.R.Y.H.Y.E.Q.Y.L.H.Z.H.K.K.H.B.b.L.~.~.Y.Y.!.T.W.T.T.Q.Y.T.L.Y.H.b.c.( * , * % = * % % % , % % % % % & & , , > + % % > > % > ; % % ; % > % # $ = 0 >.c.z.D.V.Z.L.H.Y.J.J.b.J.L.Z.b.C.Z.C.C.N.N.( r d e y i.gXgXuXT 0 d q w.uXfXHX{ p 3 ~ FXGXx.c.D.D.S.P.R.oX>Xg.qXrX0.| n.S.K.K.K.K.I.K.P.J.K.b.K.J.b.b.b.C.b.b.j.H.C.c.S.k.x.d.f = % % % % + # # # # # # # # O # # O # # O O # # # ; ; + + + ; + ; O O + + + ; O # O # # + O # # # # # ; + # # : # : > > : > > > : # : & , , : # # # # # % # # # # # : # : ; ; # # # ; : > > # > > ; # # # # # # # ; # + # # # ; O O ; ; $ # # # # # # # $ ; O O ; O ; ; ; # ; ; ; ; ; ; : 1 ; 1 , 1 1 2 1 8 y z v c T ] ] Q U U v v N M B B M B v u v M v 7 8 6 4 5 4 4 4 < x X.$.g.G.m.f l.K.K.n.n.U.F.I.m.m.K.U.U.K.v.I.~.'.~.K.b.~.U.J.I.K.~.~.~.U.K.I.I.L.K.v.v.v.b.l.K.b.b.J.J.L.P.B.2.b.v.2.l.z.2.l.j.C.S.j.V.S.c.c.z.z.j.>.z.j.c.1.,.1.,.1.1.j.h.>.$.#.1.D.z.1.>.>.3.j.j.h.$.h.l.f.f.h.1.$.$.%.+.` -.' ;.;.-.-.` ;.#.+.#.>.v.` ` ' ` +.` ( +.#.$.( ' ( ( ( ( ( ( +.$.| $.$.| _ #.} ..#.$.| #.` $.$.#...` ( ` | $.} ( ` #.} ( _ ( } ..$.$.` X.( ` ` ` | | .. ...| ..| } _ | | | } | _ [ _ _ =.=.[ =.=.r.=. . .=.=.=...=...r.=... .} }  ...[ { [ / ~ ",
"C.C.L.L.T.E.C.J.&X X&X=XXX*XI. X>XxXkXT.L.E.W.{.|.E.Y.H.Q.H.Z.Z.Q.Z.B.N.N.Y.Z.N.N.N.N.N.B.A.T.Z.Z.H.B.^.A.B.N.6.B.Y.Y.Y.Q.#XE.^.^.Y.W.Z.$X#XY.Z.B.Y.R.Q.Y.Y.Q.Y.H.Z.Z.A.Q.Q.Y.Q.^.Y.^.T.!.J.J.B.^.Q.T.T.B.J.L.J.Z.J.J.~.T.J.T.J.Q.T.L.T.J.L.L.^.N.A.^.A.A.A.H.A.A.N.Q.0X#XQ.Y.Y.#X^.^.^.6.^.A.6.A.A.B.^.Y.Y.E.Q.~.^.T.T.E.E.T.W.W.E.Z.^.H.Z.H.L.L.Y.T.T.Y.Y.K.H.T.T.J.~.~.T.~.~.P.L.Y.~.~.Y.L.H.K.K.P.P.P.K.J.b.S.h.$.%.;.>.>.h.d.%.#.>.k.d.:.e.S.G.D.L.R.D.Z.L.K.T.L.^.W.T.H.Q.^.H.K.J.Z.J.H.J.J.C.Y.!.Y.T.T.Y.E.E.Y.C.L.T.T.T.P.J.b.z.Z < * * = % % % > * & & & % < > & & , & % > + > % > ; % > % % > % % % # - e r >.D.G.Z.V.Z.Z.H.Z.z.,.-.1.j.N.c.z.v.S.V.c.N.( r e 0 q q.tXuXuXb 0 < d (.uXhXfXB s * ).GXbXm.c.c.D.C.R.F.oX].).tXtX`.[ m.n.U.P.K.b.L.H.K.K.J.K.P.L.v.v.v.b.b.K.D.S.S.V.S.S.V.$.q = = % @ % % # # # # ; # + # # O # + # # + O # # + + + O + + + + + + ; + ; + O # + O O + + # # # # # # # ; # : O # # # # > ; ; > # : # # # # & # # # # % % & # # % > # > # # # ; # # # # > ; : ; # # ; # ; # ; # ; # # # # # # O ; O $ O ; # # $ # # # # # O : O ; ; O $ ; # # ; ; ; : ; ; ; 1 1 , : 1 1 6 2 2 6 y v S T q.] U B v v v M U M B B M 8 v v v u 5 1 1 5 5 3 5 3 a | $.k.m.k.f ) v.x.n.P.K.P.].K.U.b.U.v.I.I.I.K.J.~.K.J.'.K.I.K.~.I.K.U.~.~.J.L.P.L.L.Z.l.K.J.I.K.K.v.L.b.L.C.v.b.v.K.z.C.l.l.c.j.c.c.j.l.j.l.j.c.l.3.h.h.z.h.>.1.h.;.,.j.1.j.h.2.$.>.>.h.3.>.#.#.h.3.$.$.h.%.#.#.,.$.#.$.` +.-.-.;.` -.=.' -.' ` #.;.b.` ` ` ( ` +.` ( $.` ( ( ' ' ` ( I ( _ #.$.X.` _ ` X.$.| ` | #.$.| $.| #.` | X.| $.$.` | $.( _ ( ( _ ` #.X.X.` ` ` | | } | ` | |  ._ _ | } _ | } } } | _ _ =.) ) _ =.[ =. . . ... . . .=.......[ ) [  . ...{ } ^ ~ ^ ^ ",
"E.Z.D.E.1X XT.K.E.E.{.=X1X XE.oX;X>X:X.X X$X{..X$XD.Z.Y.E.G.H.B.Z.N.N.N.N.G.H.N.Z.2.2.2.A.Z.H.G.B.N.Z.N.Z.H.Y.Q.W.#X#XQ.W.Q.Z.Y.Z.Y.#XW.W.#X#XY.H.H.B.Z.Z.Y.T.W.^.Y.Z.Z.^.^.H.W.^.Z.Z.N.Z.B.H.B.J.J.L.H.J.J.H.L.J.H.L.J.J.T.~.Q.Q.J.^.J.H.H.$XY.A.6.^.6.6.H.H.^.N.N.Q.,X#X6.#X^.6.A.G.^.#X6.A.6.A.2.N.B.N.Y.Y.Q.T.J.^.T.Q.6.J.T.Q.E.Z.Z.Z.Z.H.B.B.Z.Q.T. XW.H.H.J.I.E.T.~.E.T.E.Y.Y.J.K.Y.Y.H.I.C.S.F.G.m.,.#.J f e q e y e a x i p p i a y q e x J +.>.z.D.D.D.S.L.R.E.Q.Y.T.T.E.B.N.Z.L.H.Z.H.H.L.Q.$X!.E.Q.T.T.T.Z.Z.L.E.Y.T.J.l.l.-.s 3 * * * % # * & & % , % & % * > * % > % % % % % % % % % % % % % % % % w j C >.V.D.Z.Z.Z.H.Z.S.@XrXtXqXM.k.k.z.V.S.h.c.c.` V p q q 8.tXeXqX* d d a eXwXpXSXW w * r.GXyXk.x.G.c.S.D.h.).w.rXuXeX_.{ f.n.v.v.H.P.I.~.P.K.L.I.T.J.b.v.b.L.v.K.b.b.l.z.v.l.h.o.= = * = % % % + # # # # # # # O # # O # + O O # ; + ; + O + + + ; + + + + ; + + + + + # # # # # ; ; ; # # ; # : # : & # # : # ; # # # , < V '.sXvXyXsXvX'.'.D , : # : # # > > # # > ; # > # ; > > > > ; ; # ; ; # # # ; O # # # # O O $ ; $ $ O ; O # # # # ; O ; O O ; ; ; # # O : ; ; ; ; ; ; > : 1 1 1 6 6 8 6 8 y v M T U U M v v N v B M B S M v b b v 8 6 5 1 : 5 5 3 5 a $.$.f.k.k.f H x.x.F.U.I.I.P.x.U.U.~.K.K.U.U.K.U.I.b.K.I.I.I.U.U.I.I.K.K.I.J.T.L.P.v.C.C.v.C.L.J.v.v.C.S.v.V.C.V.C.S.z.z.l.b.j.c.c.h.c.k.h.z.z.c.z.1.j.j.z.3.1.j.j.h.>.1.>.1.1.1.>.1.3.$.2.$.%.>.,.>.#.$.3.$.$.j.%.>.#.` #.` -.-.:.;.+.-.+.-.` ` ` $.$.+.( ' +.` ( +.' $.%.` +.+.X.` ( I ( +.` ` } ` ( _ | } `  .#.$.$.$.d.` X.` } ` ` #...( $.#.$.} ( ( | ` ' X.` ` #.} ` #.( _ _ | | |  .| | | | $.=.| } } _ ( ) _ _ ) =.=.=. .d. ...=.=. .....[ [ [ } ^ {  . .0.0.^ R ~ ~ ",
"E.R.{.{.[.&XR.B.R.W.&X:X1X XL.L.V.R.{.E. XW.R.&X{.T.V.Z.H.B.z.V.B.N.B.Z.J.N.j.N.N.6.2.N.Z.Z.H.Y.W.Z.H.B.Y.B.Y.E.B.B.B.Z.E.$XZ.Y.^.Z.E.R.W.$X$XY.Z.H.Z.Y.^.H.Z.^.T.Z.Z.^.A.Z.J.Z.Z.Z.Z.A.T.J.J.B.J.J.B.B.6.J.B.J.J.T.Q.Q.J.T.T.Q.~.~.Y.J.^.J.Y.Y.A.^.Z.Z.N.A.A.A.N.N.^.:X#X#X6.6.6.A.6.6.^.A.6.6.3.@.4.6.B.Z.Z.Y.J.T.T.T.#XQ.~.^.^.Y.A.Z.N.H.Q.Y.Z.Y.R.H.E.T.L.H.T.J.L.Y.I.J.L.L.L.J.I.T.L.J.L.C.h.| o.C h p p i c M n n c c z c n c c x z z z i i t w 0 f J $.j.N.D.Z.Y.H.L.H.H.Z.N.z.Z.J.K.Z.H.H.J.H.~.!.~.P.Y.T.D.Y.Z.L.Y.Z.D.b.c.1.^ * 3 d & = = % & % > & % > % % > > % % * % % + % * > > > > > % + > % % 3 H G P 1.D.C.C.D.V.Z.z.M.(.uXgXfXdXtX'.M.k.z.x.j.h.J ..a 0 q A qXtXu.3 3 < Y eXtXpXfX9.0 & M.FX).k.@Xz.n.F.D./ )._.wXtXuX'.r.f.K.J.K.P.P.L.P.|.H.P.P.P.I.K.S.C.V.K.Y.b.v.v.C.h.h.>.o.= = % % % % % # # > # # # # + # # O # # # O O O # # + ; ; + # O O ; ; # ; + ; ; O ; # # # ; ; ; # + # ; ; # & # # # $ & # # # > # # O , u.yXFXDXKXGXKXLXLXLXDX{ $ , , # # : : > > > : > # ; ; > + % > > > > # ; # # # # # # # # # # ; O O ; ; ; $ ; # # $ # ; O O ; ; ; O O # O O # ; + ; + ; ; ; ; 1 : 1 : 1 1 1 6 6 z c v M n v v v M B B v U B v b 8 8 8 8 5 , : 5 5 5 w 5 a X.| g.k.k.r s X.m.F.I.n.U.U.U.K.K.U.K.I.I.~.~.K.K.K.K.~.~.~.~.~.J.U.K.I.oX~.P.U.L.K.S.S.C.Z.K.b.v.b.Z.c.z.v.S.L.S.c.c.c.h.c.c.h.j.j.h.z.z.z.h.j.z.j.h.z.h.h.h.,.j.j.j.1.>.>.,.h.>.1.k.h.3.h.,.h.,.#.#.#.3.k.$.$.h.>.+.` +.+.=.' -.;.-.-.` -.#.+.#.>.j.#.( ` X.+.` ( ( +.( ` $.+.+.+.o.( ' +.#.` ` | ` | } +.$.$.$. .d.} +.| ` | } #.} $.#.X.| X.` #.` } X.' ` #.} } } ` #.| | _ } | _ } | | | }  . .| | | _ ) ) ) =.) =.=._  . . .=.r...........) [ {  .............^ ~ ! Y ",
"{.{.Y.Y.{.{. XE.Y.D.E.&X%X XT.B.Z. X:X*X$X$XR.L.Z.B.Y.L.R.Z.Z.Z.Y.B.B.Y.B.N.B.Z.2.1.N.H.Q.L.Y.Q.$XB.N.Z.Y.Y.T.E.Z.R.H.Q.Q.E.T.Y.Y.Z.T.Y.Y.E.W.Y.^.Y.Q.Q.Y.Z.Z.Y.^.Q.%X^.B.Y.N.Y.Q.Y.^.Z.W.Y.H.H.Y.Y.Y.B.J.Y.B.H.J.J.Q.L.T.~.!.J.L.J.L.T.T.A.A.G.H.A.A.N.H.H.A.G.A.A.#X0X#X#X#X6.6.6.^.6.#X6.6.5.@.5.2.6.B.A.Q.W.J.Q.J.^.^.T.^.Q.^.Z.Z.Y.B.B.^.Z.Y.Y.$XY.Q.Y.Y.H.J.H.~.L.J.J.K.L.K.J.P.L.K.4.<.P a y c c c c c c c A n c c c c c c c c c c x z x z y p y t 3 0 f P ,.v.L.H.J.H.H.Z.B.4.H.J.H.H.T.L.L.E.!.~.Y.Y.H.Y.R.Q.T.^.V.N.N.1.l.1.L * d < % # = % & % % % % % % % % % % % % % % + % % > % % % % > % , % = a J P ` 1.C.L.D.V.C.V.h.r._.uXgXfXuXgX`.`.0.$.z.c.>.J  .p 0 q p w.qXB < 4 * 9.tXpXSXwXm q * +XCXn.l.S.x.x.c.m.qXgXuXeXeXeX'.M.x.x.S.L.K.b.J.P.L.P.L.E.K.E.P.C.v.C.v.Z.v.C.z.c.l.l.h.C = = * % % = = # # ; # # # # # # + # # O O # + # # + O ; O O # # + # O ; ; # # # ; O + ; # ; > ; # ; # # # # $ # # # # # $ # > : # % M.yXZXCXCXHXGXGXGXKXLXLXKXJXyX] t & # : ; ; > ; > # > > + > % + ; > # > ; # ; # # ; ; ; ; ; # # O ; ; O $ ; ; O : O # O O ; O ; O ; ; ; + ; # O + ; + ; ; ; ; > ; > : 1 1 1 2 2 6 t b z c z u u v N B B v M v v y 8 1 1 4 5 : , 5 5 , q 4 i ^ ` >.x.k.f d 0 g.n.c.U.S.U.I.I.K.K.K.~.~.I.K.I.I.b.U.K.~.U.~.I.K.K.U.I.I.I.~.U.P.E.K.S.K.K.v.K.L.c.c.C.S.S.C.P.c.z.V.c.c.c.V.h.j.j.j.c.c.c.l.j.l.z.j.z.>.>.1.h.h.j.1.h.1.j.j.h.$.e.h.h.$.j.$.>.,.$.#.#.>.j.>.>.h.>.>.+.-.+.' @.-.` -.-.` -.+.+.+.#.j.` ' ` +.X.` ( ( ' ` ' +.#.#.X.P ( X.+.$.} ` | ` | X.` | :.d.$.f.$.#.| ( | ` #.$.|  .$.` | } #.` | $.| | ` ` _ X.$.| #.` _ _ _ } | $. .| } |  .|  .| _ =.) I ) _ =.} =. .=.:.:.:. .{ =.=.{ [ ..}  .[  .{ [ ..[ [ ^ ^ [ ",
"R.{.W.{.{.Y.D.Y.N.R.%X*X&X XE.Z.E.3X0X&XR.W.=XW.Y.D.W.R.Z.D.Z.Z.D.B.Z.Y.Z.Z.H.N.A.N.Z.H.H.Z.R.D.Q.Q.#XY.H.Y.Y.^.Z.Y.W.T.Y.Q.Y.N.Z.Y.Q.Z.H.Z.H.H.Y.Q.Q.Q.Y.Q.^.Z.Q.H.Y.E.Y.E.Q.Q.Y.T.W.^.Q.Y.Q.Y.~.~.Q.H.J.J.~.Y.L.J.J.J.T.Q.T.^.T.L.^.J.T.!.^.Y.N.H.Z.A.^.Z.H.A.6.^.<X=X#X6.6.6.6.^.6.6.6.6.6.6.5.5.6.6.6.H.W.H.6.^.J.^.Q.~.Q.#XY.^.Y.Z.N.H.Y.Y.Y.H.$XT.T.E.R.Y.I.~.J.J.P.H.L.T.b.b.J.;.P j p p x c v c c n c c v O.n c c n n n c c c c c c x z x z z z p y w q q p _ S.B.L.^.V.Z.Z.V.B.H.H.L.Q.E.T.T.Y.H.B.V.J.Z.Y.R.D.Y.T.&X2.l.2.1.L & 3 * & % % % % % % % % % % % % * % % > + + + % % > % % * % > , & < e J ( ' ;.j.C.C.z.C.G.N.+.w.qXeXgXfXgXuXqXwX_.X.$.k.,.Z ! < 2 2 e n U % & * d Q eXpXdX_.p q 6 aXaXx.x.x.l.c.k.+XSXfXgXeXeX_.`.M.S.S.P.U.K.U.C.K.K.~.K.C.R.L.P.K.v.z.S.z.K.v.z.c.S.x.$.s % = % % * % % # : # ; # # # + # O # + # # + O # ; O ; O # O O # # ; + O O # + + O ; # # > ; ; # ; # ; ; # ; # & # $ & # : # : > % # { AXGXGXGXAXGXKXHXHXGXGXGXKXKXLXZX+Xx , > > : > > : : # > > ; ; % > + ; ; ; # # # # # # # ; # # ; $ ; ; ; $ $ : $ : O : ; O ; O ; O O ; + O ; + + ; ; ; + ; ; ; 1 : 1 > > 1 1 1 2 2 8 b t t u 8 z z v v v b v b y 8 1 8 5 : : , 1 1 2 6 3 a #.d.g.g.k.r d & D n.n.U.n.I.].U.K.I.U.K.K.K.K.I.U.U.I.U.~.U.U.I.I.].~.].~.I.I.v.K.K.U.S.K.C.K.K.U.v.S.c.C.S.c.C.C.C.c.V.F.V.S.c.h.h.c.V.h.h.z.j.<.h.j.j.>.3.>.3.3.1.>.f.j.h.1.h.,.j.j.$.h.$.1.>.3.$.#.#.>.h.@.$.1.h.-.' ' ' ' ' ;.-.` ;.` ' +.( +.` f.+.( X.` +.` ( ( ( ` ( ` #.#.X.X.` #.#...( _ $.` | ` | | #...$.$.$.| ( | | ..$.` } $.$.$.` ' X.( X.` ` } ` | ` | >.` X.| ` } | | | _ | | _ |  .| =.| } I =.^ | =.=._ =. .d.d.r. . ... .=.=... .{ ..} 0.[ ..{ ....[ ~ ^ ",
"H.Y.L.Y.W.{.R.D.R.W.W.{.#X{.N.N.!.~.3XXX X$XW.Y.D.L.W.Y.Y.W.T.Z.Z.Z.T.W.W.Y.Z.N.V.j.R.B.Y.Q.Q.{.Z.N.N.Z.Y.E.R.W.$X#X{.Y.-XW.Z.N.^.R.Q.Y.Q.H.L.#XT.H.T.Y.Y.^.Q.#X!.Q.!.H.J.T.T.T.T.Q.T.Q.^.T.T.T.Y.J.J.Y.H.T.L.~.H.T.^.J.~.~.Q.T.J.T.T.T.~.^.J.Y.N.A.A.A.A.A.G.^.^.G.Y.=X#XA.^.6.6.6.6.6.6.6.6.6.5.6.6.A.6.^.^.Q.^.J.J.Q.Q.Q.~.Q.H.A.B.Y.Y.H.Q.Y.T.E.Q.D.Q.T.Y.L.Y.Y.L.L.T.R.R.G.G.o.O.e y i c v v c c c m m m c A c n c n c A c c c c n c n n c c c c c y i y y y q y G c.D.D.Z.Z.N.z.B.B.V.L.Y.T.T.Y.V.B.Z.Z.L.D.N.D.Y.L.Z.C.V.;.l.;.G * 3 & & > > % % % % % % % > * % % % * > % % @ % % % * * * % * * % * C o._ -.1.v.v.2.K.J.C.L.2.D M.rXpXgXgXtXeXqXqXi.C $.$.D r q 3 3 q w < * d 0 0 q.tXuXdXT i n +XfX+Xg.v.v.c.x.:.+XfXfXeXeXs.a.(.x.K.U.K.P.P.J.L.P.P.L.P.P.L.C.P.C.K.K.S.z.c.z.z.h.l.f.G = % % * % % = # # ; + ; # # # + # # # + ; # O + O ; # + # O + # O # # + # O + # # + ; # # ; ; > # # # ; # # # # # # # : # # # $ : & - < sXGXHXHXGXGXGXGXGXGXGXLXGXGXGXGXGXbX[ 2 # > : , # # : + > > > > + > > # > + # ; ; ; > ; ; ; ; ; # ; > # ; ; # + O ; O O O ; O ; O O O ; O + ; ; ; ; ; ; ; ; ; ; ; ; ; ; 1 : 1 1 8 8 1 1 8 1 8 8 8 b b b 8 8 8 1 8 1 1 2 : # : 1 1 < w 2 r ( _ $.$.$.a * & & X.n.S.F.S.F.S.F.L.P.I.P.K.K.K.K.K.K.I.~.I.].U.I.I.I.].~.].~.n.v.v.K.K.K.K.K.v.K.v.v.K.C.U.v.F.S.v.z.c.L.S.z.S.h.l.j.h.c.j.h.j.>.1.1.,.>.>.<.1.>.<.h.+.>.h.1.>.,.$.f.j.>.$.h.h.>.#.+.` +.+.@.j.$.3.#.+.#.#.' ( @.;.` -.-.-.` ' ' -.<.` ' ' ( ` ` X.+.( ' ( X.' #.X.+.X.( +.( ( ( ` | ` ` | ` _ ` $.:.| ` _ ` _ | $._ ` | $.| :.` | ( ' X.` ` $.| | ..` X.#.| |  .| | } _ $.` } | $. . .} | =.) =._ =./ =.=.| =.:. .r.}  . . . ... . . ... . ...{ } ^ ~ [ ~ ",
"R.W.#XR.T.T.T.Y.D.W.{.Q.{.$XV.D.T.T.%X1X!.Q.T.Y.Y.Z.E.Z. X%X XZ.D.Z.E.R.Y.Z.N.Y.Q.Z.Q.Y.Z.H.$X=XW.T.Y.Y.Z.Q.=XT.Y.Q.W.E.$XY.Z.N.Z.Y.H.Y.Q.Z.H.E.T.^.Q.Y.H.!.%X#X%XW.W.#X=X#X#XQ.Q.Q.!.^.T.J.~.T.Q.Q.J.J.T.~.^.^.J.T.Y.~.!.#X1X~.T.J.T.J.^.J.Y.J.B.B.Y.A.Y.Y.H.^.^.Y.$X9XY.A.6.6.6.6.6.5.6.6.6.5.6.6.A.^.A.^.^.^.J.J.J.W.!.-X#X^.Z.H.Y.Q.Y.H.Y.R.Z.Y.Q.Q.T.Y.Y.Z.H.L.J.H.H.L.k.+.f e y c c c v c c n n A N n n M n n M c M A S S A c n M M c c c c c c c c c z p y y y q J j.V.B.Z.2.4.B.B.N.H.H.Y.R.T.Z.B.V.B.Z.Y.L.Z.Z.N.z.N.V.l.l.#.P d * & & * > > % % % % % % > > % % > > % % % % % % * = # % % * % > f X.+.` >.2.v.v.v.b.K.K.L.C.( a T (.gXgXuXuXeXeX_.W D  .H 2 q 3 3 0 q d * < < t /.uXuX0.c y ] FXfXCX/.g.M.g.x.r.aXfXgXuXeXs.qX).).n.P.~.P.I.I.E.P.K.b.P.E.C.K.K.b.C.K.c.z.Z.c.z.,.l.I d % % * % % % = # = > ; ; # # # # # # + O # # # # # # # # # # # # ; ; # # ; ; # # # # # ; # # # ; # ; # # ; > # # % % # # # $ < & & : & w fXGXGXGXGXGXHXGXGXGXLXLXLXJXGXGXJXFXGXZXyXE < , : : & > > + > % > > + ; ; ; # # > > > ; > ; ; > # ; # ; # ; + ; ; + ; ; ; ; O ; O O ; O O O O + ; + ; ; + ; ; ; ; : 1 : : 1 ; 1 1 : 8 1 1 1 8 1 8 1 8 8 8 1 8 1 8 1 1 : : : , , , 2 p q y ( X.X.$.d.V & * 3 s m.m.F.F.S.C.D.P.K.P.P.P.U.U.K.U.~.L.~.U.U.~.U.K.I.I.K.I.I.b.K.K.v.K.K.b.v.K.v.v.v.v.v.v.C.K.K.Z.c.c.c.h.z.c.c.C.z.S.l.c.z.z.j.j.>.1.h.1.,.;.-.>.>.>.c.z.>.1.j.j.>.h.h.3.$.h.f.$.@.+.$.+.$.2.#.#.#.%.#.#.#.#.` #.-.<.-.` -.' ' @.>.` _ ( +.+.( ` ( ( P ( ( ` ..+.( ( ( X.' X._ X._ _ _ | | | | | | | ` _ ` | ` | | ` ` :.-.:.| | _ ( +.} _ ` ..#.$.#.` ` ` } } X.| | _ } _ } } | } $._ _ / =._ =._ / ^ =._ |  . . .} }  .[ ..{ 0.r...{  . .{ ....[ ~ [ Y ",
"H.R.W.R.Y.R.L.N.N.W.%X=X=X$XW.Y.L.1X3X X~.W.E.R.E.Y.{.Y.E.!.L.T.E.W.$X$XZ.N.Z.W.Q.H.$X#XG.Z.{.Q.G.Z.Q.N.Z.Y.Z.T.H.Z.W.Y.W.&XG.Z.R.Y.Z.D.R.Y.R.Q.T.Y.^.Z.Y.T.T.T.-X!.Q.T.W.T.Q.Y.Q.~.T.Q.T.!.T.J.J.Y.J.^.T.!.1X^.T.J.J.J.T.T.~.#X1X%XT.J.~.J.T.J.B.H.H.A.A.A.Z.Z.Z.A.-XzX#XG.6.6.6.5.6.6.6.A.6.5.6.6.A.A.A.^.^.^.^.^.J.J.Q.!.#XQ.Q.Z.H.Y.H.Z.Q.Q.Y.#XT.W.L.T.Y.Z.Z.J.J.V.C.x.o.e y z c c c O.v n n A M A M n S D S m A n S S A S S S S S n z n n S v c M c c c z a i p y y Z 3.V.N.<.2.H.B.4.N.Z.D.T.T.Z.J.B.Z.L.N.V.Z.Z.G.b.Z.V.c.c.-.P 0 * * > > * * > * * > > % > % % > * > * > % % > & & * % * > * * e o.$.>.,.,.l.S.L.2.C.C.J.K.K.1.( H x W qXtXuXuXeX_.(.T Y V , d < 0 0 < d 2 y T 7._.`.] x y q c hXfXfXhX'.0.`.u.t.fXhXuXeXs.(./.x.].I.L.J.I.I.J.H.K.K.K.L.P.P.L.C.S.z.b.v.C.z.z.h.:.` d * = * = & * % - = % + + ; + # # # # # # # # + O + # # # # O + # + # + ; ; O # # # # # ; # ; ; # ; # # > # # ; # # # # # # # [ +Xp & : $ F FXGXLXGXLXHXGXGXLXLXGXLXGXFXGXHXHXFXHXCXFXFXrX{ 2 : : > > + % > + > > ; # # ; # ; > > > > # # ; ; ; # # # ; ; ; + ; ; O ; # ; O ; O O + O O + + + ; + + ; ; ; ; ; ; ; ; 1 ; 1 1 1 1 1 1 : : 1 1 1 8 8 1 1 8 : 1 : : : : , : : 1 , , p 2 r ( ^ ( $.$.G = & , & P F.n.S.F.S.S.F.P.L.P.P.L.b.K.I.U.L.I.~.I.I.I.~.~.I.].I.~.v.K.K.K.K.K.b.K.C.C.K.C.c.v.K.v.v.v.v.c.z.c.h.c.c.c.c.v.c.z.h.k.>.h.j.>.h.3.h.,.;.-.l.3.,.>.h.j.>.h.$.h.G.@X$.j.e.>.#.X.+.+.$.$.$.#.#.` ` ` +.-.` ` #.-.' -.@.` ' ` =.j.` ( ' ` X.( ( ( o.( ( ` ` +.` ` X.` ( _ ( #.( ( _ ` #._ | $.` #.$.| ( _ | ` | ` _ | | -.-.' ' ` ( ` ` ` X.` ` } ` | ` ....$.$.| | _ | _ ..} } } | | } =.=.=._ =.| } _ ..=.=. . . .}  .=. .:.r.....[ .. .{ { ..} ^ { ^ ",
"{.W.-XE.Y. XT.z.2.E.W.&X%X=XR.Y. X0X3XT.E.Y.Y.Y.%XW.R.Y.~.R.T.T.Q.#XE.#XQ.T.Z.Y.Y.R.-XR.N.H.Y.H.E.B.R.Y.Y.N.W.=X$XQ.Y.Q.$XT.Y.Z.W.-X#XR.$X$X$XQ.T.Y.B.A.B.!.E.^.T.#XW.^.T.^.T.Q.!.!.!.Q.Q.#X1XQ.Y.~.Y. X!.~.T.J.L.T.J.J.J.^.~.#XQ.Q.L.J.J.T.T.L.N.^.Q.H.G.H.Z.^.A.G.#X0XY.6.6.2.6.6.5.6.6.6.6.6.6.6.A.^.A.^.^.A.^.T.^.J.T.Q.J.Q.Q.N.Q.Z.Y.Q.W.Q.Y.R.T.Q.D.H.Y.E.L.b.b.2.` C y x c c c M A v O.n c c c n M m D D D A A A S S S U U U S S z w S M S S S S c c c c x z i u y q V #.2.j.Z.L.Y.P.H.H.Z.Y.H.E.H.Z.b.D.V.N.V.N.D.V.Z.V.l.,.` L r & * , < * > > % % * > * * > * * % > % % % = % & , % * % % * % G $.$.f.j.,.,.Z.L.b.l.H.v.L.B.v.z.$.Z s Q qXtXhXeXeXeXa.F p & < < 0 < < & < E _.qX7.c z w t 4 t `.fXfXhXhXpXfX'.8.gXeXeXqXeX(.M.M.K.I.U.~.I.P.I.K.E.P.K.L.L.K.L.L.S.C.z.C.z.l.1.h.g.V * % * * < % % % = % % > ; ; ; + ; # ; # + # # ; # # + ; # # # # # # # # # # # + # # # # # # # ; # # ; # # > # # ; % # % w =.UXGXFX9 & { nXDXPXGXLXKXLXLXLXLXLXLXGXJXGXGXGXCXZXFXHXHXGXFXHXDX'.: & + > > > > > > + > # ; # # ; + ; , , > # + ; # ; # ; # # ; ; O ; ; ; O O O O O O + O O ; ; + + ; ; ; ; ; ; ; 1 ; ; ; 1 ; ; 1 1 1 : 1 1 1 1 : 1 1 1 : : : 8 : ; : : : : , 1 , < p 2 w ! / /  .$./ & 5 & & p m.n.U.S.S.m.C.K.[.I.L.K.K.v.v.I.U.U.I.~.U.K.U.U.I.~.].U.I.v.v.K.K.U.v.K.K.K.K.K.z.K.L.C.K.v.K.C.v.S.v.x.z.z.c.l.l.v.l.j.h.>.h.h.>.j.h.;.:.;.>.>.>.h.h.h.j.>.>.h.>.N.h.j.,.>.#.+.+.+.#.#.#.#.#.` #.' ' ' ' ' ` ' -.' =.' ' ' -.z.' ( P ( +.( ( ( +.( ( ( ` #.X.` ` ( ( ` ( ( | } ` | | | ` | } ` | | _ / _ | ` | _ ` | ' =.=.I ` .._ ..| ` ` ..` ` } ` ` ( } | | | | _ _ } #._ ..X.| | I ( =.=._ } =.=.[ ..=.=. .0. ....... .....0...0...]  ...~ ! ~ [ ",
"R.H.Y.L.W.W.W.R.N.^.W.!.{.W.T.E. X3X&XL.R.L.H.D.T.E.~.T.T. X!.T.W.L.W.W.L.Y.W.Z.1.Z.D.B.Z.T.$X$XH.N.Y.H.T.$X$XG.H.Y.H.$X$XQ.L.Y.Y.$X,XY.Q.T.Y.H.Y.E.Y.T.J.Y.E.H.^.R.Q.E.~.Y.H.%X1X1X%XT.W.!.Q.B.J.J.^.~.T.J.!.L.!.-X^.T.J.T.J.Q.Q.Q.T.Q.J.Q.J.J.W.W.B.Z.^.Z.Z.Z.A.A.-X9X^.6.6.6.6.6.6.5.6.6.6.6.^.6.6.^.6.6.^.^.^.T.J.^.Q.^.T.^.Z.Z.^.Z.Z.W.Y.Y.Y.Y.H.Y.H.Y.Y.V.C.l.-.j e r c c O.A n n n A c n z t p c c p A A S D S T Y T Y S n S D U x 7 A D c v S S M S c v v v z i z u i V $.3.V.B.B.B.4.L.Z.Z.Z.Z.Z.V.2.V.V.N.j.N.N.V.V.C.j.$.#.( r = * * * < > * > * * > > > > * * < < % % % % % , < * = % * % % x } :.e.>.>.1.V.S.j.2.v.V.C.j.z.k.1.( r a U eXtXuXeXeXeX(.A < 3 3 < < & & * W eXt.m w 5 4 2 4 u rXdXfXfXSXgXfXeXB hXeXeXqXs.(.M.m.v.I.P.P.K.K.P.I.~.K.C.D.P.P.D.z.c.S.h.c.l.z.h.1.=.d * & * & * = % % # % ; % + # % + % # # # ; # # ; # # # # # + # # # # # # # + ; O # + # # + # ; # ; # > # # > # : # : # [ vXGXJXLXLXvXsXLXPXLXLXLXGXLXLXLXLXLXGXLXLXJXGXHXHXHXHXGXGXCXHXFXGXHXGX).y > > > > > + > > ; # # # # > # ; ; ; > ; ; ; # # ; O O ; O O ; ; O ; O O O ; O O O ; O ; O + ; + ; ; ; ; ; 1 ; ; ; ; ; ; : : : 1 1 : : : 1 : : 1 : : 1 : : : : ; : : , : , , , p 2 w o.! ! | ` } w * 5 & & =.n.U.n.n.n.K.P.P.P.C.v.K.K.K.K.U.~.].I.K.U.U.~.~.J.K.~.|.K.K.v.K.K.K.V.S.S.F.c.h.n.S.S.v.l.v.v.v.b.v.S.j.v.v.v.v.l.l.<.h.>.h.<.,.l.l.l.>.:.,.,.>.,.l.j.c.j.$.$.>.k.h.$.#.` @.+.+.+.#.$.#.#.#.#.@.( ( ' ' ` ' -.=.` ' ' ( ' 1.h.' / I %.( ( ( o.( ( ( ( ' #.+.+.` ` ( ( ` ` >.| ' =.' | ' | ` | _ | _ ( ( _ } ` | _ _ =.=.=.=.=.I I =.} ` _ _ | _ ` | | | | | | ^ _ _ ` } } _ _ _ } _ ) =.=./ =./ =.[ .. ... . .} .. .} [ ..{  .[ ....[ [ { ..{ [ ^ ] ",
"$XT.Y.Y.W. X~.T.R.R.E.T.W.$X$XY.%X8X1XW.#XQ.H.Y.Z.&XW. X=XXX X~.R.Y.L.Y.E.Z.D.N.N.Z.Q.Y.Z.W.{.Y.D.B.Q.E.9X$X#XR.D.Q.W.R.Q.W.Q.E.#XY.T.W.D.$XH.H.T.Y.Z.Z.H.Y.!.~.Q.%X!.Y.T.Y.L.~.%X=X%X^.~.1X X!.H.B.T.T.^.J.J.T.~.T.J.T.L.T.T.L.T.J.J.T.J.T.~.Q.H.Q.W.#XA.H.H.^.A.6.#X0X^.6.6.6.5.6.6.6.6.5.6.6.6.6.6.6.A.A.A.Q.Q.^.J.J.T.J.Q.^.Z.^.H.N.N.Y.H.B.Z.H.Y.Z.Z.D.R.V.;.P w i c c c O.M n O.S S n y c V y 4 4 4 q i x z S c c S D Y x * & y U U w 3 w t t 2 z M U U M A M M c c c z y G >.K.Y.~.E.Z.J.N.Z.V.N.B.2.N.z.j.1.1.1.j.c.j.h.>.+.} o.r * = & > < < > > % > * * % % * > < < % > + = > < * > * > * * * d j X.%.$.f.h.V.P.j.z.1.v.V.V.D.c.c.;.Z e p (.hXuXeXeXeX(.A w d 3 0 0 * 3 3 D i.m 3 3 d < 2 4 m qXtXgXgXfXgXfXuXv eXeXeXqX(.9.).U.K.K.I.K.n.T.I.~.L.L.L.C.P.P.C.c.v.S.j.c.z.c.1.,.I d * * & * & % = = % % % % % % + # # # # ; + # # # + # O # ; # # O ; # # # # # O ; + # # # ; # # ; + # : ; ; # # : & q ).GXGXJXJXLXLXJXLXLXLXLXLXLXGXGXLXLXGXLXLXGXLXLXGXGXLXJXHXHXHXFXCXCX'.bXHXFXsXF + + + > > > + ; # # # ; # ; > ; > > ; ; ; # # ; ; ; ; ; ; ; O : O O : O O O O O O O O O ; + ; ; ; ; ; ; ; ; ; ; ; ; ; ; ; : ; : : : 1 : ; : 1 : : : : ; ; ; ; # # # , ; ; 1 p 2 e / ^ / X...#.V & & & & P n.S.K.K.K.K.P.[.P.n.K.K.I.I.K.K.K.].I.K.K.I.U.n.U.~.K.U.n.J.b.K.K.v.V.S.V.S.C.z.j.c.v.b.l.l.v.x.x.v.z.h.l.v.v.l.z.l.h.,.>.>.h.h.x.h.l.l.1.1.l.l.f.,.>.h.$.$.$.3.3.>.>.$.$.+.#.+.+.#.@.#.+.@.+.' ' / ( I ` ` ' 5.' ' ( ( ( $.$.' ( ( ( ( _ ( I ( ( ( ( X.` X.X.` X.( ` } } X.| =.' ' #.| $.| | ` ` | _ ( / ` | ` $.` ' =.' ' P =.P I | ` ` _ ' _ ( _ ` _  .$. ._ _ _ } } ` } _ } | _ / =.=./ I =.) _  .| ......} ..} [ [ ) ^ ] ..{ { {  . .....[ ..^ ",
"E.W.E.T.W.W.E.T.H.T.W.!.W.E.R.Y.$X0XzX{.{.Q.Q.W.T. X XE.!.XX%X XL.V.R.Y.Z.Z.D.B.6.j.B.Z.Y.W.W.Y.Y.Y.#XW.=X%X#XY.Y.R.Q.Y.Q.Y.Q.#X$XW.$X X$X$XY.T.Y.^.T.L.B.Y.Y.T.!.1X9X%X!.!.%X$X%X=X!.T.E.!.Y.Q.T.J.H.J.J.H.J.~.!.#XT.J.J.J.J.J.T.L.Q.T.T.!.~.Q.Z.Q.#XW.Q.H.H.Q.^.J.#X-X#X6.6.5.6.A.^.6.6.5.5.6.6.6.6.6.6.6.6.6.T.^.Q.6.J.^.Q.^.H.Z.Z.2.H.Q.Z.Z.A.Y.Q.H.B.B.j.%.j 0 a x c f v O.O.c v A n V a y S n > , 2 q 2 3 w n D t y D S 2 & < x W E w * * A T S S B T T U U M M M M M c v p G h.z.P.B.H.H.Y.D.B.V.V.N.1.b.Z.j.h.,.N.$.$.$...X.Z r * % * * < < < * % * % % > * > > < < > % % % % * * < , * * * % * < d d O.P #.h.h.C.C.C.K.J.P.L.S.c.z.>._ a y 8.gXeXuXeXs.qXQ e < < 0 < d 3 3 q m 5 & * 5 < 4 w u.fXfXgXgXfXfXfXuXb _.eXeXeXt.r.'.].n.L.I.I.K.~.P.I.I.K.C.S.C.P.F.S.C.P.c.l.l.b.l.:./ * * * * * & = % % % % % + % % % # # ; # ; # # # # # + O # # # # # O O # # O # + # # # # + # # # ; # ; # # # : > x M.ZXGXJXKXGXLXJXJXGXLXLXJXLXLXLXLXGXGXGXGXJXJXGXLXLXLXLXLXLXGXLXGXGXHXCX+XY sXsXM.+XS > > > > > + # # + ; # # > ; ; ; > > : > > ; O ; ; O O ; ; O ; O O O O O O O O ; O ; + + ; + ; ; ; ; 1 ; ; ; ; ; ; ; ; ; ; ; ; ; : : : ; : : ; ; : : : : : : : # : , : , < y 0 0 ! ^ / ( $.| R * & & & d f.U.U.].K.P.K.P.K.l.U.I.v.K.J.].J.K.I.K.K.J.I.K.K.K.K.n.K.U.K.v.b.K.c.c.c.C.C.c.C.z.b.n.l.v.l.b.v.v.v.c.h.x.l.l.l.l.h.h.,.h.1.f.z.l.f.l.>.,.:.1.f.,.$.j.h.c.V.f.$.$.>.j.$.#.' @.+.+.#.#.+.$.' ` +.%.' ( +.;.( -.` ` ' ' +.#.>.' ( ( ' ' ' ( ( I ( ( +.( ` $.` ( +.X._ ' | ` -.` =.=.| $.$.| | | | ` _ ( _ ` $.| } _ =.=.=.I / =.I =._ ` ..( _ ` _ _ | | } | | _ _ ^ ` .._ } } } } | =.=._ =.=.) =._  .}  . . .....[ ....} ] [ ..[ .. .0... . . ...[ ",
"T.Y.T.N.Z.T.T.Q.L.T.$X%X=X X$X$X%XMX:XZ.L.Z.H.E.E.W.W.E.~.!.E.L.H.Z.Z.L.Z.B.D.D.Z.B.B.Z.W.Y.T.W.Y.Y.Y.Z.#XW.{.Y.H.#XY.Y.[.#XR.Y.W.Z.Y.A.Z.Z.H.T.W.!.E.T.~.1X1X%XL.Q.1X X!.E.=X$X!.~.~.Q.J.J.T.W.Y.Z.!.!.Y.H.J.^.!.!.L.J.L.^.J.T.~.J.J.~.~.Q.T.J.W.Y.Q.#X$X#XQ.Z.^.6.<X-X#X6.5.6.6.6.A.6.5.6.6.6.6.6.6.6.6.6.6.^.J.^.J.6.!.~.T.J.6.Z.B.A.A.H.H.B.B.Z.^.A.N.1.J r s a n i i y c y z e z x x A q 2 V n 2 < c V 2 D c y O.z z D y d < z Y Q U n 3 * t T W 8.T T T E Q U U U U U M m c y G >.N.Z.K.C.D.H.H.N.D.z.j.V.,.j.1.#.$.#.+.X./ Z * * = = * = * * > > * > % % % > * * < < > % % % % % > > < * * * % * < * d d d P X.j.j.C.L.S.H.P.L.C.V.j.>.| G y v uXuXeXeXeXqXW e 3 3 3 3 2 3 3 3 7 * & 3 5 3 3 M pXpXfXgXfXgXfXfXtXb /.p././.r.x.F.].K.I.I.J.v.P.K.P.K.K.z.m.S.L.C.F.S.c.C.l.v.f.<.<.L = * & * & & = % = % % + % % + + % = # ; # ; + # # # # # # # + # # # ; + # # # # # # + # ; # # # ; : > : > : a ).bXGXJXGXLXKXLXLXGXGXLXLXLXLXGXLXLXLXGXLXGXGXGXGXGXJXGXGXLXGXKXLXJXGXGXHXHXGXsXm u 9 2 q > > > + > > ; # # # # # + ; ; ; ; ; ; ; ; > ; ; ; ; ; ; O ; ; O O ; O O O O O O O O ; O ; + ; ; ; ; ; ; ; 1 ; ; ; ; ; ; ; ; : ; : : ; ; : ; ; ; ; ; O ; O O : # : : ; > < a < & G ! / ] $.$...q & : # & P F.S.K.K.K.K.I.K.v.J.v.I.K.K.U.I.K.K.K.U.I.I.I.v.v.K.b.K.n.m.v.v.v.j.c.c.c.c.C.C.m.n.v.l.1.x.v.b.x.v.l.S.l.l.l.f.l.h.,.1.h.d.>.h.,.,.l.f.,.,.l.,.,.h.$.k.h.k.3.>.h.$.h.#.@.X.X.+.$.@.$.$.>.#.+.+.( ( ' +.-.' ` ` ' I ' +.>.>.` ( ( X.+.( ( ( ' ( ' ( ( ( +.X.( ` ( | ` | ` _ | ;.-.| ` _ | _ ` | ` ` _ _ ( _ _ _ ` =.=.I =./ I I P _ ( ` _ ` _ _ _ $.| | | _ _ _ _ } | } | ..#.| } =./ =._ ) =.) =. ... . . .r. . . .=. ...] .. .{ ......{ ..{ { [ ",
"L.J.T.J.6.~.~.T.L.T.~.$X1X%X#XT.T.7X9XQ.Y.N.D.Y.W.E.E.W. XW.E.W.Z.N.V.D.B.Z.B.N.Y.B.H.Y.Q.L.Y.#XQ.L.Y.H.Y.Q.$X$X=X=XY.{.W.Y.Y.Y.T.Y.R.Z.H.Y.W.Q.H.W.Y.H.!.0X1X$X1X!.T. X!.~.!.~.T.!.~.L.J.T.!.J.H.Y.Y.L.Y.L.J.Q.Q.J.J.H.T.Q.T.T.~.H.J.~.!.!.Y.J.Z.H.Q.W.T.Y.Z.A.Z.Z.Q.9XQ.N.2.5.6.6.6.6.6.6.6.6.6.6.6.6.3.6.Q.!.Q.^.6.J.H.^.J.J.B.Z.H.H.Z.N.^.A.B.N.Z.N.2.( d f j x r 2 0 2 0 * y q w 0 x V q 4 a q < y D j q q 2 2 q 2 q 2 2 V a D Q E W U 0 3 < x W T T W Q W Q Q Q Q Q B B B N n p J f.j.V.Z.D.E.Z.Z.z.B.j.1.h.$.#.>.` o.C X.C e @ % % = > > * % % % % % = % > > > < * 2 * % % % % % * * * * * > % % d < d < d f X.>.h.S.Z.z.L.L.K.K.c.c.>.$.' f i qXgXuXtXeX_.U s q 0 3 2 d < < d q 5 * * * 5 9 t.hXgXgXgXgXgXSXgXuXv a._.9.9.m.m.S.S.].I.L.R.P.K.K.b.V.I.P.D.S.C.D.F.D.F.V.h.h.j.h.f.H & * * * & & = = % % % % % + % % % % ; # ; # + ; # O # O O # # O # O + # # O # # + # # # # # ; ; > > > > i M.bXAXHXGXLXLXLXLXLXLXGXGXGXLXLXLXLXLXGXLXLXGXGXJXGXGXGXLXLXGXJXGXLXLXLXLXLXHXGXHXGXhXU n 2 2 , , ; ; ; ; ; ; + ; # # ; > > # ; ; : # # : ; ; ; + ; O ; O O O O O O O O ; + + + + ; + + ; ; ; ; ; ; ; ; ; ; ; ; ; ; ; ; ; ; ; ; : : ; O 1 ; O ; O ; O O : : # : , : : 3 i 2 = J G ~ ^ / ^ =.p : & & : s c.U.U.K.I.S.S.v.v.K.n.K.K.K.K.K.K.I.I.~.U.K.K.K.v.v.K.v.v.l.z.v.c.C.l.c.D.S.D.C.c.n.b.m.l.m.c.x.v.b.<.b.b.f.b.,.,.f.h.,.>.,.=.<.=.1.b.,.=.<.l.,.1.j.#.f.j.>.f.>.>.$.h.$.@.@.+.' +.$.$.$.#.@.@.( ' ( -.>.+.( ` ' ' ( @.+.-.3.+.( ( +.' ` ` ( +.( X.` ( +.#.-.` ` ` | | #.| =.' =.=.=.I =.I I =.I =._ ` _ | ( / I } =.=.I _ =.=.=.=.( _ _ _ _ _ } ` | | | _ _ _ _ } ` | ` } } | $..._ ^ _ } } } _  . . .}  . .=. .} [ =.[ ....[  .....}  ...{ } { } ",
"Q.T.^.T.T.Q.~.^.H.!.Q.!.%X!.C.B.Z.:X8X&XZ.B.R.W.~.~.~.$X=X X X X XN.Z.T.E.R.{.T.^.H.Z.B.D.H.Q.Y.H.E.N.Z.D.Z.^.H.Y.#XH.Q.Q.W.#X{.#XR.Y.Z.{.-X#X#XW.T.L.T.T.%X9X X3X$XT.T.~.T.Q.^.T.~.!.T.Y.Q.J.J.J.Y.L.Q.Y.^.^.L.J.T.J.T.T.L.T.T.J.H.^.Q.Q.T.~.~.^.W.#XY.A.Z.Y.Z.Q.#X#X=X#XA.2.5.6.^.6.^.6.6.6.6.6.6.6.6.B.Q.J.^.T.^.J.6.A.A.A.B.Z.Z.Q.H.A.j.Z.H.Z.N.j.j.%.f c c i 0 d q p d 0 0 q < 0 2 0 q V q > 2 < q y c z , 0 0 < < < 0 0 2 3 5 p N S D w 3 < 2 6 u T 8.8.W W W Q W Q Q Q B U N c x / h.z.V.N.N.j.H.N.V.;.3.>.#.` ( J C * = , % = = = % % * * > * * > % > * < < * > < * > > % = = % > > > > * < % d < d * * * 0 / f.>.l.j.j.K.b.B.K.C.z.1.$.X.C y rXgXgXuXeXt.n y w 0 < < < * < < < * * * 5 5 b s.uXgXgXfXfXgXgXgXhXN t.{ 9./.].@Xn.P.P.I.K.J.R.S.z.c.S.K.S.c.P.V.F.D.c.C.c.j.h.j.c.,.j = * & & & + = # = = % % + % % + % + # # # # + # # # + # # # # # # # # # # ; # + ; + # # # ; ; # ; > 1 { bXAXZXGXLXKXLXLXGXLXGXLXLXLXLXLXLXLXLXLXLXGXGXLXGXGXZXHXHXLXKXGXJXGXJXLXLXLXLXLXGXLXGXHXHXSXaXbXM.M 1 1 1 ; ; ; ; ; ; > # # # ; # ; : , > : ; ; ; ; ; ; O ; ; O ; O ; O O O + + ; + + + ; + ; ; ; + ; ; ; + ; ; ; ; ; ; ; + ; O O ; : ; ; ; ; ; ; ; ; : O ; # & # : : , 2 a e # G o.! _ C f :.h & : : & = | n.U.P.P.P.K.K.v.K.v.b.v.K.K.oXI.U.K.K.K.K.K.K.n.U.K.v.K.v.v.S.v.c.V.S.c.F.C.l.l.K.b.b.l.v.l.l.l.x.4.u.x.b.v.n.,.h.f.,.,.x.,.,.,.v.x.x.l.x.x.x.,.h.$.#.$.$.j.1.$.$.#.$.#.#.+.` %.>.1.2.#.+.+.+.+.-.#.` #.+.;.' X.' ' #.>.f.+.( X.( X.( ( ( ` ` ( ( ` X.#.` _ ( _ $.| #.$.=.=.' -.=.=.=.=.I P =.=._ _ ' _ / P / _ / ( =.I / I =.P _ _ _ _ ( _ ` | _ _ | _ } | _ } } } ......#...} } _ } _ _ ..X.....} } .. ... . ..... .r...{ [ ..{ } { [ ..[ } [ ",
"L.~.!.~.~.T.~.^.W.T.%X1X1X%X~.E.D.:XMX=XC.B.B.$X$X XW. XW.~.$X%XR.Z.Y. XW.W.%XE.W.L.D.#XE.Q.Q.D.H.Y.N.V.H.#XH.$X-XR.W.Y.{.W.Q.-X-XZ.H.Q.#X{.{.E.T.=XE.%X1X$X$XQ.Q.L.T.T.T.T.H.~.T.T.~.Q.L.T.L.J.J.J.J.J.L.T.J.J.H.H.H.H.Y.Y.H.T.^.L.Q.~.~.!.#X$XE.Q.W.Z.Y.Y.Y.Z.Y.Y.!.1X#XA.6.2.6.6.A.6.^.6.6.6.6.6.6.6.B.J.J.6.J.A.B.J.H.T.N.A.N.B.Q.H.Z.N.Z.B.z.B.$.$.Z f c x q < e e e 0 a V V e < < < < q 2 y < i p 0 y 0 > , 2 < * * e y 2 & 5 < < w m w < < , , 6 U W 8.W W 7.W W q.7.8.8.U U M U c X.h.V.>.2.z.b.N.N.1.#.>.| o.D Z 2 % % = % % = % % % > * > > * < > % > * < < * < < * + = = + > % * * % * % > * * < * * * = H $.f.h.c.V.J.K.b.C.z.S.1.>.@.C q /.fXuXeX9.c w w 0 d 2 d < * < < < * & * 3 9 t.hXhXhXgXgXgXhXgXhXgXS U D g.].+XS.C.S.D.P.L.v.K.K.Z.C.P.C.L.D.L.S.C.V.S.h.D.V.h.j.h.;.h = * * * & d a > % % % % + + % + % + # # # # # # + O # # # # O # # # # # # + # # + ; # + ; # ; ; > z '.AXGXGXKXLXGXKXLXLXGXLXLXLXLXLXLXLXGXGXLXGXLXGXLXHXJXDXGXLXGXGXHXGXDXJXLXLXLXGXLXGXLXLXLXGXGXHXCXCXdXaXM.; < > > > ; # > + ; # ; # % ; # # ; # ; + ; ; O ; ; O O O O O O O O O ; + + ; + ; + ; ; + ; ; ; ; + ; ; ; ; ; ; ; ; + ; ; ; ; ; ; ; ; ; ; ; O O O ; ; # : # : : : < a q = S o.! / f 0 :.H & & & & & h n.F.P.S.v.S.S.S.K.v.n.K.K.I.I.I.K.K.K.n.C.K.K.U.U.L.v.b.c.v.K.l.S.j.S.S.c.C.C.k.b.l.b.C.v.x.x.l.x.<.b.x.x.,.K.l.x.l.:.,.,.l.,.f.1.=.,.1.x.1.f.l.$.h.3.f.j.j.h.>.h.$.$.#.` +.` :.h.$.$.#.#.$.+.X.' +.#.+.+.$.+.+.' ' ` #.k.+.X.+.( ` ' o.( ( ( ( ( ( ( X.' _ ' ( ` | $.:.=.I I =.=.I P I =.I =.I ` ` _ ( / / ( / ( =._ _ =./ / =./ ( | ` _ | ` | } _ } _ _ _ _ _ } _ $. .| ..} } | ) } _ _ } ^  ...}  . . . ...0.......[ ) [ ~ ~ X.{ [ ^ [ [ ..[ ",
"^.T.!.~.T.T.J.T.!.Q.1X%X$X XW.Y.B.H.R.L.W.E.E.E.{.W.E.$XW. X9X%XE.N.Z.Z.R.Z.L.G.Y.G.H.%X#XL.V.Q.Z.Z.Y.Y.B.R.D.#X-XQ.W.{.W.Q.%X$XD.Y.Y.Z.Z.D.Q.Q.$X9X!.E.!.1X%X$XQ.J.T.Q.T.Y.Y.J.J.~.Q.T.J.^.J.T.J.J.L.T.H.H.T.~.T.T.Y.~.T.L.~.T.Y.Q.~.%X#X!.!.!.E.Y.Q.Y.#XE.T.N.Z.Z.$X1XY.Z.6.A.#X6.6.A.A.6.6.G.6.6.Q.6.H.J.B.B.Y.J.B.B.T.Y.Z.A.6.Z.H.B.j.N.B.B.Z.V.%.K x n O.y s 0 q d 0 e x i d < q a a n s w a < C Y y 0 < 2 < d * > 0 x a < & & & & < < 2 < 0 2 < w T E W W 7.7.Q W t.7.8.q.W 8.9.Q U V ..h.j.j.j.b.V.z.$.$._ P G C < * = = % % % % = % > * < * > * * d % > > < < * 2 > * @ + + = + % > % % % > < d > < * % * * s ( $.h.,.c.l.P.C.L.P.S.z.<.+.J 0 ] pXwXp.z y q q 0 2 0 2 < * % * * & & d 5 N `.hXgXhXgXfXhXhXhXuXeXU x F m.n.U.S.S.S.S.P.K.z.K.V.S.P.L.v.Z.F.D.S.S.S.S.l.c.c.h.j.h.;.Z * * * * % V J < % = % + > % + % + % # # # # # # # # # O # O # # # # O # # # # + ; ; ; ; : > > 2 0.ZXFXGXGXKXKXKXLXLXGXLXLXLXLXLXLXLXGXGXLXGXGXLXLXGXLXGXGXHXGXJXGXLXbXu.KXJXGXGXLXLXLXGXGXLXLXGXGXHXSXCXCXyXbX0.> > > > % > > # # ; ; # # : # > ; # ; ; ; ; ; ; O ; ; O ; O O O O ; + + + + + ; ; ; ; ; ; + + ; ; ; ; ; ; ; ; ; ; ; ; O + ; O + ; + O ; ; ; ; ; O ; # : : # : & < i 2 - V G ! / f w d.R $ & : # & $ :.U.F.S.c.c.K.v.v.C.v.K.U.K.C.v.I.C.v.b.K.K.b.L.U.K.K.v.c.v.v.v.S.S.S.C.C.c.c.c.v.x.n.x.K.|.C.b.x.b.b.n.f.x.=.x.k.1.:.,.x.f.,.,.1.x.l.x.b.x.1.,.>.z.$.h.h.$.>.$.#.$.1.#.` ` +.$.#.#.#.h.>.#.+.#.#.-.` $.-.#.+.#.` #.` #.h.#.( ( ( ( ( I ( ( ( ( ( ' ( ( _ _ } _ | $. .| =.( =.=.=.=.=.=.I =.I =.} | _ / _ I / / P =._ =.I =.=.P _ _ _ | } _ | } } _ _ _ _ .._ ^ } .. .} } } | } ^ _ _ ^ ^ } .... . ..._ ....} } [  ...} ..[ [ ) ..[ ] ~ ^ ^ } ] ",
"B.~.J.T.!.%X!.T.T.~.Q.T.!.!.$X!.Q.{.=XZ.Z.H.R.W.%XW.{.W.R.%X$X$XW.N.Z.D.Q.Z.Z.Z.Z.R.R.{.$X{.^.:X=XH.N.Z.D.Z.H.W.R.H.D.$XT.R.E.W.Y.D.H.A.Z.Y.Z.H.E.T.Z.H.L.~. XT.Y.J.H.J.H.J.J.J.T.~.T.L.T.T.T.L.J.H.J.Y.T.T.Q.^.T.J.J.E.H.H.Q.T.L.!.!.~.!.W.E.T.T.W.W.~.T.H.L.Z.Y.H.%X=XG.A.6.6.6.6.6.6.6.6.^.^.6.6.~.^.6.4.6.J.J.J.B.A.T.^.Q.N.N.Q.Y.H.N.H.N.2.N.@.Z s c e q q e q 0 q 0 c V V O.8 n D O.e < < < , a V e 2 * e x d < < > * < * * & & 5 3 & & 5 3 3 < < 7 z E 8.W W t.9.7.q.t.7.W 8.8.7.W Y c | g.k.f.h.f.f.$.$.( ! R d % % = % % % % = + % * > > < < d < < * * % < 0 2 * % % % % - + % % > % = % % * % > * % * = * = K #.S.S.V.l.v.b.b.1.l.l.,.>.P f a wX`.R p q < d 2 < 0 < * % < * , * * < w U qXtXgXgXhXhXhXuXuXeXeXQ m G x.].n.F.P.E.K.[.v.P.H.1.v.S.L.V.v.C.S.C.S.C.S.S.V.f.j.h.$.$.J = * * * = P ~ w % % % % % % % + % + # # # # # # # + + O # + # # # # ; # + # + + > ; ; ; > < x +XDXGXHXGXLXLXLXLXGXLXHXLXGXLXLXJXGXJXFXGXFXDXLXLXGXGXGXGXHXGXGXGXGXGXaXw =.sXGXLXHXLXLXGXGXGXLXLXGXGXSXCXCXtXaXuXc , > % > > > + > # # # ; # # ; ; ; ; ; ; $ O $ ; O ; O O O O O O O + + ; + + + ; + + ; ; ; + ; ; ; ; ; ; ; ; ; ; ; ; ; ; ; ; ; ; ; ; + ; ; ; ; : O $ # : # : & , s 0 + Z J G / V = ) X.& & & # & $ J m.S.c.K.K.K.U.U.L.I.K.K.v.v.v.K.K.b.v.v.K.v.v.L.K.v.l.v.v.K.I.P.K.S.S.V.l.c.c.b.v.K.x.v.K.K.v.b.1.,.m.l.b.m.b.l.l.l.,.l.f.l.,.x.<.=.1.n.=.,.f.k.V.$.h.$.>.$.>.$.$.$.#.#.#.#.>.` ` #.#.$.>.#.+.` ` ` $.+.X.+.X.#.X.X.+.>.#.' ( ( ` ( I ( ( ( ( ( ` ` _ _ _ _ _ | =.=.=.I ' ' =.I I =.=.I =.P P =./ =./ I P P =.^ =.I ( ' ' _ ) ) _ ) ) ` _ | } | | _ _ ..X.| _ } } } | } .. .} } } ^ / } _ } / }  .| ..0...} ..[ ....{ ......[ ..[ } [ ] [ ^ ~ ",
"T.Q.T.T.Q.Q.~.T.#X#X!.!.%X%X%X=X&X=X#XV.D.E.H.Y.W.W.E.{.T.=XY.R.{.E.Y.H.L.Z.P.Y.Z.W.Q.W.R.H.R.#X$XR.Y.G.Q.Y.Z.B.H.B.Y.$XT.T.$XQ.Q.H.Z.Z.L.Z.Z.Y.T.H.N.W.Y.H.Y.T.T.Q.Y.H.L.T.Y.J.^.!.Q.T.J.L.^.Q.H.Y.T.L.T.J.B.J.H.J.Q.T.T.H.!.E.!.!.Y.!. X~.#XE.T.!.~.~.W.L.!.!.E.W.$X%XQ.A.6.6.6.#X#X6.^.6.2.A.6.6.6.6.J.6.<.6.N.A.Z.Y.B.N.Z.A.D.Z.N.Z.G.A.N.N.>.K s x a q e s s q e q 2 e 0 e e 0 < 0 > < * < * * % 2 < * < < < * < * > % < > 5 * & 3 & & * & < * * & y A U W 7.7.7.7.q.t.t.q.9.7.w.q.w.9.U V  . .:. .^ ^ o.G H x % = & % % % % = % % % * > < < < 2 < < * < 2 0 2 2 0 , % * > % + % % % % + % % % > > * * % % * * & f X.>.f.V.v.b.b.l.v.1.1.' +.( j e ] ..x w 0 < < < < * < < % < < < & % 5 i i.wXeXhXuXuXgXuXuXeXuXqXT A ! m.].n.S.K.K.S.K.C.P.K.v.z.V.S.P.P.D.F.D.F.S.S.l.C.V.j.3.>.$.a * = * * 3 ( o.f % % % > + % % % + % # # O # + # # # # # O # O # O # O # O # + # ; ; ; # > D vXDXDXGXGXGXLXLXLXLXLXLXLXLXLXLXJXGXFXGXFXJXGXGXGXGXLXGXGXFXCXFXGXGXGXGXDXm 9 i aXLXLXLXGXHXLXLXGXLXLXGXGXSXCXaXaXaX/.< > % % + > % + > # ; > # ; ; # ; $ ; ; ; ; O $ O O # O ; O ; O ; + + + + + ; + ; + ; + ; + ; ; ; ; ; ; ; ; ; ; ; + ; + ; ; O ; O O ; ; O # O ; ; O # : : : # & t < + O.D R ! V @ ! [ w & & # # # G x.S.c.S.c.K.S.K.I.L.K.K.~.U.K.v.K.b.x.x.n.K.K.K.v.U.v.v.l.v.v.c.v.C.F.S.V.c.V.n.K.b.l.v.K.v.v.n.m.<.x.l.x.,.x.>.x.1.l.x.x.f.l.=.x.b.x.4.<.,.l.$.j.#.h.1.>.3.>.3.3.$.>.#.#.$.#.#.+.$.>.>.$.#.#.#.#.-.+.+.#.+.+.#.#.#.` n.$.( ( ' ( I C J +.( ` ` ` ` _ _ ` _ ' | | =.} _ _ I =.=.=.=.I =.P =.=.=.=.I / ) =./ ( _ =./ / ^ ) _ ( _ ( ( _ | X.| | } } _ ( | _ } _ ..$...} ....} _ } _ ) } ^ } } _ }  . .$. .} } } ........[ [ ....[ [ .. .} ..^ ~ ",
"T.J.^.J.Q.!.~.!.!.1X$XY.W.W.Q.T.#X7X&XZ.Z.D.Y.Z.E.R.T.W.Q.3X=X=X$XY.Y.R.Q.{.H.R.Z.Y.$X#XW.Z.G.A.D.Q.R.Q.=XH.Y.H.Y.Z.Q.R.H.H.$XT.E.W.T.D.T.H.^.G.T.B.J.H.Y.H.J.L.~. XJ.~.T.H.Y.Y.~. X~.Y.T.T.T.T.J.H.J.Y.L.L.J.J.H.J.T.~.T.T.T.T.Y.E.!.!.Y.Y.!. XT.E.Q.Q.Y.L.W.T.T.W.=X1X#X^.^.^.6.#X#X#X^.6.6.6.6.#X6.6.6.4.4.3.B.N.N.Z.A.N.Z.Z.N.N.Z.N.N.3.2.5.o.f e d 0 0 e q q q e q e q 0 0 < d O.G c 2 < d d * < < < * > * * < < < * % = > & & & & & 3 3 * < 3 3 & < 7 z S W W Q 7.q.t.t.7.i.t.t.q.t.t.w.c H ~ ^ F Z H C a d % % = % % & # % % % > * > < < 2 2 d < 2 < d d % < 2 0 < < * % + = % % % > % % * > > < 2 * < % * % = s ! >.h.z.l.b.v.1.b.1.>.` j.+.C 0 p a w w < * 2 0 < * 2 < * & < < & * q Y eXeXgXuXuXhXuXeXuXuX_.qXS D ^ m.].n.S.P.F.P.E.P.P.V.C.l.C.F.P.L.C.S.C.C.S.m.C.c.c.j.k.f.$.d * * * * * _ / V = % % % + > + % % + # # # # # # # O # + # # O # $ # # + # # ; # > > > > U vXGXGXGXJXLXLXLXLXLXGXLXLXLXLXLXHXJXHXGXGXJXGXGXJXPXHXGXGXGXFXHXCXCXGXGXGXLXUXh 9 N sXLXGXGXLXGXLXLXGXJXJXGXGXSXSXvXtXvXW > % + % + > + > # # # # O : ; O ; ; $ ; ; $ ; O O O ; O O O O O + ; ; + + + O ; + ; + ; ; ; + + ; ; ; ; ; ; ; + ; + ; + + ; ; O O ; ; ; O ; : O $ O : & : # & 5 * + V C J ~ V % [ | V # # % % $ / m.m.S.v.c.C.U.P.U.P.m.b.I.K.v.x.b.x.K.b.v.K.K.K.K.v.v.l.v.K.l.v.K.c.D.S.V.h.V.x.b.v.x.b.b.m.K.x.v.n.n.x.1.=.x.l.1.,.=.,.l.f.f.4.x.1.,.x.,.=.,.j.$.h.h.>.>.>.>.>.>.>.$.>.$.+.#.+.+.$.>.$.#.#.` #.` $.#.#.$.#.#.` ` ` $.m.>.` ( ( ( ( o.( ( #.#.` X.` _ | ) _ ) _ | | ' _ =.=.' =.=.=.I L =.=./ P =.I P I =./ _ | | / / / ) _ ) _ I _ _ } }  ..._ _ } } } | | | } =. .} } X.^ ^ / ^ _ } _ ^ ^ } X.} } } | 0.........=...{ ..r. .[ ^ {  .} [ [ ~ ",
"B.J.J.T.~.Q.T.J.Q.~.!.W.E.!.~.~.:X=X=XN.B.B.H.E.W.Y.Y.Z.W.3X*X*XW.R.Y.T.Y.L.L.Q.D.H.{.Q.D.Y.L.W.-XD.B.D.Z.H.R.{.Y.L.Q.W.L.Y.W.E.W.H.Y.Z.Y.R.Z.H.K.J.B.B.XX!.H.T.T.Q.T.I.T.L.T.Y.!.T.T.^.T.J.!.J.Y.Y.H.J.J.J.Q.~.~.B.T.~.~.E.E.!.!.Y.J.Y.H.Q.W.W.~.~.T.~.Q.T.L.W.T.Q.1X1XW.^.6.^.6.6.#X6.^.^.#XQ.#X6.Q.5.6.T.4.T.A.2.2.B.Z.2.T.Y.N.G.H.j.N.2.3.+.C a q d 0 0 0 0 d 0 0 0 d q q q 2 , y x r * * d < % * < % < < * < < = % % * < % & & % & & % 3 3 & & & , 4 u n U W 9.8.8.q.q.t.t.i.a.i.i.y.i.y.Q x p p 0 w < * < < = @ % % # & & = + + % > * < < < < 2 < * < 2 2 2 < 2 0 , % % , % + = + % * + = > > * < * > * % = * % e o.$.k.c.v.K.b.-.1.<.>.>.$.( J s 3 5 w w < < < < * > * < & < & = * < y E s.eXuXuXhXuXuXuXeXeX_.(.M F X.n.U.S.S.P.L.|.P.K.T.K.V.P.L.R.c.R.S.c.c.c.C.z.S.j.h.h.j.3.X.* d * & * d | ..K % = % + % % % % + % + # # O # # # # O # # O # # # # ; # # ; > # > , , ] ZXGXKXKXJXLXLXLXLXLXLXLXGXLXGXGXLXHXGXLXFXJXJXGXDXHXGXsXpXLXGXGXFXFXCXCXGXHXGXLXsXp 9 r.LXGXLXLXLXLXGXLXJXGXGXGXGXSXCXdXtX'.U % > , > > > + ; ; # ; ; ; ; ; ; ; ; ; $ O ; $ O O O O O ; ; + + + + + + + + + ; + ; + + ; ; ; ; ; ; ; ; ; + ; + ; + + ; + ; + ; O O O O O O O O : : # # # & q + + V G G ! V = F =.P $ = # = @ ..m.S.n.c.v.C.F.K.K.v.b.K.U.K.v.v.l.n.b.v.K.b.K.l.K.v.L.v.c.v.z.v.P.S.F.V.V.l.c.x.b.1.<.x.x.b.K.b.m.b.1.l.b.,.,.,.x.x.,.1.,.l.l.1.f.,.f.b.f.1.l.$.$.$.h.$.$.#.$.$.>.>.#.$.$.$.$.>.$.>.$.+.' ` ` #.;.>.#.$.$.#.$.#.#.` #.V.f.` ( ( ( ( ( ( ( %.` ` ` #._ =._ =.' =.` | _ =.=.=.=.I =.=.I =.=.P =.I P =.I =.=./ _ ' _ / ( ) ( | ) / ) ^ _ | | ..$.} ` | } | |  . .| ....X.} / _ / ! ^ _ ) X.^ _ / } .... . .....[ [ } { ..) .. . .[ [ [ [ { [ [ ^ ",
"T.~.T.T.~.~.J.4.Z.L.T.T.Y.!.$XE.$X*X:XY.B.D.Y.#XE.Y.L.W.&X&X&XT.Z.C.R.W.K.L.L.Z.T.*X%XW.T.E.L.E.Z.T.H.V.H.B.Z.W.Q.L. XT.T.L.L.R.D.{.R.Y.Y.W.H.Y.Q.W.W.B.Q.Z.D.R.Q.E.!.T.T.Z.H.Y.E.T.T.H.Z.E.!.H.~.J.J.T.J.T.Q.J.H.J.H.T.~.T.E.W.!.Q.Y.Y.L.~.!.~.Y.Q.T.T.E.!.E.H.H.L.1X1XQ.Z.^.A.A.^.^.^.^.A.G.Q.A.B.N.B.Q.Q.Z.^.N.N.H.^.^.H.W.T.Y.Z.N.2.2.;.I k f 0 0 d e e e e d 0 q d 2 q 2 d < * % * d < * % < < 2 * * < * * < * = = % > * % > * * > % > * > * > % q A n c z B W 8.t.t.t.t.t.i.t.t.t.i.a.i.t.W m D $ & = & 3 & $ - % & % # & % - $ % > > > < < > < * > * % % % > > * > > % % % = % % % > % % * < < < * > * * > > = d J +.$.c.<.K.1.l.l.z.z.h.5.=.I r * * w 3 d & * 5 d 5 & * & & & & 2 8 T q.s.uXuXeXhXhXhXuXeXs.s.a.N R ..m.F.F.D.S.D.R.F.D.[.D.P.R.L.E.I.P.D.c.S.S.K.C.L.S.z.j.1.1.P = * * = * d =.( H = & = $ % $ % $ % $ + % # # # # O # # # O # # # # % # : ; # : , 1 A vXIXDXGXKXKXKXKXLXLXLXLXLXKXGXGXGXGXLXGXGXGXDXJXGXGXGXJXrXu i sXJXGXGXGXCXbXSXHXGXLXFXn i Y GXGXPXJXLXGX=.+XGXHXLXLXGXLXHXbXsXpXyX~ % > > > # : # # # ; ; # > > ; # ; # # O ; O O # $ O # # O # O O $ $ + O + + O O + ; ; ; + ; ; ; + ; ; O O ; ; ; + ; ; + + + + + + + + + ; + O O : : # # & 4 & $ V G G o.V % V =._ 3 = # & $ d.m.S.c.V.S.S.].@XD.S.z.F.c.K.z.v.b.l.C.K.n.K.l.v.v.n.b.l.c.n.v.b.K.n.b.v.K.v.l.l.x.l.l.l.v.l.x.l.x.l.l.l.x.,.x.1.=.<.x.x.f.n.l.,.,.,.f.h.>.h.>.#.$.h.S.h.$.$.$.f.$.j.$.$.h.h.$.$.h.h.$.>.#.$.#.$.j.#.3.$.>.$.+.` X.X.#.c.j.+.( ( ( ' ( _ ` _ ` I =.I =.=.I I =.=.=.I =.=.=.=.=.=.=.I =._ ( =._ I ) _ =.=.=.=.|  ._ ^ / _ | | } _ _ _ }  .......|  ...| } | } |  ... .} ..^ _ ^ ^ ^ X.^ ..} } } _ X. . .....^ } [ } .. .[ ....{ [ [ [ } ..[ { ^ ",
"T.T.J.T.T.J.B.J.B.Z.Y.Q.T.~.~.W.$X1X9XB.V.Z.R.Q.E.Y.N.L.Z.R.E.E.L.D.E. X%X XE.R.W.=X XR.W.Y.!.%XE.Z.W.W. XY.L.E.L.!.$XW.H.L.W.~.W.-X{.Q.Y.Q.W.{.W.W.R.Z.L.#X=X$XR.Y.W.W.L.Z.Y.Q.!.$XT.E.T.T.Q.L.J.^.T.T.J.!.1XT.J.L.Y.Y.E.Q.!.!.Q.I.T.T.~.!.Q.E.~.Q.T.~.T.$X XJ.H.T.1X1XQ.Y.6.N.A.H.#XY.^.N.6.6.6.2.Q.B.L.4.Y.Z.B.B.T.E.Y.E.Y.D.Z.Y.N.2.2.@.P e e 0 d d 0 d d 0 d d q d d 2 d < * * > * < 2 < > % % * > > > > * * % % % % * * > > * > * * > * < 2 < 2 q y q z S N m N 8.t.t.t.t.t.t.t.i.i.i.i.i.p.q.Q U p $ * 3 & = $ $ % % # & % # + + % > < , 2 < < > * > * > * = % % d % % = + + @ % % * > * < 2 2 < < < < > * * * s J #.h.z.l.l.1.z.2.j.>.;.5.=.L h * 3 5 3 5 & % % & & & < # & & < 6 7.eXeXeXeXhXuXhXeXuXeXuXs.s.t.B W | m.F.S.F.D.P.F.D.S.R.D.P.].P.L.P.S.L.S.c.L.P.I.S.z.k.x.>.1.j * d 3 * = d _ P r = = & $ # # # $ + + + + # + O # # + + # # # # # # % # # & # : q { bXKXKXLXKXKXKXLXKXKXLXLXKXLXKXLXLXGXGXGXGXGXGXFXHXGXGXHXFXFXm p sXJXGXGXGXGXSXSXAXSXGXCXm p z '.LXJXJXGXHXh 9 D u hXLXGXJXGXCXfXaXrXrX~ # # # % # > ; # # > # # # ; # # # # # # O O O $ O O $ $ # O : O ; + O O + O ; + O O O ; O O O ; ; ; ; ; ; + ; + ; ; + ; + + + + + + + O + # # ; O # : & q % @ j G G ! x + r =.f.h $ $ $ $ $.x.V.x.c.m.S.F.R.S.P.S.D.S.v.c.v.x.c.n.J.K.K.v.v.L.K.b.L.K.C.l.l.n.K.v.x.b.b.v.l.l.v.l.l.v.v.v.x.l.l.l.n.K.v.f.b.x.f.1.<.,.,.,.,.f.>.l.f.h.>.>.$.3.$.h.3.$.$.3.$.j.$.$.3.$.3.$.$.3.$.$.>.@.$.$.$.$.$.$.$.$.$.#.` +.` #.c.$.X.( ( ( ( ( ` ` ` ` =.I =.=.=.=.=.I =.=.=.=.=.=._ I P / =.I _ _ _ =.) =.=.<.-.:.=.' $.| | ^ _ | #.} ( _ _ ..$.`  .| | #.} } ` | | } } _ } ^ } _ } ^ / _ ( ^ | ..X...} ...... .....[ } ....{ [  . .....[ { ....{ ..^ ",
"~.Q.T.T.Y.J.J.H.H.J.H.Q.J.P.!.T.E.=X=XY.L.L.Z.E.W.Z.Z.T.E.P.P.~.R.R.E.E.T.H.R.1X3X#XW.P.W.E.Z. X$XY.W.3X&XQ.R.E.!.~.T. X%XE.%X%X%XE.Q.D.R.E.R.T.E.{.Z.W.W.:X=X$X=X&XQ.{.~.E.E.Y.T.%X~.W.L.H.Y.T.J.Q.~.L.T.J.T.L.L.J.H.~.Y.Y.Q.E.!.~.T.~.T.T.Q.!.~.!.Y.T.~.T.!.Z.T.E.1X1X!.2.2.A.^.^.Q.A.A.A.6.A.6.H.#XY.N.4.B.L.Z.Y.Q.Y.Y.^.Y.Y.N.D.2.1.5.I r d d d d d d * d 0 d q q d d * * < * < * * * d % > * * * = % + % > % % % % d 2 * > * * * * * 0 * < d 2 d 2 2 0 z E 7.8.8.7.t.i.i.t.i.q.q.t.i.a.(.a.a.u.t.W 9 $ & & # $ $ # # # # & > + # % > > , , < 2 2 < * < 2 d > % % % > > % % = + + = % * > * < < < * < > < * % * % O.X.#.>.f.C.v.z.z.1.c.>.j.5.=.I G s * : & * & = & & & & & & & < 3 M qXeXeXeXeXeXeXhXeXhXeXeXs.s.7.F X.X.S.F.F.F.D.D.C.S.S.R.P.P.R.L.F.S.c.c.P.F.L.K.P.S.c.c.$.1.| d d * d & = d ' P s = & # # # + $ + + $ # # + # # O + # # O # # # % # $ # % * a +XbXJXKXLXDXKXLXLXLXGXJXGXLXLXLXLXGXGXZXr.FXHXGXHXGXGXHXFXHXHXFXKXr.7 +XJXGXHXHXZXCXCXCXHXGXsXu u i E FXJXLXFXFXn 9 w 9 N E U CXLXHXHXHX+X9.M.< % % & : # ; ; # # ; # # # # ; # # # # O $ $ # O # # $ # O ; O ; O O O + + ; O ; O ; O ; ; O O ; ; + ; + ; + ; + ; ; + + + + + + + O + + # # ; ; # & , q % + V G J o.a = & ^ =.H $ $ $ $ / k.m.c.c.x.V.V.S.P.S.F.S.c.v.c.K.b.v.x.n.P.K.K.L.c.v.v.K.c.c.K.n.b.C.K.K.n.v.x.l.l.l.l.x.v.v.c.K.l.x.x.U.v.,.b.,.x.l.n.v.x.,.f.,.f.h.l.l.f.>.$.3.$.$.j.k.$.#.#.#.f.$.f.h.h.#.$.$.f.>.,.$.+.#.h.>.$.$.h.$.$.e.>.#.+.X.#.#.+.' ( ( I ( ( ( ( ` ( I I =.I I I =.=.I I I =.=.=.=.=.=./ / =._ } ) =.=.=.=.=.| | =.| | } } _ _ | ....} _ .._ _ } | ..X.| ( ^ _ _ ^ _ X.} / } _ ^ ) .._ ^ ^ / } } ....} ..} .. . ...} } ..} ^ { ..{ ) ..[ [ ^ [ { [ ^ ",
"Q.J.T.T.T.T.Y.T.K.T.~.H.E.T.Q.L.E.1X0XZ.D.Q.B.L.K.L.L.L.&X~.H. XL.L.R.E.K.K.|.1X1XE.Y.T.T.E.Z.R. X&X&X%X=X&XW.&XXX XoX%X XE.R. XW.R.R.W.H.W.R.#X&XW.D.{.&X:X:X:X#X&XR.Y.!. X$X$XY.*X*XW.^.~.!.T.!.$X!.Q.J.J.Q.J.H.J.H.H.H.Y.~.!.!.~.T.~.!.!.!. X!.!.T.E.T.~.!.Y.T.^.9X9X!.B.6.6.6.6.^.A.A.A.N.N.A.6.G.N.N.2.Z.Y.W.W.E.R.Z.H.T.N.Z.V.N.3.5.K e d 0 e s e 0 d 0 0 q < d d < > * < d < * % * % % > % < > % % % = % < * * % > d 2 d + % % * 2 2 2 < 2 2 q 2 q 2 2 z Q t.t.i.a.a.i.T B Q i.i.i.s.(./.(.p.u.t.W z 5 s & a p & $ $ # & > # # + % > > > > > 2 > > > * > * d % > * % % > + = @ % % > > * > * > > * < < > * * % 0 / #.j.C.C.C.z.V.c.S.+.z.5.=.=.I Z s % 3 * 5 & & & & & & & & < w T qXeXeXs.s.eXeXeXeXtXeXeXs.s.Q R | +.m.F.F.D.S.k.S.S.D.}.D.D.[.F.R.R.C.V.F.L.c.c.c.c.S.S.x.2.=.d d * * = = e =./ a = = = # % $ @ + $ $ + # # + # # # O + O # # # # % % # # S vXKXJXJXKXKXLXLXLXLXKXLXGXKXKXGXGXDXDXZXW R FXHXGXHXHXFXCXCXFXHXFXGXu.6 D CXGXHXGXHXSXSXCXHXHXCXD z z N '.GXDXGXGXR 9 9 5 5 9 9 /.GXLXLXGX).Y , > % > # : > ; # > # ; > ; # # + ; # : # # # O $ $ # # O # + + O O O ; + O O O O ; + O ; + O ; ; O ; ; ; + + ; + + + + ; + ; ; ; + + + ; + # # # # # : 5 3 % + c Z Z Y j % @ G =.L $ $ $ $ H k.z.c.c.F.F.F.F.F.S.C.S.F.K.S.K.P.v.K.C.K.n.K.P.K.n.n.n.K.c.b.n.J.n.n.L.K.b.v.v.v.v.f.x.K.x.c.v.1.x.c.K.x.x.v.m.b.l.1.=.,.,.l.m.c.l.f.h.j.h.>.,.$.#.h.3.$.>.h.j.h.#.3.$.$.#.h.l.,.>.#.#.#.#.$.$.h.$.>.f.$.$.k.h.$.$.+.k.>.' ( ( ( ( ' ( ( _ ` I =.I =.=.=.=.=.=.=.=.I =.I _ _ =.=.=.I =._ I _ I _ _ =.| } =._ _ } | } _ | ..| _ ( ..} ..` } | _ | _ } / ^ ^ _ / ^ _ } ) X._ X.! ^ ^ } } [ } ..[ [ X.} ..[ [ [ [ } ....} ....} [ ^ [ [ ..^ [ } ",
"!.T.~.!.!.Q.!.~.W.T.T.W.W.W.$X{.$X$X#XN.H.Q.{.W.R.W.W.XX*XR.oX2X*X|.E.E. X&X1X*X~.L.E.~.L. X!.P.T.!.3X%X~.*X&XE.~.oX~.E.J.T. X~.R.E.E.Y.Y.Y.E.$X#XD.G.$X=X{.$X=XY.W.{.#X-X4X4X=XE.W.T.&XY.E.H.J.L.J.^.H.T.~.~.^.J.H.J.Y.Q.W.E.Q.!.!.Y.!.L.T.T.~.~.Y.Y.!.!.T.W.H.T.~.1X1XH.4.3.2.A.6.^.^.A.A.6.4.6.Z.^.Y.H.N.Z.Y. X&X!.H.Y.Z.V.Z.Y.Z.z.3.@.V * 0 d e e d e 0 0 d d 2 0 < * * * < 2 < * > % % * d % > > % % + % * d < % > < < d 2 * % < * * 2 * 2 < 2 d < 2 2 2 2 y M S 9.Q 7.T y T a.a.t.t.t.t.i./.p.p.u.t.=.N Q m , n R # # # # % # + # ; # > > > > > > > % % % * % % % * < > * % @ + % > % , < % 2 < < < * * * % * * c ( $.k.h.h.<.h.j.c.v.1.S.<.=.=.I _ Z * & & & & & & & & $ & & < 9 w.`._.eXs.s.s.s.eXs.s.eXs.qXi.U ~ $.d.z.D.P.F.D.S.k.F.P.P.P.R.L.P.P.P.S.V.c.L.S.C.c.c.S.c.c.k.| s d & = & = j } } V = = % $ % # $ # # @ # O O # + # O # O # # # # % = % < 0.IXPXJXLXKXLXLXKXKXLXLXLXLXKXGXJXGXDXDXM.E m 9.GXGXHXFXHXCXCXCXHXCXCXvX5 9 7 ] GXCXHXGXHXGXHXHXCXHX'.z m n U ZXFXLXCXm p 9 9 r.N 5 x aXLXLXLXFXM , & & # # # # > # > > ; ; + # # # # # # O # O # # # : O # O + ; + ; O + + + O + + ; O + ; O ; ; O ; + ; O ; + ; + + + ; + ; + ; ; + ; + + ; # # O # # & 3 q % o f Z Z F j # @ ~ | D = # $ $ F h.c.c.l.n.n.n.S.c.P.P.L.c.S.S.K.K.n.P.J.n.C.n.P.n.v.n.v.K.v.b.v.C.n.K.n.C.l.v.l.x.b.l.b.v.l.x.x.l.l.c.x.j.f.>.=.b.=.1.l.,.,.f.l.b.k.,.h.f.1.>.h.>.$.j.,.e.$.1.$.>.>.$.$.,.h.>.$.>.>.>.>.#.>.-.#.#.$.>.$.#.$.$.$.$.#.X.k.k.( ( J ( P @.( ( ` ` 5.=.=.=.=.=.I =.=.I =.=._ _ ( =.I =.=.( _ ) ) ( _ _ :.| _ _ _ _ ( X.} | } }  .| }  .} _ X.| | .... .| _ ( | | | } _ } [ } } ^ / _ ^ _ ^ ..} }  .} } X.....} } ^ ) [ =.[ [ ..[ .. .[ { [ } [ ^ [ ",
"%X^.!.-X%X X1X#X!.!.T.E. X#X{.W.Q.kX:XY.D.Y.D.H.Z.W.&X&X[. X X5X5XXXoX*XXX|.|. X~.P.H.L.~.~.!.~.~.~.~.~.~.E.|.~.J.~.2X3X~.I.~.1X3X.XE.T.W.E.T.{.D.L.Y.$X$X[.&XQ.R.Y.H.{.Q.&X-XQ.W.W.R.T.W.$XT.Y.J.T.^.L.T.#XT.T.Q.~.Q.L.W.W.T.L.T.Q.!.!.T.Y.Y.~.$XL.Y.T.T.Z.E.T.Y.Y.1X=XH.H.A.6.2.A.^.6.N.6.A.A.A.^.Z.Q.Y.H.L.Y.Q.Y.Y.Y.Y.H.B.N.D.D.V.3.K r d e d d e d 0 s e 0 d = d < < * * < d * * % % % % * * = % < * + % % % = = % d 0 % < d 2 < d 2 * d 2 * 2 2 > * * * d 2 t y p z z u B t.i.u.q.Q m m Y Q W (.p.i.u.t.W M 6 E { m # # # # # # + # + # ; > + > > > % % % * > > % % > * > # + = % > * > * < < < < * % > > % = e J $.h.c.V.l.<.1.z.C.z.l.1.2.4.1.<.` Z 3 & & & & % # & & & & & < p /._.eX_.s.eXa.t.s.s.eXs.s.a.9.D _ :.$.x.@XF.P.S.D.D.D.S.D.P.P.F.F.D.I.P.c.C.S.c.c.c.S.c.c.h.f.#.d = & * = r ] ( _ V = + $ # # $ O @ @ @ + # # + # O # # # # # # % # # , m.KXPXPXKXPXLXLXKXLXKXKXLXKXKXGXJXJXJXGX'.n m E vXHXHXGXHXSXFXSXCXCXSXFXSXD 6 4 p sXaXFXGXGXGXGXHXHXSXvXn M A N '.GXGXLXsXm p p aXnXp 9 Y DXLXLXLX+X3 5 & # : : # ; # ; ; # ; # # # # # O # # # # O # # O O O # # + + # + + O O ; O O O ; O O ; O + + O ; O ; O + + ; + + + ; + + + O O O O O O # + # # : & 4 w % X c V V G c + @ ! :.H $ $ $ o Z f.x.c.K.P.v.n.F.C.F.U.P.n.F.P.K.P.P.J.K.K.K.S.v.J.v.m.K.K.P.v.v.v.C.C.l.n.C.l.l.,.m.l.x.c.l.x.v.c.n.S.h.].j.f.1.x.=.b.x.,.f.l.,.f.x.c.h.1.>.-.>.j.,.h.j.f.j.>.$.,.>.$.#.%.>.>.$.1.h.#.>.#.#.+.$.$.f.$.#.#.$.#.$.$.( @.k.h.( I J P ( ' ( ( ( _ =.5.=.I I =.=.=.=.=.=.=.| ' _ _ =.=.=._ ( / / ) _ _ _ } | _ _ } } #.| :.$.$._ ..` } _ } | | |  .} | } _ X.} _ | _ } } _ _ } / ^ ^ / ^ ^ _ X.} [ X.} )  ...[ [ } ) ..=.[ ....=.=.} [ ..[ [ ^ ~ ~ ",
"~.!.#X%X!.%X~.%XW.T.T.%XE.W.R.W.=X:X:XZ.L.N.Q.Z.Z.~. X*X*X.X;X*X&XoX&X*X4X~. XoX~.H.~.T.~.Y.!.~.L.!.I.!.~.1XR.E.I.oX*X~.P.oX X8X3X X&X%XW.E.W.T.Y.D.F.R.&XQ.[.$XW.Z.W.%X{.Y.R.Z.Z.Z.Q.R.W.W.Z.J.H.~.!.^.~.T.T.T.T.T.T.L.E.E.Y.T.P.!.E.$X!.Q.T.Y.Y.H.J.~.T.L.R.Q.T.Y.=X$XW.N.J.6.6.6.G.^.^.A.6.6.A.A.Z.Z.T.Z.A.T.~.Y.L.Q.N.z.N.B.N.2.h.@.( r q q 0 0 e d 0 s e 0 2 * d 0 * * < d 2 * % % * % % % * > % > < * * * > % % * < 2 < < 2 2 2 2 * * * < * % % * > * % > , < < q i.a.y.s.i.Q W n t 4 & 9 { p.r.t.p.t.t.Q E 6 5 F x # O # # # # + # > + > > + > + + % + % % > % > % * > = - + = , % * % < < < < > > > % % = * O.X.$.k.>.h.j.j.l.z.C.K.C.z.b.l.1.>.| P d & & & $ & & & & & & 3 9 i (.qX_._.s.s.t.v t.s.s.i.a.t.Q R X.f.d.F.F.F.S.].D.S.S.D.C.D.V.E.P.S.C.C.c.P.L.S.S.c.S.V.l.h.k.X.* d = & = Y } _ X.r - % # # # @ O $ $ % # O O # # + # # # # O # : & H yXKXKXLXLXLXLXLXLXLXLXKXLXGXGXKXJXGXJXDXDXU m W HXHXFXHXHXHXSXCXCXCXHXHXZXGXr.5 5 5 4 8 A HXHXGXGXGXHXCXGXU n A S { aXHXJXJX'.p 9 =.sXp 5 5 u.GXLXLXGXM.& # & # : ; ; # # ; # > # # # # # # # # # # # # # O : # # # O # + ; O ; + + O ; O + ; ; + O ; ; O O ; ; O ; + ; + ; + + ; + + + ; ; O O O # + # > > , 3 4 , + V C D J n + # a =.H % $ $ $ a :.x.l.n.K.U.U.U.I.P.U.v.S.P.S.S.K.v.K.K.K.S.K.n.J.K.b.v.K.n.l.v.v.K.K.C.K.c.c.C.v.K.l.m.l.x.b.v.K.v.U.v.x.S.h.,.,.b.=.f.l.,.v.x.x.l.x.h.f.>.>.k.h.$.h.f.>.$.>.$.>.>.,.>.>.>.>.>.>.f.` $.>.#.:.$.:.f.$.$.$.$.+.X.$.X.+.$.$.+.( ( J ( ( ( ( X.` I 5.=.I =.I =.I =.=.=.=._ _ _ ( =.( =.I =._ ( / / } =._ | } | | ..} ...._ ..$.} } ^ _ | ..} | ..} } | .._ } _  .} _ } } X.^ _ ^ ^ ^ } _ ^ ) X.[ } ] ..} [ [ [ } ) [ ..[ ) [ { [ { X.....} { { [ ",
"T.T.!.!.!.#X~.Q.!.&X!.W.Z.R.W.=X=X9X7XQ.R.Z.Z.L.K.T.R.~.R.P.E.2X9X&X&X2X X XoX*X*X X~.XX|.E.E. Xv.~.L.*X XY.P.C.~.oX~.T.P.%X~.2X%X~.P.!.L.L.Z.E.W.W.Y.R.$X&X=X:X=X$X{.R.Q.{.R.-XE.D.{.Y.Q.R.!.!.Y.J.~.Y.T.T.~.H.H.T.Y.Y.T.W.W.R.Q.Y.!.~.T.~.~.L.^.L.P.Q.H.Z.H.~.Y.Q.9X9XH.A.6.2.A.#X^.6.A.A.A.A.A.6.A.A.T.Z.j.^.R.T.L.J.Y.Z.D.Z.j.1.>.>.Z w 3 0 e e d d 3 d 3 e d d < < * > * < * * * % = = = % = % % % % < < 2 < < d 2 < < < 2 * * d 2 > > < > > * % % + % % % & & & w T T W a.W u i 5 3 , % m M.r.9 m p.p.t.=.W E : 5 # $ $ O O + # # + + > > + > + > % + % % > % * * < < < % - # + * , % < > > * % < * > * * * f X. .k.e.h.j.c.c.h.h.C.S.C.v.l.v.z.,.| _ a & & & = & = & < & * 5 3 p U U U t.a.s.t.b B a.s.a.i.q.Y ~ >.f.d.S.S.S.D.R.F.[.P.[.[.F.F.L.E.I.P.P.S.I.L.c.C.C.c.c.k.k.h.( * * = = a X.` X.G e # % @ # # $ @ $ # # # # # # + # # # # O # # & r.DXLXLXKXLXLXLXLXLXLXLXLXLXLXKXJXJXKXDXJXJXDXN h u.FXHXFXFXHXFXCXSXFXHXCXbXHXFXaXV 6 6 5 8 z SXGXGXGXGXGXGXCXM M M N D =.FXHXHXLXr.r.'.p 9 5 5 D HXGXGXLXJXM., % % # # > ; ; # # # ; # # # # # # # # : # # # # O # # # # # O O + O + O ; O + O ; O O ; + O ; ; ; O ; + + + + + ; ; + O ; + + O ; + + + + > , < , 3 4 # @ a V O.Y O.+ % & ^ m = $ $ $ 3 =.x.l.n.K.U.U.S.S.L.S.c.U.K.L.K.K.K.K.K.n.S.K.n.l.C.c.n.K.v.l.v.n.v.K.C.n.S.l.b.x.K.m.v.v.n.n.n.x.l.c.v.x.S.k.x.x.x.b.f.,.f.,.1.l.1.l.1.>.f.h.k.$.h.h.$.f.>.$.$.;.$.,.h.k.>.>.>.h.h.>.>.+.#.;.e.>.>.$.$.$.#.$.$.+.` +.j.#.X.( J I ( o.! ' ` | =.I =.=.I =.=.=.=.=.=.I | _ _ | =.=.=.=._ _ ^ ( ( / _ _ _ } | } } ..$. .=.$. ._ $._ } | | _ } ` ` | | | ^ _ _  ...} ^ _ _ ! ^ [ ^ _ ^ ^ ^ X.^ } } .. .../ } ..^ } } ..[ [ ) ..[ ..} { } } [ ..[ ",
"~.!.-X-X#X%X~.^.~.1X~.!.R.Q.W.E.G.Z.W.Z.D.H.{.Q.E.#X[.R.oX&XE.E.P.~..X XR.R.K. XE. X|.L.E.P.C.E. X|.~.|.L.v.XX*XoX~.XX~.~. X~.XX|.L.P.R.P.T.T.P.R.D.P.T.*X1X X&X$XE.E.&X#XE.W.&XW.E.{.W.D.Y.W.Y.Y.L.L.L.A.Y.E.Y.W.W.T.Y.E.E.Q.W.H.~.T.L.J.L.H.Y.H.H.T.L.J.Z.B.Z.H.!.1X1XH.B.B.4.N.Z.Y.B.Z.Y.B.A.A.H.N.N.T.Y.N.N.Y.A.Z.D.D.N.j.z.;.h.-.( V d d 0 0 e 3 3 d d 0 e q e 0 * * * * > < & * % & % & # > > % % < < < * < d 2 2 d 2 0 < > * < < * > * < * % % % + % % % % % > 2 4 7 z A x 5 , & * 5 $ 5 i p : : Q { t./.u.E 5 p 4 X o O O # # # : : # # + + > > > + > + > > > > < 2 2 < % + % < & % , * < % * * > , * > % Z d.$.f.h.V.@XE.c.x.S.F.S.D.c.V.k.D.S.d.X.a 3 : & & & & & & & , 3 q y y p a D (.a.r.4 u W i.i.t.T R } d.,.h.U.P.S.F.P.D.P.R.P.E.].P.C.K.E.U.P.P.F.K.v.v.v.v.v.h.c.>.^ * * = & G } _ G j d % + # + + # $ $ + # # + # # # # # # # # > q @XJXKXKXLXLXLXLXLXLXLXLXLXLXLXLXLXLXJXGXDXGXFXZXz i rXFXCXCXHXFXCXSXFXHXCXCXCX+Xr.+XE 7 6 9 t u rXHXHXHXHXHXCXpXn M S U B U '.GXGXLXrXU rXL Y sXE 9 +XJXGXKXLXGX0.t : : : : > # ; # # ; # # # O : # # # # # O # O ; # # O ; $ O $ O O $ ; O O ; O ; O ; ; + ; O ; ; + + O # O O ; O ; O O O O O ; ; O ; # & : & , , 5 3 * @ c V V R C @ # @ V x # # # $ & _ l.m.U.m.U.n.U.S.n.K.U.n.U.U.I.U.U.U.x.m.v.x.n.n.v.F.U.n.n.m.n.n.K.U.n.m.K.c.m.x.v.K.n.U.n.n.n.c.c.x.c.x.x.k.=.b.x.1.x.l.x.,.f.,.f.f.h.>.h.f.d.>.k.>.f.f.$.d.$.>.>.d.h.d.>.$.| ;.:.:.:.<.-.| >.d.>.>.$.d.$.$.>.#.+.X.k.g.X.( ! ( ( ( ' ` ( ` I =.| _ | _ ` | $.| | _ } ( ^ | | $. . ... .} } _ / _ ` ^ / _ } |  .:. .|  .| | =./ =._ ) _ ) )  . .| | ^ _ _ |  .} / } ^ ^ / / _ | ^ / _ } ..}  . . .[ ^ } ..X.) [ ..) ) ) ) ....{ ) [ ..{ } [ ",
"^.~.~.Q.~.#X%X~.!.!.%X!.T. X&XW.W.7X$XR.Z.D.E.E.E.{.&X[. X XP.E.P.R.P.E.E.P.E.|.E.oXE.~.[. X|. X*X5XXX~.I.~.1XL.~.XXXXL.~. XoX XXX~.~.E.~.E.L.E.R.R.|.E.P.%X=XXXD.$X-X$XR.W.Y.:X%X&XY.Y.D.R.Y.#X~.$XT.W.H.R.E.T.E.R.$XW.W.E.{.Y.E.E.H.T.!.L.T.~.T.Y.~.T.L.B.Z.H.H.!.0X9XT.B.B.B.N.A.Z.Y.Y.Z.N.z.2.B.N.L.Y.Q.V.$X{.N.N.D.A.j.N.R.c.<.` P s d d d d d d d 0 3 d 3 < 0 < < % > * * * & % , & & % % % * % < < 2 > % % > < d < % < < > > % > > % > * > > % % > > > > % > > , # : 3 5 ; t A N N & $ $ & 9 { 7./.'.r.{ E N p V a @ $ O + # # # # # + # > + > + > + > + + * > * , > > * % % % & & 2 < * , * * * > * > % d o.+.$.G.z.V.D.P.S.V.D.R.R.c.>.c.V.D.V.k.} V < < & $ & & & & & & , < 3 3 3 9 m 9.{ N < t 7./.t.9.D R | f.,.f.P.P.C.D.D.S.[.}.R.oXE.I.S.c.V.P.P.P.S.L.P.l.v.1.K.c.c.k.o.* = & V ^ J s * = % + = # - + + $ $ $ + # # # # + # # + ; : i yXPXPXKXLXKXLXLXLXLXLXLXLXLXLXLXLXLXJXGXDXFXFXFXyX9 h bXHXCXCXCXHXHXCXSXGXHXCXHX{ 9 5 9 9 5 6 7 6 E bXbXdXaXCXFXrXM M M U U U U sXGXJX'.u m p F FXfXp ).FXDXKXKXKXJXvX~ : # > > : ; # ; # O # # # O # # # ; # # # # + O # $ $ ; ; $ ; $ O O O O O ; O ; + O ; O ; ; O ; O # # O ; O ; ; ; + O O O O O ; O # # : , , , , < > @ c V G D O.+ % - w y # # # $ & ^ l.n.n.m.].U.].m.n.n.n.K.n.K.n.U.U.U.F.F.n.F.K.F.U.U.F.F.].F.P.U.U.F.m.k.m.x.v.m.n.m.m.n.c.m.h.x.m.c.k.x.k.k.l.g.x.x.,.=.,.x.x.h.h.c.h.x.f.f.k.k.>.>.f.>.$.$.#.#.$.f.>.>.>.>.#.:.-.` -.:.-.` $.$.$.>.$.$.%.$.$.#.$.>.k.>.| ` ` } ..X.} | ..` I ' _ ' _ _ _ } | | | ..| X.} | ..} | | _ | ` .._ _ / / | | | :.d. .d.:. .| | ..( =._ =./ =.=.I } | } ^ ) ) _ _ _ } ^ ^ ^ _ } _ ! ^ ^ ^ [ } ..} X.} ..X...[ [ ^ ..} [ [ =.[ [ [ [ =.[ ~ [ ....[ ",
"-XQ.~.Q.#X%X X X%X X!.%XW.{.{.&XZ.&X:XR.R.Y.R.R.R.[.&X&X|.XXoX*XE.XX.X XXX4X*X=X&X2X2X|.P.R.S.Z.P.*XoXE.XX1X1X1XUX~.L.b.XXXX~.I.K.B.C.~.XX1XT.R. X X*XE.P. X%XE.R.Q.R.W.H.W.R.-X{.Q.#XW.E.$X{.W.$X%XL.E.W.E.T.T.W.{.W.W.$XH.R.R.Y.H.Q.!.L.Y.H.Y.T.!.Q.Q.T.L.H.P.H.E.1X9XT.4.H.B.N.A.Q.Z.N.Z.A.B.Z.N.A.^.H.Z.N.Y.Q.L.D.H.Z.Y.L.R.S.1.` C e d d e 0 e d e d * 3 3 d < = = % = % % & % % & & # % & > < % < d 2 > > < < > < > % % % % > % % % % % > > % * > % > > > > % : : # # # t c S E U T n < > 5 Q `.`.+X/.u.t.E 5 # # # $ # # # # # O # # + # + > > + > > > > > + + > , , , , % % # % < < 3 2 < < * < % * > = f =.#.f.m.h.N.f.l.S.>.j.k.D.j.h.c.V.c.f.>.} f < & & & < & & < & , < < 3 3 5 5 x m t 5 * t q.w.w.W H ^ | :.x.j.S.P.L.P.I.I.[.L.P.[.S.K.S.z.S.c.P.R.U.C.U.b.c.l.l.V.k.f./ * = 0 X.o.e = = = # % + $ $ # $ + # $ $ # # O # # # + ; 3 ).AXLXLXLXLXLXLXLXLXLXLXLXLXLXLXPXLXLXKXGXGXKXFXFXJXM.p N FXHXHXCXCXCXCXGXHXHXCXCXbXN 9 ).] 9 7 7 u u m '.fXaXdX+X/.'.M N B U D N N =.HXFXsXm b 9 x M.ZXm '.FXGXGXGXKXKXKXDXY , > > ; ; + # # # # # # O $ # # # # # # # O # ; ; O O $ ; O O O ; O O ; O ; O ; ; + ; ; O ; O ; O O O O O ; ; O ; O O ; O O ; ; # & : , , , , , + o x f V G c % # = - o $ # # $ 3 / d.n.].U.U.n.S.U.n.n.m.U.U.U.U.U.U.n.n.U.].U.].F.n.F.].].].n.F.n.F.U.F.F.].U.x.m.x.m.n.S.F.m.c.m.c.m.k.S.x.x.m.x.,.1.l.l.f.,.f.h.h.k.n.x.d.h.k.c.k.d.k.f.h.$.$.$.#.#.:.-.d.h.-.:.f.:.>.:.:.| $.>.h.$.f.$.$.#.#.$.#.$.x.>.| _ } ` ( } ` | } _ I _ _ _ |  .-.| `  . .| | |  .:.| $.| | } |  . .} / / ^ _ |  .:.d.:.:.| | } _ } ) =._ _ =._ _ =._ | | _ =._ } ) X._ ^ _ ^ X._ ^ ^ _ ^ X.} } } ..X.} } [ ..} ^ } } ......[ [ ..[ ..[ ) [ [ [ { ~ ",
"T.Q.!.~.Q.%X~.%X$X%X1X%XW.W.$X{.W.8X4XR.Y.W.W.Z.#X$X{.{.XX*X X|.XXoXoX*X|.*X5X2X*X2XXXR.|.XXE.[. X X XoX1X3XoX X~.~.P.T.~.~.~.P.~. X%X4XE.L.P.&X{.R.*X=XE.P. X1XD.Q.Y.H.Y.R.W.$X$XW.E.R.#XW.&XQ.H.!.W.Y.T.L.Y.E.W.$XT.E.E.Q.T.W.Y.E.!.E.T.H.L.Q.~. X~.E.E.H.T.H.H.!.1X0XH.@.B.4.B.A.Y.H.A.A.A.Z.Z.H.G.T.H.Z.Z.Z.H.H.Y.Q.R.Z.R.C.$.#.I k j d e d d 0 d 3 0 0 0 3 * < * = % @ % * * < * & & # # % < 0 < < 2 > d 2 2 < < > > % % % % % = % % % % % % = % > % > > > + + # # # # t A M S D U Y E z > N p.'.'./.t.{ Q : # $ & @ @ O # # # # + + + O # > + > > > > > > % > > * , < 2 2 % % % & & < < < * * , * % * > f X.g.x.h.f.j.@XS.l.F.S.V.N.j.h.S.c.S.V.k.d.X.V q < & & & & & < & & & < , & & < 4 5 : # # u W w.W D D / | :.h.k.c.P.E.}.R.{.}.P.E.R.P.S.C.S.E.L.K.C.S.v.v.x.l.l.c.h.f.h.X.* = C / a = = = + - % + + % + $ $ + $ # # # O # + ; , t +XKXKXKXLXLXLXLXLXLXLXLXLXLXLXLXLXLXLXLXGXKXKXKXGXJXbXx z H '.M.CXCXbXHXCXHXbXCXCXCXM.u u +XZXn 9 7 9 u z B sXsXdX+XB B N N M U B B B Q bXHXFXp.9 9 rX[ N p N ZXGXGXGXGXGXHXJXvXS > > ; ; ; ; # # # O # : # # : # # # # # # # + ; $ O ; $ ; ; O O ; O O + O ; + O ; O O ; + ; O ; O O O O ; O ; O O ; O O O O ; & : < < 5 , , , + X i c O.A O.> # $ # + O : # $ w ) ,.m.U.U.n.F.F.n.S.P.K.].K.U.m.U.].U.}.U.].].U.U.].n.U.U.F.F.F.F.].U.U.U.F.n.n.m.F.v.m.c.m.n.k.x.x.m.c.k.c.x.x.1.g.,.x.x.=.x.h.x.k.l.x.c.x.h.k.k.$.k.h.>.$.f.d.g.g.$.>.:.>.:.:.>.>.>.:.>.-.$.$.>.d.$.$.>.$.d.$.$.:.$.$...#.| _ ` } ` | ` $..._ _ | | _ ` | =.| _ | ` _ | | | =. ...#.}  .$. .| _ _ } } _ .. .:.| |  .| | | _ =.( =./ =.=.=./ | ..} _ _ _ =.^ ^ ^ ^ _ ^ _ ..^ / ^ ( } [ ..X.} } [ ^ X.} } } [ ..[ ..[ [ ) [ [ [ ..[ [ [ ^ ~ ^ ",
"#X~.~.^.^.#XT.~.~.!.$X%XE.W.$XW.{.lX5X XR.E. XE.&X#X.X X.X[.P.L.P.W.|.=X2X2X8X4XoXP.P.~.*XXX=X2X&XoXP.|.*X*XXXL.J.I.~.~.~.I.~.~.XX1X~.1XR.H.*X4XXXE.L.XX=XB.L.~.Z.R.E.R.Z.R.=X$X&X#XW.Y.R.Y.E.H.R.W.T.R.E.W.W.W.Y.R.Q.{.W.W.T.Y.T.T.E.J.Y.T.%X#X!.!.T.T.!.~.H.T.T.T.9X1XZ.2.%.4.N.A.N.Z.Z.B.A.N.H.H.Y.Q.Q.Y.Y.H.E.T.Y.E.E.Z.Z.B.$.+.! J C d e d s 0 0 d 0 0 0 d d < * % - = & & < < & , % # # < 2 q 2 < q 2 d < * < > * > % % = % > % * * % = % % % % % % > % + ; + # # # # , z c c c D Y T D 2 $ 5 m u.=.u.{ m 5 9 x S q # # # # # # # # + # # > > > + > > > > % + > % % > < < * # % , , < < < * > * % , > q o.>.l.k.k.@XV.S.S.S.S.S.S.S.k.j.V.C.z.m.X.X.] ~ A & & & & & & < & , % , , , & , t D 5 5 m T 9.9.S n F / >.d.f.j.z.F.E.R.E.E.|.P.{.P.L.P.L.P.|.|.K.C.v.K.v.x.l.l.l.>.k.>.o.d r Y a = % = # # = + % # + + # $ $ + $ + # # # # , 0.bXJXJXKXGXKXLXLXLXLXLXLXLXLXLXLXLXLXLXDXJXGXKXKXGXJXJXM.p 9 p 9 z =.HXfXHXFXCXbXfXaXaXm u u r.LX'.6 9 9 u u m Q rXsXu.N U N N B D B B N N rXHXGXFXD u '.aXi w 7 u.GXGXHXGXHXZXGXJXyX4 , > ; # ; # # # # # O # : # # # # # O ; # ; O ; O ; ; ; O ; ; O ; O O O ; O ; + + ; ; + + ; O O + ; O ; O O $ # O O O O ; ; & , , , < , < > # X r n V G O.+ % $ # $ O # : : 5 _ g.x.U.U.n.m.m.n.v.U.U.U.I.U.U.U.].U.U.].U.U.U.U.].F.].U.n.U.U.n.F.F.n.U.F.F.n.m.n.n.x.n.n.n.m.S.F.S.k.k.c.k.l.l.,.l.l.x.l.x.l.h.k.k.V.k.x.k.k.g.d.x.k.x.f.$.>.f.:.:.f.f.:.-.:.>.h.>.$.$.d.>.:.:.e. .#.$.$.$.$.>.$.$.c.g.#.X.` | | } ` } | _ / ( } _ | | | | ` _ ..} | | | | $. .$. ... .|  .$.| | | |  ...| ..=.| | =.=.=._ =.=._ _ =./ =.=.=._ ) =.=._ _ / ^ ^ ^ ^ ^ X._ } ^ X.} ^ } } } ....^ / } ^ ~ ..^ [ ) [ [ [ [ ) ) [ ^ [ [ ..[ [ ^ ",
"Q.~.~.T.Q.~.#XJ.Z.T. X XR.E.T.W.W.lXcX X{.$X X=X&X:X=X{.R.R.E.R.|.E.|. X*X4X4X&XT.P.P.E.XX*X|.XX X|.S.|.*X*X1XXXI.~.1X2X1XXXoX~.~.I.T.oX~.H. X XT.E.E.T.K.E.E. XZ.R.#XN.B.D.=X$XR.Y.D.N.Z.D.W.R.T.R.Z.Z.#XE.Q.D.Z.Y.Y.R.$XE.{.E.R.T.!.E.T.Y.E.E. X%XL.Y.H.T.H.!.Q.!.9X=XH.H.J.4.A.N.N.H.A.6.B.N.N.N.N.N.L.Y.Q.H.Z.Z.D.Y.L.L.G.$.+.' P J r e d e 0 0 e 0 0 0 0 2 < * * & % % % * & * & % % % * & 2 q 0 < 0 2 < < 2 2 < < * % % = % % % % % % % % % % > % % > > > + % # ; O # # 5 t z A U 9.0.9.y $ $ : 5 9 u m 5 6 4 5 A p $ + # # ; + # # # # # + > > > > + % + > % > > , < > , & % % & < 3 < & * < % % * % C ..$.x.c.h.k.S.[.{.].S.S.S.S.S.V.D.c.F.$.S 0.S H y = & & & & & & : & & & & % % % D 9.6 U u.9.9.U c n Y } ^ :.>.f.F.P.I.P.F.I.}.{.P.R.].I.P.[.P.P.K.n.K.K.S.v.b.l.>.h.>.>.$.! o.V * = % = = + - % + # # + $ $ $ + $ # # : : 6 r.DXGXGXJXLXKXLXLXLXLXLXLXLXLXLXLXKXLXKXPXGXGXGXJXKXKXJXGXD p 9 9 p 9 r.p.CXCXfXCXfXbXbX/.i i u m aXsX7 u p z i m m { aXQ m `.p.N N B U U U N '.HXHXGX_.{ E bX[ 5 3 x bXGXHXKXrX(.CXJXJX~ , : # # # # # # # # : # # # # # # # ; O O O $ $ ; $ O ; ; O O O ; O ; ; + ; O ; ; + + O ; O ; O O O O O O ; $ # O O O ; O : # , , 2 , > > , + @ y j n F n + # $ $ $ $ # # # # H g.x.S.n.n.n.n.n.I.U.].].].U.n.].U.].'.].F.U.U.].].n.F.U.F.F.F.m.F.].n.F.n.n.n.c.k.c.n.n.S.n.m.k.x.F.x.k.x.k.f.=.x.n.m.,.,.x.h.k.h.x.m.x.V.f.>.>.e.k.c.f.k.f.d.d.>.>.,.,.x.>.f.h.f.>.h.h.$.$.$.$.$.$.#.$.X. .d.X.#.$.m.k.#.} | X.` ..$.` _ _ ( _ ` ( ` _ ` } | | _ ..$.} | } }  .0.$.d.$.$.d...:.d. .$...} | _ | | } | :.| | _ _ _ ) _ _ _ =._ =._ =.} =._ _ ^ } _ } | ^ } } ^ ) _ } } } X.} } ..} [ ^ ^ / ^ ^ [  .) ..) ~ ^ ~ [ [ [ ..[ [ ) ",
"T.6.^.Q.T.Q.#X%X&X$X XQ.Y.Y.R.E..XxX4X XW.&X=XXX{.&X&X&X X&X|. X X2XoX X X2XXX[. X|.R. XP.P.~. XE. XP.Z.E.|. X~.J.~.5X2XXX~.oXK.I.~.K.~. XP.~.*XE.T.T.P.~.*XXX XW.W.W.Z.W.W.:XE.Z.D.Z.V.Q.Z.D.Y.H.D.Z.Y.R.W.{.{.R.$X{.R.R.Z.Y.Z.E.W.$X$X$XE.Y.!.W. XR.H.T.T.T.E.E.1X0X=XK.B.A.N.N.B.B.Z.N.2.1.2.6.N.Z.Y.W.Q.H.Z.V.T.E.Z.Z.N.z.1.$.( I J d d 0 0 0 0 0 0 0 * * 0 < < < * > % % & * % % & & & & & 0 0 q 2 2 < > > < % = = % = % % * > > % > % % % * * > % % % % > ; # + + 1 , O : t i c S E M.d.z $ $ : N u.{ Q Q S z # 3 & # # # + # O # # # # # > > > > > > > > > % % % > , , % # % % , 3 < & & < % = % - < X.+.$.k.k.z.V.c.D.z.$Xj.V.S.S.D.V.F.E.S.o.X.X.2 4 & & : & & < & & & & % & & & & t 9.9.B 9.r.w.U x n D J _ } ..| #.S.S.P.L.P.P.L.F.[.R.L.P.[.P.E.[.E.P.L.c.S.z.l.l.:.$.$.d.$.X.! f = = = # + + % + + - # + $ + $ $ $ O : : , ] ZXGXFXGXLXLXLXLXLXLXLXLXLXLXLXLXKXLXKXKXGXJXDXJXKXKXGXDXDXH 9 p p p 9 m Q CXCXfXaXaXaXCXW i z u u r.+Xu u u i z z m N =.Q m t.u.N B B N B D N Q aXHXHXCXbX+Xm i 3 5 9 M.GXGXGXZXz w.HXFXAXY > # # ; # # # # # # # # # # # ; O O # ; O ; $ O ; ; O ; O O : O ; ; O ; O O + O ; ; + ; O + + O + O ; O ; ; O O O O O ; ; & : , 2 2 , > % + @ q c S O.j + $ $ $ $ $ : O # % 3 } c.x.n.F.x.F.n.U.P.P.].U.U.U.].].].K.].U.U.U.n.U.U.].].].U.U.F.U.F.n.U.m.m.S.n.m.c.x.x.n.n.x.c.k.c.k.x.m.k.f.,.x.v.x.,.x.x.k.f.c.k.k.k.k.f.f.k.x.k.k.m.h.k.h.k.x.l.x.>.>.f.>.:.+.#.$.f.$.$.$.$.$. .g.$.$.>.g.$.$.d.F.g.| | _ | | X.$.} } ( | X.| | } $.| | | | $.:.:.|  .:.$...` $.$. ...$.....#. ...| | | } | |  .| } | =.=._ _ _ =.=._ =.=.=.( _ ( ) / ) } _ } ..} } ..| ^ } } } } .. . ...X.} X...^ ^ ~ } ..[ } ..) [ ^ ) / [ [ { [ ) R ",
"~.Q.~.~.~.~.Q.~.Y.$X!.!.Y.W.T.W.2XlX4XR.P.L.E.E.&X&X:X;X;X;X&XoX|.&XE.|.&X*X&X|.&XE.oXP. XoXP. XoX.X&XE.[.XX1X|.I.oX1X%X~.T.~.~.~.1XI. X X X|.1X2X3X&X2X X%X XXX$XE.R.R.D.Y.#XY.H.Z.N.V.Y.D.Z.B.Y.Z.V.Z.Z.Y.R.Q.W.%XT.Z.T.W.E.E.W.W.%X!.W.W.~.!.E.#X XR.E.H.H.E.~. XzX9XT.H.Z.Z.Z.B.A.B.A.N.2.N.B.2.H.Y.L.R.#X&XH.Y.Q.R.V.Z.N.1.1.#.#.Z d d 0 0 0 d 0 e 0 < < < < < % * , & , % % % % % , < & < 2 2 2 q < * < < > % > % > % > > > % % > % > % % % > > > % % + + + + + # u 7 # : q b c S 9.w.q.] 9 $ : Q u.E =.Q Q Y # $ # + @ # # # + # # ; # # + + > > + % % > + % > > > , % & % % % & & , % % % % % + = G $.$.$.c.V.c.+.j.S.@Xh.h.S.S.S.S.V.S.c.>.} R 2 2 & % & & & & : & & & & & # % % < T q.q.q.9.W ] S c c G G ! P ( P ` d.l.S.S.F.P.].I.E.F.P.S.P.E.K.U.P.P.K.l.l.l.v.l.>.k.d.#.$.} J a - - # - + + # - + + + + # + % # # # : 5 r.ZXFXGXGXJXKXLXLXLXLXLXLXLXLXLXJXLXLXKXGXGXGXDXGXDXKXKXKXGXLX] p p 9 9 9 9 u.CXfXCXaXCXCXsXx z u u m ] M.u u i z z v v N D aXu.m E E N N B U N N N /.HXHXJXHXsX5 4 5 5 3 M GXGXGXJX/.8 aXGXGXCXY : ; # # # # ; # ; ; # # # # # # # # $ O O O ; $ ; ; O ; O O ; + O ; O ; ; O ; O ; ; ; O O + + + O ; O O O O O O O o ; ; # # , 2 , & > , + X 0 a V C V % # $ # $ O : : : % & a f.x.n.F.x.n.n.n.n.n.n.U.U.U.U.U.n.K.n.n.I.n.F.n.F.m.F.].m.U.U.].U.F.U.n.F.n.n.x.m.n.v.F.n.S.m.x.m.S.g.h.f.l.f.f.x.l.=.,.x.k.f.>.x.x.f.c.h.f.k.m.g.k.h.f.d.h.f.:.l.f.,.f.>.$.d.$.f.>.f.$.$.d.d.g. .d.$.$.d.d.f.$.d.m.d.$._ _ | $.$...| ` } _ _ _ ` X.| d.` | |  . .} }  .$. . . . ...| |  ...| } } |  .$. .=.| :.=.:.:.| _ _ =.=.=._ _ ) ) / / =.) ) =._ =...X.^ / _ } } } } _ } _ _ X. .} ..[ ..[ [ ~ / } [ ..} ) [ [ ~ ) ..{ [ ) ) ~ [ [ ",
"T.T.T.~.~.Q.Q.~.!.$X%X!.T.W. X!.5XnX5XXX~.E.~.~.=X&XXXoX2X4X4X|.|. XoX X XXX*XE.E.E.|.E.oX|.*X&XoX XXX5X1X1X%XXX~.~.1X5XoXXX~.%X1XXX~.~.|. X X%X2X X*X4X%X XE.~.R.T.E.Q.T.E.W.W.L.T.D.Z.D.Z.Z.B.Z.N.V.D.Z.D.H.Q.{.W.E.Y.E.E.Q.{.Q.Y.$XE.Z.E.D.Y.T.R.T.{.=XR.Y.E.Y.~.0X1XH.H.H.H.Q.J.Y.H.H.N.Q.H.6.B.H.T.E.$X$X#XE.Z.Y.W.N.1.2.h.>.+.d.f d d e 0 d 0 e q q q 2 , , < < < % % % & % % % % % , < 4 q 2 2 * > * * > > % % % % * > > > > > % > % % > > > % % % + + % O ; O O , : # 5 y y x S ] 9.0.y.D : O N M.t.9.] ] Y y , 4 # # # # # + # # # # ; # # # > % ; % + % % > > > > > > % * % > % % > % % % % = s X.$.>.h.v.v.K.C.l.z.h.k.,.S.c.b.v.,.b.x.:. .y & * % % & & # % % % & & & : & & 2 M q.t.t.9.7.] T n x S G D Z G G J J $.>.z.S.F.F.S.S.S.C.L.[.[.I.[.F.P.F.C.c.c.S.j.c.h.S.>.$.X.X.G a = = @ - % % + + + + + $ $ + + % > ; t /.FXGXGXGXKXLXKXLXLXLXLXKXKXGXGXGXHXGXGXGXHXJXHXGXHXGXGXJXGXLXLXr.h p u 9 u t `.CXCXdXdXdXdX`.a m z z u u.'.x u z x z m b m { HXyXn W /.M M N B M M c U tXFXSXFX).t 2 1 5 3 t vXGXGXGXCXc r.GXZXCXvXD > > + > + > ; ; ; # + # # + # O # + # O O # # ; O ; $ $ ; O $ ; O ; O ; O ; O ; O O O O O O O ; O ; O O O O O O O O $ # & , 2 , , , # # @ < s f O.V < $ $ # $ O O ; & # % % G :.m.x.x.x.x.n.].S.F.S.x.F.F.].].].].U.F.F.F.F.].S.].U.].].F.F.].F.F.n.F.].S.m.x.m.@XS.m.m.x.x.k.k.h.f.k.x.x.m.f.k.k.z.h.k.k.k.k.k.m.k.k.f.f.l.f.k.c.m.k.f.>.>.f.f.>.f.:.:.>.>.f.>.>.>.:.>.d.g.>.d.d.g.f.f.>.:.d.m.g...( ` | | ` } _ } ` } } +._ | | $. .#.$...} _ ....| } | | .._ | $. .`  .......|  .:.| :.:.=. . .$.| ..|  . .| } } _ _ _ ..| [ | _ =._ ) _ / / ....} ^ J } ....} }  .[  .} X.[ / ~ ^ ) ..^ [ [ ) [ [ [ ..[ ..} [ [ ~ ",
"Q.T.T.!.Q.^.~.#X#X%X%X XW.E.%XW.~.~.J.U.~.I.L.E.|.~.~. X*X2X*X X[.[.*X XoX.XoXE.[.oX XP. X*X*XP.~.~.XX~.XX1XoXoX~.~.0X5X~.1X2XXXoX1X~.~.%X XE.R.%X X~.Y.E.*X X*X~.W.W.E.Y.W.:XY.Y.D.Z.N.N.R.Z.V.V.C.D.Y.W.Y.D.W.Q.L.L.H.R.Q.{.{.E.E.Y.H.L.W.$XE.#XH.W.R.Q.Y.L.R.~.T.4X1XI.Y.Q.H.Y.B.T.Y.H.A.Z.B.B.Z.Z.W.E.T.R.Z.Y.D.Z.N.j.2.3.2.#.` ` a e s e e 0 e e q e d < * * , < * * % % % % & & # % % < < 2 > * < < % > * % % % % % , > % % % % > % % % > % + > + ; % + + O O O $ o O # 5 y z c U ] w.0./.9.u : 6 u./.r.{ w.{ u m Y S , + O ; # # # # # + + # + > + ; + ; % % % > > < > > % % % % % > * % > * > @ o.m.g.k.l.c.S.P.S.I.L.S.C.h.[.R.n.l.:.x.f.L a = & # * % & & & , & % # & # & = & y W t.y.7.7.W U m a V H D C V j C C Z X.>.f.,.m.F.P.P.K.c.E.E.I.P.D.P.D.R.j.C.h.l.c.c.c.S.d.+.../ C 0 # @ % + + + + = + = $ $ # # % > > u rXvXFXGXGXGXLXGXKXKXLXKXKXGXDXHXFXHXHXHXHXHXGXGXFXHXGXHXCXHXFXHXGXFXu.9 u u u b rXvXCXaXSXmXvXu.m z z m b E /.z z 9 x m z m z D CXaX0.m M N M v N M v c v y.CXCXHXyXy q 2 < 5 2 '.GXGXGXGXy.z `.SXHXHXsX`.y + > > + % + + # # # # # # # + O # O # O $ $ : $ ; O O ; $ O ; O ; ; O O ; ; O O O O O O O O O O O ; O O O O O # # # , , 2 , & : & @ @ 3 p x f x x $ # # # : : O # , , , & C x.x.x.F.F.F.F.n.F.F.F.F.F.].U.F.U.].].].n.F.F.F.F.].].].].].F.n.].n.F.F.F.c.n.F.F.F.F.F.k.G.m.k.k.k.k.f.x.x.x.k.k.k.g.x.x.S.m.k.k.k.h.f.k.k.k.x.x.c.k.>.d.k.>.>.$.>.>.f.>.f.>.>.f.>.:.d.$.$.d.d.e.f.f.>.d.:.$.x.f.( X./ / _ X.( _ ` } $._ X.( _ _ X.| | ....$...| | | .._ | .._ } $...} |  .` |  .=. .=.=.d.=.$.|  . .|  .| | | _ } | _ _ =..._ | | / [ =._ / _ } } _ ^ / } } [ / X.} } ......X.~ / ^ ) } ) [ ..[ ......} [ ^ [ [ } ^ ",
"~.T.^.!.~.T.!.!.%X$X$X$X$X!.Q.E.~.5X5XJ.I.~.I.~.~.P.E.&X2X8X2X XE..XXX XE.*XoX X XE.P.|.R.|.oX XoX X~.oXoXXXoXT.~.UXoX~.~.oX1X~.oX1X|.~.~. X=X XP.H.L.P.L.R. X X X!.$X#XT.#XR.E.D.H.W.L.Z.B.Z.L.Y.Z.Z.Y.$XR.{.{.#XR.R.Q.$X$XQ.$X#XR.R.#XW.Z.R.$X&X{.$XW.Y.R.W.E.~. X3X3XH.K.J.J.T.Z.^.Y.B.Z.Q.H.Y.^.H.Y.W.L.H.B.Z.Z.Y.Z.N.#.2.1.;.| / e 0 0 0 0 0 0 0 0 d 0 < < < * * , < & % % % & & & % % % % > % * < * > < < < < < * , * > % % > > % > % > % % + % % + + + ; O ; O $ O $ # # y z n Y Q { w.M.u.E : u M./.u.] 0.T ; c E Y p ; # # # O + # # # # + # + + > % % % > > < > % < > > % % % % % * > % % = f $.f.k.h.l.v.v.[.c.K.S.C.,.h.z.x.b.f.:.<.G e = = = % # % & & & & # # & & # # : m Q 7.t.q.q.8.U m x x V V C V V j f f C o._ >.>.S.c.P.F.P.F.L.P.P.}.R.S.C.m.V.P.c.c.c.c.j.$.+.X.X.R f & = % % % + + % - + + + # $ % # + c yXaXCXFXGXGXGXGXGXLXKXGXGXHXDXSXCXCXCXCXaXCXfXHXHXfXHXfXCXfXfXfXHXFXGXCXz p u u D bXCXCXSXaXfX`.m i u z z m N r.z m b z m 9 9 z S yXCX+Xv c N v v v v v z z A uXSXCXCXw.5 & & , < ] DXSXGXGXbX8 6 aXGXSXHXDX).> % + % + # # # + O # # # # + O O # O $ $ O $ ; O $ O $ O O O ; O O ; O ; O O O O O O O # O ; O ; O O O O O $ # # # & , 2 , : , & $ o < y a x f c # $ $ $ O # : # & # , # & P x.n.x.m.m.S.m.@XS.F.m.n.F.F.].U.].F.F.n.S.n.n.n.U.].U.U.].F.U.U.U.n.n.m.m.S.m.m.F.m.m.x.m.c.k.k.k.h.k.f.l.x.g.x.x.x.c.k.c.c.>.k.k.k.$.d.h.x.m.x.c.h.k.>.d.f.f.$.>.f.>.:.,.h.f.>.f.f.>.g.g.g.d.g.d.g.d.d.d.$.k.d...| ( ! ` _ | ` _ ..#...} ` ` ` } #. .$. . ._ |  . .#.| $.| |  ....._ .. .X._ ..| _ | =.| | |  .|  .$...| } _ ^ ) _ _ } | | =..._ L / ) } } } X._ .._ _ } ^ } } ^ ^ ] ^ ....[ / ^ [ ^ ~ ^ [ ..[ [ } [  .[ ] ^ { X.{ ",
"Q.J.J.!.~.^.~.Y.!.!.!.$X%X$XE.E.oXzX5X~. X~.oXXX X X&X2X4X X|.XXR.oX&XXXoX&XR.oXE.|.E. X XoXXXE.oXXX*XoX~.~.L.UX1XXX~.~.~.~.oX~.1XoX~.E.~.XXR.oXXXE.E.E.XX*X*X X X,X&XR.R.W.W.Y.Y.D.Z.Z.W.T.K.Z.Y.j.Z.W.E.$X$X$X{.Q.Y.R.&X$XE.Q.R.Q.{.R.Y.Q.E.T.Y.Z.D.Y.Z.L.Z.H.T.~.0X1XJ.2.2.B.^.J.^.Y.Z.Q.H.H.H.H.H.Q.E.T.Z.N.Z.Z.Z.V.V.2.3.@.( ( V e e s e e e e 0 d 2 * < * + - % % , , & % # % & # % % & % % * < < < > < < 2 < , > % % % > + % % % > + % % % % + % % + + + $ O : 1 $ # # # q z M F U W 0./.u.R $ 5 m r.F 9 W Y ; E r.{ c + + # # ; ; + ; + ; # # > > > + > > > < > < > > < * * > % % % > * = + e X.g.k.x.>.l.n.C.z.c.L.S.S.P.C.c.h.,.4.=.L e - 3 w # # = % # = # & % % # # : 9 m U U Q 7.7.W U z x a c C V Z C a a a a f G J _ >.h.h.C.S.P.P.S.S.L.L.D.P.P.V.l.S.j.h.j.l.f.X.' o.G f = = # - @ + + - + % + + # # # # > D rXyXaXSXSXGXGXLXKXKXKXKXGXHXAXSXCXfXaXfXaXdXdXbXHXHXfXbXfXfXaXhXsXsXhXCX'.z z i u ).SXCXCXdXdXrXS m z z z m m D u.m u z z b u 9 b Y aXbX/.m v z z v c v v z b z 0.ZXCXSX+X5 5 & 5 , S CXGXGXGXGX0.; Y CXHXHXFXsX+ + % % + + # + # # # O # O # # # # # O O ; $ O ; ; O $ ; ; ; O ; O ; O $ O O O O O # O O O O ; O O O O O O O # # # # 2 2 5 & : # $ @ 3 e y a f n : # # # O : O ; & : # # # r $.h.n.U.S.m.x.F.m.m.x.n.].F.F.n.U.U.U.F.m.F.n.m.U.F.F.F.F.F.].n.n.F.c.m.@X].F.F.F.S.x.m.m.c.m.V.k.x.c.k.k.k.V.k.k.h.k.x.m.x.k.k.c.$.$.$.k.c.S.m.k.k.k.h.h.f.>.>.f.h.>.:.-.:.>.:.l.f.d.$.d.$.d.$.$.d.d.$. .$.m.g.$.X._ ` $.} | ^ ( ` _ ` / ( } } ( _ | | | }  ...$.:.$.0.| .._ X.$...| | ..#.|  .| ....=.=.| .. .$. .....| | | ..| _ ) =..._ _ _ ~ L ^ _ } } ^ } } _  .X._ ^ X.} ..^ } X. ...^ ) ^ ....} ) [ [ ) [ [ ] ..} [ ~ } ~ ~ ",
"Q.~.^.!.~.J.~.~.~. X%X$XH.Y.E. X1X5X2XE.P. X X~.~. X1XXX.XXX XE.~. X.X X*XP.K.H.|.&X|.oXE.*XXXP.J.I.UX1X~.J.K.~.XXoX~.~.XX~.~.~.I.K.I.~.!. X~.~.|.E. X XH.1XXX X&X#X=X#X#XE.R.Z.#XW.R.T.H.L.V.Z.L.B.Z.W.#X{.$XE.W.Q.R.W.Z.T.!.Y.Q.{.Q.R.D.Y.Z.R.Q.E.W.E.L.^.Z.Z.Y.P.1X1XH.N.Z.Z.Z.T.Y.N.A.L.H.Z.Z.B.N.L.Y.L.B.2.Z.N.Z.z.3.3.3.+.( ^ r w e 0 d 0 q d d d d < * % * * % % % > % % & & % % & & > , > * > 2 2 2 < 2 < , % > > > + % > % % % > % > > % + + % % + + + ; O 6 z : o : t z x A A D ] w.0.).D : r.N u.L 5 a 6 # i { 0.S # # # # # ; # ; # > > % % > > > + < > < < > < > < > * % > > % % @ % > ] x.x.k.F.f.C.F.C.c.V.S.F.C.h.c.,.l.,.=.L s * % ~ G = = # % & & $ $ & & & & x U Q T M S Q Q S z y x f n O.n Z j x f a f f Z Z ` ,.n.h.S.S.E.L.P.D.L.c.L.[.P.S.h.c.c.,.l.>.-.` ( o.C = = # - + $ - + # - + # % # $ % , A +XrXCXCXCXAXGXGXGXGXGXGXGXSXSXbXdXdXdXdXpXpXsXhXhXfXdXrXhXpXhXsXhXsXrXsX=.v z z z B tXbXSXSXdXaXy.S m v v v z m D `.E v z u u u u u z `.sXy.z z c v S v c v v z t v sXCXCXaXw & & 5 1 6 D +XFXGXGXaXb 1 0.HXCXHXbX> # # # $ + + + # # # # # O # # # # O O O $ ; O $ O O O O O $ ; O O O O O ; O O O O ; O O O ; ; O $ $ O $ O # : # + > , 2 , > > > + @ , w s p p O.: $ $ $ # O # & # : # & # * Z ,.x.k.m.m.x.x.S.k.n.n.F.x.m.F.].].F.U.n.].m.m.F.F.n.U.U.].F.F.].n.F.n.F.n.S.m.F.S.c.k.x.F.c.k.k.k.x.f.x.f.x.n.k.f.c.m.x.g.k.k.g.g.:.d.h.x.n.x.x.f.>.d.>.d.$.f.f.f.f.,.:.f.>.>.>.f.d.>.g.g.f.g.$.d.$.d.d.>.m.k.>.$.X.` $.} ..} ( ( } } } X._ ` | ( X.| |  . ...| | ..d.$.| }  . . .}  .....` X.} ....=. .=.| :. .| | | } } [ } =.} }  .| } | } _ _ } } _ ^ } .. .} } } _ ^ } X.} ..} .. .....[ [ } ..} ..[ [ ..[ ) [ ..{ [ ! ^ [ [ ",
"!.#XQ.~.Q.J.T.^.~.=X%XQ.L.!.!.&X2XcX8XoX~. X~.*XXX2X|.~.|.*X X.X XoX.XE. X X|.XX|. XR.E.[. X*X&XoX~.~.oXL.T.I.~.~.~.~.L.I.~.I.I.~.~.I.~.~. XE.~.R.~. X XP. X&X%X$X$X&XY.Q.R.Q.R.#X{.Z.D.R.Q.Z.N.D.R.E.,X$XW.E.Q.R.R.L.L.L.L.Y.E.D.Q.E.#XY.B.Z.Q.R.W.T.{.W.E.R.R.Y.P.1X4X XZ.Y.Y.Y.Y.L.Z.H.R.E.Y.R.N.L.Z.N.Z.J.Z.Z.V.b.j.$.3.3.#.` / r r e 0 0 0 e q q 0 < < % = = % % = * > % % & < < & , , < 2 2 q 0 2 q 0 < < > % % % > > ; + + > > + + + % % % + + + + > + + $ O , i 2 + 2 u i z c n U E ] w.r.p 5 u.F i i : : # # # 1 q 1 # # # # # % # > + + + + % > > > > > > > > > > > > > > % * = % + % @ S g.m.S.F.F.S.c.F.F.I.R.S.c.V.z.j.h.>.=.I r = = % c q # % - # $ & & % & : & 9 U E W U m z c U c y c A V j V V V f f a a f C Z J ` >.k.z.l.c.F.[.[.F.S.C.S.F.S.c.h.j.j.c.,.>.=.} ( Z d = % % % # + + + @ # + + $ % # , E @XyXvXCXCXCXGXHXGXKXGXGXGXbXCXyXCXaXdXpXwXrXrXpXrXpXfXhXsXrXpXhXrXhXwXwXrXu.b z z m 9.bXdXdXdXrX`.w.U M N N v v v B '.{ z u u u u 9 9 z r.vX'.b z z x c c z z z t b 8 r.CXHXsXp 3 & 5 : 3 6 r.HXGXGXGX0., 1 yXZXDXaX# % # # $ + ; # # O # O # # # O O O # ; O ; O O O O ; O ; ; O O O O O ; O O O ; ; ; O ; O O O $ O $ O $ O $ O : # ; > < , < < > > # @ < 0 y a i f # $ $ $ # # # # # # # # # # = G x.f.x.h.m.x.S.m.F.F.U.F.].].F.F.n.U.U.F.].U.U.F.n.F.F.F.F.].F.F.m.S.F.x.m.S.m.x.F.k.g.S.x.x.x.k.x.v.k.x.x.n.x.m.c.c.x.l.e.g.k.$.:.d.f.x.x.x.n.f.>.d.$.d.f.$.f.$.:.>.>.d.:.>.>.:.d.d.d.>.>.d.g.g.>.d.d.>.m.k...| | } #.} #.X.} _ | ( ( _ _ _ } _ | | $.d...| } } } =.=.$.| $.$...$. .} |  .........|  .:.d.d.$.r.| | } | _ | | _ ...._ }  ._ } } } _ } ..} ....X.[ ..X.^ ^ [ [ .. . . ...} }  .} [ =.) ^ ^ [ [ [ [ ..} [ ] } [ [ ",
"#X6.!.^.^.J.H.Q.!.%XE.H.Y. XXX&X2XxX4X~.XXE.~.E.T.oXXXXX2X&X X|.|.[.P.E.P. X2X&X*X&X|. X&XoXXX XXX|.I.oXXXoX~.oX%X~.I.~.K.L.J.~. X~.I.T.P.K.H.E.E.E.~. XE.L.K.H.H.D.{.Q.R.=X#XY.R.#XE.R.E.Q.N.G.L.W.&X:X#XE.R.E.D.N.R.D.H.Y.Z.L.N.Q.#XE.R.H.R.E.W.D.Y.Z.W.$X XP.Z.P.8X0X XR.R.T.D.Z.V.Z.T.Y.T.R.Y.Z.Y.B.S.Z.V.Z.D.C.V.3.2.3.<.#.` _ a e 0 0 0 e q e e q * & * % % % % % > % % * , < < , < < < 2 2 2 < 2 2 2 2 < , > > > > # # # + > > + + > > + > + > + + + + @ 2 y , : # 6 t i y z x m S U Y { r.D < i : : : $ # # # # # # % , 1 O + + + % % % % > % % > > > * > < > < < > < > % % % % % = % = f  .n.F.F.F.D.].C.P.P.P.P.S.c.c.k.>.,.:._ j d $ % @ Y V + = % # # # & # & & & i E Q W U u 9 z x y p V V V V C V a V V f V f V J / ( ` $.>.z.x.D.L.c.R.P.F.D.E.D.z.C.P.c.z.f.;._ ` ! f d = + % + # - # - $ $ + @ # , 2 ] +X`.vXCXSXHXGXGXGXKXGXJXAXZXHXM./.dXaXtXpXwXwXwXrXhXwXfXpXwX`.wXwXwX`.hXwX`.s.N N z x /.CXdXyXqXqX(.T B N M N N v v m Q B i z 8 9 z z z u S rXsXU u u c v z u u t t t t D pXaXsXx * & 5 , : 1 m bXHXFXHXrX> > { HXHXbXc # $ O $ O # # O O # O # # + O # # $ ; ; O O O O $ ; O O O ; $ ; $ ; ; O O $ O $ O ; O O O O O ; $ $ O O $ # : # > > < > 2 < > % @ O * 3 e s p a $ o $ $ # + # # : # # & # & = & ` f.z.x.m.S.m.m.F.n.m.].F.F.].F.n.n.F.].m.S.F.F.n.U.m.n.n.F.S.m.c.F.F.m.m.m.S.m.c.c.m.m.x.S.l.f.x.v.x.c.c.c.k.l.k.k.k.g.k.f.g.$.-.>.>.f.>.f.f.>.f.>.d.:.$.#.$.$.:.>.:.>.:.=.d.:.d.$.k.>.:.d.d.>.$.g.d.d.k.k.$. .| | $. .| ` ( _ _ ( / _ } | |  .:.$.0.d.} } X.} | d. .0.$.0.r.|  .X. . .} }  . .| ..}  .=.d.:.d. .| ..} } [ [ | | | .. .} _ ) } | } }  ._ } ..} } X.} ^ X.[ } } ..} ..} } } .. .[ ..[ [ [ ..} [ [ [ [ ^ ^ { X.~ ",
"Q.#X#XQ.^.L.~.$X1X%X~.XX XXX&X>X&XcX2X~.~.I.~.|. X~.oX*X&X*XoX&X:X|.E.|.P.[.=XoXoX|. XP.E.|. XP.P.~.~.1XXX2XI.~.J.oX1XoXI.L.~.I. XXXT.I.Y.E. XP.~. X~.K.H.XXE.E.Y.L.L.[.$X#X{.R.D.Y.$XZ.Z.D.R.C.Z.{.$X$X{.Q.L.D.N.B.Z.Z.D.Y.Z.G.C.E.$XP.R.Y.G.L.W.W.R.H.L.W.~.E.E.E.zX8X X XT.E.W.T.B.Z.Y.R.Z.Y.T.R.Z.Z.R.B.B.b.Z.L.C.j.,.3.j.;._ ! h e 0 d e 0 0 0 0 0 * , * % = % * % * > % % % < , , > < , , > > < < < > , , , : , > > ; ; ; > > > > + > > % % > + > > > + > 5 i 1 O + , u y u x c c S D W 0.{ H $ $ $ < R E 7 & $ # # + o S D + ; # # + + % % > % > > > > , > < < > < > > > > > > % = % = a $.m.S.P.R.D.F.D.P.P.F.P.R.m.S.[.C.x.z.$.Z d & $ = c r.A - # % = $ $ # # # : 5 z Q { W N u u z t u V V C V V V j f V V f V C J P ( >.>.z.>.f.F.P.S.z.S.S.L.P.R.m.k.z.c.c.z.h.=.' ! C 0 = $ = $ - + # + + + + @ @ % 2 F '.rXuXSXSXGXGXHXGXGXHXGXSXSXCX+Xb M.dXaXrXrXtXtXpXhXrXwXhXtXwXwX`.qX`.wX_.`._.p.N M N n `.sXyXqX`.).8.B S N M M M N z v U m u z u z 9 9 u 8 t M +Xw.y b y u z u u b 6 8 6 7 yXCXaXF & & : , & : 5 /.FXHXGX'.> > 2 M.DXKXaXm $ $ # O O # # # + # # O # # # O : O $ O ; ; O O O ; O O $ O O O $ O $ O ; ; $ ; O ; O $ ; $ O ; $ $ $ $ # # : > > , 2 < > > % @ O < 3 0 q p q = $ $ $ O # + # # # # # % # # # p ..k.k.c.m.x.n.F.F.S.S.F.F.F.S.F.].U.n.F.F.m.U.F.n.n.F.].n.F.n.m.S.m.m.x.S.m.S.x.k.x.c.x.k.x.f.f.f.f.f.m.k.x.m.x.x.h.k.f.f.d.$.| f.f.d.l.d.f.,.>.d.$.>.>.d.d.f.:.=.-.:.>.:.f.>.$.d.$.d.d.>.d.>.d.>.$.d.k.g.X.$...` ` ( } X._ _ _ ( | } ..$...| | _ `  ...$. .X.=.$.$. . . .$.$. .....$.| | g.g...| _  .$.r.d.$...=.=.| } | | ) ^ / ~ _ ..} ) ^ ..^ } | ..} } } ^ } ....} [ } ..} [ [ } } ..{ ......=.[ } ^ [ } [ [ ^ ] ~ [ ] [ ",
"6.Q.Q.^.^.#X#X#X=XXX%X!. XXXXX2XXX5X2XB.J.I.H.J.R.~.XX2X&XXX&X;X X|.R. X|.|.K.E.oX[.|. XI.E.|.2XXX~.|.*X*XE.2X3XXX1X3X*XXXoXT.L.E.L.L.P.~.E.E.oX XL.R.P.%X X|.=XR.$X&X$X{.$X{.#XY.E.#XD.Q.L.E.Y.D.R.W.#XE.Y.Z.R.R.D.@XQ.Y.R.Y.D.Y.Z.$XR.W.W.R.B.R.T.Y.Y.W.Y.{. XL.$X8X8X3XT.T.E. XE.R.R. XW.N.V.$X!.T.R.R.Z.Y.N.R.V.1.z.3.z.3.-.` ! r s e 0 0 0 d 0 * * * * * > % * % % % * % % > % > > > > % % % % > > * > > * > > > > ; ; ; # > > 1 + # > > + > + > + > + 2 z # # 2 , 2 > u y y c S M D ] ] w.D : $ $ $ a M././.y.F + + > + x R 2 # % % + + % > < % > > % < < > < > < > < > > > % % & = = m g.m.F.@X{.I.[.I.].P.I.I.P.S.S.x.m.h.h.1.` j * D 2 y 0.0.0 & = # = # # # & : 5 z U 8.] U 9 7 n z 3 n D Z G V c V C f C V c V C J P ` >.$.,.h.c.S.F.S.h.c.D.S.S.l.l.f.b.x.l.>.:._ ) L j * - $ = $ $ - # + = + @ % ; < c ).rXaXCXSXSXHXHXGXGXGXHXCXCXbXvX8.b U rXtXrXtXwXtXs.rXwX_.hXwX_.`.'._._.'.wX'.`.wXp.=.N U rX`.qX)._.w.T B B B M M M v c c /.B u u z 8 7 7 8 t 8 b 9.0.y b u y u y 6 8 8 8 1 1 '.dXCX+X5 & & : & & 5 N bXCXCXM.: & # 2 ] aXLX+X3 # # # # # # $ ; O O # # O O O ; O ; O O O O ; O O O O O ; ; O O $ ; ; O $ O # # # # O $ # O O O $ O $ ; ; ; # , < 1 < , > % $ O , 3 4 0 s 0 $ $ o $ $ $ $ $ ; O ; # ; # % # % f | >.g.S.F.m.c.x.S.x.F.].F.S.n.n.F.F.k.m.k.F.n.].x.].U.F.S.F.S.m.V.S.m.x.m.c.m.c.k.k.k.k.k.k.k.f.x.c.k.k.m.k.x.c.k.h.k.g.:.:.| >.f.f.l.>.f.f.:.>.,.:.:.:.:.f.>.f.:.:.:.:.>.=.:.:.d.f.d.#.$.$.d.d.$.$.>.f.:.$.#.....} X._ _ _ } _ } | | _ ` ..X.#.X. .d. .%.0.X. . . . .d. . . .0.X... .X.d.=.} ..}  .:.| =. . . ...X.} ..} ..} ^ ^ ^ } _ } X.} } ^ ^ .._ X.} [ [ ..} X.} } ..[ _ } [ } } ..[ [ ..} [ [ [ ) [ [ ^ ~ [ ~ ] { } ",
"Q.Q.Q.^.~.~.~.-X%X*X%XXX X=X&X|.E.|.|.H.J.K.L.|.~.R.oX%X4X2X*X X&XE.K.oX XXXE. X|.[.&X&X|.P.|.E.oXXX.XXXE.|.XX1XXX~.oX%X~.~.I.J.I.L.~.~. X X X XP.K.E. X X%X X X{.$X#XQ.Q.D.Y.H.Z.L.Y.R.Y.P.Y.Y.V.D.R.E.R.R.R.C.Q.Z.Y.H.Z.W.Y.R.Y.$XE.E.W.E.Z. XE.$XT.E.R.Q.R.D.P. X4X9XXX~. X X XR.W. X XE.D.&X&XP.L.T.R.W.L.Z.2.2.1.2.V.z.h.;.$.` V e e 0 0 0 0 0 * % * < * * % * * % % > % > * % % > > % % % % > > > < > > > > > ; # > # # # + > ; # # > + > + > + > > > i n 4 2 z p z 3 4 2 y A A A S 9.w.{ Q & : $ $ 9 i._.`.qX).E 2 + % y Y * = $ = + > > > > > > > % > > > > > % > > % % % % % = = G g.m.F.@X[.[.[.oX[.P.E.].[.I.D.k.c.C.z.S.>.! h w 0.c x  .x % % % % # = # # 5 6 6 U W 7.8.N y U U 7 3 G G G G C C C G C V j C V G J / | ` ` >.#.V.S.F.C.F.j.P.P.D.S.S.x.m.f.x.,.=.=./ Z 0 = $ $ $ $ $ + - # + % % > , S ).wXaXvXHXGXGXKXGXGXHXHXHXCXfXCX`.z u v '.yXtXwXpX`.U _.`.(.hX+Xs._.s.'.s.s.s.Q `.wXwX=.b u.rX).y.w.w.T B T U U S B v v z v y.m u y u 8 8 7 7 8 8 t t v z 8 y b 8 y 6 8 8 8 1 5 W CXaXbX[ & 5 & : # : 5 ).CXHXpXi , # # 3 n DXGXM.: # $ $ O $ O O O ; # O # O O O O O O : O O O O ; O O O O O O O O O $ O $ ; $ $ # O # # O O O $ O $ ; $ ; ; > < < < 2 2 < % $ O & * 3 w w 3 @ @ $ $ o $ O $ O ; O ; ; # # # # % V $.$.k.k.m.m.m.F.m.F.F.F.F.F.U.F.n.m.S.x.S.F.n.m.F.F.F.F.x.S.F.F.m.x.m.S.k.c.k.k.k.k.m.g.d.$.k.k.k.f.k.g.g.k.k.m.k.e.d.>.:.-.:.d.f.k.k.f.f.>.f.d.:.:.| >.>.f.>.f.f.>.:.:.:.$.| $.:.g.( ..d.f.$.d.d.$.d.| :.| ` | | #.` | $.$.| #.X.| | }  .=... .d. .d.r. . .X...d...$. .d. .%... ... .| =.$.} | $.d.r.:... .=.} _ _ ) _ } } } _ } }  .....} X.^ } } ....} _ } [ ^ } } [ [ ^ [ [ } } ......} [ [ [ [ ) [ } ^ [ [ [ ~ ^ X.{ ",
"6.-X^.Q.~.#X-X#X=X1X=X*X1X3X5X*X2X>X*XP.~.L.oXoX2X.XoX*X4X*X=X|.E.P.&X*X*X&X[.|.E.E.E.&X XE.[.I. X|.oXE.E.P.I.~.~.XX%XXX~.XX1X%X XK.E.R.P.T.~.R. XP.E.E.*XE.E.V.H.$X$X#XR.H.D.L.H.{.L.Q.D.L.D.L.L.D.E.{.R.D.Z.D.D.H.D.H.Z.R.Y.Y.Q.{.E.^.R.H.Y.!.=X-X$XR.W.-XW.R.K.E.2X*X~.E. X X~.R.R.E.R. X$X&XP.L.R.^.T.Y.Y.V.V.j.3.c.G.j.z.$..._ Z 0 e d 0 e d d q 0 d < 2 * > % * % * % > > % % > > % % % % % % > < < < < > > # # # ; # # ; > > > > + > > > > + > + % > z n y # ; # 2 , 6 1 u A M D Y X.{ c 5 : & : & i p.`.`.`.`.).W + % p F $ + $ + % + % > % > > % > % < > > > > % % % > % % # $ n k.x.].P.P.R.].E.I.|.P.P.].I.P.S.S.S.D.x.z.;.Z a 5 0.9.y y % # + % = % % # & z B D W W w.W t S w.A 3 3 G G H V f G Z D V C V V Z P J _ ` >.,.,.f.S.S.R.S.C.F.P.D.c.S.k.x.x.d.x.g.=.h s s * = $ $ $ $ O + # + + + = , { `.`.aXCXSXJXCXGXGXCXGXFXCXaXaXaX/.z y z S `.rXtX+X(.U U _.`.`.hXwXs.s.s.s._.'.Q B u.rX=.N B '.s.w.8.8.8.8.8.B B M v v v v z c w.B 8 8 9 6 8 7 6 6 8 8 6 6 8 y u 8 6 8 6 1 8 8 1 , 0.GXSXZXM.& $ # , & # 5 Y bXfXCX`.2 # # & < +XGXFX{ # O $ O # $ ; O ; # # O O O ; ; O # O O O O O O O O ; ; O O O $ $ $ ; O ; O # $ # # $ $ O ; O $ O O ; $ ; # , 3 q 2 2 < > # o & , 3 3 e < @ @ o $ # O O # + + ; + # # # # # % & P $.x.x.k.k.n.n.n.S.F.m.m.F.F.].n.m.m.F.U.U.n.G.F.U.F.n.m.m.m.m.m.F.x.m.k.m.k.x.x.k.k.>.g.c.d.>.d.h.f.e.g.>.c.k.d.f.k.d.>.| :.d.f.f.f.f.f.d.>.>.:.:.:.:.:.>.f.>.d.d.>.>.d.$. .:.:.f.d.d.d.d.$.>.f.d.x.f.| ..` $.$.X...} | | | _ | | $.| | =.d.d.d. .d.d.g.d. ...$. .g. . .$.=.| ..=. . .d.| =.$.0.$. .=. . . .} ..} ) ^ _ } _ / X..._ ^ / _ } _ } ..^ ..} [ } } X.X.^ ) ^ [ } } _ [ ....} } ) ) [ [ ....) ^ ] ^ [ ^ ~ [ } ",
"~.#XQ.Q.#X~.~.%X%X%X*X&X2X;X*X&X2X*X&X~.XXL.oX1X&XoX.X4X*X4XoX X[.XX1XoX|. X X.X&X X|.XX3X2X*X*X*X&X2X=X~.Y.K.~.~.~.XX%XXX~.XXXX~.J.E.R.[.~.R.T.!.W.~.~.E.T.L.P.Y.D.[.Y.R.Q.R.Q.R.Q.Z.D.Q.E.E.G.j.N.Z.E.#XR.R.R.D.[.Z.#XZ.Y.Y.R.Y.T.L.Y.Y.R.R.E.$X%X{.Y. X3X XR.T. X=X1X&X%X X;X*X X.X[.E.E.&XE.R.V.Z.P.R.E.R.B.D.C.j.j.N.j.j.$.>.d.P s s d 0 e 0 q 0 0 < 0 < > d % > % % % % * * % % > % % > > % % % > > < * > > # > > ; + # > > > ; > > > > + > + > % + > c S m z y z t O t c 2 c c A E w.c > # $ $ $ $ W (.`.qXwX(.(.0.+ + y A $ % - + % ; % > > > * > > > > % > % % > % % % % # = i g.U.].].].}.R.[.[.[.}.}.[.[.[.I.S.S.l.F.z.k.$.G p m i.M.~ + # % % % % = # # : z D E W ] U y u 9.] 4 5 3 D G V C n j V O.V V j j J / ! ( _ >.f.c.F.D.D.S.c.S.D.S.S.F.F.d.d.=.g.}.'.UXa = & - $ = @ @ $ $ % + = % % , w.rXrXyXdXSXHXCX0.LXrXyXHXaXHXdXaXsXz 8 y y W rXyX0.T N N u.`.`.'.wX+X'.p.p.'.'.=.N N N Q N N N U D B B B T T B B B M B v v z z M W E 8 8 6 6 8 6 6 6 8 1 6 6 6 8 6 6 y 8 8 1 2 1 1 , w.HXSXCXM.: $ & # # & & 7 u.HXfXZXr.# & # % 0.DXGXbXA # # O # O ; O $ O # # # O O O O O ; ; O ; O O O O O O O $ O ; $ O ; $ $ # # # # # O O $ O $ O O $ $ : ; # 2 2 0 q 0 < , # $ & & * 3 5 & @ $ $ o $ O # O ; + + ; # # # # # # @ a / $.f.g.m.F.x.G.F.n.F.m.n.F.n.m.S.k.m.F.@Xn.m.m.].m.F.F.m.c.x.V.m.S.S.k.x.k.k.F.k.>.k.e.h.k.k.>.f.$.g.$.k.d.k.>.d.g.k.>.=.>.>.>.d.>.f.k.d.:.d.x.>.#. .>.:.f.>.f.,.:.:.d.d.$.>.d.$.d.f.$.d.f.d.d.d.k.d.| _ } | | +.| #.| ` } _ |  .| ....| |  . .X.$. . .$.=.d.=. . . .d. .d.=. .=.$.} X...X.| :.0. .=..... . .} .._ ^ X...) ^ _ ^ _ X._ ! ^ _ } ....} ..^ ^ ..X.) [ } ..} ^ ^ [ } } } }  .} ....[ [ ) ) ^ { ^ ^ ] ^ ^ ] ",
"~.Q.Q.Q.^.~.~.%XR.T.W.[.~.&X*XXX2X2X8XJ.L.L.oX%X;X2X2X;X&XoX X X&XoX XoX&X3X2X2X2X4X4X*X&X2X2X3X1X X*X|.P.E.~.|.1X~.~.oX~.~. X1XI.~.~.I.~.&XR.~.!.T.E.E.XX~.R.b.Y.H.L.H.Y.D.D.L.H.R.R.W.Q.R.Z.H.Y.@Xj.P.Q.R.W.#X$XR.R.R.Q.E.W.R.L.L.{.{.R.E.*X%X3X=X*X|. X&X~.E.E.oX2X8X.X{. X:X&X{.{.&XR.R.P.c.L.L.[. X[.E.R.S.F.V.D.c.G.F.S.c.>.$./ s 0 s * * < 2 q y q q 0 2 * * % % % > > * % > > > > > > > > > > > > < 2 > 1 + # # ; + # > > + > > + > > + ; + + + ; ; y A A c x F t $ # n y 2 , M ] ] y : # # > t Y qXqX_.qXwXwX(.i.5 # $ % $ $ = % + % > % % > > > % * > % > > % > > > + # = < d.).].].].[.[.}.K.K.I.[.}.}.}.P.].F.S.c.P.x.>.X.V t 7././.] @ % % % % % ; # & # 5 x U U u 6 c 0.{ M , & & a C j V j n f c x c f a C o.o.( >.f.x.h.x.m.c.k.F.l.m.S.n.]. . .m.0 3 * 3 g.p = = $ $ = $ $ : # $ < & # t 0.'.qXyXCXfXaX+XE sX+Xi W Y U aXaXtX).8 b y x '.+Xw.B N m m (.`._.(.+X+Xp.Q r.`.u.N N N N N N U B U N B T B T T T B B U v v c z t v S U 8 6 6 6 8 5 5 1 8 1 6 6 6 6 6 8 6 6 2 1 8 1 ; 2 z aXHXCXvXD : # # % > # 2 5 /.fXfX'.% # # % n vXCXGX+X: : $ $ ; $ $ O O : O ; O O O O O O O O O O O O ; O O ; ; O O ; O O ; O $ $ O # O O $ $ $ O $ O $ ; ; ; , 2 4 4 q q 3 , & 0 3 4 5 5 3 < $ o o O O O + # ; + + # # # # $ # + + r o.} $.g.g.k.m.k.S.F.S.S.S.F.F.S.m.n.m.F.S.k.m.c.m.m.m.F.S.m.x.x.m.m.m.k.c.k.k.x.l.f.f.d.g.k.c.k.d.>.>.k.k.f.l.h.h.f.d.f.>.=.f.:.f.f.f.f.x.d.:.h.h.:.$.>.:.>.f.f.f.:.:.-.$. .:.d.k.f.f.$.$.d.d.$.d.x.d.| | | $.|  .} ( | | _ | |  . .X.=.=...0.$. . . .d.d.r.d.d.d.0. . ...X... .=. . . . ..... .r.=.| =.....} ..^ ^ / ^ _ ) / ^ _ X._ ! ! / ^ } ^ } } X.] ! ^ [ ^ _ } ^ [ ^ [ ) [  .............) [ ~ ^ ~ ] ^ ] ] ^ ^ ~ ",
"6.J.^.J.J.^.^.~.R.W.{. X|.E.|.XX5X5XkXoX~. X*X*X2X&X&X&X*X X2X*X[.E. X&X2X&X*X*X X*X*X*XXXXX&X1XoX*X2XoX~.|.I.XX%XXX2XXXoXXX%XXX1XoX1XXXXX*XH.K.P.P.K.H.K.Q.T.P.H.D.Z.R.R.Y.Y.Q.D.Q.Z.Y.Y.L.R.D.H.Q.V.Z.W.D.V.V.G.Q.R.R.R.R.R.{.R.W.{.{. X X~.&X4X1XXX XR.E.|. X|.&X4X8X7X;X.X:X.X.X>X.X.X.X.X.X[.E.R. X}.P.}.R.[.V.D.D.D.c.N.c.f.$.` s 0 d d < d 0 e q q e 0 * > * % * * > * > % > > > > > > > > > > > > > 2 > ; # # # ; ; # # ; > 1 > > > > > ; > % + + ; , i S w c c @ # % D x ; x Y { W x : # # > Y p.`._.qXrXwXqX(.(.{ : $ # $ $ $ + > % % < > % % > > % > > % > > > > % ; # & ~ @X].].].].].].].I.[.|.[.}.I.P.].].P.C.j.c.f.} V p T /./.).c > + > % + + % % # & : 4 S x 4 y ] Y n 3 5 & , 2 2 < 2 x V F S f r a x f S / ( _ g.>.k.k.k.V.x.D.S.C.h.c.$.r 0 0 F = & & = = = = = # & : =.=.: x pX+X/.rXtXqXyXpX`.Y y 9 ] sXm w t y V rXfXtX(.w.E y w.+Xw.M v m m U ).eXs.p.wXp.U m u.p.B v N b Q a.Q N N N U S B B B B B B M M v v b z b z A M 6 1 6 5 5 8 1 6 1 1 6 6 6 2 8 6 8 6 2 1 1 1 1 , & 0.GXHXCX+X5 # % % > # > 5 { aXaXrX4 : + # # ).fXCXHXU $ $ $ $ $ $ ; O O O O O ; O ; ; O ; O ; O O O O O O O O O O O O ; $ O O # $ # O O O O O $ $ O ; $ ; $ # 2 3 4 2 q q > n M...S F =.[ m $ o $ O O # O + + + ; + + + # $ # + + 0 D ( } $.d.m.k.h.m.x.x.S.m.m.m.S.c.S.k.m.S.m.m.F.c.S.m.S.k.F.x.m.m.c.c.k.k.x.c.S.S.l.$.h.>.g.e.$.k.k.d.>.k.f.g.d.>.f.>.k.:.:.f.l.f.f.c.f.>.>.:.f.d.>.d.f.f.g.:.f.>.:.-.=.$. .g.d.d.>.f.d.d.>.$.=.=.k. .| |  . ._ } _ ! | | _ _  .| d. .$.:.$...$.d.:.d. . . .d. .w.%.d.X. . .=. .=..... ..... .$.=.=...| ..=...} ) ^ / ^ } ..^ } ^ _ ^ ^ _ ^ ( _ } ^ ..} X./ ^ ^ ~ ^ [ } ....} } ..[ ..) [ ....[ ) [ ) [ ..^ [ ....[ ~ [ ",
"~.Q.^.~.~.T.~.~. X XE. X XR.E.E.2XlX5XI.oX~.~.oX;X X~.;X;XXX&X2XE.&X2X&X&XoX.X|.|.oX X&X*XXX&X X|.P.1X.XXXXX1X~.%XXX X~.T.~. X2X9XXX~.K.R.~.oX!.L.!.E.P.P.H.K.P.Z.V.R.R.H.Q.#X&XQ.D.D.Y.R.Y.E.D.Z.V.@XZ.R.D.N.,.E.Y.E.&X{.Y.D.{.T.&X{.:X3X%X~.%X=XP. X%XR.P. X|.R.&X8X4X=X[.{.>X>X.X&X.X}.[.{.{.}.E.I.S.C.].R.R.F.D.S.C.P.C.S.j.f.$.X.a d 0 e q q 2 0 w y e 2 * % * * < * > > > % % > > > > > > > > > > 2 < > > > # # # ; ; > # # > > > + > + , % + > + + # > x c % t > q x # a 2 y E Y Y ] ] i # # q q./.(.qXqXqX_.qX(./.u.5 O $ $ $ $ + > % > % > > > > > > > % % + > > > % % % R g.'.].n.].n.U.}.U.I.U.U.F.I.I.I.S.S.x.#.f.>./ V y Y w.y./.M., > + % % > % % # # # : , p 2 , S Y w , 5 : 5 5 6 q q u f D o.F n A x z x n G J } k.x.m.m.F.F.S.S.S.c.k.| a & * V k.* = & & & & = & * F +XFXZXW '.HXCXCXCXtXdXvXW b 8 y t z i 7 t 6 e w.yXuXrX`.).S y w.M.M O.v m m u.(.`./.(.u.U N N N D N N z u.`.p.=.N N B U B B B B M B M v v z c z 8 6 t v i t 8 5 1 ; 1 5 6 1 1 1 2 2 > 1 6 2 2 2 1 1 1 1 1 , i bXFXCXHX=.% % % % % % > U `.wXCX`.6 # # ; D aXCXCX'.$ $ $ O $ ; ; ; O O O O ; O O O O O O O ; O ; O O O O O ; O ; O ; O ; # O O $ O $ O O O O O O ; $ ; ; > 3 2 q q q q > + d.yX`.).u.).'.H $ $ O # + + + + + # + + # # O @ O + # j / ^ $.d.c.x.m.k.g.x.x.x.k.m.m.x.n.m.S.S.m.k.x.x.S.k.c.S.m.S.k.g.k.m.c.k.k.x.c.k.k.d.k.$.f.g.d.h.>.$.k.k.f.>.f.d.f.d.h.f.f.f.x.f.l.g.x.l.d.:.:. .:.k.d.:.g.:.,.>.=.=.| $. .:.d.f.f.d.$.$.:. .d.:.k.| |  .| | | | _ | _ :.| } ..| $.$.=.} | X. .=.d. .d.d.d.X.X. .X. . . ... . ... .} } } }  .0.=.=.=.....=.=...} ^ ^ _  . . .^ ^ ^ ...._ X.} } ^ _ } } .._ } X./ ^ ^ ! ) } ..} ..) ) ^ [ [ ) [ [ [ ) ) [ } ] } { ^ ~ ~ ",
"~.#X^.T.Q.~.^.~. XE.[.P.|.E. X.XkXkX2XL.|.~.oX*X;X*X|.E.[.*X4X XoX*X*X2X2X*X;X*XE.oX*X2XoX&XoXE.R.oXXX%XXXI.~.1X%XXXoX2X XXX1XoX~. X X!.|.T.~.1X XI.L.K.J.Z.P.H.Q.{.#XQ.Z.R.W.{.R.Z.Z.H.E.Z.L.Y.R.Z.W.Q.D.Y.Q.G.D.R.E.Y.H.{.Q.R. X X&X X&X~.XXXX%X X=X&XE. X XR.P.E.&X>X;XP.&X>X4X.X;X{.R.R.}.&X[.|.}.P.E.R.{.].D.D.].@XP.S.V.c.$.( ` C * d * 0 0 < q q 0 0 0 > > < < > < < * % > > > > > % > > > > > > 2 > > 2 ; ; ; # # # # # ; > > ; + > > > > > + + # ; , m A 4 % z D Y i # 2 S ] ~ z S 0.] 4 = x M._.(.qXwX`.(._.'.(.9.5 F $ $ $ $ + + + + > % > % % % % % % > > > + > ; ; % % w G G / r.U.U.U.U.U.S.U.S.}.I.F.P.F.F.F.>X>.Z r S w.q././.Y > % > > % + % % % # % # : : : 4 A w > , & & 5 4 q v U Y Y Y S c n D O.c F V O.w.m.g.x.n.@Xn.k.c.k.k.>.! a m.} = 0 0 # % & & & & & & ] bXZXFXHXCXJXbXGXSXSXSXyXT 8 8 5 9 t t 4 6 w 7 x qXqXwXrX).8.c v M M M v v N W `.'._._.W B N N z m m b m N '.u.t.=.N U B B B B B B B v v v v z z b 8 6 t y u t 8 : 1 1 1 1 1 > 1 1 6 6 6 6 6 2 2 2 1 ; ; 1 , : t aXGXFXFXaXy % # # % # # 4 { `.rXfXM.# # ; 1 M.aXfXHX~ $ $ ; O O O ; O ; O O O O O O O ; ; O O O O ; O O O O O O O O $ $ $ $ O O $ $ o O O O O O O O ; $ ; # 3 2 q 6 q q < + < ] p : $ & 9 $ $ o o o + O + + O O O O O + # @ o o + < H o...$.>.k.c.m.m.m.h.x.c.c.c.m.f.S.m.m.c.m.x.x.x.m.m.c.x.k.k.k.m.G.k.x.c.x.x.k.d.>.x.x.k.f.k.f.f.h.h.f.$.:.k.>.>.f.f.x.f.l.f.x.f.:.k.k.k.>.>.:.$.>.:.:.>.f.:.:.>.-.:. .$.$.$.:.d.f.d. .d.d.$.d.h.d.:. .| } _ _ | ..$. .| |  . .$... .$.=. .| 0.%.0.d.d.d.d.d.d. . . . .} .. .X.....$.| .. .$.=.=.[ =.=.....=._ ) } )  . .....} _ } } ^ } } } } ....} X.} ..} ^ [ ^ ^ } ) [ } [ [ [ ) ) ) ) ) ..[ ..[ } ] ^ } [ ~ E ~ ",
"6.T.~.#XT.Y.Q.E.&X=X X*X&X.X|.&X4XjXlXW.[.E. XXX*X2X2X;X&X|.*X2X&XoXE.oX&X*X&XoX X&X2X*X*X*X|.R. X&X*X.X;X X~. XXX~.3X|.*X2X X XXX1X1X~.P.L.L.!.P.L.L.E.P.Y. X~.P.T.%XL.L.J.W.=XT.Z.E.E.E.Y.R.L.W.Z.Z.{.E.E.E. XR.R.E.{.Y.E.E. XW.&X~.W. X X XXXXX%X X&XE.~.&XXX|.E.2X8X2XE.;X>X4X:X4X>X>X.X{.}..X&X}.R.L.oX[.[.].{.&X].P.G.c.z.#.#.` J 0 e d q 0 3 3 3 d 4 3 3 < * < < < , * % * > > > > > > > < > > > # > > > > > # + # + ; ; % : + # # # > % + % + ; # # , 6 t , # , 2 y < > 2 c E D 5 N { { c > < Y ).`.qXrX`.q.y.)./.{ w R * $ $ @ $ # @ # $ # # $ @ # ; + % % + > > > % + % = # = $ - 0 V _ d.k.x.x.F.F.].@XF.F.D.c.F.[.>.! F { u.9.S x * % % % % + % % + > % % > + y y n x > % > , 5 5 7 A W ] Y M A A c c c c A Y S Y M.`.M.d.0.X.X.V Z V Z V < = X...= # = - # = % % = & $ h '.FXbXGXbXGXGXLXHXHXGXaX{ 5 8 8 8 t t 6 6 8 6 S qXuX).T S c v M M S v v v N i././.`.9.M B N m N p.n m m { M.w.w.S M B M B M B M v M v v v v z b y 6 6 6 2 1 1 1 ; 1 ; ; 1 : 1 8 1 1 1 1 1 1 ; 1 8 ; 1 ; ; : : 5 sXGXGXHXFXy > - # $ # # & < E `.rXaXx > = & m +XdXfXyX6 # # $ $ # $ O # O $ O $ O O O O O O ; O ; ; O O O O O O O O $ # O O O O O $ O O O O O $ $ : # & : # 4 4 w q t q 2 $ $ $ : & : & & . . . $ o o & 5 o X $ $ o $ O o @ @ @ @ @ r Z X.#.$.k.k.k.m.c.x.c.x.m.m.m.m.F.n.x.m.m.n.m.k.m.m.m.n.m.k.f.m.S.x.k.k.c.k.f.h.f.x.x.f.f.k.l.>.g.h.f.>.d.x.k.>.d.>.d.f.g.f.f.f.k.f.f.$.f.$.>.d.$.k.k.$.$.>.$.:.$.$.$.$.d.:.:. .=.:.d.$.d. .1.x.=.g.=.=.=.' _ _ _ =.| | =.=.=.:. .| | =.$.=.$. .:. . .d. .$.d.d. .d... ... ..._  .....| ...... . .} } ..[ ) ) ) [ =.=.=. .| } _ ^ ^ ^ } _ _ [ _ } X.[ [ _ ^ ^ [ ) [ ^ } ..} ~ } ^ } } ^ } ..[ [ =.[ ..[ ~ ^ [ [ ~ [ ",
"-X%XT.^.~.%X!.E.&X XP. X&X2X*XXXkXMXkX[.XXXX.X&X*X;X&X&X*X*X&X2X3X*X&XXX.X X XoX&X&XXXXXXX&XXXR.|. X*XoXoX~.L.~.*XE.~. X XXX X1X1X1XXX|.~.~.XX XE.P.E.T.L.~.!.!.W.T.Z.T.E.R.Y.&X!.L.W.L.E.E.Y.R.R.R.L.{.=X=XW.P.R.Y.L.E.W.&X X&X&X&X[. X X X&X=X X X~.XXE. XXX|.|.XX2XzX&X;X6X;X&X>X7X>X&X;X>X.X}.;X&X XP.P.|.}.[.[.D.D.F.F.V.x.f.$.:.X.e 0 0 < 3 w e 0 3 3 3 3 3 3 < , & , > , > > > > > % > > > > > > > ; > > > > ; ; ; + + ; , # # # # > > # + ; % + O # : # + + + ; t x > + # 2 { { m 8 T ] D a + q Y q.`._.S y 8 S r.A # $ @ $ $ $ $ $ $ # # # $ y G < % + % + > > > + % > + % % # = % = - & V d.m.F.m.F.S.S.>.f.D.F.S.c.X.G p W t.S d * = = % % # > % % > + % + > > c S S 2 > > 2 5 p M A E r.8.Y S D S c n M c n D c M 0.M.] d * * % = % = = + = - , # - % + = # - + + % & # : u.HXFXFXHXLXGXLXaXFXKXGXFXS 8 t t 8 t 8 t 8 8 U +Xw.M c c M M M M B v S B T p.p.'.u.B D S m { './.N x b v v v 8.v v M M S M M B M v v v v z b b y y 6 1 6 8 8 1 8 1 ; ; 8 1 : > ; ; 1 1 ; 8 1 1 1 ; ; 1 ; : & $ r.GXGXHXHXF > + % # # # # # 6 { `.+Xi # $ # : u.aXpXSXr.@ $ # $ # O O O # $ O O ; O O O O O O O O O O O ; O # O O # # O $ # O O $ $ O # # # O O # # : : # 5 4 w y w w e 2 = $ $ % & & : & 5 5 5 & w x V H m p i a p w & o o o @ o o s C !  .$.$.k.m.m.m.c.x.S.m.x.m.x.G.x.x.n.k.k.c.F.m.F.k.G.k.m.m.S.m.k.x.x.c.x.x.f.>.d.h.f.c.f.f.f.f.g.x.l.>.:.h.d.d.>.f.h.>.l.f.>.d.f.f.f.f.$.#.f.>.f.d.:.d.:.| :.d.$. .$.d.:.:.:.:.|  .:.$. .r.f.,.=.=.=._ | } =.| | _ | =.| #.=. ._ :.d.:. ...0. .d.d. .d.0. .d.X.X.} } } ..=.} .. . ....... ... .} =.| =.) ) _ ) _ =._ } ) } ^ ^ ^ _ } } _ ^ ^ ^ / ^ X.[ ..X.} } ..} ..} ..} [ ^ } } [ [ ) [ ) [ [ [ [ ) ~ ) [ ~ [ ",
"1X~.^.J.%X~.XXXX*X&X~. X*XXX.X|.|.6X|.L.T.&XXX[..X X.X;X4X4X2X&X XE.|.&X2X XXX&X2X&X2XE.R. XXXE.*X4X*X X.XXX~.XX|.~.*X X|.*XXX&XoX XoX1X1X*XE.XX X XT.P.E.E.L.P.P.P.E.T.L.K.L.W.&X&X XH.T. X&XR.{.{.T.R. X X~.~.&XE.E.&X&X XR.E.E. X XP.E.E.T.P.~.oX~. XXXXX X~.|.*X8XlX6X.X&X&X.X4X;X&X.X>X>X>X.X>XOX}.I.oXOXoX,XoX}.E.F.D.x.V.>.k.$.o.r q d * 0 w 0 3 3 3 3 3 0 2 0 < > * < > , * > > > > > > > > > > 1 , : : > , ; ; : # ; ; , # # # # # # ; > z , > : # O : ; # + q Y X.Y Y q & N { i u 9.0.W W + + , 4 c c 1 1 1 1 9 & # = $ $ $ $ $ $ # $ $ @ @ Y 0.0 % % % % % + > + + % % # # % # $ - = = = V | x.F.D.$.C = * Z S.d.( f d N u.] 0 = = % % % # % + % % % % % % + > x n 2 , > , 2 m z E { Q W W 8.U D c c M A A S W S A 0.y.0.z > = # # - - # - = + % & $ @ % @ - + - = # $ & $ 5 H E CXFXJXJXHX).sXsXsXr.8 6 7 7 y 6 t t y y S T S M M S M M M M M M M S u.).p.=.N M m m u.).'.E m m 9 N v 8.U v v M c M M B v v y b v v t z 8 y 1 6 2 8 1 1 1 1 : : 1 1 : : 1 8 1 1 1 1 : 1 1 : ; 1 1 ; : # : i SXGXGXHXOX2 % + $ # # % & : w { ).E $ $ $ $ D +X`.rXrXq $ # # + # $ O O O ; O O ; O O O O ; ; O O O O O : $ O # $ $ $ O $ $ O O $ O $ O O O O O & & : & & 4 q s w q w < $ . $ : # # & & w 9 h p V h m r a h H n G D m e # X o @ @ e C ! | $.d.k.k.k.x.k.c.m.m.m.m.F.c.m.m.V.F.F.S.k.l.c.k.m.c.m.V.k.x.k.k.k.k.k.k.:.>.f.f.$.k.k.k.$.f.>.f.f.f.:.>.d.f.g.f.f.g.d.g.>.f.f.f.f.d.$.$.d.d.$.d.,.f.>.:.:.$.$. .| :.:.$.:.-.=.:.=. .:.=.x.=.,.=.=.' } _ _ | | ' =.=.| | =.=.-. .d.d.....$.$.0. . .e.0.d. . . . ... .:.=. ... .} X. .| =..... .=.[ ..} _ [ [ ) [ ..} _ ^ ^ ) ^ } } } X.X.^ ^ ^ / X.} ..[ ^ [ ..} [ [ } } } [ } [ ) ^ ) ..) ..[ ^ ) [ [ ) ] ) [ ",
"~.~.~.~. X~.1X1X&X*X*X2XXXXX.X*X6XkX4XP. X|. X|.oX&X2X;X5X3X X&XoX&XXX|.oX|. X3XXX X*XoXXX|.*X|..XoX2X[.&X X|..XXX X4XXX*X3X*X&XXXXX1X2X*XXXXX1X~.P.P.E.E.P.v.P.P.Z.L.XXE.K.E.|. X.XE.K. X{.{.L.R.&X[..X*XoXI.~..X X.X&X=XR.P.K.[. X&X X.XE.oX XE.E.|.!.!.=X XXXXX2XkXcX>X[.oX6X>X.X>XOX}.OXoXOX>X;XOXoX}.OXOX}.].].E.].F.F.S.S.>.>.$.X.G e e 0 w 0 3 d 0 3 3 0 3 3 < < , > > * > > > > > > > > > > > > , ; ; ; > , > ; ; # ; + # @ # # # % # + 2 n 2 + O O : O + > x E ] S { 0.D # & 4 : M r.t.q.).q.E U q , , : 5 1 ; & # # $ $ # # $ # # # $ # # # q 2 + + % > + > > % % % + # $ # $ $ # # # + = % % r ^ f.! C d - - X.#.C 0 w ] 9.< % % * = % % % % % % ; ; % + % % + 2 , % > > 1 x E W { W W W E E U A M c c x c S T A S w.0.M.q.Y y % % - % - $ $ $ q 2 = * @ + + + @ + = = # $ = $ : R ).).).H 9 u t t t 6 u z z y z z b 8 y v M c c c v v M M M B M S w.'.u.B B B N m W rX/.r.m 9 9 9 m v O.v v M v v v v v v v v 8 8 y b 8 8 6 8 6 1 2 1 : 1 ; 1 ; ; ; ; : 1 ; ; ; ; ; ; 1 1 1 ; ; ; ; : : : O tXGXGXGXDX] % $ # $ $ % # & : 4 r.D $ $ $ $ : p.`.qXtX8.# # + ; $ O O O O O O O O O O O O O O O ; O $ O O O # # O O # O # $ O O O O O O O O # : : : : 5 & 3 4 w w w 0 2 $ o $ & & & 5 D { L H m h h q D sXyX=.m H H G H V < . @ o 0 V G _  .d.k.g.k.k.x.k.m.V.F.S.c.m.m.x.m.F.F.F.x.g.k.m.m.c.c.S.S.k.k.k.k.k.k.k.l.f.f.x.k.g.g.g.$.f.k.f.f.f.:.d.f.f.c.x.k.k.d.d.f.x.f.d.d.d.=.d.$.f.f.d.f.d.:.>.d.f.:. .| -. .:. .=.:.=.:.} =.g.x.d.r.=.=.[ _ | =.=._ =./ =.=.=.:.=.=.:. . . . .$...|  .d. . . .0. . ...|  . . . . ... .} ........} } ..) ) } ..| } _ ) _ _ } _ _ ^ / [ ^ [ / ) [ ^ / [ ~ } } ^ } } .. .[ ^  ...} } } ..) ^ ^ [ [ [ ) ) ~ ~ ~ / ^ R ^ ",
"~.%X X%XoX%X1XXX!.oXXXXX1X*X2X2X6XcXjXR.{.:X{.&X&X&X2X4X.X*X5X2XXX*X X2X2X*X.X.X|.|. X*XoX X*X&X;X|.*X XXXE.&X&XXXXX*X4X3XXX|.*X*X*X2X XXX&X.X*X~..X&XoXC.Z.E.P.|.E.~.&X&X*X|.E. X|.R. XR.E.I.C.D.R.E.[.XXoXXXoX XoX*XXX2X3X[.E.|. XR.|. X|.|..X~.~.oX~. XXX XXXoX3X5X5XOXXXoX2X6X4X6X2X6XOXjX>XlXjX>XoX.X>XoX}.oXOX}.oX}.F.P.F.k.m.c.d./ V a * 0 0 3 3 q q w 0 2 * % * , * > > > > > + ; > > > % > > ; ; ; ; ; + > > > # # # # y x - # # # + # , w > # + ; O ; ; ; 5 z q 1 t S y + A 0.Q 0.i.q./.(.(./.M.t.A $ # , : O : # # $ # $ # $ $ # # $ # # $ $ + + % % % % % > + + % + # # $ % $ # $ # # # % % % % C X.X.! G X.M.X.Z x E 9.E % % % % % % > > > % % > ; > % + > > > > ; , 1 4 c Y T W ] ] E U E E U A c M c S Y Y M M q.y.i./._.0.q > + D p - @ + @ + G  ., ] y % $ $ $ $ = # $ + % 2 q 7 5 4 5 6 4 7 6 y y i i z z 6 y y v c S M v v M M v M M M M T ).p.D N N v M M '.+X/.u.z 9 m 9 b v v v i v c v v v v v v 8 y y 8 8 6 6 8 1 1 1 8 1 1 ; ; : : : : ; 1 1 ; 1 ; 1 1 : : ; ; ; + + O $ # $ $ '.GXGXGXGXr.% # $ # # & & O # : x i # $ + - % z (.rXuX`.z + + + ; + + + O O ; O O O ; O O O O O O O $ $ O : O O $ $ O # # O O O O O O O O O O O # ; ; ; > < q w p p w 0 $ $ $ $ & & w '.sXsX+XM.u.M.0.M.CXvXsXR w n V H G D & X o @ p G / ..$.g.g.m.k.k.k.c.c.c.x.S.c.F.x.m.m.m.m.F.c.m.F.x.x.k.C.c.x.f.k.>.k.k.k.f.x.f.f.x.f.f.g.f.d.f.,.:.:.g.f.:.g.k.x.,.m.g.g.g.k.d.g.d.$.$.$.$.d.:.d.:.d.f.d.d.d.d.| _ | d.| -...=.:.>.=.=.,.k.=.,.=.=.=._ _ =.=._ | [ =.} | =.=.|  . . ..... . . .0. . . .d. . .X. . . .0.| .... .=.....[ ....=.} | ) ) _ ..} } [ ^ ) ^ ^ ^ _ ^ ^ ^ } ^ [ / ~ ^ / ) } [ } ^ [ ..} ..[ ..} [ } [ ^ [ | ) [ [ ) ~ ^ [ ^ ! / ~ ~ ~ L ",
"|.~.oX~.%XoXoX~.oX1X%X1X2XXXoX6XcXnXjX[. X&X:X>X;X;X=X;X&X&X*X;XXX X*X&X*X|.*X&X*X2X&X X X.X.XXX&X.XE.[.2X2X X4X1X%X;XoX2X4X XoXE.|.&XoXoX XoX*X.X[.P. X|.E.P.P.P.E.[.oX*X2X&XE.E.oXE.oXE.[.{.=X:X;X{.R.2X1X1XoX[.*X2XoX.X*X XE.E.|.|.|..X X|.*X~.L.T.XX~.I.~. X|..X4X2X6X6XOXOX6X6XUXkXjXjXlXcXjXjXjX>X>XjX}.}..X}.;XoX}.P.F.P.F.F.S.g.' G j 0 0 3 3 0 0 2 0 < 2 * * % % > > % > > > > ; ; ; ; > > # > ; ; ; ; > ; ; 2 t ; % 2 n c + # # ; # # > + ; + ; + # # ; O # ; > : Y i > > 4 ] u.u.q././.(.`.(.(.'.y.t O # , : $ # # # $ # $ # # $ # $ # + + # # % + + + > + % % % % > $ # # # % $ # # # # + + % = - * V | M.x.x.$.Z S W t.i % % , * % % % % + % > % > + > > > ; # > > 1 1 4 U Y W W { { W W 0.W S c c c c M S Y M U y.M./._.qX'.q % @ ~ G X $ o + X x p D vXM., # # + # # # # , < , , , * , , 1 5 4 t v i z i z z z z v v M v v c v c M v v M M B T T U N N v m v N '.sXp.=.u u u u u y v y v y v y y c v y v y 8 8 6 8 6 6 8 1 > 2 8 1 1 ; 1 : : ; ; ; : : : : ; ; ; : ; : 1 ; ; ; ; # : # 5 ] HXGXGXGX).# # $ # # # # # # # # & O $ # # + > U +XqXuX`.o.+ + + ; + + ; O O O O ; O O O ; O ; ; $ O O O O $ # # O O # O O O O $ $ O O O O O # # ; ; ; , < w w y e w 3 & . $ $ = & 9 `.fXr.W sXsXwXrXpXtX(.M.F $ = 0 k Z J C = . o r H ! _ | g.d.g.f.g.e.k.x.x.k.k.x.k.k.m.G.c.S.k.x.x.k.k.S.k.m.m.m.f.k.k.k.k.k.>.f.>.f.f.x.f.k.d.f.h.f.f.:.,.:.| =.k.k.M.m.g.:.g.k.x.g.g.g.|  .$.d.$.>.f.$.f.$.$.d.$.| | :.d.} =.} :.d.=.=.=.g.m.l.r.=._ / =.=.=...| | _ | | =.:.=.|  .$..... .|  .$.%.0. . . . . . . .$.#.}  .....} [ ..=.=.=.) } ) ..[ ) ) } } _ ^ _ _ X.^ ^ / / _ } } ^ ! ! ~ } ^ ^ ^ } ^ / }  .[ ..} ..^ ^ [ } ^ ) [ ..[ [ =.[ ^ ~ ) ) E ~ ^ ~ ~ ",
"~.I.~.~.1XoX~.~. X~.|. XXXXXXXXXcXcXjX{.&X>X=X>X2X;X2X4X;X;X*X1XE.oX&X.X2X&X*X2X X*X4X&XoXoX4X1X2X=X|..X2X:X2X~.I.XX X3X&X*X1X*X2X2X*X.X&X[.oX1XE.K.P.|.[.P.|.oXE.P.|.|.|. X&X[.E.oX&X|.;X.X{.&X;X{.R.[.|.4X2X2X*XXX XXX&X;X&XE.oXE.|.&X|.P.|.2XI.I.%X*X~.L.~.oX[.|.6X4XjXXXXX6X6XjXOX6X6XlX6XjX4XjX>XjXjX>XoX}.OXoX}.}.P.[.}.}.}.F.F.k.>.H V a e 0 * 2 0 < , * d > > % > + % > > % > > ; ; > ; > > > > # ; ; ; > + p D D z # > 2 # # % # # # # + > + # ; # ; O O # # # # p r.S # , M y.M././.(.(.`.`._.i./.).Q O 3 0.{ 5 O # $ $ # # @ @ @ $ o - # + $ + + + % % % > % % + + % $ % # % # $ # # # ; # ; % @ = % * q r n X.d.E o.{ N % % > % % , % > > % > % > % + > > + ; > > ; 1 1 i Y Y E W 9.0.q.9.{ U Y U S c c n Y W m T /./._.rXtX).3 % @ - # @ @ + $ @ % # S vXZXM.1 % $ $ $ :  .yX+Xr.g.E n > 2 6 t 6 4 y y c x z c z c v c v v M v M v v v v c v S B M N m v m N U y.'.rX'.F u u u u u y v y v i v v v c y b y 8 8 8 6 6 2 2 1 1 1 2 2 1 1 : : 1 ; ; ; ; ; ; : : : 1 ; ; ; ; ; ; ; ; ; : & : : i SXHXLXLXaX3 % $ # # O $ O $ O O O # # + # + % < w.rXqXuXyXW O + ; ; + O O O O O O O O ; O O O $ O $ $ O $ O # O # # O O $ O O O O O O O o O O O # O + % < w y w p p 0 $ o o & & : 5 F yX'.i n { m 7 i 3 # O o o o @ e H G G H d . a G ! ` $.=.g.g.g.d.d.f.f.x.k.c.m.k.k.x.c.m.x.x.c.k.c.m.S.x.l.k.x.h.k.k.f.f.k.d.:.d.f.f.m.m.x.f.d.h.,.=.f.f.k.k.f.=.M.x.k.x.f.f.r.,.k.g.k.$.$...$.d.d.d.d.d.$.d.:. . . .:.$.:.| | =.=.=.| | =.=.=.=.=.=._ _ =._ =.} ) =.=.| | | =.=.....|  .} .. . .0.e.d.X.$. .$... . .} | :. .r.=.=.| =.=.=.....} ..| ) _ ) ) ) _ ^ ^ } _ } _ ^ / ^ [ ^ ! ! ~ ^ ^ ^ [ } ^ ....[ } ....[ ..[ X.} ^ [ ) [ ..) ) ^ ~ ^ ~ ) ) ^ ~ ~ / ",
"[.[.oX XXXXXI.~.2X2X X|. XXX[.6XcXkXkX&X=X:X;X:X2X8X2X:X2X*X2X4X;X&XXX*X&X XXXoX X|.2X*X.X&X*X2X:X2X X X X2X4X2X2X*X[.E. XXX|.|..X*X*X*XoXoX*X&XXX X~.oXE.E.&XoX.XE.*X*XXX.XE.XXR.}. X{..X[.&X2XE.R..X&X1X4X4X3X2X2X&X XXXXXXXoXR. X X;XE.E. X X~.C.L.~.I.L.~.K.P.&X2X6X5X>XXXjX5XoXkXcXlXjXjXlXjXjX;X>XlX>XOXOXOX.X}.].[.}.OX].}.G.F.x.:.! V V p 0 0 q 0 < = < * > = % % % % % + > # ; ; ; # > > + > + # ; , # + , i c c , # < p $ $ # # # # # > + ; # O ; # # ; # # # # U M.] u S 0.W /.`._._./.q._.(.U 0.(.9.U M.).).u.~ % $ $ # # # # # , ~ S o $ % & D < @ + > + % % % % + # # $ $ # # # # # + > + + % % < d 0 < 0 q x x M m , & , % < & & > % % > > > % + > > > > % > > ; 2 5 m Y E W 9.{ 0.9.9.] Y U A A c n M Y ] M W (.(.tXtXY A * $ @ w +X+X2 @ $ + + # ~ bXbXCX~ p @ # # ~ IXAXPXLXGXJXDX+XM.D 6 D M.i z z z z c c M v v S S c M M v M M v M M c v M m v B t.p.)./.'.`.r.z u u u 9 u y v 8 y y y i z i y i i 8 8 6 2 1 2 1 1 1 1 1 1 1 1 1 : : : ; ; 1 ; + : ; ; ; ; ; ; ; ; ; ; ; ; : $ $ : 5 pXGXGXGXGXY , $ # # $ $ $ $ $ $ # # $ # # + + % c `.(.qXrXrX8.O O + + O O ; O O ; O ; O O O ; : O O $ O $ $ # $ # # O O O O O O O O O O O O O O O O o + > 0 2 < < < % o o o $ $ $ $ o p D p $ X # & O O O @ @ . X $ @ * V F R F h a H G } =.g.g.x.g.g.d.k.k.h.g.x.c.k.f.k.c.m.m.>.f.k.m.c.x.l.m.x.x.x.x.f.k.k.k.k.:.>.,.x.f.f.f.f.f.>.f.f.,.:.,.=.:.=.:.:.k.f.g.d.g.k.g.g. .d. .$.:.d.$.g.$.>.:.>.:.:.$.| | | | | | =.=.=.| _ d.x.,.=.=.| _ =.=.=.=.} | =._ =.=.[ | } _ ..d.$. .|  .X. .0.d. .0.$.0.....| }  .} } | ..=..._ ..[ ..| } } } } ) [ _ ..^ ) _ } / ^ } X.^ [ } ../ ~ / ^ ^ / ^ [ } } [ ^ } ....} ..) ..! [ ) [ ..) [ ) [ ) ~ ~ / ) ) ..) R ",
"E.E.[.2X&X.XE.P.~.*XoXP.~.*X}.2XxXNXlX[.&X;X:X:X4X;X4X3X*X|.oXoX*X.X&X*XoX&X;X X&XoXE.*X2X*XoX|.&X5X*X|. X X X|.[. X|. XoX X.X.X X.X2X2X*X2XE.E.oXXX&X XE.E.E.L. X|. X|.P.K.P.|.~.&X[. X|.*XR.[.{.;X{.[.[.oX5X5X4X3X*X*X2X*X2X*X X[.=X XR.|. X2X~.K.oX~.~.oX~.~.E.|.*XjXkXOXOX6XOX>XcXjX6XlX>XOX>XcXjXcXOXjXjXjXOX}..X}.}.S.U.U.F.F.k.k.g.$.! V c q q 0 * & & * * * > % % % > % > % > > > > + > ; > + O o + > > c x S o.z > 1 S p # # $ % # # # # # # # O # # & , u u # # D R 9 , u M U (.).(.p.N B q./.m m U 6 0.`.'.'./.M.c + $ O O $ $ $ x u.F $ $ $ Y +X0.0.x % + % # % # # # # # # # # # # # # ; + > % % < d q 0 d 0 2 n o.2 > > > * % > * * % > % % % > > > , > > > > > ; 1 2 V U Y W 0.9.9.9.9.{ ] Y U M S S S Y 9.c ] './.uXy.> $ # $ & '.PXJXM.> + @ + # 0.ZXbXFXbXvXr.# & A +X{ +X'.KXLXJXFXGXGXaXFXDX0.z z z x c n c M v S M S v M v v c c v S c c v c 9./.).'.'.'.yX`.D i i u 9 t 9 y y b v y y y 8 y y 8 t t 6 6 6 1 1 6 ; : : 1 6 1 1 ; ; ; ; ; ; ; ; ; ; ; ; ; + ; ; ; ; ; : ; + $ $ $ : : rXHXGXGXGXw.: # # # $ $ $ $ # # + O $ $ $ $ $ $ & u.wXqXtXqX@X8.> + ; ; $ ; O O O O $ O O ; O O O ; O $ O O O $ O $ $ O O O O o O O O O O O O O O o o o o + O O o o o o O o o $ $ $ $ # O ; O o o o o X o o o X i Y p @ 3 D ^ R G F Z J _ d.$.g.g.e.d.d.k.k.k.k.g.x.m.f.x.k.m.k.k.k.c.x.m.x.k.x.m.m.x.x.g.x.4.x.f.f.=.=.l.g.=.f.,.=.:.:.,.=.:.,.g.g.g.,.x.m.g.d.g.d.k.=.k.f.=.d.=.$.=.d.>.f.>.:.>.d.$.:._ | | :.| =.:._ =.) ) =.m.:.=._ _ =._ =._ =.=.:.| } ..=.| } _  .$.d. .0.$.| `  . .d. .X. .X.:... . . .[ ....=.=...[ [ ..} ....~ ~ } .. .} ....} ^ ^ _ ) } } | [ ) ..~ ^ [ ^ ~ / ~ ~ ......} [ ..{ ) } ) } ^ ^ ) _  .^ ) [ ^ ~ ) [ ) / ) ..[ ^ ",
".X&X*X*X.XE.[.[.|.oX.XE. X&X4XoXvXcXjX|.&X&X>X;X;XoX;X3X4XE.&X&X&XXX&XoX X X&X2X2X.XoX*X*XoX.X&X*X&XoX X&X;X&X|.XXR.oX3X*X=X4X2X&X;X X2X3XXX[.|.*X;XE.P.|.E.oX&X.X*X&X&X X~. X*X:X|.|.*XoX X X*X{.R.I.{. X&X*XXX4X3X3XXXXX2X*X&X*X.X|.4XXX X&X2XoX~.%X X1X|.I.|.|.oX|.2X6X.XoXjX6XjXlX6XjXvXOX.XjXjXjXjXjXcXlXjX6X}.}.].U.U.n.n.}.n.k.k.f.d.../ D e d 2 < * * < % * 2 * % > % > % > > % > > > # ; ; : ; ; # # 2 E w.w.E > > , 2 $ # # p Y a # # # # # # : # & y S D n $ & : 5 O : , 1 n 0.E q./.M N Q U m Q : : y S /.`.).).W ; q V n @ $ # $ $ $ F D # z ] +X'.w.@ % % # # # % # # # # # # # # ; # + ; + % & < q q q 2 d 2 n o.2 < * * > > > > > > % > > % % > > > > > ; > ; > 1 t A D W ] ] W 9.9.] 8.T E D n A D U Q w.A w._.`.qXo.c $ $ % w +XbXJXFXM.z + + ; y 0.aXFXbXCXsXp & $ - & & ) bXLXLXLXJXLXJXJXGXIXw.z z z c c M c M M M S M S v M v v c v v v c v M D 9./.'./.`.u.9 w 9 9 u 9 u b y 8 6 i 8 8 6 6 8 b 6 8 6 4 6 1 1 1 2 1 1 1 ; 1 ; ; 1 ; ; ; ; ; ; ; ; ; ; ; ; ; ; ; ; : ; ; ; $ : : $ : r.HXHXHXGX'.; # # # $ O # # O # # # # + % # $ $ # F `.`.qXqX`.qX8.; + O O O $ $ $ O O O O O O O ; O O $ $ $ O O O O O $ O O O O O O O O O O O O O O O + + + O O O O o O O $ o O $ $ O O O o O O O o o o o o o o 0.+X+XA q H G ~ G ~ X.^ ]  . .g.g.d.g.k.m.m.m.x.g.G.m.k.S.S.m.m.m.>.m.x.x.k.m.x.m.n.f.x.x.x.u.m.x.x.l.r.,.=.x.=.g.d.d.:.,.f.f.:.:.g.=.k.m.n.g.k.k.f.=.f.=.:.:.$.$.=.$.f.d.f.g.d.d.$.$.:. . .} | | =.=.=.=.=.=.r.f.,._ =.} _ ) _ =._ ) =. .| | =.}  .....X.$.0.|  . .0.d. . . .0.:.0. ... ... ...}  . ...=.=.} ..} .. .....} ..} } ..[ [ ) ) _ ) _ } | ~ _ ) ^ X.[ ^ ! ~ ) [ ......[ [ ^ } ) [ [ _ [ } [ ) ~ [ ) [ [ ) [ ) ~ ! ~ ~ ^ [ ",
"oX|.&X X|.&X&XR.L.P.P.P.[..XoXOX6XjXcX&X}.;X;X>X;X;X;XXX&X*X X X[.oX[. X X;X2X2X*X&X&X&XXXE.*X3X*XoX3X2X*XXX|.XX X2X&X2X3X2X3X2X*X[.|. X&X&X|.E.XX*XXX*XoX[.*XXX*X X X|.XXoXE.P.|.&X*X|.E. X&X*X.XoX[.L.E.2X8X2X4X&X2XoXXX*X X*X;X2X|.|.*X X2X*X~.oXoXXXoXoX~.|.oX XP.2X2XOXOX6XOX6XlXcXcXcXjXjXjXiXvXcXjXjXjX6XjX].].[.}.].].U.}.F.m.x.m.$.| | ^ V w < * & * < 2 d 0 % > > > > % > % % + > + > ; # ; ; ; # > z 0.i.w.6 # > ; + # # , x W c % > # & # # # # # 4 m S t $ $ : n ] Y u 1 v 8.S S y.M.m B N r.m : ; S 0./.rX`.)./.0.w.M.r.w $ $ # & p '.M.& O ~ M.M.M.> @ % # # # ; % # # # + ; # # + # # # + = < q q 2 2 0 2 < d d * * * > * > > < * > > > > > % > ; # # : # ; # > 1 z U Y D U T E ] { { ] ] ] U S U U T { 9.S 7.).+XuXdXw.# # $ = # u +XPXGXvXD + % # > M.CXbXvXvXD 5 & = & 5 y F sXPXJXLXLXGXfXvXKXDX).z v c v n c v M M M v M M v v z v v v z x x v z z v /.).d.N p 9 9 t 7 4 7 y 8 6 8 y 8 y 8 b 6 y 6 t 6 6 1 1 1 1 > , ; 1 ; : , ; ; ; O + ; + ; ; ; ; ; ; ; ; ; ; ; ; ; ; + # $ : : $ 9 sXHXGXHXaX5 # $ # # # # # # # # # # + + # # $ $ 5 ).uXrXqXqX).qXO.> O O $ $ O $ $ O O O O O ; O O O O O O $ O O O O O O O O O O O O O O O O O O O O O O O O O O O O $ o $ o O $ $ O $ O O O O o O o o O o o X A g.g.[ a m - # d H J ^ ^ 0.$.d.g.M.k.m.e.k.k.k.k.k.k.g.x.S.m.m.x.x.x.n.m.x.x.x.m.g.g.x.=.x.x.x.r.,.r.=.,.=.=.,.g.k.g.f.d.d.f.=.g.,.=.=.x.M.,.d.f.d.f.,.:.f.k.$.=.:.d.d.$.$.f.k.g.:.d.:. .=.| | | :.:.=.=.) =.=.,.=.=.=._ =.=.=.=.=.=.} :. ...| ..:. . . . .d. ...X. .d.g.d. .=.| %.0. ... . ...[ 0... ...) ......X.=.0.} [ ..[ ......} ) } ^ ^ | .._ ^ ^ ) / [ / / ^ _ ^ } } [  .=.[ [ [ } ..) [ ^ ^ [ ) ~ ) [ ..) ^ ~ ) E / ^ ^ ~ ^ ",
"&X.XoXP..X;X;X XoX XE.2X&X;XOX6XcXmXxXoX.X&X$X}.}.4XXX*X&X4XXX.X X X2X*X;X*X*X*X.X2X&X X&X.X2X&X3X[.*X*X3X3XXX&X|.&X;X;X&X*X*X&X X X*X.X XoXE.|.;X&X2X*X*X2X*X&XXX|.&XoX XoXR.P.R.|.|.E.P.|.;X&X=XR.E.[.;X*X.XE.4X2X&X*X X*XoX3X2X*XoXE.|.E.P. XI.|.L.oXXX|.~.|.|.I.E..XkXkXjX6X>XjXkXvXnXjXyXjX6X>XjXcXjXjXjXOXUX}.OXoX].U.U.].P.].@Xk.S.x.h.f.#.P V p < * * 0 < * < * < * > > % > % > > > > > ; ; ; ; ; ; , c w.i.F X # + ; ; # # % q 3 + # # # O # # # # $ # < 2 # $ $ # 7 F ~ S t n `.] 1 t E W 5 y u T ).E E rXrX`.`.`.`././.(.qXu.m $ O # 4 i , $ # 5 m r.Y % % = # # # ; # # # # ; # # # ; # # # ; % < < d 2 2 < 2 < < 2 * > > > < < < > > * * > % % + % > ; > # # # # , 2 i A D S A c T E T ] 9.8.] Q U Y Y W 8.y.S 9.`.wXbX`.q & # a & $ = p '.bXKXyXM , % , n sXCXfXCX0.: # & & 2 3 w H vXJXLXLXGXZXr.CXDXDXw.c c M c v c M v M M M v v c v z b z z i z u u z x /.w.v x 9 9 w 7 4 7 t 6 6 y 8 8 6 y 6 2 y u 2 2 1 , 1 1 > 1 > 1 : ; ; ; : ; ; ; ; ; ; ; ; ; ; ; + ; ; ; ; ; ; ; ; ; ; : $ $ # : : =.FXGXHXHXr.# # # # # O # # + O O O + # # # # $ & E yXuXyXrXqX`.(.8 $ $ O $ $ O O O O ; O O O O O O O O $ O $ $ $ O O $ O O O O O O O o O O O O O O O O O O O O O O O $ o o O $ O O O O O O O O O o O o o o o X o + q c a . o . w D ! / ....d.d.g.m.d.d.g.k.m.m.m.m.k.k.g.F.k.m.x.x.g.n.x.k.m.x.n.x.x.x.f.x.x.x.x.=.=.=.=.,.=.-.M.k.k.k.=.g.m.f.=.=.=.=.g.x.g.g.:.:...=.=.:.$.>.d.$.f.f.g.g.k.d.d.$.:.:.| | :.d.:.:.=.( =.=.=.,.=.=._ _ =._ =.=._ _  ._  .d... . .d. . . .d. .=.d... .X.0. . .} X.0. .} ..r. ...| ..=.=...} X.0...| | 0.X...} ........) ) ) [ _ [ ) [ ) / ~ ^ ! G / ^ ) [ ..[ ..[ ..[ ^ [ [ } [ [ } ) } ) ) [ [ ^ ~ ) ) ^ ) [ [ [ ) ",
"|.&XoX.X.X&X>X.XR.P..X.X.XoX}.oXcXNXmXOX;X=X:X>X:X;X;X.X X&X X XoXXXE.*X X&X2X2X*X&X*X X&XXX*X.X*XXX*X4X*X4XXX&XE.oX2X*X XXX XXX&XoX X*XE.E.|. X|.*X XoXR.oX XP. X&X*XP.E.oXK.T.R.XX*XE.E.2X:X.X.XXXP.E.&X X2X X&X*X2XXX&X*XXX*X X2X&X*XXX X|.R.&XP.P.*X*X1X.XoXXX|.[.4XxXjX6X6XjXjX6XjXjXjXnXjX}.jXjXcXmXjXOXjXOXOX>XOXOXOX}.].oX}.F.x.S.n.k.k.d.$.X.H e 0 d < * < < < * > > * > % % > > > + > # ; # ; % U S y N w.0.3 + # # # % # % # # # ; + : , S M & # # # % # # # # $ # & ; S 0.z S y 2 + z M.i : 1 D 0.n 8 q.wX).(._.`.(./.(.`.qX`./.r.S % $ # & # # : 5 > + $ & $ # : # # # # : # # # # ; + + ; % > < < > > < > > * % > < * > * < > < < > * > > % % % > ; # # # # ; # : 2 6 y S D A u S Y W W 9.w.] T Y T Y W W 9.D 9.+XyXyXw.q # ..+Xm $ @ + , Y bXGXyXA , > q Q rXCXbX'., & & & : 3 5 M.LXKXLXLXsXFX'.0.yXDXyXv c M n c v c M S c c v v v c v z z z z z z z 9 z c v z y 7 7 8 t 7 4 7 6 6 6 6 1 8 6 8 y y 6 6 1 6 , 1 ; ; ; # , : ; ; : ; ; ; ; ; : 1 ; ; ; ; ; ; ; ; ; ; + ; : ; ; + # # $ : $ : p aXSXGXGXyX< # + # # O # O O $ O # O $ O $ $ $ : N rXCXdXuXdXgXtX0.O $ $ $ $ O O O O # O # O O O O $ O $ O o O O O O $ O O O O O O O O O O O O O O O O O O O O O O $ O O o $ O O $ O $ O O O o O o o o X O X O X X $ & 4 o X . X q V R X...g.g.d.g.d.d.g.k.g.m.k.d.d.m.k.m.x.m.m.k.f.k.m.x.x.v.x.g.=.g.g.m.x.f.f.,.=.=.,.=.=.d.g.:.g.g.g.k.M.,.=.f.,.g.:.x.:.=.g.=.=.=.:.:.$.:.d.d.$.k.g.g.:.g.d.d.-.=.=.` -.=.=.=.=.=.) =.:.l.=.) =._ ( ) =.=.=.( | _ | d.$...=.} ..0.d. ...X.$.|  . .0.d. . . . . .}  . .[  .=...[ ..| ..} ^ { 0. . ... ...^ ~ } } } ^ .._ ..) / ~ / / ! ! G G Y ^ ^ } } } ~ ) ..[ ^ ^ [ _ [ ^ ^ ) [ ) ) ) ) ) ~ ~ [ ) [ ^ ^ ) ^ ",
"&X2X.XoX{..X&X[.R.[.&X.X.X.XOXOXlXnXxXoX}.{.>X>X>X=X4X4X2XXX|.XX XoXXX&XXXXX2X XoX&X&X2X2X*X*XXX&XP.oXXXoX*XR.R.|.~.[.&X;X2X;X X*X2X4X;X&X|.XX;X*X[.|.E.|.=X XoX XXXK.R.&XE.K.|.2X X2XXXE.;X X X.X*XE.4X2X|. X[..X X*X*X|.kX&XXX.X&X XoX2X2X*X;XXX XXX8X|.!.~.|..X.X[.4XkXjX>X6XoXOX>XjXjXjXjXjXOXjXjXmXcX6X+X}.+XoXXXOXOXOX}.XX}.].].U.].U.F.n.k.d.$._ j d * 0 2 q < > < > > > > > > > > + > > ; > > + z q.w.w.8.B y.t.S # # # $ # # $ # # # ; # 3 S D 4 # # $ , 4 # # # $ $ # + Y M.c 2 6 Y c # z 3 ; > 2 8.q.6 /.qXrXwXqX_.(.(.(._.qXpXwXtX`.S & O $ & # $ $ , % $ & & # # # # # # # # # # # + ; ; ; + , % % % % z a % % % > > > > > > < > > > > > > > > > % > + > # ; # # # t x 2 i S U 6 M Y T E ] 0.0.W T 9.{ ] 9./.U 9.`.rX).c < % D R & @ # - $ > A M.AXyXW A 6 4 m yXCXbX+Xn : : & 5 5 sXLXu.ZXLXsX/.sXm M yXAXS c c v v v z c v c v z v v z v b y b b u z z b y b z y u t 7 y t 6 7 4 8 8 6 2 1 6 2 8 6 2 2 > 1 , : > : : 1 , : , 1 : 1 : : > ; # ; ; ; ; ; ; ; ; ; ; ; ; ; ; ; ; ; ; # # # $ $ : $ '.CXSXSXyX, # # # O # O $ O O O O O O $ $ # $ & : '.CXSXSXSXHXvXCXU # $ $ $ # O $ O O O O O O O O o O O $ $ O O O o O O O O O O O O O O O O O O O O O O O O O O o o O O $ $ $ $ O # # O O O O o O O o o o O X + X o X X @ @ @ . - a G / } d.g.d.g.d.g.g.d.k.g.k.k.k.m.k.k.m.m.k.g.f.m.k.x.x.=.=.,.g.g.M.x.M.g.f.M.=.,.f.=.=.=.:.d.=.=.k.f.:.=.f.:.=.=.=.l.f.f.=.,.=.:.d.:.| | $.$. . .>.>. .>.>.$.| -.=.=.=.=.=.=._ _ =.=.=.:.=.=.=._ =.=._ =./ =...}  .d.} } .. ..... . .0.$. .0. .:.d.d.....X.0...{  ... . . ... .=.r........... .[ | 0.X.! ^ [ ..} L ) ....~ L ~ / / R R ! ! G ^ [ [ ^ [ ) ....^ / ~ [ [ / ^ ^ / ..[ ) ) ) [ ) ) ) ) ) ~ ] ~ ) ",
";X.XoXE..X.X}..XoX;X>X X.X.XOX.XcXnXmX&X$X[.}.&X;X4X7X4X X|.P.E.|.*X&X2XoXE.&X XXX&X2X4X4X X&XXX X&X&X*X~.[.[.|.XXoXE.|.*XXX;X;X2X4X=X&X2X*X.X*X2X*XP. X X*X|.&XP.P.~.P.|.K.E.[. X.XXX&XoX2X2X X X*X X.X*X&XoX X XoX*XoX;X*X.XE.*X XoX XE.XX XXX X|. XXXoX|.XX~..XoX{.>X>XkXjX6X>XoXOXjXlXcXcXbXjXjXjXOXUXjX6XOXOX}.OXoX}.OXoXOX].}.U.m.n.n.m.S.h.f.k.$.G 0 0 0 d 2 < < > > > < > > < > > > + > # > : 2 t w.`.i././.'.).U : # # $ # $ # # # # # ; , y i & $ # # 5 i & # $ # O > ; D Q u 0.M.).T # ; ; + > c w.M.8 B (.qXwXqX_.s.(._._.wXtXwXtXpX_.M n V i & : : # # & # # $ # # # # # # # # # # ; + > + + % % % > % f c % % % % % > > % > > < > < > > > > < > > ; > y 4 # # ; # z n 1 4 z S u c U ] U { 9.{ ] 9.E Y W 8.y.Y 0.rXqXS y , & $ $ # # + = # + > Y ZXAXHXvX0.4 q 0.fXCXsXu , : : 5 p +XvXm M.JXLXr.M z v Y CXrXv c v y.vX] c c v x z b z z z z z y z z z z u y z t z 9 u u t 4 t 7 7 6 2 6 6 6 6 6 6 2 2 8 6 1 1 , , : > ; , : , : , ; ; 1 ; : ; ; ; ; ; ; ; ; ; ; ; ; ; + ; + ; ; ; # O $ $ $ $ : r.bXCXHXCXi & # # # # # O $ O O O # $ $ $ $ $ $ : Y CXHXHXGXSXHXSXaXD $ $ O O O # O O # O O O o O $ O O O $ $ O $ $ $ O O O O O O O O O O O O O O O O O O O o O O o o $ $ O O $ O $ $ O O o O O o O o o o O X X X X o X o o V V X y H ! _ .. .d.d.d.f.g.e.k.k.x.m.m.m.x.k.k.m.m.k.m.x.k.1.f.g.=.r.=.=.1.M.g.g.x.d.f.f.,.,.=._ ,.x.f.k.=.=.f.:.:.=.x.,.r.=.:.d.=.f.=.=.f.:.| | :. .d.>.k.d.d.$.d.d.=.=.| | ' =._ =.=.=.=._ =.=._ =.) _ ( =._ ) =.=.} _ ..$.0.#...} } $.X.d.0.X.$. ... . .X.0.$.$.0. ... .=.r. ...r.{ ......{ } ..X.X.} ....} ^ [ ^ ..) / ^ ^ ^ / ! } ^ ! G G ! ! ! / ^ [ ^ [ } } [ ) [ ! ~ [ } [ ^ ) ) ~ ~ ~ E ~ ) [ ) ~ E ^ ^ [ ^ ",
".XE.}.{.[.oX X.XoX&X6X.X{.&X>X>X>XxXjXR.@X[.&X;X.X>X=X>XoX1X&XE.P.|. X;X1X4X2X&XoXoX XE.XX&X2X2X;XoX*X.X&X*X*X|.~.&XR.R. XoX*X*X4X7X2X2X5X*X.X&X;X&X|.XX2X3X X.X|.E.;X&XXX X X*X&X&X*X*X;X2X2X4X2X2X X2X|.oX X&X.X*XXX*X&X|.[.E.E.|.|. X X&XXXXX*X*X XXX XI.oXoX&X.X&X;XjXjX6X>X>XjXmXcXlXvXjXjXjXOX6X6X>XUX}.|.6XUXOX}.OX}.OXUX}.}.F.m.].k.f.k.f.k.j.f.} Z d < d < < * < < < > > > > % > + 6 c # # > 1 y T ] z v T Q ).~ O & # # # % # # # ; ; + + > + $ # 5 w 4 & # # # # u D 2 > 6 x r.).).y > ; Y S T ).U v 8 q.rXtXpXwX_.`.qXwXqXqXpXtXrXrXtXqXrXrX`.W N : : & = % $ & # # # # # # # # # : + ; + + % % % @ + % c z + % % + % > > % > 2 < < < 2 < < < > < > ; ; > + ; # ; 3 n 6 : 4 3 6 8 t x T E ~ w.w.W { T ] W r.y.Q M.`.S b y x = # & $ $ + + + + % c yXZXFXCXaX0.4 S rXZXM.: , 5 : 4 p n M x L FXJXaX7 z i z 9.bXo.M c AXGXZX`.M.M z z z b b z b z z z b b z u b b t b u u y 7 6 7 7 7 6 6 1 1 8 1 1 2 6 6 2 2 6 1 4 1 1 > , , , : : , > ; ; : ; ; ; ; ; ; ; ; ; ; ; ; ; ; ; ; ; + ; + O : : $ : : : U aXaXHXGXr.& # # # # + # # # : # : # $ $ $ $ $ : 2 `.SXSXGXKXGXHXGXaXU $ O O O + O # n & O O O O o $ o O O O $ O $ O $ O O O O O O o O O O O O O O O O O O o o o $ o o O O O $ O $ O O $ O o O O O o o o o O X + o o o o O F +XD a V G ! ^ $.$.$.d.d.k.M.k.d.g.e.x.m.x.k.k.k.m.x.=.m.x.M.x.m.x.g.x.b.M.1.k.x.M.g.x.=.r.=.=.=.f.k.:.=.,.d.g.:.d.f.d.f.=.:.=.f.:.=.=.-.:.=.$...| $.$. .d.d.$. .d.$.=.=._ =.' =.=.=.=.I =.=.=.=.=.) P =.=._ =.=.=._ ..}  .=.=... .X.| X.0. .X.#.0.0. . . . .$.0...$...} .. . .} .. . .....[ ..} { ....0.} [ ..[ [ / [ ^ ^ ! ^ ) } _ ^ ^ ! ~ ~ ^ ^ ~ ^ [ } / ) [ [ [ ) ..} [ } ..^ } ) ^ / ) ~ _ ) [ ) ) P ~ ! ~ / / ",
".X}.{.$X}.&X}.[.&X;X&X}.}.&X&XoX>XlX6X|.;X;X;X&X}.4X>X8X:X=X>X:X;X&X*X3X2XXX X~.~.~.E.*X8X4X&X*X&XXX1XE.XX*X&XXX|.XX X X|..X[.&XXX*X*XXX X|.*X2X&X*X2X4X2X;X2X2X*XoXP.v.K.XX;X*X3X;X&X*X*X8X5X*X4X*X&X*X.X*X2X X&X&X2X&X XoX X|. X|..XoX&X*X|.R.oX.X>X X X&XoXE.|.5XXX6XkXjX4XjXUXjXjXjXjXjXjXjX6XjXjXOX].U.}.OXUX6XUX6X6XoXoXUXOX].m.U.].I.m.l.=.v.c.f.,./ G r x y * , & % & % % % > > > + n X., % , , 2 & 6 W ~ A c ] v + # # # # $ % # # # # # # # # # # , y t % # $ $ < F R q # ; ; 2 A 0.2 # c +XM.q.+XqX+X(.wXwXpXpXwX_._.qXwXwXeXwXwXwXtXtXpXwXpXrXwXp.W z : : # $ & # # # $ $ $ $ # # # # # # O # # # < z a D c > % % % + % % + # , , , < 2 < 2 , < , , : # > + > # # x n , > 1 5 5 4 5 7 m E { u.9.W W E E W y./.E r.qXQ 5 E +Xx $ @ $ $ $ $ o $ : 5 W CXHXAXCXsXr.p ] M.n : & : < 3 5 3 w g.vXZXLXCX9 9 9 i m N m m 9 `.KXLXLXLXaXM m u 9 9 t u i z z y z z b y z y v v y 8 8 6 6 b q 6 6 t 2 6 2 6 8 7 7 4 4 5 1 6 1 1 5 , , , : , : : : : : : : # # : : ; : : ; ; ; ; O ; ; O O ; O : O # # : O # u +XpXCXGXsX$ , , ; ; ; # ; , , , ; ; # # # ; # # # E dXCXHXHXGXGXHXGXSXW $ $ $ O $ M.DXOXz @ O o X O o O O O O # O # O O # O O O O O O O o O O O O O O o O O o O X o o o O o O ; $ $ O O o o O o O o O o O o o o o o o t & & { H p H D ~ ^ | | }  .:.d.k.g.g.$.$.k.m.m.m.g.g.m.k.x.x.g.x.M.f.f.g.g.g.g.x.g.g.g.x.k.d.d. .| ..:.d.g.d.:.:.g.f.f.:.d.d.:.:.f.g.:.:.,.:.=.d.=.| =.| d.:.d.:.:. .:.:.| ..=.| | =.=.:.=.=.=.=.=._ ) } _ ) =._ } | ..=. .|  .0.$. .#.X. .$.0.:.$... . ...0. .0... .}  . .} ..0. .......} / }  . .X... .[ ..[ ^ } [ ^ [ ^ ^ ) } ) ) ....} } / ~ ) ^ ^ ^ ^ ~ } ^ ~ ^ [ } } ....} ~ [ ....[ / ~ ^ ] ~ ^ ] ^ ] X.! ] ^ ~ ] ",
"&X}.].}.}.[.,X$X&X>X;X;X;X&X>X>XOXvX6X|.oX;X.X;X>X;X;X:X4X>X&X&X XXX&XXXXXXXXX|.|.oXXX|.&X X3XXX*XoX X&X|.|.E.oX&XXX X*X&XoXoX[.[.;X&X*X*X2X8X&X*X&XoX2X&XP.~.&X2X&X~..XE.|..X*XXX3X2X;X;X&X|.&X X&X|.&XXX X*X;X|.*X2X X&X*X X|.&X&X XoXXX XP.E.|.E.&X|.|.R.|.P.|.oXoXkXjXcXjXjX4XOXjX6X6XjXcXjXjXcXUX}.U.6XUXOXoX6X[.P.n.P.}.oXOX].m.m.n.U.m.x.K.n.k.1.,.-.=.L a C s < < < < % > > > % > > , > x p 2 + # $ V qXuX_.M.q.x # $ # $ # $ # $ # # # # # # O $ # # $ # # # # # % p y ; # ; : ; > t 1 , w.rXW n E 8.] eXpXfXfXpXpXeXs.qXwXwXtXtXtXtXdXpXaXpXfXhXtX+X'.7.Q u & $ $ $ $ $ 7 t & $ $ # $ ; + # # : # O 3 n F D c > % % % > % + > # % , , , 2 < , , < > < > # : + 3 > > A S + ; > : : 5 5 4 t N D 0.W E W W Q 9.u.y.E r.`.Q 6 i '.r.$ $ = - $ $ $ $ - 5 h '.AXGXHXdXaX{ w t 5 5 & & & 3 5 5 5 Y GXJXJXHXD u u i i N m m i m r.HXKXLXLX).x E sX/.yXD u 9 z z z z b 8 z z c z y 8 6 6 6 6 6 6 y 6 6 8 8 6 6 6 4 6 6 5 1 5 1 : : , , , , , : , , , , 5 : : : ; : ; ; ; ; : ; $ ; ; O ; O ; ; # : : O : : : 9 /.rXsXSXbX, , , : , , : , : : > : : : ; # O # # # : '.SXfXSXHXGXGXHXGXvXD # O O @ M.PXAXF + O O + + + o O X o # O O # O O O O O O O o O O O O O O O O O O o O O O ; # o o O O O ; O O O o O o O o O o O o o o o O o i '.M.5 o o @ w C ! ! } | ....d.d.d.x.x.g.d.g.k.m.x.m.x.M.k.g.k.m.x.f.g.x.x.g.g.g.g.k.x.g.x.x.k.d.| $.$.d.d.d.| :.=.g.d.:.:.>.k.d.:.| }  .| d.:.=.,.=.| | =.d.g.d. . . .=.| .._ _ ) _ =.=.=.:.=.=._ =.f.=._ | ^ } _ ..=...=. .$. .X...} d.0.0... .g.0. . . . . .d.:. .d. ... ..... . ... . .} ~ } 0...0...[ } [ } X.^ ^ [ ..) ) ^ )  .} .. ...[ / ^ _ [ [ ^ / ~ ^ / ! ^ X...} ^ ^ [ / ~ [ } ~ ~ ^ ^ X./ / ^ X.^ ! ] o.~ ^ ^ ",
"&X}.R.[.oX;X}..X;X>X4X4X;X>X:X;XcXcXjXXX&XoX;X:X:X4X7X>X>X*X4X;X&XXXXX*X1X1X1X1X*X2X2X*X2X2X3X&X3XP.R.XXE.|.E.[.oX X|.|.2X*XXXE.|.3X;X&X2X*XXX*X XE.E.E. X|.E.&X2X&X&X3X*X2X*X&X*X*X*X[.|.*X2X X2X*XoX&X XoX&X*X.X2X*X~.E.*XoX2X*X X{.2X XP.E. XI.|.&X&X~.P.~.[.P.|.oX4XOXjXjX6XUXUX].oXoXUXjXjXjXjXoX}.6XUXoXXXUX5XXX|.UXoX|.I.].].m.U.U.].U.U.P.v.c.n.m.>.:._ G a a 0 * * % % % > > > > > > > D w.o.+ # 3 i T { './.'.r.3 # # # $ # # # # O # # # # # # $ $ # # $ $ # # # # # # # # # ; # # > i '.{ 6 , 4 t U rXtXtXqXhXtXqX_.wXtXtXwXeXtXgXpXdXhXfXfXdXpX+Xs.i.t.t.U N x 5 $ = A F M 9 u m m t # : # # # # 4 D D q + + > % > + > > % # % > , < , , , % > > > q : , 2 ; > , c y # + ; : # # 5 5 9 p z E 9.9.{ 9.{ 9.u.(.T 9./.M 6 8 r.M.3 # # $ $ $ $ $ $ & 9 Y vXDXSXZXfX+Xz 5 * & & : & : & 3 9 p +XJXDXJX'.m 9 u u +XsXz z i z sXJXLXbXA i +XJXGXGXCXA v z z z z b z y b z v u y 8 6 y y 8 y 8 8 8 y 8 6 6 4 7 7 6 5 4 4 1 , 1 , : , , , , , & , : 5 , & # ; : ; ; ; : ; : : : : ; ; ; ; ; : : : : & : 5 5 /.+XyXCXCXi 5 4 1 , 5 1 , , , , > ; : , : O : # # , D fXCXCXSXHXSXHXHXGXbXD $ $ @ * F D 4 5 # # c V + + O M.+X).M.r.O o O O O # O O O o o O O O O O O O O X o O O : y 6 O O ; O O O O O O O O o O o o O O o o o O < ).yX+XM o o o q x R ! ! ! } }  .d.d.r.k.g.r.d.x.m.m.k.x.m.x.M.k.g.g.x.m.k.k.g.g.g.d.g.g.f.x.x.g.d.| }  .f.:.g. . .f.| =.:.| =.=.=.=.:.d.:.:.=._ _ =.=.=.| =.=.$.=.d.=.=.:.d.=.| =.} | } =.:.=.=._ =.=.f.=.| } ' ..=...| ..=. .0...} } ..:. .0.=.d.g.0.$.0...d.:.d.r.r. .0. .} .. . .} [ ..{ ^ ^ [ } { ....] } { } [ } ..^ } ) | } } } ) ) _ ^ ^ ^ } ^ ^ / ! ^ } ~ [ [ ^ [ } } [ } ..[ ^ [ [ ) [ ^ ^ ] [ o.^ ^ ] / X.^ [ ^ ] ",
".X[.[..X;X&X>X.X&X;X6X6X>X&X}.>XcXcXjXoX;X.X;X>X>X7X4X7X4X4X>X{.oX XE.XXoX X XXX;X&X XXX3XoX*X&XoX X*X2X2X*X*X.X&X&X&XoX X*X XE..X*X X.X XoXXX;X|.oXXX&X&X&XoXXX2X XXXE.E.&XoX;XXX2X*X*XXX*X*XoX*XoX X[. XXX[.|.|. X.X|.[.|.R. X&X X&X2X X[..X[.oX.X;X.XoXP.|.I.I.UXjXkXkXcX6XUXOX].n.UXnXmXOXjXjXjX}.OXXX}.oXoXXX5XUXUX2XoXOXUX].oXn.U.oXoXI.U.n.n.f.f.K.k.<.=.#.Z a a w & * % % > % > > > , > > q t % % , 4 q 9 9 p n D < # # # # % $ # # # # O # # # $ $ # $ $ $ # # $ $ # # + # + # # # ; > E +Xx : # , 4 Q qXeXqXeXtXwXeXeXtXwXwXwXpXqXpXgXdXdXfXfXfXpX_._.(./.u.t.r.W U 6 = 5 p U D D D n 6 # # # & # # 4 c i + % % + % + % % % + # # % % : & # > > > ; ; # # , # : # # 1 > + + ; # # & , 5 5 5 p S 0.q.0.0.9.u.M.'.W 0.u.z 8 ] rX'.7 $ 3 4 # $ $ $ $ & 5 z M.GXHXSXZXZX/.4 & : & : & & < * 4 p { PXJXGXGXsX9 u p M.LXu.i z z +XJXJXM.z z ).LXLXLXJXyXz v z v z z z z z z v v u y z y 6 8 8 y 8 y 8 y 6 6 7 u 4 6 8 1 7 2 1 5 1 , ; 5 5 # & 5 : 5 , 5 5 5 : # : : : : : ; : : : : : : : : : 5 5 5 5 5 5 9 /.rXaXfXSX).5 7 5 5 1 1 5 , : : O # 1 1 : : : : , , 5 ).CXCXfXSXSXGXGXGXHXCX] $ $ $ # F sXyXV ).CXbX~ , O M.DXGXDXaXz O ; ; O O O O O o O O O O O O O O O O o O O O z v O ; O O O O O O O t M u o o O o o O O o , 9.`.rX).F $ X . % s V H / / X.X. .$.d.$.=.x.g.d.d.M.m.x.g.g.r.g.g.g.g.x.g.x.r.k.d.k.x.M.d.x.g.k.g.g.$.....d.d.d.:.| :.| }  . .| :.| :.:.:.=.=.:.=.:.-.=._ =._ | d.d.$.| =.:.=.:.|  . ...=.| | =.=.=.=.=.f.d.} =.=.=.| | [ | =. .d.}  . .0. . .X.=.d.r.d. . ... .0.d. .$. . . .} 0..... . . . . ...} X.......} X.} ..[ } } ^ } ....} } ) ) _ } [ ^ [ ..[ ^ ~ ^ ..} / ! ^ } } ..[ } } ..} ..[ [ ^ ] ^ ^ ^ X.] ^ ^ / / ^ X.} } X.",
"}.{.}.[.;X&X;X}.{.[.}.}.>X;XoX6XvXnXjXOXXXXX.X;X.X;X4X2X&X&X;X*XoX~.|.2XXX%X1X X&XXX X*XoX X1XK.P. XoX&X;X2X*X X2X&XXX&X*X3X;X*X X*X.XXX*X4X*X&X|.XX2X*X&X*X;XXX*X2X*X*X X X&X X*X*X2X&X&X*X*X XE.|.P.R.oXE..X&X*X.X;X XoXR.P. X&X2X&XXXXX=X X|..X.XoXoX XP.P.P.E.2X2XjXcXOXUXOXU.|.OXjXcXvXjXjXjXOXoXOXOX2X6XUXOXjXUXUXoXoXUXUXOXUX[.oXoXUX|.U.I.U.K.x.x.l.l.=.$.+.Y f a e * * % % % % + % % > & % # = # # $ $ $ $ & 5 $ $ # # $ # % # $ # # $ + # # + # $ # $ # $ # @ # $ # O # # # # # # > > r.=.5 & & : 9 t._.eXtXtXpXgXgXtXwXeX_.wXtXwXtXpXhXdXfXfXhXpX_.`.`.`.(.p.u.u.=.U 5 $ # u N Y Y m 5 # # # 7 O : 5 2 % % ; + % + % + > + % + + # # # ; # ; > ; ; + ; # # % # # # > # # # ; ; + # , : 5 5 t m 9.r.{ 9.u././.`.] { 9.u m p.rXvX/.z +XsXr.* F =.: $ & t Y ZXGXHXHXSXSXrX[ & < & 5 & 5 3 3 p D FXFXGXHXfXh 9 i m '.=.z m u r.PXLXCX9.m A FXJXLXKXKXr.m v v n c m u 9 z M y y y y 8 y y y b 6 6 y y 6 8 8 6 6 t 4 7 4 4 1 6 5 1 { r.] E U n m 5 5 t i 5 4 p i i y c t 1 1 : 1 5 5 1 5 6 w m n p 5 t 5 6 r./.rXaXZXCXM t 6 4 1 1 1 1 , E +X).7 1 5 : : , 5 5 5 M fXCXSXHXGXGXHXGXGXGXbXi > r.yXHXGXGXFXHXHXHXvXc > 2 `.GXSXCXrX).] 4 ; O O O O O $ $ O O O O O O o o O O O + 1 1 O O ; O O O O O x /.+X'.A $ o O o $ o $ A rXrX`.t # o o = X - - r F ! X.) }  .d.d.d.g.g.k.g.g.@Xm.k.k.x.k.M.d.g.x.g.x.g.d.:.g.d.g.x.k.x.g.g.d.g. .| d.f.k.| ..| } | _ $.:.d.d.:.d.=.:.:.=.=.} | ....| =.=.=.=._ | | =.>.:.$. .:. ...} >.-.=.=.:.:.g.:.=.|  .=.| =. ... . .X... . . . .X.$.0.=.d.d...}  ... .r.d. . . ...0. .|  .r. ... . . ..... .{ [ } } X. .} ^ } ^ / ) =.....| ) ) } } } [ [ ) ^ / ^ [ ^ ^ ^ ~ } ..} ^  ...^ } [ [ [ [ ) ^ ! [ ] ^ R / ^ ^ ~ ] } ..} ",
"&X;X&X}.}.[.}.R.[.}.$X,X&X.XOX}.cXxX4XXXXX2X;X.X;X:X4X4X4X4X*X>XoX2XXX*XXX1XoXoX*X X.X*X&XoXP.P.XX*X2X2X2XXX2X;X*X*X*X*X*X3X;X XXX;X=XXX2X*X&X&X*X2X2X*X*X XXX*XoX|..X=XXX[.oX*X;X[.;X&X XoXI.P.XX&X XXX*X2X2X2X*X*X.XoXXX[.E. X*X2X2X4X2XXX|. X|.XX[.E.~.|.~.I.I.UX6XxXjX}.6XOX6XUX4XjXcX4XcXjXjXOX[.UX6X6XOXoX|.oX|.].].~.|.|.OXUXOX}.+XoXI.U.U.U.U.n.x.m.n.,.d.d...X.G V 0 & % * e q F w % + # % = # = # $ $ $ $ $ $ $ $ $ = $ # $ # # # # # # # # # $ # # + $ # $ # $ # # # $ # # # # # + > F N : 5 6 =.p.s.eXeXtXhXgXpXpXpXqXqXwXwXeXqXeXpXdXfXgXwX`._.(.`.wX`.`.(./.p.i.r.{ D & = 5 m E B 7 # # t i & # , + % ; + % + % + % + % + % + # + ; # # ; > > ; > # % # # % # # > # # # # : # # , & , , 5 6 M 9.u.M.u././.).W M M u 5 i Y ).sX9.r.sX+XD vXfX=.: 5 6 U SXGXGXKXHXGXGXsXm 5 3 5 5 < 3 4 p m sXGXFXHXHX=.z N rX{ 9 z m u N CXJXJXFXE m '.GXLXLXLXrXm c v v M m b m N M v v z y b b t z y z t b z y y 9 m u 7 u t t 9 t 7 t z aXsXyX`./.u.t.U 7 p E Y W 9.9.9.0.0.t 6 8 9 6 6 5 5 1 t E '.).A { M.u.] m m E { M.).i 6 6 6 5 5 6 1 t aXJX'.7 1 5 : : , # N r.R M.SXSXHXSXGXGXGXKXGXJXfX).KXKXGXGXGXDXSXCXSXSXyXq.S w.vXCXCXCXCXaX+XW , + + ; ; O $ $ O O O O o O O o O O ; ; ; O O O O O # : # x '.sXsXyXE o o O o o o y +X).N # $ O a x.x X X 0 j G ! ! X...k.d.g.d.d.g.x.k.g.g.g.k.k.g.x.x.d.M.x.f.d.d.:.:.d.g.g.=.:.x.g.g.g.f.:.:.d.g.d.d.$._ | | } .. .d.d.g.:.:.:.=.:.=.:.:. .=.| | | =.| | =.=.=.0.g. .=.:.d.$.d.=.=.=.f.=.g.g. ... .=. . ...$. .}  . .d. ...X.X...$.=.0.$.0. .$.0.=.$. . . ... .[  . ... .{ .. . .0.....X...[ X.} { .. .} ^ [ } ..} [ } } ^ } } } } ^ } [ } } ) ^ ^ / ^ } } ..} ) } [ } ..[ } ^ ^ [ [ / ^ ^ ^ ^ ^ X.] [ [ X.[ [ ",
"&X}.[.&X&X{.}.&X;X[.[.{.].[.[.].jXnX5XXXXX2X[..X>X>X>X=X&X>X3X|.P.XXXX1XXX%X1XXX;XXX*X.X*XoX|.XXE.&X;X&XXX&X2X9X2X9X2X&X2X&X|.&XXX*X*X3X8X2X&X&X;X*X=X.XXX|.2X*X[.P.E.XX2X X&X2X2X3XXXP.P.E.XXE.|.XX2X3X|. X&X X X2X*X&X X&X XoX|.3X5X*X&X|.E..X&X;XoX X|.E.|.P.P.XX6XkXjX5X6X].].OXOX6XOXjXcXjXjXjXUX6XoX}.[.oX~.].oXm.].UXUXI.}.oX].].oX].I.K.n.K.U.K.U.b.x.l.l.f.$...J V f % > q S c W x # = # = # = # # D H 7 $ $ $ $ $ # # % # $ # # # # # # # # # # + # $ # # @ # # + # # # # # + + + S H $ & & 5 h p.`.`.eXeXtXpXtXgXtXeXwX`.pXwXeXqXeXtXtXfXdXpXtXs.a._.eXwX`.`.s.p./.i.p./.x $ $ : h N u # , u t & & # % % > + + % + > % % + % + + + ; ; % > > ; > + ; # # % # # # # # # # # ; # # # # # : , , 6 i U u././.qX'.'.W z z 9 & 5 5 M +X'.u z x E bXGXsXh & 0 W FXGXGXGXGXHXGXZX{ 3 3 & 5 3 5 q y i E FXFXCXHXrXz F GXFX~ u u b m /.JXGXGXu.N N ~ CXGXGXaXm N N N b b u z N c v z z z z b y z y z z z 6 y z 9 b u u u S M.M.S u 6 0.CXCXFXSXaXsXsXu.u M +X`.rXwXyXaX] y.t 5 7 6 5 8 6 6 ).bX+Xm 9 u U D ] r.M z z i c u y y 6 6 5 6 6 5 1 S { 7 1 8 5 5 : M { sXCXsXD aXSXHXHXGXGXGXGXLXHXGXGXKXGXGXGXGXGXHXHXSXSXSXAXCXdXCXCXSXfXfXpXpXpX9.: ; O ; O O O $ O O O O O o O O o ; O + ; O O O O O $ # : m r.sX'.{ o o o o o o X M x & $ o o 3 ).'.x @ % a V F ! ^ ..=.$.d. .g.=.g.g.g.M.g.k.k.d.d.k.x.f.M.g.g.d.:.d.:.d.d.d.f.d.d.g.g.d.:.=.g.k.|  .d.| _ }  .) | f.>.=.=.=.=.:.:.=.| ..| =.=.=.=._ =.=.| d.:.$.$.$. . ...| 0.=.r.:./ h h _ =.}  . ...}  .d.r. .=. .$.0.|  .0. .$. . .} } | ..|  .:. .=.r.0. ...........}  . . .0...} ^ [ X.^ ] ^ { ..X.} [ .. ...=.) [ } [ .. .} } ^ [ ) } ) ^ ^ ^ ^ ^ / [ } ) ) / } [ } ^ ~ ) ) ~ ~ X.X.! Y ] } [ ~ ] } } } ",
"].,X;X;X}.}.[.&X[..X.X}.{..X;X>XjXxXUXXX.XoX}.4X7X:X2X;X4X|.2X;X~.~.XX2X2X*X1X1X2X*XE.oXXX*X&X&XoX*X X|.oX*X&X&X4X5X4X2X3XXXXX2X&X[.E.*X;X|.3X2X|. X|. X*XXX&X2XP.L.E.|.|.XX X*X&X XXX XP.I.L. XoX&X X X|.&X*XXXK.E.|.oXXX*X;X.X.X&X2X&X X|.XX X&XoX|.E.P.oX~.~.I.OX4X6XcXjXjXjXOXoX}.}.}.UX6XUXOXOXjXoX].oX].oXUXoX].I.U.|.UXU.].U.|.OXoX].K.K.n.K.U.U.n.n.n.m.x.$.` $.X.f a % > c W o.] A = # = # = = % , a R D $ $ $ $ # + $ $ # # $ $ # # # # # # # # # # % # # # # # # # + # + # # # : 0.0.& & * 5 Q _.eX_.eXtXtXtXtXtXeXs._.eXtXeXqXeXtXtXgXgXfXgXwX_.(.s.s.`.wXeX_.'.p._.'.`.x & : $ $ & , : , t x 6 , % + % + > + + > + + > > + ; % ; # # # c t > > + + # : # # : # > # ; # ; # # # # # # : : , 5 t n M.'.rXrX'.(.U 4 t 4 : : 5 4 M.'.i 5 4 V '.ZXCX~ 3 w N sXGXGXGXLXGXHXCXrXp 5 5 & & 3 6 w p m sXCXCXHXCXR N sXLXbX{ u m z r.GXGXKX+Xm m n M.GXGXHXT N m N N m m b N B M c v z z z z v z v c M +XrXB m m z z z { FXGXvXc r.GXGXGXGXGXHXGXSXsXi N CXHXCXHXHXbXu b t 6 8 6 6 8 4 Y GXGXFX] u u u i z u z 9 9 z z u b 9 9 9 9 8 8 6 5 1 5 5 1 5 9 5 0.rX`.r.r.r.9.fXCXCXSXGXfXHXGXLXGXGXGXGXHXGXHXHXHXGXGXGXHXSXCXSXSXSXfXCXfXdXgXaXaXwXU : ; ; $ O $ $ + O O O O O O O o 6 O ; $ $ O $ $ O O $ $ & 5 S n : o o o o o o o o = , 5 o o o E +X'.2 o p j G ! ^ X._ ..0.d.k.g.k.r.g.g.d.d.M.M.k.g.f.k.x.g.x.g.d.d.=.m.d.M.g.k.x.g.r.r. .g.g.k. . .| =.} | ..^ ) } ..| =.=.f.:.d.=.=.| ..|  .:.:.=.=.=.=.=.=. . . . .0.} } V H V h 3 & & p =... .|  . ... . ...X.=.0.d.|  .d. .0.}  .d.0.=.0... .r. . . .....[ ..} ..}  . . ... ...X.} ..[ X.] ~ X. .} ] ~ [ ..) =.....[ } ..[ } } } } } } [ [ ^ ^ ^ ~ [ [ } [ ^ ~ [ ^ [ } ^ ^ [ ^ ~ ^ ] ! ! ~ X.X.X.^ [ X.{ ",
"{.>X&X;X>X&X&X&X}.&X].,X}.;XoXOXjXcXjX|.P.R..X&X>X7XlX:X4X:X&X;X.XE.oX*X*X3X2X X&X*X&X;X*X&X X.X X*XXX&X&X.X;X5X4X3X2XXX2X*X&X3X2XXX&XXX XR.XXXXE.R.E.~.*X2XR. X&X XE. X*X[.oX XE.E. XXXE.~.[.|.P.P. X&X|.|.&X XP.K.~.R.|.2XXX X X XXXoX3X*X|. X|.[.|. XoX.XoXP.P.|.6X6XkXjXcXcX>XOXOX}.oXn.OXOX6X.XOXOX].oX}.].oXOX|.U.n.|.|.].XX|.oXoX].].U.K.P.K.n.n.v.K.n.b.x.f.$.:.( Z V * & D ] U n 4 # = % % = # # = & & O $ $ O # $ $ # $ # + $ + # # ; # # # # # ; + ; # # # # # # O ; # # # # # > c i & $ 3 p W _.wXeXeXwXtXtXhXuXqXqXeXeXeXs.s.`.wXtXpXgXgXdXeX_.a.a.s.(.s.`.`.`._._.'.p.h - H N w : : : : , t 3 # $ $ % + + % + > % % ; ; # + ; # # # + > > > # ; # # : # # ; # ; # # # ; % # # # # # # : t & 5 w H =.'.`.(.y.z m n 5 5 : : : t N t : 5 t A M.'.N 3 5 x r.FXLXGXGXGXGXCXHXF i a & 5 4 w t p a '.HXCXvXSXy.m u.PXJXFXN z m { GXHXJXCXm m m W FXGXGXsX'.=.N N N W +X=.Q =.B h m N r.u.yXrX8.c N CXGXrXN N E r.=.b { GXGXW ).DXGXGXGXKXGXGXGXGXQ z Q bXKXGXGXwXu M.sXF 9 7 7 7 6 `.DXJXGXCXu.t i z z b ] u.N z z z 8 8 b t y b 9 8 6 6 9 8 1 { rX0./.rX'.N N v rXpXfXfXSXSX9.9.sXGXGXCXSXAXGXGXSXAXGXGXHXGXHXSXGXSXSXSXSXSXSXdXdXdXgXdXaX/.i & O $ $ o ; O O $ $ $ O O o 7 # $ $ O $ O O $ @ $ $ $ $ : : $ $ $ $ o o o o o X Y ).R 2 + /.+XrXX.+ a V V Z ! [ ^ } d.d.g.g.k.M.g.g.M.g.k.x.d.g.k.x.M.F.k.k.f.x.=.x.m.x.k.m.M.d.g.d.0.d.k.g.g.d. ._ }  .=._ ) / _ } =.d.d.g.d. . . . . .| =...| =.d.d. .=.=.0.#.0...Y q w i a p i 2 = * ..}  .X.0.$. . .d.| $. .$. ... . . .0. . . . .=.0. ... ... . ...} } } [ } ......{ } ) [  .^ } X.} [ } [ X.} ^ / ..[ ..} } ..[ ..} [ } _ } ^ [ =...} [ ^ / ^ ^ ) ^ } ^ ^ ) [ ^ [ / / / / ~ ^ o.~ ! / ^ ] ^ ^ ^ [ ] ",
"oX.X}..X&X;X>X&X&X}..X}..X.XoXoXjXcXcXjX4X;X}.}.>X7XlXkX=XoX.XoX&XoX&X*X2X2X!.XX*XXX.X;X2X XoX*X*X.XXX*X*X&X4X3X%X&XXX&X2X2X*X2X3X2X&X;X3X4X1X*XoX XoXP.[.XX|.R.XX*X2X2X.XE.E.P.P.|.P.P.P.E.E.&XW.*XXX[.|.*X X.X XS.E.|.*X1X2X&X;X*X*X&X*X&X&X{..X.X.X.X{.{.XXE.P.oXUXxXjX4X6X6XjXOXOX}.].OXOX.X6XjX6XOXOXoXOXoXOXoX].].oX].].oX].].oX+X|.P.K.K.I.U.K.m.n.n.x.x.l.S.l.$.| | J m * p Q E t # = = = # # = # = # # = # # $ $ # # $ # $ # $ # # # + # # # # # ; ; # ; O + # ; + # # # + # # # > % % & & 0 N p.s.eXqXeXhXhXhXhXtXqXs.`.eXqXqX_.s.eXtXtXuXhXwX_._.i.t.u.p._.wX`.wXwXwXrXs.9 & z F N 9 t 3 # # # # # # = + + % + ; + > ; > + # ; # # # # > + > # ; ; > # # # > % , # # # # # # # ; # # # & { u.N : 5 9 b U '.'.Q : Y W 4 5 : ; & : t 4 5 : 3 5 p w D =.w p N =.).sXGXHXsXp.CX{ `.~ 3 5 4 w t p i R CXSXCXCX`.v W GXGXGXr.z m F bXGXJXGX'.m N D bXHXHXCXCXaXB m N Q CXCXHXHXsX'./.aXCXCXSXAXAXM.N u.HXFX+XQ fXCXCXD B aXaXD z Y E ZXLXGXLXGXGXGXM v z U HXLXLXHXN u.LX'.9 9 u u i x Y 0.CXLXFXF m z m u p.sXr.u z z 9 z z z b b b 8 8 8 9 8 z u.HXaXsXaXsX9.N B rXtXaXaXfXaXU N Q HXCXCXSXHXGXSXSXCXSXSXHXHXHXHXGXSXGXGXGXHXSXSXSXgXgXdXdXaXM.3 $ O $ $ O O O O $ $ O O X M # $ O O 4 [ r.M $ $ $ $ $ $ $ $ O O o o o $ o @ X c +XyX).c w.qX`.0.4 t 3 % * V ! [ X.| d.d.g.g.g.x.k.d.g.M.d.f.M.x.g.m.m.m.M.:.=.=.g.m.g. .g.k.x.g.g. .d.d.g.g.d.} ^  .d.g.=.:.=.) ..d.d.=. . .d.d. .:. .d.=.=.d.=.=.=. .=.$. . .X.V $ o 2 x z , , % % = ! 0...#.0.d.=. .d.0. ...0.0. . .$. .[ .... . ... . ... .{  .} ..{ ....[ .. .......[ } ..} ..{ ..} X.X.] ..} ^ ~ X...{ ....} ..} [ [ ) ) [ ) _ [ _ } ^ ^ ^ ^ ^ } ^ [ ..) [ } ^ ^ } X.^ ] X.! ] ~ R ! ! [ X.X.} ..X.",
"&X&X;X}.&X}.&X;X;X;XoX&X&X.X}.}.jXnXcXOX&X;X&X&X=X>X:X$X=X>X.X[.|.XX XXX*X X*XXX*X2X&XXX X.X.X&XXX2X.X&XXXXX2X&X2X2X2X2X X&X*X&X&X2XoX|.E.E.|.E.oX X&XP.E.E.P.E. XE.4X*X XoXP.E.*XI.R.P.|.|.XX;XoX2XXX X X.X[.oX&XXX&X&X&X2X4X4X*X2X2XXX|.XXoX|.&XoX XI.T.oXXX|.~.XXjXnXUXoX}.OXoX}.OX].].}.oX>X6X6XoXOXXXoXXX6XUXoX|.].I.].].I.].oXoX].I.n.n.U.U.U.v.S.K.K.f.b.c.F.k.h.d.( ! ~ p 5 S W x - # % # = = # # $ # $ # $ # # # $ # $ $ % $ # # # # > # # # # # # # # # # # # O # # # # + + # # # , % * 5 p u._._.qXeXuXuXeXqXeXuXeX_.s._.s._.(.s.qXeXeXpXgXhXqX_.a.a.p.(.'.`.wXrXrXwXrXrXQ : & 5 N m n m ; # # # = # + + % + + + ; + + % + ; # # # # # y i > ; + # 2 # > : # E Y + % % # # # ; # > + @ z ).'.=.5 5 5 F /.`.`.U , x u 4 , & & : ; 1 , : : : & & p '.'.n 9 a m m { HXHX{ N sXbXM.w 5 3 w w w y i n M.CXCXCX`.n B bXFXGXfXM A D u.FXJXGXHXr.m N p.GXHXGXHXCXsXD N N /.CXGXCXfXCXfXaXfXfXSXFXSXCXU D sXHXFXaXfXaXFXu.B N M n v z n CXHXHXGXGXGXHXN v v b '.LXGXLXaX9.HXFX=.u u u Y 0.m z { GXGXaXM z b m '.+Xu.m 9 z z u b z z 8 z b z z 8 v m B sXfXfXaXdXpX7.B ).pXwXsXsX/.W aXaXCXCXpX`.`.qXSXCXCXHXCXSXSXSXSXSXSXSXGXHXHXSXdXfXSXdXdXfXfXrXi $ $ $ $ O O O O O $ O O $ R 5 $ $ t '.vXaX+XD & # # $ $ $ O $ o o o o o o X + c +XrXrX/.c `.`.S 5 - = @ @ - V ! } } d. .0.g.g.g.k.g.g.m.k.M.k.k.x.g.M.x.g.=.=._ =.:.g.g.g.x.k.d.d.d.$.k.g.x.f.g.:.d.g.x.g.r.f.} _ r.d.g.d.d.:.d. . .d. . .d. .=. . .=. . .d. .Y t .     # * & & % & % Y ..X. .d.d.d. .0.X...=.$.$.0.X.0. . .} .. . . ..... . ... . .....[ .... .0. ... ...[  . .$.0.0.....0.} { { [ ^ ..} } } [ X.[ } [ [ _ _ ) ) [ ) ) } ^ [ / ) ) [ [ ..} ....} } } [ ] ^ / ~ ~ ^ / o.Y ! ! ! ! ~ [ X.",
"&X}.&X:X>X&X}..X>X.X&X>X.XXX}.OXjXxXcXXX&X}. X}.4XkX>X4X2X=X>X.XE. X&X|.XX X~.~.XX*X*X2X X2XoX;X3X*X&X3X*X2X2X3X&X*X&X3XoX&X;X;XoX&X XE.v.|.E.|.P. XE.[.E.P.P.P.;X.X2X&X X XP.XX XR. X[. XXX2X%X X X XoX X[. X.X.X2XXX;X*X&X&X&X*X;X2X&X;X&X XoX&X}.[.E.|.P.~.oX[.XX5XcX}.|.OXjXOX}.OXOX}.>X>X6XjX6X].OX6XUX|.UXoXoX].|.U.|.U.|.].oXoX|.].U.I.I.K.K.v.U.K.K.n.x.n.x.h.k.l.d.| } A : z E y % = % # # # O $ # $ # # # # $ # $ # # + $ # $ # # # # # # # ; ; ; # ; # ; + # # # + # # # # # # Y Y # * 5 Q s._.s.eXeX_.eXs.eXtXfXfXeX_.s._.wXs.qXs.hXdXfXdXpXqXi.t.a.s.s.s.'.`.rXpXpXhXwX=.$ : & $ : O O O O O $ # # % % + % ; + % % + ; ; # # # ; # # i S y > ; + # # # # # M.0.@ + # # # # ; + + > m y.qX'.Y : : O p.wX`.wXT ; 4 5 5 5 : # : ; : : : # & # : n ].M.5 w w 9 p H rXGX'.m ] ).m w w 5 y t t y i m S pXaXCXyXU N sXCXHXGX+XN A N '.GXGXFXaXN N D bXHXHXHXHXHXp.D N U rXGXfXHXfXbXfXfXSXCXSXCXSXt.F fXHXCXCXHXCXHXu.B B M w.sXU N pXGXHXGXSXHXGX'.m m N T GXGXGXKXHXGXGXHXN z b yXGXsXt.F CXGXZXN z z z Q `.{ N W z 8 b z c z z z z v v z v v m E ).wXrXrXtX`.B { (.wX`.'.N Q aXaXdX'.D c c U bXCXwXCXCXSXSXCXSXSXSXSXSXHXHXSXSXdXfXSXdXdXCXaX] 5 $ $ o ; O O O O O O O $ E t $ O 7 u.sXbXCX+XD : O : $ $ O $ O $ $ o o X o + y `.tXtXuXp._._.eXW $ @ @ . o a ! ^ [  ... .d. .d.M.g.g.k.g.g.g.d.x.f.k.k.g.,.=.=.d.g.k.c.M.g.M.d.d... .k.d.g.$.d.:.d.g.r.d.=.f.) _ =.g.d.d.d.d.0. . . . . . .d.d. .X. ...d.M.X.V i 4 & o o % % & * * p .. .d.r. . . . . ...$.0.0. .d.$. . . .r... . ... . . . ...0. ... ................. .} [ ) X.=.d.0.$.0.} } X.[ X.0...~ } [ ....} ^ ) ) ~ ~ [ ..^ [ / / [ [ ~ ^ X.} [ [ ^ } ..^ ^ ^ ^ ^ / ! R R ] ~ R o.~ Y Y ^ } [ ",
"}.;X:X,X>X&X&X.X;X&X;X}.$X}.&X.XjXxXjXoX.X[.;X>X7X4X;X8X.X>X:X&X X~.P.oX*X2X*X3X*X.X*X3X&X X X=XXX&X X{..X&X3X&XE.|.XX.X2X&X|. X.X X|. X|.P.oXE. X|.&X3X8X XP.|.I.E.E.;XXX;X|.oXP.P. X[.*X:XXX&X X X.X|.|.=X=XE. X*X|.=X&X.X*X.X2X;X4X2X&X;X{.&XoXE.|.|.P.E.E.[.|.XXcXcXOX}.UX}.OX6X>XoX}.OXUX6XjX>XU.oXOXoX].oXoXoX|.U.U.I.U.].].oX|.].].n.I.].S.c.P.P.m.F.c.k.h.k.c.k.g.d.g. .R & 4 i % = - % = # # $ O # O # = # # # # $ # $ # $ $ # # # # # # # ; # # # > # # # # + + # + # # + # > D M.A , < u W _.s._._.qXeXwXeXqXeXuXeXqXeXqX(.s.s._.eXeXuXpXuXwXwXt.t.a.(.(.p._.wX_.`.`.sXpX=.z u 5 5 x N N n 7 # # = # % + # # # # + > % > + > # # ; + + 2 S c ; + ; ; # # # A '.{ $ $ $ $ $ # > 2 c w./.`.`.q.y > $ 5 p.sXwX`.N 5 4 4 1 , > ; ; ; : ; $ : O # $ x ) F 5 3 5 5 9 m u.HXCX{ x i w w 7 7 y y y y p x m +XCXfXpX+XU u.CXfXfXCXr.N B u.HXJXGXHX] N N p.HXHXHXHXHXsXN B N =.HXaXCXfXCXfXCXCXSXSXCXHXr.B tXCXHXHXSXHXHXU B B N B '.D M U sXHXCXFXCXHXHX/.M N M rXGXGXGXHXGXGXHXaXE b u.GXHXFX=.t.+Xu.u u z z b m b { u.r.z u z v c z z u x z v N N N M M U B T q.q.N v N U t.Q N N wXaX+Xz u u z N aXrX9.dXdXvXCXSXdXCXSXvXi./.SXSXSXuXCXSXdXfXSXSXwXu 5 % S F * $ $ O $ $ O . E 9 $ $ $ : z u.sXbX`.) p # $ O O $ $ $ $ m i > O o O 9.wXqXrXwXqXeX_.`.i.x $ p q a G ^ } .... . .g.d.d.g.r.g.g.k.m.f.x.k.:.x.n.x.d. .=.k.d.d.g.M.d.d.0.}  .d.d.d.d.:.g. .:.:.:. .:.r.=.d.d.r.0.d.d.d.d. .} .. .:.g.d. . .$.d.r.0.D p 2 i p % % & & & & * V ..X.0...=. .d.0. .$. . . . .=. ... .} ....r. ... .{ } } } r..... .[ ..0... . ...[ } } [ ..} ..0. . ...[ [ ..} [ ..} [ ) } ..) } [ ) ) ) ^ ~ =.=.) ^ ^ / ~ ! [ / ^ } / ^ ) ) ^ ^ ^ ..X./ ! ^ o.~ ! ~ R ! ~ ! ] ] X.",
">X>X>X{.}.{.&X}.>X[.&X{.{.}.}.;XnXNXkXXXoX.X[.&X>X&X4X8X4X4X2X;XP.P.&X3X&X&XXX*XXX;X2X;X>X&XoX|.oX*X;X.X.X2X*X&X&X*X&X2X4X XE. X.X X|. X|.8X8XP.|. XoX*X X[. XE..X[.;X;X&X&X;X&X}.[.R.&X.X.X4X&X.X;X&X;X.XoX.XoX&X*XoX{.|.oX&X>X&X|.*X2X6X&X X.X;XoX|.I.E.|..XoX|.XXcXcX6XoX].oXOXOXOXOXoXOXUXjXjX6X}.XXXXOXoXoX].].K.n.U.K.P.].].].U.|.~.].K.I.F.j.I.P.S.V.m.F.x.x.k.k.f.$.d.g.} 6 & & % % # $ # # & # # # # # # # # # # # # # # # # # + ; # # # ; + # ; # ; # ; # # # # # # # # # ; 4 ] =.2 , w m u.qX_.a.s.qXeXhXeXeXeXtXqXqXeXqXeXqXqX(.eXgXgXfXeXeXtX(.p.a.(.p.(.`._.u.a.`.pXsXu.u.t.{ { { E U D i # # $ # % + $ # = + # # > + + ; # # # ; > > p z ; ; ; ; # : p u./.] = $ - @ 5 F w./.).`.'.qX`.q.U c p 5 u.tXtX'.z & 3 4 4 , > ; # ; ; ; : $ : : : 4 5 5 5 & 5 & w p =.nXaXE u 7 7 4 w u u y y i i x n /.CXaXaXsX/.7.aXaXbXHXaXQ N u.CXHXCXfXr.m N U aXGXHXHXHXFXu.N N Q pXCXCXHXfXfXfXfXfXSXHXCX{ B =.pXCXHXGXHXCXB U 9.i.r.D N N N B rXHXHXHXHXAXZXW v c rXGXGXGXHXHXHXSXSXCX=.m p.GXGXaXB m m m u 9 u b u 9 { u.B 9 z v z v z v b z z z W '.Q v N m B N N N v v m b v 9 b E `.aXY b 7 7 t z W Q W yXdXdXdXdXSXdX+X/.W M i.dXCXCXdXdXSXSXSXSXCXR 4 5 F sXu.: $ # O $ $ . F p # $ $ : # $ z /.fXaX`.0.m : : $ $ $ $ r.'.r.p $ . 6 9._.qXwXwXqXqX_.`./.i ..r.m D L _ ..=.$.d.M.g.g.k.x.d.f.M.x.r.x.g.m.m.M.g.g.=.=.d.M.g.g.g.g.d.:._ ..| d.d.g.g. .=.:.r.g.d.d. .d.d.=.:.$.0.d.$.$. .$.} [  ..... . .0.=.X.S n > + x x % # % < , & % F } =.....d.X. . .X.0. ... .....} }  ... .0. . . ... ............. .[ ....^ ..}  .} } } [ } ..} ..X.[ .. . ...) [ ....}  .) } [ ) ^ ) ) / ) ~ / ~ / ! ~ / ~ ! / [ } } ^ } [ } [ ~ ^ ^ ~ R ~ ^ ^ ! ~ R / ^ / / X.} ^ ",
"&X>X&X[..X4X:X;X:X}.&X@X[.[.[.>XnXNX4XOX&X{.&X2X4X2X4X2X8X8X4X=XE.|.&XoX|.XX&XXX&X&X.X2X4X2X.X.X|.&XoX|.&X;X;X;X*X&X2X2X XE.E.[.&X|. XoX|.&X&XR.;X2X.XE.P.|.|.{.[..X;X.X&X2X;X2XE.R.E.;X&X;X;X.X|..X2X.X}.L.].L.U.[.;X2X>X[. X.X.X|.&X4X;XXX X>X.X&XoXoXI.P.I.|.[.oXjXcXoX}.2XOXoX|.}.}.oXoXoXOX6X6X6X5XUX6X6X|.oX].I.].I.P.I.oXoXI.[.oXU.K.U.I.F.S.S.S.S.].S.x.m.C.k.n.k.k.g.k...a * # & w 2 = * # # # # # # # O # # O # + # # # # % + # # ; # ; # # # # ; # ; # # # ; # # + # + ; > 1 9 4 < 3 w D i._._.s.eXeXeXtXhXtXeXs.s.eXs.eXeXqXeXtXeXuXpXpXtXuXs.p.i.i.p.u.p.p.p.p.p.p.wXpXp.u.t.{ r.u.0.E E t % # $ $ + # # # + + ; ; # # ; ; ; # ; > > > > 2 ; + ; ; # : U `._.E = - % E (.+XqXw.i.qX_.qX_.`.i./.q.2 N p.wXp.u : 5 5 2 2 > ; ; # + > & : : # & # : $ = & < 5 3 p N sXsXD 7 6 t 7 t p y y y i x m N ] bXpXwXaXdX_.pXaXaXaXCXpXU =.bXfXHXGXsXN n N =.fXHXCXCXCXpX'.B N =.sXsXsXCXCXaXfXfXCXfXFX_.B B B wXHXHXCXHXwX/.CXHXaXD B M N B D rXHXHXGXSXGX`.M M w.DXGXGXCXSXSXSXHXHXwXm N Q E ).N x u 9 z i z z z 9 m N m b z z z v z z b b z W rX`.M.v N N N N b b m 9 b b m z t.'.`.rX/.6 2 7 7 u z z i.aXaXdXdXaXdX+XT B v T ).aXCXaX`.tXSXSXCXHXaX] i 7 z +XsXN # $ $ $ o o n 9 $ $ $ $ # $ $ : t.fXaXsX'.t.Q 9 $ $ $ E './.M.r.W i 6 z U i.wXqX_.p.eX`.i.W `.r.F R / } .. .$.d.d.0.g.d.k.d.g.g.k.M.M.x.k.f.M.g.d.d.=.g.g.g.d.g.g.d.$.d. .d.d. .g.d.d.g.|  .r.d.d.d.d.d.d.g.d.g.d.d.d. . .| ....} X. . . .n y y + # y c y , , < , < ! d.....0.0.} X.0. .d...X.X.X.....} X.} .. . . .|  . ... .......} } ..[ ^ } .. .......[ } ) ^ { } } [ .. ...=.=...} ....} } ) _ [ ^ / / ) / ~ P / ) / ! / ~ G G ^ [ / [ ^ X.^ ^ ^ / ^ / ! / ~ ] ] ^ ] o.~ ^ X./ / ^ ^ ",
"&X[.].{.>X>X;X&X&X[.}.[.[.[.[.}.kXnXcXXX4X9X>X;X4X>X;X4X8X8X.X|.=XXXXX3X;X1X2X.X.X*X>X;X}.{.2X&X2X2X.X.XoX{.[. X|.E.XX X|. XoX.X*X&X XXX XoXXX*X*X;X X XoX*X;X X4X4X.X=X>X;X&X2X6X[.oX[.;X;X;X;X2X;X=X.X X&X[.S.I.XX8X;X&X;X&XoX}.|.&X;X;X&X4X;XXXXXoX|.[.|.[.[.U.6X4X[.XXjX6XUXoX|.UX6XUX4X2XOX5X6X4X6X.XoXoXoXoX|.|.K.n.P.I.XXXX~.~.K.K.P.I.P.P.F.G.[.[.D.S.S.l.m.F.G.m.M.g.x.! a = = < x p % # # % # # # # # # # # # # # # # # # # # # # # # ; ; ; > # # > + ; # # # + # # # ; ; : > : & 5 N 9.a.a._.s.qXqXeXeXtXhXeXs.qX(.(.qX(.eXeXeXeXtXtXhXuXeXtXpX_.t.9.t.t.u.p.p.a.u.u.`.wXu.t.t.t.u.p.u.{ D : # $ $ # # + $ $ % + + + + # + + + # ; > ; > > > S q ; # & & r.`.r.5 & % w.qXwXrXw.M qX_.qXq.8._.`.qXw.2 9 F `.p.9 : 3 4 3 , > # ; ; ; ; & & # $ # # $ : $ $ & & 3 9 i { +X/.D 4 t t t u i z z x x n D D +XfXpXdXaXpXpXaXsXfXfXCXu.U wXHXbXfXaXr.N N N i.CXCXCXHXCXCXp.B N N Q Q rXfXfXaXdXdXCXfXaXQ T N Q fXfXfXHXHXHXCXHXsXQ D M B B B t.fXSXSXHXGX'.v c M qXGXSXSXSXSXSXSXCX=.z u b m z i z z 9 b u u u u 9 u m z z 9 z z z z z z 9 U rXyX_.W N v v v m N b m b b u 9 9 t.'.`.`.rX0.x 7 t u z b S /.`.yXuXaXmX`.v Y w.`.uXuXuX`.8.W rXSXCXaXwXU i w m '.aXu.5 # $ o o o x p : # # # O $ $ $ # E pXCXpXpX+Xp.D 9 $ 4 m i Y i./.p.i.i.8 8 p.wXqX_._._._._.`.wX).W / ) } .. . .d.d.g.g.d.g.g.x.M.g.k.k.r.f.x.x.g.d... .g.d.d.d.d.d.0.$. .d. . .$.r.g.d.d.:.:.=.=.d.d.g.d.g.g.$.0.d.d. ._  . .....d. .0.[ p A A 2 @ i A z 5 < 5 < i 0.d. . .X.X...} X.#.0.0.......#.0.} } ..0. ...0...[ .. ...0. .[ } [ ) } } ..} [ } ..[ ) } } } X.} } } { ..=... ....._ } } } ^ } ) _ ) / ) / / / ~ / / / / / / / ^ / ~ ~ ! ) ) [ } ^ ! ! / ] ~ o.~ ! X.~ ! ] { X.^ ] ! ",
":X>X;X&X&X}.&X}.[.R.[.{.[.}.I.[.nXnXcX X;X;X&X4X7X4X:X4X8X*X&X;XoX2X2X&X&X XE.;X2X2X;X2X&X[.;X&X>XoX|.|..X|.|.*X&XoX X|. X&X XoXoXE.XXE.XX XP.P. X4X2XE.XX5X8X2X;X;X}.;X.X4X4X:X&X X{.oX;X>X2X>X2X6X4X4X&X|.2X&X;X7X8X>X6X.X&X=X X;X.X4X>X&X&X&X;X.X.X.XE.E.].[.I.jXcXjXcXcXkXUXXX*X6X6X2X6X6X2X5X6X2XUXoXoXXXoXoX|.[.P.E.[.].R.[.oXU.].R.[.P.D.D.[.D.F.].c.@XD.@XF.x.x.>.k.g.d.X.a % # q c p + + > > # > + + + # # + # > + + > # # # # ; # # # ; ; ; # ; ; # # + ; # # # + # # > ; ; > & & 9 [ qXqXs._.qXeXeXuXuXuXdXuX_.s.s.a.qXeXeXeXeXeXuXuXeXuXqXeXuX_.q.8.8.8.7.t.7.t.u.p.`._.u.y././././.=.N 5 $ # $ $ $ # $ $ # # O # O + + + ; # # > > > ; ; ; ; : ; ; : : { 0.w & & Q rXtXtX).z q.qXtXqXB N 8.p.r.x 5 5 m /.M.7 , 5 4 1 , : # ; # # # ; # + # # # # # $ m n 5 4 w w x =.+Xp.9 9 w u i i b z m n N U U i.aXaXaXaXpXpXaXdXaXaXCX`.U u.fXCXCXCX/.M M M u.fXbXdXfXbXbX+XU B N N B /.sXpXhXaXfXCX`.Q B B N B y.fXaXdXCXHXSXHXu.T D B S B N `.CXHXHXHXHX`.c v N Q hXHXSXHXfXHXSXHXt.9 9 u 9 z z y b b y y y b 8 8 y b 8 8 8 b z b t v b 6 z 8.w.U v v z y v v b v 8 b v 8 8 b w.)._.S M.yX'.S 5 5 9 8 z M Q ] { /.rXy.S `.sXvXaX).w.8.B B qXtXi.7.T z 7 t W yXCXsXu.x $ o o o p p $ $ # $ $ O O $ O O m wXSXCXaXrX`.u.A u t , : i Y u.`.`.W m a.`.s.wX`.s._.qX_.qXrX/.E } ^ ..|  .d.g.g.g.r.d.g.g.d.d.k.m.m.M.d.x.g.=...d.0.d.d.d.r.g. .d.=. .g.d. .d.g.d.0.=.d. .g.$.$.:.d. . .d.d. .$. .0... .r.=.=.=.) a & m m & $ $ t m 4 3 4 4 & G ....} ..X.[ } } ......} $...0.| ....X...0.|  ...} .. ...} ..} ^ } [ [ ....[ } ..=.....} } [ } } [ } [ } ....) ^ / / ) ) ) ) _ _ ) ) ) ~ ) ) ) =.P ~ ^ ~ / _ ^ ^ ^ ^ ^ ! ~ } ^ J ! / / ! ] ^ [ ! ! ~ ! ~ / [ [ ^ ^ ^ ",
"7X;X>X>X&X}.&X;X].].[.}.{.&X}.6XVXnXxXoX;X&X;X>X7X>XkX7X:X;X4X*X*X&X.X|.&X4X;X*X2X;X4X;X&X|..X>X;X&XXX&XoX&X X|.2X*X XXX|.[. X XP.E.oX2XR.|.P. X*X4X;X4X3X2X&X*X&X.X X.X4X7X2X4X4X>X:X>X.X X:X=X&X=X:X:X2X4X4X;X;X2X7X7X4XkX4X>X>X=X2X&X4X6X4X:X X>X.X&X|.oX|.P.~.jXcX5X6XcX5XUXoXUXXXUXOXOXUX6X6X5XUXXXOXoXXXoX].P.].P.R.}.R.].|.|.[.oX].R.].[.R.@XS.D.P.S.].F.S.c.k.k.$.g.k.g.Y a = = 3 a q % ; + # # + > > + + # # # + > + + # # % # + ; ; ; ; # # # + # # # ; # # # # ; # ; > : , , 3 p N p.eXeXs.a._.eXeXuXuXgXdXdXuXeXeXeXs._.s.eXeXeXgXuXuXtXeXqX_._.i.7.7.t.t.t.t.t.u.p.qXpXi.y._././.Q 9 & : & # # # # $ # # $ # # # O + # + # # : , 1 > > , ; ; > > ; & 5 z w 5 & S qXtX(.w.M /.qXwXwXq.m z m N x 4 5 5 9 E 0.5 : 1 6 1 1 > : ; # ; > ; > ; # # ; # : M )./.a 3 5 0 9 =.wX'.p p 9 9 x m m z N B B U U M.fXdXCXdXaXpXpXhXpXpXaXaXu.U `.fXHXCXM.S N M E +XaXaXsXfXfX'.U B N N N u.pXwXpXfXhXhXhXp.N B B B U rXpXaXfXSXHXaXQ U U N U U N wXHXi.fXSXHXCXW N z N =.CXHXSXSXSXfXSXaXpX'.m 9 t y z y t y b b y 8 y 8 8 8 8 8 8 t t 8 8 8 8 b 6 z b z b b 6 b 8 8 8 b 8 6 1 8 8 T 0.E y v w.0.n 1 8 6 8 9 z c N M S Q E 8.sXdXdXrXw.M v B B 7.'.0.N z u u i M.sXHXfXCXsX{ 5 $ o 9 p & # $ # # # O $ O O O t i.CXSXSXdXtXrXu.t.u.U 1 5 m p._.(.t.s.wX`.wXeXtXeXtXqXqXeXwXq.o.X._ } =. .=.d.g.d.k.M.d.g.g.g.r.g.g.g.d.:.d.:.d.g.g.g.g.g.d. .0.$.$.0. .$.d. .$.d.d.=.=.0.$.0.$.0.d.d. .d.d. . . .d.d.=.{ =.=.9 $ 5 m 9 $ : # & w 4 3 & & $ x ] _ ^ X.[ } X.} } .. .} .. . . .X.0.|  ... .0... . .[ ) [ _ ..^ ..} } ....} } [ } ..} [ ^ } } ..} ^ [ ^ } } } ..} ) / =./ ) ) =./ / ) ( ) / / / / ~ / P ~ / / ^ ^ ~ ^ / / _ ^ ] ^ ! / ^ ^ ^ ^ ! [ ! ! / [ ^ / ^ ^ ] ",
">X:XE.oX&X,X;X&X$X}.}.&X6X6X6X;XnXNXkXUX&X.X;X6X4X8XkXkX2X=X*XXX X&X3X3X*X*X*X;X8X>X=X.X.X;X>X&X:X&X}.|..X;X*XXX*X*X X&X&X|.XX[. XR.W. X|.E.XXoX X*X3X3X8X2X3X2X&XoX.X2X;X=X;X;X;X8X&X;X;X7X&X;X4XkX>X3XkX>X:X;X&X>X;X.X=X6X2X6X8X>X.X&X&X2X;X;X&X&X}..X|.|.[.[.oXcXnX5X5X5X5XUXoXUXUX*XoXoXXX6X6XUX2X|.].XX[.].|.oX[.P.P.F.>X[.P.P.|.[.}.].[.].[.R.D.F.S.F.D.F.x.x.x.m.e.k.m.g.J a % = 0 x t < > % # # # # + > # # # # + # + > # # ; + # # # ; # # # # ; + + # # # # # ; # ; ; ; , 1 2 3 p 7.wXeXeXeXqXqXeXeXeXuXuXuXuXuXeXs.eXs.eXqX(.eXeXuXuXtXuXwXeX_.a.a.q.t.7.7.t.t.t.9.a.wXrXy.i.p.(.u.9 5 # # # $ = # $ # $ # # # # # # # + + ; # : , , , , , > > : : > : 5 5 & % 5 ).wXw.x 8 i.uXuXqXwXQ u 7 7 9 3 2 , & 9 t t 2 # , 4 2 2 > # ; ; # ; ; > # # # # : 1 =.`.'.m 3 3 5 0 F rX+XE 9 9 9 z z m N N N D Q T t./.y.dXaXdXaXpXgXpXpXaXaXwXQ 9.aXSXdXqXU B N U Q u.pXpXsXsXQ U B N B B { wXaXhXhXhXhXhXpX=.U N T T 7.pXpXdXdXfXfX`.B B B N B N ).'.B `.SXSXGX).z N b N Q _.fXfXfXfXfXhXaXfXp.9 t b t 8 6 8 t t 8 6 8 8 8 8 8 8 z z 8 8 8 8 8 b 8 b 8 8 8 8 8 6 8 b 8 8 6 8 6 8 6 8 y 6 t 8 6 8 5 1 5 8 6 9 8 b z m M M c S +XaXtXq.T v v v v B U T v z 8 9 n `.aXCXCXHXCX+XD & $ w 7 # $ $ # O # O O O O O O : A q./.rXCXCXfXtX`.`.7.U D u.`._.s._.eXwXhXaXhXhXrXwXeXwXrXqXE C Z ! |  .=.d.M.k.d.d.k. .M.k.k.d.d.d.k.d.d.d.g.g.k.g.k.k.k.g. . . . .d.d.d. .$.0.d.=.d. . .:. .d.d. . .d.d. .|  . .r.r.g.r.R : $ 5 n 9 $ & : & 5 & , & & = H [ X.^ X.........} [ X.^ } } ..0.$... .X. ... . ..... ...[ [ ^ ^ [ } } ..} [ ^ [ X.) ~ } [ ..^ [ ^ } ^ [ ^ } [  .=...) ) ) =.) _ ^ ~ ) / ) ) ) ) / ! L ^ ~ ^ / / / ~ ! ~ ^ ] ^ [ / ~ ^ [ ^ ^ ^ [ [ ^ ^ ^ ~ ! ^ ~ ^ X.",
"&X;X}.[.}.>X7X:X=X}.;X7X7X8X2X>XVXnXxX2X X|.;X&X>X8X8X8X7X2X2X;X2XoX*X X*X2XoXoX>X4X;XoX|.4X&X.X.X;X&X=X;X;X*X.X;XoXoX&X&X.X X&XXX|..X|.|.E.R.XX2X1X2X3X8X4X3X&X;X2X;X&X;X>X>X4X2X>X;X:X6XkX7X7X4X;X.X;X7X2X:X>X.X{.&X4X;X;X;XkX=X;X;X6X.X.X|.|.[.oX[.|.oXoXOX|.oXcXVX5XUX5X5XUX2X6X|.UXOXoXOX6XUXXX6XUX].|.oXP.P.|.oX[.R.}..X&X[.}.I.[.[.#X].R.[.@XD.S.F.F.F.S.c.F.x.G.g.m.m.x.X.p = % w x t w q + > # > # + > # # # + # # + > # # # ; # # # ; ; # # ; # ; # # # # # # # ; > > , , 2 q p N p.qXeXeXqX_.eXs.eXeXuXgXuXuXqX(.a.a.s._._.eXeXuXeXeXqXeXeX_._./.a.q.t.7.t.t.t.t.t.p.rXwXp.u.i.M.W 3 $ $ $ # # O $ # $ # $ # # O # : ; ; + ; # ; , 2 1 , 1 , , > > > : h p & & m r.E y 2 w.uXdX/.qXM.m 8 5 5 5 3 > : # 5 5 5 5 # , 4 1 1 > : # ; ; : # # # # # ; : 3 E M.9.w & 3 5 5 p ~ './.9 i 9 z N N N B D Q T T Q ] q.dXaXfXaX(.p.aXpXrXrXtXq.U '.CXCXCXqXM M M N U ).+XsX_.U B B N N B U Q t.qXhXsXwXhXwXeXu.U B U Q t.pXaXdXaXdXfX9.N B B B N B M N W aXSXCXaXU m z N m N r.'.'.`.pXaXpXfX`.m t t y 6 t 6 8 8 6 6 6 2 8 8 8 8 6 b 1 8 6 b 8 8 b y y b 8 8 8 8 8 1 b 8 8 8 6 1 1 2 q 6 8 6 1 6 1 5 1 8 6 9 8 b z v v v M M 8.q.q.W U M b v B v N M v v u 9 u r.sXCXfXHXHXpXQ 5 : : 5 $ : # $ # # # # O O O O O + + > z { /.+XaXCXpXpXqXa.'._._.'._.pXhXfXhXhXhXuXuXqXwXqXqX(.% = d G ..=.=.=.x.M.m.m.M.k.g.x.g.d.d.g.0.g.d.d.g.d.d.r.d.=.$.0.d.=.=.$.0.X.d.$.d...X. . .d. . .d.....=.X. .} } ..g. .R E D & $ $ 4 m 5 $ $ & 5 : & # & # $ p ! / ^ / ^ [ } X.}  .} ] }  ... . . ...}  . .....{ .. .[ ..X.[ [ ^ } ..[ } ..^ [ ^ [ ! ^ ^ / ^ ^ ^ } } } ^ / _ _ } } ^ / ~ ( ) ) ~ / / / ) / / ~ ) ! L / / / ! ~ ^ / ! / / ^ [ / ~ ^ [ X.^ / / [ } ) ^ X.^ ! ! ^ / ! ",
";X>X;X}.}.>X7X>X>X>X:X:X4XkX>X6XxXVXcX*X2X5X2X5X8X2X8XkXzX8X;X*XE.XX4X&X4X2X2X&X8X7X:X>X4X4X:X8X>X=X.XoX*X;X.X;X&X&X&X*X X&X2X2X|.|.oX XXXE..X*X&X2X4X3X2XoX4X2X=X.X;X.X:X>X6X2X2X2X&X4X>X7X4X6X6X>X&X;X;X4X&X;X;X.X}.4X>X:X4X&X2X;X>X&X2X|.;X&X.X.X*XXXXXXX[.[.XXNXnX5XkX6X5X2XXXXXOXoXUXOXOXXX4X4XOXoXE.I.[.[.[..XoXR.D.{.}.[.oX|.P.E.[..X}.[.[.R.D.[.D.F.S.c.S.k.>.>.d.g.k.k._ n = # 4 a 2 # % + % ; % % + + # + > + > + > + ; + # # # # # # # ; ; + # # # ; # # ; # # # : : , , q p p W qXeXeXs.eXqXeXs.eXuXuXfXSXeXs.s.s.eXs.qXeX_.s.eXeXuX_.tXwXqXqX(.i.q.t.t.u.t.p.u.p.u.wXwXp.i.t.u.n 3 : $ $ # # O # + $ # # O # # O O # O # # # : > 2 2 , , , , , > : 5 u.n & * 9 h w < Y dXSXrXM 0.Y i 9 5 % 1 ; ; ; & , , 5 , : : t 3 1 > , : : > > > # # ; ; : > 4 h m 5 5 5 < 5 p p u D F z 9 N b m N N B B T Q W W Q 7.rXaXfXrX7.9.aXaXwXrXpX(.U 8.sXCXdXtXT M S B U p.sXwXsXp.Q B N B D B U T t.rXeXwXhXtXwXwXp.U U B T t.qXaXtXaXpXqXB N D B m N N N N W CXCXCX=.b z m m z z m m B _.pXwXaX/.p t b y t t 6 t 6 6 6 2 6 1 8 8 8 1 6 1 8 8 8 8 1 8 8 8 8 6 1 8 8 8 8 8 b 8 8 b 8 6 6 6 1 6 1 1 1 8 8 1 1 8 8 8 8 9 z z z v v S B T T B v v B B B B B N N v u u Q sXfXfXHXCXpXW 9 r.] i 9 5 $ $ # $ $ $ O O O O $ ; ; ; ; 1 u B u.CXfXCXtXaXwX_.wXpXpXpXfXhXdXdXhXuXyXwXtXqX`._., - . w R =.=.r.:.d.g.k.r.g.g.).g.0.d.g. .d.0.g.g.d.0.r.d.d.d.} $. . .d. . .0.d.$...| =. .| .. .=. .X... . .$.[ [ r...] F w $ o . m A 5 # $ $ $ $ # # $ $ o & D ! ~ / ^ ^ ..} [ ....^ [ } ..0. ... .{ [ .... . ... .[ } ..} } [ } } .. ...} [ } [ [ _ ^ ) ) ^ } [ [ ^ ^ ^ ^ ^ ^ | _ ) ! ~ ) / ^ ^ ) _ ) / ) ) ! ! L ! L ~ ! ^ ^ ! ! ! ~ ^ } ^ ~ ^ ^ ^ ! / ^ ^ ) ^ ^ [ / ! G ! ! R ",
"&X;X&X&X:X>X:X:X&X}.&X;X4X4X:X4XVXnXcX6X4X2X2XkX4X5X8X4X2XzX8X2X.X2X4X&X2X2X3X2X;X7X6X&X4X4X4XkX8X4X&X;XXX2X*X*XoX*X&XXX.XXXXX*X&X&X X XR.[.*X4X*X*X*X8X4X X&X=X;X2X>X2X&X&X:X&X=X4X:X4X2X7X&X;X=X4X2X7X:X4X;X4X2X&X X;X;X6X=X;X.X&X.X4X6X=X;X;X.X.X2X2X;X|.|.[.OXMXxXcXjX4XXXUXOX4X2XXXOX2XXXUX2X2XoXU.}..X[.F.[.OX;XoX@X}.&X{.[.I.[.}.V.[.F.R.].F.D.D.D.F.@XF.F.x.k.k.k.g.k.).} V = % 4 x % # ; % % % % + % % + > + > + > + > # ; # ; ; # # ; # # # ; # # # # # # ; > , , > , : < w p c 9.a.qXqXeXeXs.eXeXuXuXgXfXuXuXuXs.s._._._.eX_._.eXuXeXQ Q 7.p.i.q.i.i.u.u.u.i.p./.p.s.rXwX/.i.i.E 5 5 & $ # # # # + # O # # # # # # # # # O # # # # > , 5 , , , , : & D p.p * 5 5 5 5 y rXdXdXw.c A x 7 5 : & > ; ; ; O : : : : # # 7 1 : : : : % ; ; > # # # ; # : , & & & : & & 5 r.u.x 9 p u z z z v N B B B T Q T 8.7.W W i.CX`.U /.aXaXtXpXtXrXQ U /.uXCXsXW B B D Q r.pXpXwXpX+XW N B B B B N T Q =.t.hXtXtXtXwXs.B B B U Q wXpXpXpX+XB N B N v v v v N w.SXrXM.U x m b b 9 z b u b W `.+XtXqXz u t t t t 6 6 1 6 6 2 6 1 1 8 1 1 8 8 8 6 8 8 8 8 1 8 1 8 1 8 8 1 8 8 1 8 8 1 8 6 8 6 6 1 1 1 1 1 : 1 8 1 1 1 8 8 8 b z v v v B U S B M M B B B T B T B N z u N u.aXsXCXHXrXW z /.sXr.Q B W { m $ $ $ # O O O $ + ; # ; ; ; : u /.dXSXqXtXfXaXp.t.'.aXfXfXfXfXdXuXuXtXqXrXwX/.% - - - h [ =.=.=.d.d.k.k.k.d.g.0.#.X.d. .}  .$.=.d.d.g.g...:.=.#.d.>.0.$.g.d.=.d.=. .=. .$... .$.=...d.=.#.0.X.^ r.R 4 O . o o $ t D 5 $ $ $ O $ O $ $ $ @ $ V G ! [ ~ ^ [ } } .. .[ [ .... ....... .} } } ..}  . . . ...} } ^ } ^ }  . .} ^ } ^ ^ ^ ) [ [ } [ ^ _ ^ ^ ^ ^ [ ) [ } [ L / ! P ^ ^ ) ) ) ) ) ) / / / / P L L / ^ ^ ! ! ! ^ ^ ^ / / / ~ ! ^ ^ ~ _ / ^ ^ ! L ! L ! / ",
"&X;X;X}.{.;X7X>X,X:X>X&X.X;XkX6XnXnXcX8X3X4XXX&X>XkX8X3X4XzX8X;X3X2X4X=X2X&X;X=X&X>X2X[.:X&X8X4X4X&X;XXX.X&XoXoXXX*XoX&X2X&X|.XX XoXR. XoX&X*X3X5X2X&X3X4X3X*X4X7X4X4X>X4X>X;X;X>X&X2X6X>X:X=X}..X4X7X4X8X4X:X4XkX7X;X;X;X;X2X.X;X;X&X&X;X&X4X|.E.oX*XoX2X.XoXI.oXxXcX2X6XUXUX6XUX6XUX2X2X}.|.6XUXOX[.v.I.}..X}.}.;X}.[.}.&X{.}.|.oX|.}.F.D.[.D.S.P.D.@XS.c.c.F.S.c.g.g.g.m.x.g.! a % % t z 3 , % % ; > % % > + + > > + > + > + # # # + + # # # # # # # ; + ; # : ; > : > > : : , w p i E eXqXqXeXeXeXs.eX_.eXgXuXuXuXeXeXeXeXeXs.s._.s.(.eXuXeXQ N b z m M w.(.p.p.p.p.p._.p.u.rXwX/.y.E p 3 & : O # # # O # O # O O # # # O # # O O # O O # : , , , < , , , # =._.t.N & 5 5 & q.aXvXrXS y x y 5 5 : : > ; ; + # : # # : : : 5 4 1 , , > , > > > ; # ; : % # & & & & : & 5 M M.+X=.9 z p 9 z m B T B T T T T T E Q Q Q ] u.W T `.fXsXpXrXtXrX).U Q `.yXyX(.M U D B W `.pXrXaXaX`.N B B B B N S U B U u.pXpXaXhXpXp.U B U B W qXrXdXpXQ N B U N N N m v U p.{ N B rX'.N b 9 z u 9 b N t.`.`.pX{ 8 t t 2 1 8 1 6 2 1 1 1 1 8 8 1 6 1 6 1 8 8 1 1 8 8 8 8 8 8 1 1 1 8 8 8 8 8 8 b 2 b 2 6 6 1 1 1 1 : : 1 : 8 8 6 8 8 b u b v v M M U U B v B T T T B U B N v 9 z N '.sXfXfX`.{ m ).CXaX+X+XdXbXaXu.9 # # O O $ O O $ # ; ; ; : 1 A 8.7.v U (.CXrXm u W '.aXfXfXfXuXqXtXwXqXqX/.> - - o & n / ..=.r.g.d.M.d.d.g.X...g.d. .X.d.:.d.d.d.g.g.X.0.d.0.d.d.k.d. .d.d. . . ... .d.0.} 0...} =. .r.] e < & $ o o . $ o o O 5 # O $ $ $ o o o $ o . 3 H R ^ ~ [ X.) } [ } } ^ )  . ...} =.}  ... .^ ^ .... ...0. . .[ ^ ^ }  .[ [ ..^ [ } [ X.[ } ^ ^ [ } _ ^ ^ [ ) [ _ _ } _ ^ ^ ) ) ! ^ P ) ) / / ) ) ) / / / ~ R / / ^ ! ! ! / ^ ^ ^ / ! ~ ! ! ! / ) ~ / ! ! L F G G ^ ",
"iXkX>X&X;X:X>X;X6X8X>X>X>X6X4XkXVXVXnX2X5X4X*X2X4X4X;X*X8X8X8X:X=X:X2X2X4X:X=X2X4X;X=X;X;X;X2XkX4X8X6X.XXX XE.*X.X*XoX*X X&X2X.X XI.&XoX&XoX X*X2X&X4X%X X2X4X5X4X4X:X4X=X2X;X>X:X;X6X&X4X{.;XoX.X X7X>X>X=X>X6X4X4X;X;X&X;X.X&X;X}.[..X>X&X&X|.;X>XoXXXOXOXXXXXI.cXjX|.oXUX6X5X6XOX2XUXUX;XUX2XUXoX}.[.R.[.;X;X{.}.R.P.[.[.[.}.I.}.[.{.[.[.@XR.D.].R.@XF.S.F.S.S.m.m.G.k.g.k.g./ e % % i x x t , % > + > + % + > > + > + > + > # # # ; ; + # + # # # ; # ; # ; : > > : , , , : S 9.i n q.eXeXqXeXeXs.eXeXeXeXeXuXuXuXuXeXs._._.s._.eXs._.eXeXuX_.u.N 9 9 z U p.(.(.p./.s.`.s.p.rX`.p.9.i 7 d : & : # O + # # # # # # # # O : $ O O # # # O # : , , , , , , , 5 u.`.'.=.& = : D rXuXdXW y y t 2 < & : & ; # # ; + # : : # # , 4 6 1 2 , , > 1 , > # # ; ; # : , : $ & = < 9 u.+XrXm.z 9 z z m m N B B B T U T T Q T T Q T T Q T /.dXCXaXpXaXtXpX0.U i.yXuXtXW M B N U r.sXfXaXfXpXE B N N D U B B N N Q sXhXfXfXpXhXu.B M B U W 9.'.sX9.B N m N v N b m v m z z =.vXbXp.9 9 9 9 9 z z m U Y /.E t 6 6 6 1 1 1 1 6 6 8 1 8 1 ; 8 6 6 1 1 1 6 8 8 : ; 1 1 1 8 1 8 8 8 1 8 8 8 8 1 8 1 2 2 6 1 ; : 1 5 8 : 1 1 1 1 6 8 8 y v v v v v U v M B B B B T B T B B N z 9 z W '.fXCX'.{ N /.sXfXCXfXCXfXCXFX`.N : ; ; ; $ O $ O O # O ; M yXyXrX).y.c U y.u : 5 u D `.SXCXqXB w.wXeX_.qXS = - - . * H L ..X.d.X. ...0.d.d.d.r.d.d.=.d. .d.d.g.g.d.$...$.d.d. .....0. .$... ...X...d.$... .d.d.M.n.X.j n . . o o o o o o o o o o O o $ o o o o o . % m ! G ] X.{ ^ ^ ^ X.[ ! ) } | 0... . . .0.d. .0...^ }  . .....[ ^ [ ^ [ [ ..} ..) ^ ^ ^ [  . . .} ....=.[ ..} _ ) =...[ _ =.[ _ } ) ) ~ ~ I ~ / ) / / ) ! L / L P ^ / ! ! / / ~ ~ ^ ! ! / ! ! / ! / / G L L P G G G ) ",
";X>X&X}.>X,X|..X6X6XkX;X>X>X;XOXNXNXxX;X&X4XkX8X8X4X;X2X4X4X*X&X;X*X4X8X4X X|.|.}.&XoX;X;X;X2X4X;X;X:X&X4X=X>X2X&X&X6X2X2X2X;X&X&X;X X.X|. X|.XX2X5X8X&X[.|.2X8X X[.&X;X&X;X=X.X;X:X4X&X;X;X;X|.>X;X2X.X&X4X7X8X6X2X4X4X>X&X;XoX4X.X.X.X.X>X;X&X|.{.}.|.&XOXoXXX[.kXcX2X2X6X6X6XXX6X5X2X2X6XXX6X2XOXOXoX[.oXoX.X|.[.oX[.R.}.[.R.}.W.&X[.}.&X}.}.[.@X@XR.S.F.F.S.m.c.h.k.g.k.d.g.X.e > 2 c M c n y % % % > > + % > + > > + > > + # ; # # ; # # # ; # ; ; # ; ; > > , ; ; ; ; , 6 { a.B T eXeXeXs.s.eXeXeXs.eXeXeXuXuXeXuXeXeXeXeXeXs.s.qXqXpXtXeXeX_.(.U 9 9 u B B Q p.s.p.s.s.`.wXwX=.m 5 5 : & # # ; O + ; + ; # # + # # # # # q t & # # + # # , , < , , , & z eXwXeX=.5 $ $ i.pXaXu.x w 4 5 5 & : # # ; ; # ; # # # ; ; ; 1 6 4 2 2 , 1 , 1 1 , : ; ; ; : > > # & & : 5 5 u.+XaX+XA z c v v c N B U U B B T 8.T T T T T U U U Q /.pXaXpXCXtXpX_.T 9.rXtXrX/.n B M D B +XCXfXZXdX).M B U M B M N B M N /.SXdXdXaXfXyXW B M N M B T Q M S M M v N v z v z b z z =.fXvX=.N U E m 8 6 8 u u i A z 4 4 5 1 5 6 6 6 8 1 b ; 1 ; 1 1 1 : 1 1 1 8 : 8 8 8 1 1 8 8 1 8 1 8 : 8 : 1 1 8 1 1 : 8 8 : 1 : : 1 : : 1 : 8 1 8 8 8 1 b b v v v B B v v B v B B B T B B v b b u n 0.rXdX'.{ B qXvXCXfXCXCXHXHXHXCXrX~ { Y < O O O $ O O O O N sXCXbXHXCXaX9.i : : $ $ 5 =.aXfXsX9 : p.aXwXwX).i & - + - r F _  .d. .0. .X.g.k.=.d... .d.g.d.:.g.$.k.0.X...| 0.X.=.} X.} ^ .. . . . .d.r.| d.$. .x.m.g.m [ [ o . o o o o o o o o o o o $ o o o o X @ X 2 V ^ Y ! ] } [ ^ } } [ ! ! [ ......0.=. . .=. .0.....[ [ ......^ ^ [ ..} ^ ] [ ..} ^ } ^ [ } } } ^ [ ..=.[ } ) ) ) _ [ ) } ..| ^ / / ~ / ^ ^ / / ~ / / ~ P L P ! F ^ / ! ! ! / / R [ ! G R / ! ! ! ! ^ ^ L G G G Z G ^ ",
":X4X$X[.[.[.=X>X,XOX;X;X7XlX4X6XNXIXcX{.{.=X8X2X4X4X2X;X4X*X8X2X=X4X4X2X;X X&X.X&X;X&X.X;X=X>X8X7X>X4X4X6X:X X3X=X=X3X&X&X&X=X|. X X.X|.|..X{.;XoX&X5X&X X X*X&X4X>X&X;X;X.X.X;X4X>X6X.X2X5X;X;X>X=X.X&XkX5XzX6X;X;X4X2X4X:X;X&X;X|.|.|.;X;X;X;X&X.X.X[.;X&XXXOX}.MXnX6XjX4X6X*XUX6XjX6X6X2XUX6X6XXXoX|.[.oXoX[.}.{.}.{..X{.[.R.{.}.@X{.[.[.P.D.P.R.D.S.V.F.c.F.n.n.m.c.k.k.k.g.X.f % e S O.x c y % % > + > + % + > % + + % + > # + ; # # + ; # ; > : > > > : > > > , , , , 4 u Q eXQ t.eXhXs.eXs.s.s.eXeXuXeXuXuXeXuXs.eXeX_.s.s.a.s.qXqXpXHXgXeX_.`.i.{ N z z h N =.s.s.`.qXwXwXp.N 9 3 : & : ; ; # O ; + # O # # # # # # # , m c # # # # # : : , , , & , * W eXeXs.s.p.5 : '.sXp.x p 4 4 5 , & : & # # # ; O # ; ; # ; ; 1 4 6 1 2 1 1 , 2 2 > ; # > > > > > : : # : 3 w D /.rXuX] z x c c c M B B B B T B U U T T U B T B T U T sXpXaXpXvXaXpXi.Q rXpXsX`.B M M S U /.aXaXCXCXq.M M v B M M N N U B U (.CXCXtX`.aXaXW v M v N M N M v v v v v v v z v z 9 z rXCXvXU rXsX+X/.z 4 7 7 6 7 4 6 7 5 4 7 6 5 1 4 : 1 ; 1 ; ; : 8 8 : : 8 1 1 : 8 ; 8 8 ; : 8 : 8 8 8 8 : 8 1 8 b 1 1 ; 1 ; : 1 : : 1 : : 1 1 : 8 8 8 8 b b b v v v B v B v B v B B B B B B v b b y z W '.rX/.E D rXyXuXCXCXCXCXFXHXHXSXZXCXdX`.S ; $ ; O O O O ; E M.wXCXHXHXHXrXm : $ $ $ 5 ] sX+Xx $ /.CXdXtXtX(.T c + . & H R X.0. .d.d. .d.d.d.d...| 0.g.g.d.d.d.d.d. . .d.g...d...}  .d.}  .....} X._ } _ _ d.M.=.~ & F R o o o o $ . $ $ o o o o o o o o o o @ @ o > y F o.G o.~ X...^ .. .} ~ [ } } }  . . ... . . . ... .......} [ [ [ ! / / X.} ....[ [ ) ^ } } } [ ^ [ ..} ) ) / ^ ( ^ / ! / } } ) ) / / / / ^ / ! / ^ ! ! / R / L ~ P L F F P / ! ! G ! L ~ / ! P ! / ! G G D Z H D / ",
"7X>XR.].[.}.oX}.&X&X}.&X4X7X;X4XbXNXjX.X].&X>X4X4X4XkX=X X4X8X8X=X2X;X;X&X.X{.I.oX.X.X&X2X;X=X>X>X*X4X;X&X4X&X4X2X2X2X4X2X;X:X{.;X&X2X:X&X&X&X{.&X4X4X|.XX&X&X2X=X2X;X.XoX;X.X4X&X;X;X:X8X2X4X;X2X4X&X|.2X2X4X4X2X2X3X>X=X&X2X;X&X[.&X|.7X>X;X.X|.&X>X2X3X|.I.oXoXnXVX6XUX2X5XOXXX6XjX6X6X2XOX6X6XUXXXoX}.oXoXoX}.[.[.I.].}.R.].D.].[.}.R.[..XD.[.R.].S.S.F.k.V.f.z.c.x.$.g.d.g...D % p A z x c 2 % % + > + > % % + + % > % + + # # # # # ; # ; > > : > > , > > : > 1 1 1 1 t z U (.eXs.eXs.eXs.eXeXeXs.uXeXgXuXuXeXeXuXuXeXs.eXa.(.a.s.qXeXtXeXeX_._.s.t.t.=.N 9 9 h Q '.qXs._.rXu.9 5 & : & # # ; # # + # # # + # # + # # $ & x z # # # # % : : , , , , & 3 y.eXhXeXs.Q : z sX_.m w 5 5 5 1 , 5 & # : ; + ; O ; + ; : 1 ; 1 6 4 2 2 1 , 1 1 1 > ; # > ; > : > & & & & * 5 p r.tXtXw.z z z x c M S B B B B B T U S B B B T M M U U `.pXpXpXaXtXyXyX9.'.uXrXrX8.S N M U { '.+XhX).D M v S M M M N N B N S U y.'.Q S Q rXpXW U Q v v M M v v v v v v v z z u z m aXFX+Xm '.sX'.hXE 5 5 7 4 4 2 6 6 1 5 5 1 5 1 1 1 : 1 1 8 8 1 : : : 1 : 1 : 1 1 1 1 8 8 1 8 1 1 8 ; 1 8 8 : : 1 ; 1 : 1 : : ; ; : : : 1 : : 1 1 : 8 1 8 8 b v v v v v v B v b v v v B B S v v b b b N U E E D U '.tXdX/.qXyX_.aXFXSXGXSXSXCXHXbXr.; : O O O $ O O : { pXCXHXHXHX/.: : 5 $ - : N { p $ R CXSXCXfXCXpX'.] @ % V P X... .=.d.d.r.g.d.d.$...d.g.$.d.d.g.d.d. .d.d.d.X.} d.| $.| .... .} X.} ^ [ [  .m.{ H & - - W t o o . o $ o o o o o o o o o o o o o o . @ , n Z G Y ! X.[ ^ .. ...[ ..}  . .r. . . . .r... ...} ....{ ^ } ^ ^ ~ ^ ~ ^ / ) [ ..} [ ^ } } X.[ } ^ [ ) ) ^ / ^ ^ ^ ^ / ) [ ..} / / R L / ! _ ~ L ^ ! ! ! G P ! L L G P L P R ! ^ L P R / ! ~ L ! G F G Z H C H H P ",
"&X;X[.].&X&X[.[.[.$X@X}.:X;X>X6XVXVXjX&X:X4X:X>X4X4X>X;X;X;X2X4X>X4X&XoXXXoX*X2X;X;X;X;X2X&X2X4X3X4X4X2X4X8X2X>X4X;X2X:X2X2X4X;X.X;X2X2X;X.X.X=X&X2X;X&XXX4X*X;X>X.X:X4X6X;X&X.X.X;X6X8X4X2X2X5X;X2XXX.X}.XXXX.X[.*XXXXX;X}.;X.X.X.X;X{.&X4X=X.X.X;X4X=X2XP.[.;X6XjXcX6X2XOX6XoXoXoX2X3X6XUX2X2X|.*XoXoX&X[.}.oXE.}.[.P.[.&X.X[.D.[.].R.[.[..X].R.F.D.@XS.F.m.P.n.n.c.c.S.g.>.k.k.G * y y 2 x y 2 % % > % % % + > + % > + > > + # ; # ; # # # ; ; > > , 1 1 > > > > , , 3 6 U W p._.eXeXs.eXeXeXs.eXs.eXs.eXuXgXuXeXeXeXs.s.s.s.a.a.s.a.qXs.qXeXeXqXeXs.i.t.t.Q z 9 9 m =.s.s.'.`.Q 9 5 & $ & # # # # # ; # + # # # # # # # # # q 2 # # # # # # , , , , & 3 n eXeXeX_.Q 5 : Q sXr.u 5 3 5 5 2 , & : : # ; ; + ; # # ; , > ; , 2 4 1 1 , > 2 2 2 , ; ; : # # # : & & : : 5 < 9 r.rXaXW x y z z c v v M M v M B U v v B B v M B B B N 9.+XrXrXqXrXtXrXt.9.yXyXtXrXy.m N S U U Q r.U M M M S v N n N m N N M U U T D N N '.CXrXrXaXi.v v v v S M v N v v v z z b m ] M.U x N D D =.m t 6 6 4 1 6 6 1 , 1 , 1 1 , 1 1 ; 1 1 ; ; ; ; : : : 1 1 1 : 1 1 1 ; : : : 8 : ; 8 ; 1 : 1 8 1 ; ; : : : : : : : : O : : : 1 : 8 1 8 1 8 b y 8 b b v b v v v v N v b v M v b b b 8 b b p p i W ).rXaX).u v u B rXCXCXHXCXCXCXCXSXrX] , $ O $ ; O : U CXCXCXCXHXfXN { p.u.m 5 n Y p $ o ).HXSXCXvXSXSXaXx = h F / $.=. .$.r.g.d.d.d.0.:.d.d.0.g.r.g.m.g...=.g.=.=. . . .d.d.| } X.! G Y ..^ 0.M.] t $ - . 5 ] 9.U 9 $ o o $ . o X o o o o o o o o o X X @ d V Y ! ~ ^ ] [ ^ } [ } } } X..... .....{ ..[  ...} ......} ....^ [ / [ ..^ ~ ^ } } } ^ ^ [ ) ) ) } ~ ^ ^ ^ ~ ^ / ^ ^ ^ ~ / / ) [ ~ / ! / ! / ^ ! L ! ! L L ! L L L L F P L / G G L G ! G F L P G G F G Z H G H H H G ",
"#X>X}.}.R.P.[.].&X>X>X&XoXoXXX6XAXnXkX5X7X4X2X.X6X;X7X;X8X4X2X.X>X=X2X.X|.|..X X.X&X;X&X2X4X8X>X>XoX2X7X4X;X;X&X&X.X2X>X2X:X;X7X2X;X>X=X&X4X>X:X2X>X&X&X2X4X>X2X4X&X6X6X7X;X>X XE.&X;X>X&XoX;X*X6X.X2XXX&X.X;XXX;X;XXX&X&X XoX;X2X;X4X;X6X2X>X:X4X;X XXX2X2X2XXXOXlXjX>X.XXXOX2XXXXX6X6X6X2X2X2XXXXX>X6X;XE.oXoX}.E.oX}.;X>X;X.XP.[.R.c.S.P.}.].P.P.F.S.F.P.U.S.n.x.v.f.m.g...d.g.Y % < 2 q q q > % % > % % % + > + > + ; + + ; ; > # # # ; # ; > > 1 1 , , ; ; : > 1 2 3 t T s.eXwXuXuXeXuXuXs.s.s.s.eXeXeXuXeXeXeXeXs.eXs.a.a.s.a.s.s.qXeXs.eX_.wXs.i.a.t.i.t.Q x 9 m U u.'.p.t.x 5 * & & # # + ; # # # O # # # # + # + + = $ % % # # # & : : , , , 2 < p i.(.hXeXa.B : m '.rXY 9 5 * 2 , , , > > ; ; + # # # # ; > , , > 1 2 4 1 1 , 1 2 2 2 > # ; ; > ; # # : < : & < 3 9 { rXyXU m y z z x v M v M v M B B M v S T M N B S N N N t._.`.`.'.rX`.U B /.wXrXrX`.m c v M A D T S n M v v v n v v v M M M M M M N N W pXCXSXfXaXpX9.z z v v v v b z z b v z b x x m z u 9 u u i u 4 5 5 6 1 > 1 1 1 > 1 1 1 1 , ; : 1 ; ; ; 1 ; 8 8 ; ; ; ; ; : ; ; 1 8 : 1 : 1 8 1 8 8 : : 1 ; ; : : ; : : O O ; O O ; : ; ; : 1 8 1 8 8 8 8 b b b 8 b b v v v v v v v v v b b b 8 8 8 4 4 t 9.wXuXaXvX{ $ : : ] CXCXCXCXCXCXSXCXSXSXM.$ $ $ $ O : 9 t.`.rXaXHXaXB D pXsX+XN r.yX+XW & p rXtX'.(.aXGXSXE = r Z L _ _ ....#. .g.g.d.0.d.g.g.d.g.g.g.g.d.=. .d. . .}  .|  .X.G G A V y V r.'.).r.m @ o . N 7.9.t.t.m o o o o o o X o o o O o o o o o o o + q V G / ! o.^ / ^ [ ^ / } [ [ ^ [ ..} [ ..} ....} ..} } } ..0...[ } ! ^ ..} ^ } [ ^ ^ } ^ _ [ [ } } / ~ ! / [ [ ^ ~ ) [ R / ^ ^ ^ ^ / ^ ~ ^ ) ^ ! ! ~ ! L R ! ~ P R L P R P G F Z F P ! L ! ! J G G G G Z H G H G Z G ",
";X>X&X[.}.].|.,X&X;X;X&X6X2X2XUXVXNXxX5XkX4X7X;X7X4X4XkXkXlX>X=X;X7X[.P.L.=X>X.X6X:X.X.X*X[.;X&X=X=X6X7X;X:X&X4X;X{.;X&X=X4X.X>X8X;X*X>X;X;X;X>X7X;XkX.XoX4X*X>X4X X4X=X;X4X=X;X.X[.}.=X2X2X2X>X5X2XXX2X2XXX|.;X;X;XXX|.}..X}.{.{.oX}.[.&X;X4X&X|.P.L.P.;X&X4X>XOXxXjXOXUX2X;X>X2XOX5X2X;X6X6XOXXX.X;X;XoX}..X;X}.oXoX[.}.;XoXoXP.}.I.}.oX[.oXP.F.].S.I.F.P.m.x.x.l.U.n.S.x.g.g.d.o.< < * 2 < > % % % > > + + > + > + > % % > # # # # ; ; # # > , , , 1 , > > ; > > 2 2 6 t n 9.p.eXuXeXs.eXeXs.s.eXs.eXeXeXeXeXeXeXs.s.s.a.a.a.a.eX(.a.qXs.eXs.s.s._.s.s.t.i.t.t.Q i 9 m D u.W m 9 5 & # # # O O O # + O ; # # # # # # % - $ $ # = % # # # , < 2 < 3 3 i u._.eXeXhXtXp.u.'.hXp.9 5 & 5 1 , , , , ; ; ; ; # ; + # > , 1 , , 1 6 6 2 , 1 1 4 4 1 , ; + # # > > > # & & : < 5 w ] qXtXt.z z z z z v M M v v B S v M v v M M M v v m N N T 0.y././.`.W v M M ).`.+Xy.c m c M N M S M m v m N N v N n M c N M v M c v m t.pXpXaX`.W yXsX7.z b u v y z y t b 8 z u y 6 t i p w 4 4 5 5 5 : 1 1 1 > 1 1 1 ; > 1 ; : ; ; ; ; ; ; 1 ; 1 ; ; 1 ; ; : ; ; ; 1 8 1 8 : 1 : : ; ; ; : 1 1 ; ; : ; ; : ; : ; ; ; ; ; ; ; ; ; ; ; 1 1 2 8 b 8 8 8 b b v v v v v v v v v v b b 8 8 1 1 5 5 t Y rXyXSXSXrXm $ : 6 /.CXSXSXCXSXdXCXHXFXSX+XW $ $ 5 W t.D m Q B r.{ m Q sXfXfXp.R aXaXsXD & M /.W U w.wX`.W & d H ! _ _ _ G Y X.0. .d.:.d.g.g.g.d.d.g.k.d.d.=.d...G G H F D V a n n 5 ~ 0.M.r.D x % o o . D i.i.W u $ $ $ $ o o $ o o o o o o O o o o o - = < q r c D D R ~ / ^ ^ ^ [ ^ ! ~ ~ ..} ^ } [ ..X.} [ } } } | ....} } ~ ^ } [ / ^ ..} { ^ [ } ..[ ....[ ~ ! ^ ^ ) ^ L ^ / ! / ~ / / E ! / / P / L L L P F L P P ! ! L L P F F F L P G G G G F G G Y G G G G G H C H Z Y ",
"F.[.D.R.oX}.=X;X[.D..X&X4X4XkX4XFXVXcX*X4X7X4X4XkX8X:X8X6X&X4XkXlXkXL.}.}.{..X[.;X:X;X.X>X.X;X&X&X>X2X>X;X;X>X;X>X:X;X;X>X;XoX;X4X&X|..X X;X:X4X;X>X8X2X2X4X:X4X2X4X9X>X6X4X4X>X2X4X;X&X2X5X2X5XXXXX;X2X2XoXoX;X8X4X;X&X&X;X[.R. X.X&X&X6X7X;X.X.X&XS.P.oX2X2XoX6XnXcXOXXX.XoXXX>XXX.X2X;X&X>X;XOXoXoX.X.X;X>X|.E.[..X[.E..X[.oX[.}.[.[.R.[.R.}.}.I.].P.I.U.S.n.m.F.F.k.m.g.g.k.g.] e & % * > % > % + > % % % % + > + ; + ; + > ; # ; + ; # ; ; ; ; > , , , ; , , , 2 6 u u U E t.tXs.t.t.t.a.s.s.eXeXs.eXeXhXuXeXuXuXs.s.s.a.a._._.a.s.s.qXeX_.s.s.s.s.a.a.t.a.t.t.D 9 9 p h x 9 w & : % : # # # # # # ; + + # # + + % + % + % + = # % : & , 2 3 3 3 t 8.qXeXtXtX_._.qXqX`.'.D w 5 5 & , , , , : ; ; # # # # # ; > 1 2 , > , 1 4 2 , 1 1 2 2 2 > ; ; # ; > ; ; : : : 5 & 5 p ] wXpXwX] z z v i z c v v M v M v v M S M v M M c N z m N Q W ] 0.M.Q c v 9.`.'./.0.v m z x m c M M z z m m v z m z v M n M M v M m v B `.+XsX{ m 0.sXM.8 v 8 y v u 6 b 8 t z u t 8 4 6 6 9 5 6 1 5 5 5 5 1 1 > 1 # 1 1 ; ; 1 1 ; ; 1 ; ; ; ; ; ; ; ; ; ; + : 8 : ; 1 : : 1 : : : : 8 : ; : : ; ; ; ; ; ; O ; ; ; ; O O O O ; ; O ; 1 ; 1 1 8 8 8 8 8 8 8 8 b y v v b v u b z b y 8 8 1 1 : 5 z x w.yXdXmXdX+XE t o 8 E ).rXyXbXCXsXM.sXfXGXFX{ x W /.aXsX'.(.sXQ N t.p.`.aXfX+Xm `.SXHX'.m 5 z 9.9.U Y ] i < < a F ! G H a a C / ^ X.=.:.r.d.d.g.g.d.g.r.d. .~ V a w * p a a 0.M.p.t.t.S ] y $ $ o o o . 5 { t.m o o o o $ o o o o o X o X o o O o $ o = d q e q 0 s V F Y ! ^ [ ^ [ ^ / / [ [ } ..} [ } [ [ ..} } [ } ..} } } ! ! } } ^ / } ......[ ^ } ....[ ^ / ! / / ! ! ) [ ^ ! ~ ) ~ ! / ^ ) L L R L ! L ! ! P L L / L / ! L ! ! L L G ! F G ! G L G G F Z V D G H D G G ! ",
"[.}.S.V.].;X&X4X;X:X>X4X>X;X6XkXVXVXkXUX7X>X&X4X4XkX7XlXkX8XkXzX7XoX|.E..X[..X=X>X>X4X4X8XkX4X.X:X2X6X;X=X;X;X&X;X;X.XoX|.&X;X&X.X6X&X.X.X;X2X2X7X7XkXkX7X;X;X&X*X>X2X4X:X4X7X2X:X6X&X.X;XXX4X2X5X2X2X3X2XoX.XXX2X6X2XkX4X;X X*X>X7X>X2X;X|.{.oX&XoXP.oX;X4X.X}.OXnXjXoXXXXX;XXXXX;XOX2XXXXX>X;X;X.X.X>X;X.XOX&X}.;XoX[.|.}.{.}.;X;X.XI.I.[.}.F.oX].[.].}.I.S.S.P.U.S.S.m.k.g.d.k.| a % % * % * % > % % % > + % > > % % + ; > # # ; # > # ; + ; : ; ; ; , > 1 1 1 4 6 t u S q.a.s.p.Q M T T T Q t.a.a.a.a.eXeXeXeXeXs.s.eX_.a.a.a._.s._.eXs._._.s.s.a.a.a.a.t.i.t.i.W z p 9 w 9 9 5 & : > # : # O # # # O # # # # # # + # + % + # # # # # & : 2 5 3 3 7 y.qXhXpXhXhXwXs.t.Q U p 5 5 & 5 , 1 , > > ; ; # ; # ; O # > 1 1 1 > , 2 6 2 2 2 2 4 2 1 : ; + ; ; > ; > : & & * 3 3 w { wXtXpX).v z i i y v v v M v M M M v v c v c v v z z z M T W W W 9.S x x w.y.0.w.w.M z z z z z v m z 9 z z z z v v z v v n v c v m m m W M./.B v m W M z u b u b 8 8 8 6 8 u t 8 4 6 5 , : 5 1 1 1 ; 1 : 1 1 1 ; 1 : : , ; : ; 1 1 1 ; ; ; 1 : ; : ; ; 1 ; + ; : ; 1 8 : 1 1 : 1 : : : 8 : : ; ; ; O ; O O O ; O O ; : O ; ; ; O ; ; 1 1 1 1 6 8 1 6 8 b v b 8 b b 8 b y b b y 6 8 8 1 1 1 6 t i c 0.tXdXbXaXtXwX0.& , i z S aXCXdXE 9 m M.+XD R +XsXfXCXCXfXSXfXp.`.aXaXsXfX`.t./.pXCXCX`.u.M.pXfXaXaXW 1 4 , 0 m V h p w 0 e x V D X...0.g.d.0.d.=. .0.r.} H w = . . @ % z M./.p.a.B @ o $ o $ o o $ $ o U u.m $ o o o o o o $ o o o o o o $ o $ $ & 5 y i a p e r j V G G ! / ^ } } } [ / ^ ......} ) ^ ^ [ ^ } } ..[  .[ } ! G ~ ^ ~ ^ [ } } ..} .. ...} } ^ ^ ^ ^ L ~ ~ / ) ) ^ ^ / ! / ^ ~ / / ~ P / / ! / R / ~ P ~ / ! ! ! G ! ~ ! P F P L G G L G G G Z H Z G Z H G J ^ ",
"lX>X$X@XoXoX.X;X.X;X>XkX7X>X.X>XVXVXjXoX2X5XlXzXxXlXMXlXzXlX8X>X7X&X:X&X}..X.X;X4X7X7XlXlX8X&X&X.X4X&X;X=X:X&X X.X;X>X.X&X&X6X{.|.;X;X X;X;X;X&X>X8X;X;X&X;X.X&X2X;X4X;X:X4X4X:X>X&X4X;X;XXX5XXX*X.X5X2X5XXX2X5X5X5X5X8X5X;X.X2X>XR.P.oX&X>X&X;X&X|..X&X.X;XR.}.OXnXlX6XoX[.oXoX&X[.}.&X;X>X>X:X;X}..X;X>X|.&X;X&XoXoX|.XXoXOX.XoXUX2XoXXX~.~.U.U.[.|.}.oX].].U.].I.m.b.r.=.=.x.r.d.V = * % & % % % > % % % + % + % + > > > + + ; # # # # # ; # ; ; ; ; ; 1 1 2 4 q t t b n c U T S T n S S T 8.8.8.8.8.8.a.a.s.eXeXeXs.s.s.eXs.a.a.s.a.(.s.s.s.s.eXs.(.a.a.a.a.a.a.w.T v 8 8 2 2 2 , : % # % : # # # # + # # # # # + # + + # # + # # # # % > , 2 < 3 p t.tXhXgXhXhXuXeXs.eXt.9 5 5 : 5 & & , , & ; # # # # # ; ; > 1 1 > > , 1 2 2 2 2 2 2 1 > > + ; ; ; ; ; > > 1 , , < < x y.tXtXdXqXn z u u b z z z v v v O.v y v y v v v v v c z M U S Y T U c z c T 8.T 8.T O.v v z y v c v i v v c v v v z v y v y v y v v v v c S M c z z v y z 8 y 8 y 8 8 6 8 8 8 8 8 6 6 1 1 1 > 1 1 1 1 1 1 ; > 1 ; ; ; 1 ; ; ; 1 ; : ; ; ; ; ; ; ; ; ; ; ; ; + ; ; : : : : 1 1 : : ; 1 ; ; : ; : ; ; ; ; O ; O ; O ; ; ; ; O ; ; ; + ; 1 : : : 8 8 : 1 8 8 b 1 b b b b b v b 8 8 1 8 8 1 : 1 1 8 b v M /.rXaXCXCXyXtXY @ = % + +XCXCXCXaX0.: : $ N CXfXaXaXaXdXfXfXfXaXaXaXfXCXbXrX(.qXaXCXpXrXtXaXaXdXfXaXM.yXyXy.i x N H 4 & 3 w 0 e h L L F ! L R r.r.} ^ G Y D S A ~ w . < { ] z 7.7.o o O $ n 2 o o O o A E & o $ o . $ o o $ o o o o o O # + + # & 7 a a n a a c O.G R J ! } ^ _ } [ [ / ^ ....} } ] ^ X./ [ ) ^ } ..} } } [ ^ ^ [ ~ / ^ ^ } [ ^ / } } [ } X.X.^ ! R / ^ ^ _ ^ ^ ! / ! ! / ~ ! ! G / ~ / ^ / ^ / / ^ / ! L ! P / ~ P ! P L G F G G F G G G Z H G H G H F Y } ",
":X:X>X&XXXXXoXOX.X}.>XxX7X;X.X.XnXNX5XXX2XkXlX4X8XlXxX7X4X4X4X4X2X>X}..XR..X>X4X2X;X.X6X2X:X:X4X8XkX;X.X>X4X2X>X:X2X:X;X2X4X>X4X4X&X>X2X&X;X;X4X:X2X;X;X.X&X.X>X8X4X4X;X2X2X;X.XoXE.&X&X2XoX6X;XOX2X2X2X4X2X2X5X5X5X2XP.*X2XkX2X=XP.[.C.}.&X&X;X6X;X>X2X;XoX}.E.;XcXkX>X6X.XE.}.}.}.&X}.&X&X}.&X&X;X;X;X2XXX>X;X[.[.XXn.U.oXoX;XUXXXoXoXoX~.K.U.].|.OX|.oXXX].n.n.n.m.m.<.K.1.r.M.d.Y * % * & % & > < > > % > % > + > > + > + % # # + ; # ; # # ; ; : > , > : > 2 6 t 6 t y z y z c S S T 8.w.w.q.q.q.q.8.8.8.q.a.s.eXs.eXeXs.s.a.s.s.a.s._.a.s.eXs.a.i.a.a.a.a.a.a.i.w.O.8 1 1 , , : % # , # : # # # # # ; # # # # ; # # # % + # # # # # # # > & < q S qXuXgXgXgXgXgXhXhXhXtXT 5 : 5 : : : , : ; ; # ; # # # + ; , 2 2 , ; > 1 2 2 6 2 1 2 1 1 ; ; + ; ; ; ; ; ; + > > < i y.rXyXuXdXqXA y y z z c v z v i v v v v v v v i v i c v z v M v c M A z z v O.S M M B M v i i v y z v y y v i i y z y v z z v v v v i v v v v v z z z u b y 8 8 8 y 8 8 6 8 1 1 6 6 2 6 6 1 1 > > 1 1 1 1 1 1 1 ; ; ; ; 1 ; : 1 1 ; ; 1 ; ; ; ; ; ; ; ; ; ; + ; ; ; ; : ; : ; + ; : 1 ; ; ; ; ; ; + ; + ; ; O O O O + + + O O ; ; ; ; ; : 1 1 : : 1 : 8 1 8 : 8 8 8 8 8 8 8 8 8 8 8 8 1 1 1 : 8 8 8 z v Q +XaXSXCXuXbX'.+ @ @ @ ~ bXZXFXCXZXr.$ $ i bXaXpX'.rXdXCXCXdXCXfXaXaXaXdXdXdXtXuXdXdXpXdXdXdXdXdXfXfXdXCXaXsXwXsXpX`.p.W i & = & 4 w w p m `.+XqX'./.`.`.qX/.(.(.y.& . X o O Q a.c $ O O { { u o o o 5 # O $ o o $ o $ o o o o o o X > z p + # % 5 p h V V n C Y Y / / ! [ ^ ~ ^ / ~ ! ^ } } } } [ } } } ..^ ^ ^ } [ [ } } } ..} } [ [ [ } } ..! [ [ ^ ..} [ _ ~ / ! ! ~ } [ ^ ~ ! [ ! ~ ^ / _ ! / ! ! ^ ^ ! ! ^ [ ^ ~ R P ! ! / R P F F G G G G F P F G F G G V G G G / X.",
"=XkX7X[..XOXXX[..X&XOX4X4X6XjXjXnXVX2X XkX7XlX>XjX7XlX8XkXcXlX8X8X;X;X].;X7X&X4X4X;X4X2X4X4X4X>X4X8X;X>X>X2XOX;X&X>X:X4X4X6X4X3X*X=X>X;X;X;X>X8X4X:X>X:X:X2X&X;X>X4X&X4X4X6X;X;X}.*X4X>X>X4X3X;XXX2XkXkX5X4X5X5X8X4X5X2X4X;X;X X.X;X|.L.&X2X4X.X.X;X=X.X&X.X;X.X;XcX4X>X>X;X.X].&X;X>X}.OX}.}.}..X&X}.>X[.}.;X}.}.XXXXn.n.}.|.XXoX].U.|.oX].].UXUXOXoX|.UX~.|.U.K.m.v.b.=.x.f.=.d.m.r.c & % % & , > % % > > > % + > + + # # > + + # # + # ; # ; # > ; > ; , > > 1 1 1 6 t t u y 8 z M c W 8.8.8.8.8.8.q.a.a.q.8.8.q.a.a.s.a.s.eXeXs.a.a.(.(.a.a.a.eXeXa.q.a.a.q.t.a.i.T u 2 > > > % > > : > # # # # ; # ; + # # ; # # # # # + # # # # # # : # # % < y { uXhXhXhXgXgXgXgXhXgXhX`.s.y.B 9 , : : : : # ; # # ; # # ; , 2 1 , > , 1 2 8 2 1 1 2 1 > > > ; ; ; ; ; > > 1 > > 5 A ).qXwXwXdXwX] z x u y v z c b v v c v O.v v v y y O.v v c c c c c z c c c c M v v c v z y u z y y v y 8 y 8 y y v y y v y v v y v y y y y i z y z b y y v u 8 8 u 6 z 8 6 8 6 1 1 6 2 1 1 1 1 1 1 1 1 1 1 1 > 1 1 1 ; ; ; 1 1 : ; ; ; ; ; ; ; ; ; ; ; ; ; ; ; ; + + ; ; : ; ; ; ; ; ; + ; ; + + ; + + ; ; + O O O ; + ; + + ; ; ; ; ; ; 1 8 1 1 1 8 : 1 8 : ; 8 8 8 8 8 8 8 8 1 1 8 1 8 1 1 : 1 8 8 z z S { `.yXvXdXuX`.> @ @ @ * { +XsXvX'.[ $ $ 9 +XaXW 8 N pXCXaX`.sXaXpXsXtXpXaXwXyXyXpXwXpXCXtXdXfXfXfXfXdXpXdXaXpXpXpXhXhXaX+XD o o $ $ $ D ] qXpXpXrXrXqX`.w.x _._._.W . @ O $ i (.).D O O n u.r.x X o o $ $ O O $ O $ $ $ O O o $ o o # i y # # % = q a V V V G ! ] / ^ ~ ~ ^ } [ } ^ ! [ ....[ } ^ } } ^ [ [ } ....} ^ }  . .....} } } ) ..}  .^ [ [ [ ..} ^ [ ^ ! ~ ! ^ ^ [ / ! ! X.~ ! ^ ^ ^ ! ! / ~ / ! ! ~ ! ^ / ^ ^ / L ! ! / P L L L P L G G F L G Z C H Z G o.Y ^ ! ",
";X4XlXkX6X6XXXOX}.}.;X6X6X6XlXjXVXNX2XoX>XkXzX7XkXcXzX4X6X;X&X>X5X4X&X;X>X7X}.;X&X.X:X4X>X4X*X=X4X7X4X>X;X&X.X&X.X;X2X4X2X7X2X=X>X:X4X2X4X4X4X7X8X8X4X4X>XoX&X2X4X:X4X4X>X=X.X.X&X&X.X&X&X2X3X2X.X5X5X5X5X4X4X5X5XcX5X5X2X*X>X4X;XkX{.|.;X4X;X.X.X;X6X4X;XoX.X>X2XxXkX.X.X&X7X>X&X;X=X&X}.&X{.$X>X;X>X&XI.L..X}.oXoX|.[.|.oXoXoXoXoXXX].|.oXI.].|.U.oX].].m.|.].I.U.n.m.,.x.,.M.r.m.x.V & * & & & > < > % > % % > + > + # > + > # ; # # # O # # ; # ; > > > > : > 2 4 4 6 t 4 6 6 y z v S B v B v B 8.q.s.s.q.a.8.B T q.a.a.a.s.(.s.a.a.s.a.a.a.a.qXs.(.a.q.q.a.q.q.T v 8 2 > > > > : # # # # # ; # # # + ; # # + ; # # # # + # + # # # % # > > < 2 i /.tXtXgXgXfXgXgXgXgXfXfXfXgXfXpXqX5 & : , : : ; ; # # # # ; 1 2 1 > > > , 1 2 1 1 > > > ; + + > + ; ; > > > 1 1 1 3 i A r.tXrXdXdX_.z t u y z z z O.v c v v y v v v v 8 v i z y v z z M c z z y z y i i i z y y z y y y z v v 8 y v y 6 y y 8 8 y 8 8 8 8 8 8 v y y z 6 y 8 8 z y y 8 8 8 6 6 6 2 8 1 > 1 2 1 2 2 1 1 1 1 1 1 ; 1 ; ; 1 ; ; ; ; ; ; ; ; 1 ; 1 ; ; ; ; ; ; + ; + ; ; + ; ; + + ; ; + + ; ; ; ; + ; ; + + + + + O O O O O O O ; ; + O + ; ; ; ; ; : 1 : : : : : : 8 ; ; 8 8 1 8 8 8 8 8 1 1 1 1 8 1 8 : : 1 6 z x S ] M.rXtXyXrXY > o @ $ & e n D t 5 $ $ N '.FXM.5 O { bXsX6 ] sXaXrXy.M.`.q.rXtX(.rXtXrXpXfXtX_.dXfXfXfXfXfXdXpXpXhXhXaXfXsXY $ . $ D +XpXrXrXrXrXrXrX] @ 5 a.qX_./.2 - $ $ $ W `.M.5 O 6 9.r.W # o o O O O $ O $ $ $ O $ O O o $ O O O # # # $ * q p A H S G ! / X.] / X.X.! [ } [ ^ } } ....~ ^ } } ^ ~ ~ } ........} [ } [ ! ^ / ^ ^ X.[ } ! / ..} } [ ^ ~ ! ~ ^ [ ^ ) ! ! ~ ^ ^ ! / Y ~ ~ / ~ [ / R ! ! ! ! / / ! ~ ^ ~ P ~ / ! F L ! L L G G G G G G Z H F G F G ^ D ",
"}.}.>X&X>X;XXXOX}..XOX;X>X;X>XjXVXVX5X2X2XxXcXMXMXMXlXkX7X7X4X>XkXzXkX4X>X7X>XkX2X&X>X:X;X&X=X:X;X4X4X=X>X2X>X=X&X>X;X;X;X4X7X4X7X=X.X:X>X2X4X8X2X7X2X.X:X;X&X;X;X4X;X&X4X*X=XoX|.|..X;X;X2X2X2X2X2X5X5X5X2X2XcX8X8X>X2X;X2X:X4X4X6X>X4X4X2XXXXXL.&X.X&X2X&X&XoX4XMXcX>X&X;XR.;X&X}.:X;X>X,X&X:X:X>X&X].}.}..X;XoXUX|.I.].oXoXXXoX|.|.oX|.I.U.}.].U.U.U.n.n.oXU.].|.n.l.,.m.f.x.d.m.M.^ & & & & & , > > > , % + # ; # # # ; # # # # # # # # # # # ; > > : : ; O > ; 2 1 2 4 6 u z 8 M B 8.7.8.q.q.7.q.a.s.eXeXs.a.8.B T T 8.a.s.(.(.(.eX(.a.(.s.(.(.i.a.q.t.q.q.t.u.N y 2 > > , , % : : # ; # # + ; # # # # # # # # # # # # + # + # + # # : > : 1 3 c p.q.t.pXgX`.s.s.hXSXSXfXfXSXfXfXgX7.: : : # # # : # # # # : 1 2 > : ; ; , 1 > > > ; ; ; ; > + ; # ; # > > # : 5 & 5 w p =.pXrX`.dXpXE y u b y u z v y v y y y v v v v i i y 8 v 8 y v z z i y y 8 v i v v z y 8 y 8 6 8 z y y 8 y y y v i 8 y v 6 8 8 y 8 6 8 6 6 1 y z z 6 6 y 8 8 6 2 8 6 2 2 1 2 1 1 1 8 1 1 > 1 1 1 1 1 1 1 1 ; 1 ; 1 ; ; ; ; ; ; : ; ; ; : ; ; ; ; ; ; ; ; ; ; + ; ; ; + + + + ; + ; + + + + + + O O O O O O O O O O ; + ; + O O ; ; ; ; 1 ; ; ; ; : : : 1 : b 8 1 8 8 8 8 b b 8 8 1 8 8 8 : : : : 8 5 u i m S ] r.rXrXyXrX/.x o @ @ % & , % # # 7 =.bXZXFXr.o 6 ).{ O N rXrXi.O ; 8 Y rXrXU `.vXdXpX`.t.T tXfXfXfXfXhXhXfXhXdXhXdXfXaX+X3 X o D rXpXrXy.y./.y.8.t X - W _._.p.: $ $ $ $ 5 u./.h O O N { =.5 o o $ $ O o $ $ O $ O O o O o 4 i : o O + # + * q a H G G Y o.^ / / ! ] [ ) ^ [ [ ^ ^ ^ ^ [ ! [ } } ..} ^ X.} [ [ ^ / ~ ~ ! ^ ^ ~ ^ ^ ^ } ^ ~ ^ } ..^ / ^ ^ / ^ X./ ! / ^ ^ ~ ~ / Y ! ! [ ^ / ^ ! ! ! ! ~ ! ^ [ ^ R G ! L G ! ! L ! L R L G P L G F Z Z H G G Y J Y o.c ",
"&X}.[..XXX|.|.}.[.}.oX>X.X>X>XjXVXPXXX4X3XxXxX8XlXxXxXlXlX4X&XjX7XlX>X4X:X&X:X>XkX;X>X&X|..X>X>X=X4X2X;X&X4XoX.X.X&X;X.X;X;X:X;X4X7X6X.XP.&X5X5X2X>X2X7X7X>X2X;X>X;X4X:X:X>X&X.X*X&X2X:X2X5X3X2X2XXX2X5X5XkX8XkX4X4X8X7X4XlXlXkX&XL.{.2XkXkX2X*X>X;X;X:X;X.X{..X6XMXxX;X;X>X.X}.&X>X&X}.>X{.}.}.[.R.}.;X:X4X;X4X~.UXoXI.oXoXoXoXUXoXoXoXoX}.|.[.|.].].].U.oXoXU.n.x.v.n.g.m.x.=.k.'.).r.3 : & & , < < > < , > > # + ; # ; + # # # ; # ; # + # # ; > > > > , 1 , > > , , 2 ; ; 1 y v w.i.q.q.q.q.a.a.a.s.s.eXeXs.a.q.8.8.T T q.s.(.eXeXeXs.a.(.a.a.s.a.a.8.a.a.a.t.9.n t 2 > > , > # # # ; + ; # # # # # + ; ; + # # ; # # + # + # + # # : ; > > 1 4 M Y z B r.] N B =.eXfXgXfXfXSXSXSXgXpXW & & > & # & # : # # ; > , : : # > , 1 1 > > ; ; ; > ; ; # ; ; > + > : & : 5 3 5 w Q pXu.E pXCX9.z 9 y b y y y v v b v y v 8 6 y y v 8 z y v u y 8 y z z v i v i i y z i 6 8 y 8 y 6 v 8 8 y i v y i 8 y 8 8 8 2 8 8 6 6 6 6 8 b 6 6 8 6 8 6 1 8 6 8 6 6 8 8 1 1 1 1 1 : 1 1 ; > 1 1 1 ; ; 1 ; 1 ; 8 1 ; ; ; ; ; : : ; ; : ; ; ; ; ; ; ; ; ; ; ; + + ; + ; + ; ; : ; ; ; + ; + ; + + O O + O O ; + O + O + ; ; ; ; + ; ; : ; + ; ; : ; ; ; ; ; 1 ; ; 1 1 1 8 1 1 : 1 1 : : 1 1 1 1 8 5 7 u p c D Y u.qXrXrXyXM.$ . @ O O + $ $ $ 4 '.CXFXCX'.X o $ $ o O 0.M.U 8 c 6 S yXyXM Y rX/.M.] t c yXfXSXeXtXSXCXdXwXdXaXr.i.sXaXY o o x +XsX'.X O O w c & X o $ ).+XW $ $ $ o $ o =.(.7.5 O $ m B 5 o o o o O $ O o o o O O $ o o $ y t # O # @ $ $ 2 w x D G Y R ! Y ! / ^ ) [ / ^ } ! / ~ ^ / } } ....[ [ [ [ ) ) } } ^ ^ [ ^ ^ / ~ ! Y / } } [ } [ } ) ~ ^ } } ^ ^ ~ ! ! ! ~ / ! ~ ( ! ! ! ! ^ ~ ! R ! ! ! ! ^ ^ ! ! / ! P ! / ^ P L ! P L P F G L Z Z H G ! G G Y ~ o.p ",
"{.[.R.[.oX}.|.[.F.F..X4X4X>XoX6XDXVXoX2X*X5X8X5XlXMXlXlXcX7X&X4XjX7X6X7X:X:XzX7X4X&X6X&X.X.X;X6X>X2X;X4X7X2X&X{..X.X;X&X[..X&X&X.X>X4X;X=X;X;X5X7X;X4X>X=X&X2X>X*X&X;X>X2X6X>X&X>X4X;X;X4X.X2X2X2X2X5X2X5XkX5X2X2X5X2X4X;X4XzX8X;Xz.oX4X2X8XUX2X{.E.|.[.oXP..X>X>XlXkX>X>X&X.X&X;X[.&X;X;X>X&X>X&X}.&X;X;X;X.X}.*XUXXXI.P.XXOXUXUXoX|.].|.oXoX}.|.oXoX].oXI.K.m.x.v.n.K.x.=.=.,.g.'.).M.x < : & & < < < > > > + # # # # ; # # # ; O # # # # # ; ; > , , 1 , , > ; , 1 , 2 1 2 u v B q.(.q.q.a.q.a.a.a.s.s.eXeXeXs.a.7.a.T B B a.q.(.a._.s.a.a.a.a.i.q.q.a.q.a.8.t.Q i 4 2 , > > % ; ; # # ; # # # # ; # ; # # ; # # # # # # # # + ; # ; > > 1 > 4 6 y z a m A x p a N =.a.a.gXSXSXSXfXdXpXt.5 & & # # # # > # # # ; ; # # # > > 1 1 1 ; ; ; ; ; # + ; # # # > > , , 5 5 5 0 5 r.`.m i (.aX{ z y z y y v v z y y 8 y v y y 8 y 8 8 v y v u 8 y v y z 8 z y v i c y y u 8 8 6 6 y y i v i y y y 8 y v 2 8 8 v 6 8 8 8 8 b z 6 z t 8 8 1 6 2 8 6 1 2 y u 2 1 1 1 > : 1 > 1 1 > ; 1 1 1 8 1 1 8 ; ; ; ; ; ; ; ; : ; ; ; ; ; ; + ; ; ; ; ; + ; ; + ; + ; ; ; ; ; : : ; + ; + ; ; + ; O O O + O O ; O O ; O ; ; ; ; ; ; ; ; ; ; + ; ; 1 ; ; : 1 1 1 ; 1 8 1 8 8 1 1 1 8 8 : : ; : : : 5 7 7 w u x n L 0.).yXrXyXx o o o o + + o $ O { bXFXyXN o o o X X X X o q M.).{ # /./.t ; W T z # ; y.uXCXfX9.8./.(.Q 9 D B & o N ] u O o $ =.sX).X X X ] +Xd.; $ $ ] '.H $ $ $ $ $ . W /.u.r.i $ $ $ $ o $ $ $ $ o $ o $ O O $ O O O O 3 , # # O $ # - % & a V Z o.! ! ! ! ! R ^ [ ) ^ ^ ^ / ^ } [ } / } } ^ } ^ _ [ ..^ [ } ^ ^ / ^ ~ / ^ ^ ^ }  . . .} [ ^ ^ ~ ^ ) [ [ ) ^ Y ! ! ! ! ! ! ^ ^ / ~ ~ ! / / / Y / ~ / ^ / ! P G L ~ _ ) ~ ~ P L G G F G G F F G Z F F G / o.O.y ",
"&X}.@X.XoXoX[.}.oXP.P.>X>XXXOXOXNXVX*X6X2XcXkXUXkX7XjXlXxXjX&X4XkXjX;X,XkX>XzX>X4X8X2X.X[.R..X;X X.X;X;X&X6X;X[.[.;X:X;X;X.X6X.X|.&X4X6XkX5X5X4X;X;X&X;X>X;X.X&X.X.X;X4X&X.X=X;X2X;X;XoX;X2XoXOX2X5X2XXX5XkX5XcX5X5X6XkX4X4X7X8X>X&X4XkX2X.XXX*X;X[.F.|..X[.{.;X;X4X4X&XOX&X[..X&X}.}.;X.X&X{.}.;X&X}.;X:X>X;X{.XX*XUXP.I.].|.XXoX|.|.|.[.].I.}.].].].oX].].U.n.b.m.v.m.K.,.,.r.g.'.].'.D & & & , < < > > * % % # # # ; + # + ; + # # + # # + ; > > 1 1 1 , > > > , , , 1 6 2 1 B 8.q.q.q.s.a.a.a.a.a.a.s.eXuXs.s.s.a.a.q.B B v 8.q.q.(.a.a.q.8.q.i.a.t.i.q.q.i.t.B w 2 1 , > > ; % ; > # # ; # # # + ; # # # # + ; # # # # # # ; > ; ; > : , > 2 4 t t 7 t u y 9 p b b N B eXfXfXSXfXwX_.Y 5 & , : & # # # # # # + # + + + : 1 1 1 ; > > > > ; # ; # > ; ; ; ; > ; & 5 9 5 e /.W w p M.vXW u y 6 z b y y y 8 8 v y y 8 y v y y y y 8 y 8 y y y 6 6 y y i y i 8 y 8 2 6 6 6 y 8 8 i y y 8 8 6 6 8 6 8 8 6 2 2 8 6 8 8 2 8 t 6 6 8 8 8 1 8 1 2 8 8 8 8 > 1 1 1 1 1 : 1 1 1 1 > 1 > 1 > 1 ; 1 1 ; 1 ; ; ; + ; : ; ; ; ; ; ; ; ; ; + ; ; ; ; ; ; ; ; ; + ; + ; ; ; ; ; + ; + + + + + O O O O O O ; ; + ; ; O ; + ; ; ; ; + ; ; ; ; : : 1 1 ; ; ; 1 1 8 1 8 8 1 : 8 1 : 1 : : 1 1 : , 7 7 7 9 u x n U Y ).rXwXY n % o o + o o O O # ~ ).A : o o o X X X X o : M.yXr.o z x o X o X O O O 0.CXbXrXc O 7 N 9 $ $ - o o o O $ o o . : U S ; X X w M./.q . o $ w : $ $ $ $ $ $ m u.u.t.{ m & o $ $ o $ o o O O O $ O $ O $ $ O O # + + O @ O $ + % < a V D Y ~ / / ^ / ^ / ^ ^ } [ ^ ! / [ ^ [ / ! [ ~ ^ [ } } ^ ^ ^ [ ^ / ^ [ ^ ^ ~ ! ^ } [ [ ..} [ / } ^ ^ / ) ^ ^ ! ! ! ! ~ ! ! ^ / ^ R / / ~ ^ ! / ^ / ~ ) ^ ~ / ! G L ! ! ^ / / ~ L ! G G G ! / L F G ! ! X.] Y q 0 ",
"U.L.I.[.[.2XoXU.}.[.UX5X5X6XUX6XnXNX2X5X5XxXcXcX5XcX5XcXcXcX~.5XMXcX4X>X4X4X4X4X>X;X&X;XoX[.&X;X2X2X>X=X4X:X>XoX}.;X4X7X4X;X6X2X2X>X5X4X2XoX2X4X5X2X4X2X5X5X4X2X2X&X;X>X>X2X4X8XkX4X&X>X;X;X2X2X5X2X4X4X5X5X5X4X5XkX5X5X5X6X5X5X4X3X8X5X5X*XXX[.oXUX.X2X2XXX6XXX4XkX6X2X;X}.}.;X[.}.&X&X>X&X}.&X:X>X;X|.>X>XXXXXoXXXXXoX}.K.[.|.}..XoX;XoX}.].OX].|.OXoX|.U.m.F.m.x.n.U.k.m.:.g.r.m.+XyX{ & & # % < , , , & % % + # # # # # # ; # # ; # # # # ; > , 1 2 1 1 , , , ; 1 2 , 3 u i N Q q.t.q.a.a.a.a.a.a.s.s.s.eXeXs.a.a.t.7.B b B B T 7.i.p././.w.B U W 7.q.i.a.a.q.N 6 2 1 , > ; ; ; + # # ; # # ; # # # ; + ; # ; # ; # ; ; # ; ; ; > > > 1 , > 1 4 6 t t y t t 9 w p p y 9.dXfXHXHXs.7.E p : & ; ; ; ; ; ; ; + ; + # O O + ; 1 1 1 1 1 > > ; ; ; ; ; ; ; # # > ; ; 2 1 : 3 9 r.h 5 9 u.bXy.y 7 u y i y y 8 8 8 8 8 8 y 8 y b 8 8 y 6 8 y y y 6 y y y y 6 y 6 8 y i 6 2 2 8 6 y 8 6 2 2 8 6 8 6 y y 8 2 6 6 6 2 q 8 8 6 t 8 8 y 8 y 8 6 6 6 2 8 > 1 1 1 1 1 ; 1 1 1 1 1 > 1 1 1 1 > 1 1 1 ; ; ; ; ; 1 ; ; ; ; ; ; ; ; ; ; ; ; ; + : ; ; ; ; ; ; ; ; O ; O ; ; ; ; ; ; + + ; ; ; + + + + O ; O O + ; O ; O ; ; ; ; ; ; : ; ; ; ; 1 : ; ; : : 8 1 1 1 1 1 1 1 1 1 1 : : : : : : : 5 5 6 6 6 t i z m N E +X+X`.+X/.z @ o O o o o O $ # O O o o o X O X X O O M M.Y o o o X o o X o o o p u.M.r.4 o o o X o X o X o o X X o X o o o X X o X o O 6 : X o o o $ $ $ $ $ $ o u t.u.y.u.M * $ $ $ O O O O O $ O O $ O $ O # O O O # + O o o O O $ & p a n D ! / ^ ^ ! ! ) ^ } [ _ [ ! ! ! / ! ^ ^ X.~ ! } } } ^ [ ^ { / ~ / ^ X./ ! ! ~ } } ....} } / ^ ^ ^ ^ ^ [ ^ ^ ^ ^ ! ~ [ ^ ! } ~ ! / ^ ^ ..} ^ ^ [ }  .^ ^ / ^ ~ ! / ^ ~ ^ ~ / ! F G G ! ! / ! Y R / [ ~ G c 2 y ",
"I.$.>.c.U.oXXX}.OXOXjXjX6X6X;X6XnXVXUX2X5X5XcXcXUXcXcXxXMXcXcXcXxXxXlX7XlX4X6X4X*X8X5X&X4X&X4X4X7X2X.X[..X2X;X:X6X4X4X>X4X6X;X4XXX2X5X4X;X2X2X2X5X4X5X4X5X8X8X4X:X;X4X2X7X>X9XzXkX4X;X=X|.|.oXXX2X2XXXXXoX*X|.5X5X3X5X2XkX2X5X5X4XcX2X5X4X6X*XXX*XP..X;X2X2X|.XX4X.XlX.X}.;X;X&X[.&X;X>X;X}.&X&X&X>X;X}.2X6X;XoX|.XXoX|.oXoXXX}.}.|.&X].P.}.oX}.].].oXU.U.n.n.U.x.U.n.x.c.x.k.g. .r.'.`.M.t : & & & & , , & % # + # + ; # + + # # # + ; # # ; # > 1 > 2 2 1 2 , 1 2 , 3 4 t S Q U 8.i.i.a.a.q.a.a.a.a.s.s.s.s.s.s.a.a.t.a.8.B b N N B Q 7.u.q.q.Q M M T T q.q.a.7.v 4 1 1 , ; ; ; ; ; # ; + # # + # # # # ; + # + ; # # # # # ; # ; ; ; > > , > 2 2 q 2 t 6 t 4 5 9 9 9 U aXfXfXfXfXU N i 5 & : ; ; ; O O + ; ; # ; # ; + ; 1 1 2 1 2 > > > ; ; + ; ; ; > # > ; ; ; > , < < 0 M.D 5 7 { CXyXU 6 8 8 8 8 8 6 6 8 8 y 8 y y 8 8 y y y y y y y 6 8 6 y 6 y z 6 6 6 8 8 6 2 8 2 6 2 2 2 1 2 2 6 6 6 2 6 2 8 8 6 6 6 2 6 1 2 1 6 6 2 2 6 6 2 6 2 6 2 8 1 1 1 1 1 1 1 1 1 1 1 1 1 2 1 1 1 > 1 1 ; 1 ; ; ; 1 1 ; 1 ; ; ; ; 1 : ; ; ; ; ; ; ; ; + ; + ; O ; ; ; ; ; O O O + O ; O O O O + O O + O O O O + O O ; ; O O O O O O : ; ; O ; 1 : ; ; : 1 1 : 1 1 : 8 8 1 1 1 1 : : ; : : : : : 1 1 6 6 6 7 u p x n u.+XpXtXyX'.v O X O o o o O $ O O o o O o o X X X X X O O o . X o X X X X o O o w a 5 $ o o o o X . X X o X X X o o o X o o o X o o X X X o o o o o o o $ : : $ : D t.t.7.M 5 % # o O O O O O O O O O $ O # # # : # O ; o o O X X @ * p a V D ! F G ~ ! ~ ~ ^ ) } ..} ! ! Y ^ ~  .d.0./ / ^ } [ X.[ } ....! ! ~ [ ^ ~ / ^ ^ .. ...[ } ^ ^ ^ ~ ! ~ ..} ^ ^ ^ [ / ^ X./ [ ..} X.[ [ ..^ [ ^ ^ [ [ } ^ [ ^ } ] ^ ! / / ~ J Y ! F J Y ] X.^ ^ o.] ] D A s s q ",
"[.c.n.v.U.oXXX].XXOXcX4X;XOX6X>XnXVX5XUX5X5XjX5XcXMXxXcXcXcXcXcXxXMXlXMXjX4X4X5X:XkXlX6X=X&X4XkX4X>X;X.X{.].;X>X7X8XkX4X7X8X4X>X>X8XkX6X2X2X5X4X4X5XcX9X5X5X5X2X>X4X:X4X4X2X;X4X9X4XE.}.[.XXoX|.XX5XXX|.2X2XXX4X2X2X;XoXXX2X2X3X4X8X4X2X*XXX2X2XXXXX2X5X2X5X6XXX>XxXkX;X;X&X&X>X&X;X>X>X>X=X7X>X&X.X[.XX.X.XOX&X|.P.S.I.[.oX;XOXOXOX}.oX}.}.oXoX].U.|.[.].].].n.K.].U.m.:.n.x.=.d.d.+X'./.r.n w & * * & & & % # # ; + + # # # ; # # + ; # ; # ; > 1 2 1 , , , , , 4 7 t c E q.q.q.q.i.q.i.q.i.q.q.s.s.s.s.eXeXs.s.a.a.a.q.q.B B m b z N U T t.(.q.T v v B T 7.q.q.c 4 2 , , > ; ; ; # + # ; # # ; # + ; # # # # # ; # ; : > > # ; ; ; ; > > 1 1 1 1 6 2 2 1 , 1 3 9 9 5 q.HXSXSXHXsXN p 7 4 : : ; + ; ; ; ; + ; # # ; + + + > 1 2 2 1 1 > > > > > ; > ; ; ; ; ; ; > , > 5 5 5 g.Y 5 9 r.CX`.M u y 8 8 y y 8 8 6 8 8 y y 6 6 6 6 y y y y 8 y 6 6 y y z 6 2 6 2 2 2 2 2 2 2 1 > 1 2 6 1 2 2 2 2 8 8 8 8 2 2 6 6 8 y 2 6 2 y 8 2 y > 1 2 2 2 2 2 1 > 1 1 1 1 1 1 ; ; 1 1 1 6 2 1 1 > 1 1 1 1 ; ; ; 1 ; : : ; ; ; ; ; ; ; ; ; ; ; + ; + ; ; ; ; ; ; ; ; O ; O O O O O O O O + + O O O O + O O O O ; O O O O O O O O O ; O O ; O ; : ; ; ; ; : 1 1 : : 1 1 1 1 1 8 : 1 1 : ; ; ; ; ; : : 1 1 5 5 5 7 t t a A u.`.pXaXtX`.x O X O o o o o o o X o X o O X o o X o X o o . X X O , > > & # o o . o . o o X X   o . 6 5 X o x w X o X X X o o X X o o X o O o o O O $ $ $ $ # # & t i m w 3 # # @ O O O O $ O $ O $ O O O $ O O O O O O o o o o @ 3 p a x G R R G ! ! R / } } } } [ / R _ [ ^ g.m...) ^ [ ^ / / } } ....} ^ ~ } } ^ / ~ ^ ^ ^ ~ _ / / } ~ ^ ^ ^ } [ ^ ...... .} [ } ..} } } [ } ) } X.........^  . .[ [ ^ / ! ! / ! G ! ~ G ! [ X.] X.{ ] X.G x y q a q ",
"}.[.I.I.I.[.XX6X2X4XjXxXOXOX6XjXVXnXcX5XjXXXjX5XcXcXMXcXcXcX5X5XcXkXlXcX4X2X5XkX2X&X3X>X>X.X|.&X&X4X4X8X;X4X8XkXkX6X6X:X;X>X6XkX5X2X2X2X2XkX5X4X5X5X6X5X2X5X6X1X:X&X4XkX7X7X4X>X2X;X>XoXXXXX*XXX.X2X4X5X2X6X6X2X2X;X.X4X2X2X5X4X4XcX8X5XUX~.oXXX2X|.2X2X2X2X5X*X7XxX>X.X;X}.$X}.].c.D.{.[.;X:X>X&X}..X[.XX.X&X;XXX].[.oX.X|.;XoX}.;XoX&X}.&XoXP.I.U.n.|.].U.n.U.n.U.n.x.g.m.=.,.M.x.M.`.`.).i.9.N & & , & % # # # + # # # # + # ; + ; # ; + # ; > > , , , 1 , 2 1 p i U w.q.q.q.i.q.q.7.q.q.8.7.q.q.a.s.s.s.s.s.eXa.t.a.a.t.7.8.B 9 u m z m U W w.7.W U U v U 8.Q z 4 1 > ; , ; > > # # # # # ; # # ; # # # # ; ; # # ; > , > > ; ; ; , > ; ; 1 , 2 2 1 > 2 5 2 < 5 5 9 9.rXaXHXdXu.p 4 5 , : ; ; ; O ; ; + ; ; # # + + + + ; 1 1 2 6 1 1 > 1 > ; ; ; > + ; ; # ; : , , & 5 i ).A 5 9 ).aXu.i 7 6 y 6 6 6 6 6 8 8 6 6 2 6 8 2 y 8 2 8 8 6 6 2 2 6 6 6 6 6 y 6 1 1 1 2 1 2 8 1 6 2 > 6 2 6 2 2 2 2 8 y 6 2 6 1 1 , 2 2 1 , 2 6 8 6 2 6 6 2 2 6 1 1 ; 1 ; 1 ; 1 ; 1 1 ; ; 1 2 8 1 1 1 1 > ; 1 1 ; ; ; ; ; ; ; ; ; ; ; ; : : ; ; ; ; ; + + + ; + ; O O ; O O ; O O O O O O O ; ; O O + + O O O O O O ; + O O O O O O O O ; O ; + ; ; ; 1 : : : ; ; 8 1 1 8 8 : 8 1 : : ; ; ; ; : $ : : : 5 5 & 5 4 4 7 u m D 9.rXrXtXyX(.z X O o o o o X o O o o o o O o o o X o o o o X : E { w.{ 9.{ D $ . . o o X X # A M m M.M.m o D r.$ X X X o o X o o X o o o o o o O O $ O $ $ $ $ % 3 * < * , & $ O O @ $ O # 5 7 $ O O O : O O O # # O O o O o @ @ 3 w i V G Y Y R / / ~ ^ ^ [ } [ X.[ G G  .d.} [ [ ^ [ } ^ [ [ ....} ....} ..} / ~ _ ~ ~ / ~ F Y ^ [ / _ [ ^ } .. ...[ } ......[ ..} ^ } } [ } [ } } [ } } [ ) [ } / ^ / / / ] [ ! ! ~ ! ! [ X.Z n A O.G V e < 2 e q = ",
".XoX}.[.}.*X>X2XXXOXjXkXjX4XOXcXVXVXcXcXMXcXcXUX2X5X5X5XcXUXxXcX5XxXlXlX*X4X8X6X4X;X2X4X:X;X&X6X>X;X>X4X7XkXlX2X;X2X>X4X;X4XkXkX5X2X2X2X5X4X*X4X2XUX1X4X2X6X5X2X=X;X.X4XlX4X8X8X;X&XP.$.[..X|..X*X2X6X5XXX|.2X2X8X5X5X5X2X2XXX5X5X5XkX6X1XoXXX2X2X2X2X2X4XoX1X6X5XxX>X X&X.X].E.{.{.[.7X>X=X$X&X&X}.&X&X;X>X.X;X2X[.;XXXXXE.}.}.}.;XOX6X].UXoXn.U.|.K.].|.m.F.n.m.x.x.:.v.x.=.=.k.m.g.`.+X`.`./.r.m & & & % # = # # ; + + # # # ; + ; ; ; # + ; > > > > 1 > , 6 x A E 8.q.0.q.w.8.Q T 8.Q 8.8.8.8.q.7.q.a.s.s.s.s.s.a.s.a.t.q.t.Q m 9 b z u M 7.E T U T 8.T c U M u 4 2 1 , > > ; # # # # ; + # # ; + ; # ; + > 2 ; # ; : > > > > > ; , 1 2 , 1 , 1 , 6 , 1 1 2 5 5 5 6 U W w.M.r.N 7 5 3 & ; ; ; O ; ; ; ; + + ; ; ; + ; + > 1 6 2 1 1 1 > ; ; ; ; + ; ; ; ; > > ; > % , 5 E `.m 5 u '.fX0.u 7 8 6 6 ; 1 8 1 8 8 2 2 6 2 2 8 8 2 6 y 6 8 > 2 6 2 2 2 2 2 2 6 ; 2 8 2 1 6 1 1 1 8 6 1 > 1 1 2 b 2 2 8 6 6 > > 6 1 2 2 1 2 , 2 2 8 2 8 6 2 > 1 1 1 1 1 > ; ; 1 1 1 ; ; 1 8 8 1 1 1 1 1 ; 1 ; ; 1 : ; 1 ; ; ; ; ; ; ; ; ; ; ; + ; ; ; O O + ; ; ; ; ; O ; O ; O O O O + + O O O O ; + O O O O O O O O O O O O O O O ; O O O # : ; ; ; : : : 8 ; 8 1 1 : 8 1 8 1 1 1 : : : ; ; ; ; ; ; 1 : : : 5 5 5 4 7 p m M ).tXuXuXaXrXW 3 o o o O O o o o o o X o o X O X o o o o o m M.'.`.`.qXrXqX{ 9 = $ $ a r.u.'.'./.`.'.E O , u.r.U   X X X X X o X X o o o o o o O $ $ $ $ $ $ # , , # # & , # # O # O O O ; : : O $ # # # # $ O O O # # # O # = & w a V A Y ! ! / X.^ ^ } [ ^ ) ) ) ~ ! } 0.[ ^ ~ ^ } ^ [ ^ ..[ .... ... .r...} ^ ^ / / / ! ! ~ ) } )  . ... .} [ ..] ..|  ...} } [ ^ ^ ^ } ^ } [ ^ ..} ^ ..~ } } ] ! ~ / ^ [ ^ ^ [ ~ [ } } D V z x q p y y 2 n D e > ",
";X.X.X|.XXXXXXOXOX6X5X5X6X6XjXlXVXVXjXcXcXcXcXcXcXcX5X5X5XcXcX5XcXnX5X5X2XkXkXkXkX8X&X2X&X;XoX.X&X=X4X2X6X2X4X>X6X8X;X;X4XlXcX4X5X5XXXXX5X5X5X5X5X2XXX6X5X1X*XUX4X4X=X7XkX4X5X;X;X.X;.P.&X[.oX2X5X6X4X6X2X2XXX2XkX5X5X5X5X5X6X4X5X5X5X2X.XXX2X2XXX4X*X5X6X6X2X2X4XkX4X>X>X;X;XR.}.,X&X>X;X&X>X:X;X>X.X.XoX&X}.[.[.}.;X;X.X}.E.|.I.2X2XOXUXoXoX|.].UXoX|.OXoX].n.P.n.m.v.m.v.m.k.F.x.r.M.+XsX`././.{ 5 & & = % # # # + O # # + # + ; ; + # + # ; ; ; > > > > 6 z u S S S S U S S M v v N T B 8.7.q.q.8.7.q.a.a.s.s.t.a.a.a.7.t.q.7.B m 9 u z M U U c v U 8.U z x y t 2 1 , > ; # ; # ; + # # ; # # # ; # # # ; n Y 2 ; # ; ; : > > ; > ; > , , 1 , 1 > , : 2 2 2 5 5 5 5 z c S U N p 5 5 : : ; ; ; ; O ; + ; ; ; + + ; + ; ; > 1 6 2 1 1 1 1 ; ; ; ; ; ; ; > > ; ; ; : # 3 z /.+Xm 5 9 `.aXM.n S c 6 8 1 > 8 1 1 1 2 6 6 8 2 2 2 6 2 2 6 2 2 6 2 6 6 2 2 1 1 2 6 8 > 1 1 1 1 1 1 > > 2 8 6 6 > 2 2 2 2 1 1 z 8 > 6 2 6 6 6 6 6 6 2 > 2 2 6 8 1 1 8 > > 1 1 ; ; ; > ; ; 1 1 1 1 1 1 > ; ; ; 1 1 ; 1 ; ; ; ; ; 1 ; ; ; ; ; ; ; ; ; ; + ; O ; ; + + O ; O O ; O O ; O O ; + O O O O O O O O O O O O O O O O O O ; ; ; ; O O O O # ; ; : ; ; : : 8 8 1 1 1 8 1 : : 8 1 1 1 : : ; ; ; ; ; : : : : , 5 5 5 9 7 p m W `.).).dXvXaXM.# O O o O O O O o X O O o X o O o X . o o m +X`.+X`.`.).qXrXp.r.M.u.W r.R E +XsX+XU 6 O o p M.U + X X o X O o X o X o o o O O O O O $ $ O $ # & & , , : : : # # @ O O O O O $ # O O # O # O O O O # , , # , 3 4 s m V G G Y R ! J ^ ^ ^ } } ) X.^ / / ....} } ^ [  .} } [ ..[ } [ .. . . ._ ) ) ^ ~ [ } } ^ / [ ^ } ..} [ [ .. ...^ 0...} } } / [ ! R ! / } } } ) .. .} [ } } ^ ! ! X.^ } } .. . ...$.0.X.C c a S c j n O.c n p < < ",
"|.oX}..X>XXXoXOXoXOX>X2XcX6XjXjXVXnXUX5X5XcXcXcXcX5XcXMXcXxXcXcXkXzXkX2X6X8XlXlXkX7X>X;X4X;X&X=X4X:X:X:X4X.XkX7XkX4X4X6X4X2XlX6X*XUX5XcX5X6X5XzX4X2X1X5X8X6X5X1X6X8XkXkX8X4X4X7XoX[.|. X;X;X4X2X1XcX4X5X5X5X5X6X5X5X5X3X2X2XXX2X1XXX2X2XXXXXoXXX*XUX2X6X2X1X1X6X2XxXkX.XoX[..X&X;X>X>X;X;X>X>X>X&X>X>X}..X;X;XoX.XOX2X>XXX[.].[.UXoXXX6X|.oXI.|.UXUXOXoXOXOXU.U.U.P.n.n.m.m.m.F.x.g.:.g.g.r.0.{ ).u.x = % # % $ # # # ; # # ; # + ; # # # + # ; ; ; > , > > < y i i y x S M M c z b M T Q 8.T 7.q.8.7.8.8.7.a.s.s.t.a.a.a.t.q.t.t.7.B 8 9 9 m B S z u M 8.T z y t 2 2 ; ; ; ; # # # # # # # ; ; + # # # # ; > y x 1 # ; # # ; ; ; ; ; , , ; > , , , 2 E D 1 , , 5 5 , 5 u z v c i 4 5 5 , : ; # ; : : ; ; ; + ; ; + + ; ; ; > 1 2 2 > > 1 > ; ; ; + ; + # > : # ; > ; # 2 W sX+XB 9 9 r.CXfXsXpXrX+XrXw.> 1 1 > 2 6 6 6 6 2 8 6 2 8 1 2 2 6 6 6 8 2 6 8 2 6 6 2 2 2 2 2 1 > 1 1 1 1 > 1 > 6 6 2 8 6 6 2 2 8 6 6 2 6 2 6 6 1 , 2 6 2 > 6 8 2 1 1 1 1 1 1 1 ; 1 1 1 ; ; > 1 1 > 1 1 > > ; ; ; ; ; 1 ; ; ; ; ; : : ; ; ; ; ; + ; + ; ; ; + + + + ; ; ; ; ; O ; ; O O + O O O ; O O O O O O O O O O O O O O O O O O ; O ; ; : : # ; ; 1 ; 1 1 ; : : 1 8 : 1 : 1 1 1 1 : : : : ; ; O ; ; O : ; : : : , 5 5 9 t t x F S S i.uXfXaXF o o o o o O o o o O O X X o O o O o o $ 5 0.rXqX0.Y S `.tXrX+Xr.F u 4 5 7 W u.{ u : O o O 6 1 O o o o X X o X O o o O o o o O O $ $ O O O # # , , , , , # # # # O $ $ $ O # 5 # $ # # : O O # + + : # # 5 3 3 p h D G Y Y o./ ^ ] ^ } } [ ^ ~ _ _ } / } ..} [ } ) ^ ^ [ [ ....}  ...[ [ ..] X.^ ~ ^ ^ [ ^ ^ } } 0. . ....... . ... . .} [ _ ~ ! Y ! ^ _ [ ! [ [ [ 0... .} ] ( / }  .} ..[ X.X./ R F V x c O.F D O.i a e 2 * 2 0 2 ",
"}.;X|.|.XXOXXX5X6X6X6XcXjXjXxXcXVXnX5XcX5XcXcXcXcXMXcXcXxXcXcXcXzXcXcXkXjX5X4XkXlX7X4X&X8X6X>X4X&X>X4X2X|.;XkXkXjXkX8X>X&X>X4X8X*X4X6XXX3X2X5XxX5X4XcX5X8X2XUX4X8XzX6XlXkX>XE.;XP.2X;XoX2X4X;X.X5X5X1X4X2X*X2X5X5X5X6X;XXXXX.X2X6XXXkX5X4X6XoXoXoX*X2X2X2X6XXXUX6XzX;XoXoX[.[.>X}.&X&X4XjXkX&X{.4X4X;X.X}.OX;X[.&X|.I.[.|.I.}.|.].}.oXOX].oXUXoX|.oXoX].].|.].S.U.m.n.n.n.P.n.,.x.d.=.f.=.) R E r.'.E * = = = % $ # # # # ; # # ; + # # # ; # ; ; ; ; ; > 1 > 2 i u c c U T S v N N T T Q 8.7.t.8.8.B 7.7.7.7.a.s.s.7.a.a.7.q.7.t.q.T z 9 m u v z z u z c S t t 2 1 , > ; # + ; ; # # # # ; # + ; # # ; ; > # ; , > > > ; ; > # ; ; ; > > ; ; , , 2 W yX+XU 5 , : 5 5 5 7 y u u t 5 5 & # : # ; O O : O + ; ; + ; + ; + + ; ; > 1 6 1 1 > ; ; ; ; ; ; ; # : : , ; ; ; , 6 r.rXpXW 9 5 H sXCXCXHXCXCXCX+X> 1 6 2 1 6 6 2 2 6 8 6 2 2 6 8 2 2 2 2 > 2 6 6 z 2 2 1 2 1 1 2 1 > 1 1 1 1 2 1 2 6 2 6 1 > 2 2 2 6 2 6 6 2 1 1 1 2 2 1 1 2 6 1 1 > 1 1 1 1 > 1 ; ; 1 ; 1 ; 1 > > ; ; 1 ; > 1 ; 1 1 1 1 : ; ; 8 1 : ; ; : ; ; : ; + + ; ; ; ; ; + ; O ; ; ; + ; ; ; O O ; + O O O O O O ; O O O O O O O O O O O O O O O O ; O ; : O # ; 1 ; ; ; : 8 1 1 : : 1 : 1 8 : 1 : : : : : ; ; ; ; $ ; # ; , : : : 5 , 7 5 w y u a i c D r.rXr.o o # $ # # o o O o O O O O X O X O O # : z M.).m 6 S A ] rXM.m 6 $ $ O & 7 m z 1 O o o o o o o o o X o X o X o O o o o o O o o o O O $ # O # : , , , , # # # O O $ $ $ # : 9 9 $ # # # : ; ; + + # O & , 4 w r n G Y Y J F Y ! / ^ ] } [ X.^ ] ] ] / / [ } _ ^ [ ^ / ^ } ^ ^ / ) ~ [ } ..} } / ^ ^ ^ X.[ ^ ..}  ...^ ..~ } 0. . . . .} } ....} [ ..d.| r. .} .. .d.d. .X.[ ..X.0.} $.] Y S V n O.c a r y 6 A c e e 2 q q e 0 2 0 ",
"|.;X[.R..X;X[.OX|.OXUX6X6XxXcXcXVXAXjXcXkXkXcXxXnXxXxX6XcXMXMX5XxXnXxXlXlX6XkXlXkXlX4X7X>X7X7X:X;X.XI.E.[.&X4XzXkX2XkX;X6X>X2X6XXXUXUX1XUX%X5X5X5X5XcX5X5X5X6X4X4X4X8X4X3X2XXX.X4X5X6XXXoXXX2X8XoX5X3X5X5XUX1XXXUX3X3X4X2X4X6X2XoX4X6XUX*XUXoX*X2X2X2X X2X2X*X1X6XzX4X>X&X[.}..X[.[.&X}.5X6X2XXX;X;X>X[.oXoXI.[.>X4X>X[.}.[.P.oX].[.}.UX6XoXUX5XoXS.oXOX}.].}.[.oXI.].S.].@Xm.#.h.d.| g.d.} ! Y E 9.w.e % % % = # # # # # # # # # # # # # # # ; > > > 1 > 2 6 x B O.T T 8.8.T 8.T T 8.8.8.q.q.q.8.B B T 8.8.7.a.s.s.a.a.7.q.q.8.8.8.8.B v v v v v z 6 b z z w 6 1 , > > ; ; # # # # + # # # ; # + ; ; # ; ; > c x , ; + ; ; + ; ; % ; ; ; # ; > : 4 ] yXaXd.w , : 1 , 5 6 7 7 6 4 5 : : O ; ; # ; ; ; O + ; + + ; O O ; O ; ; ; 1 1 1 1 > ; ; ; + ; ; ; # : # # # : # 5 w M.tXpXW 7 q i rXSXCXSXCXSXSXyX, 3 5 5 1 1 1 1 1 2 1 1 6 6 2 6 6 1 2 1 2 6 , 2 2 2 1 1 6 2 1 2 2 1 2 2 2 2 2 2 > > 2 2 2 2 8 6 6 6 2 2 6 6 6 2 > 1 1 1 1 8 2 > ; ; 1 ; > > 1 ; ; 1 1 ; 1 ; > > 1 > ; ; 1 ; ; ; > > 1 : 1 ; ; 1 ; ; ; ; ; ; ; ; ; ; + ; + ; ; ; ; ; + ; : ; ; ; ; O O O + ; + + ; + ; + ; O O O ; O O O ; O O O ; O O O O ; ; : : ; : ; ; : 1 : : ; : 1 6 : : : : 1 1 1 1 : : : : ; O ; ; O ; ; ; $ : 1 5 : 5 1 1 5 7 9 7 6 7 p x m m $ =.'.n.'.D = o o o O O o o o o o o o O : 6 z N p : 9 : 9 E D 5 $ O o o $ : 5 : $ O o o X o o o X o o o o o X X o o O O O O O o o O O $ $ O ; : : , , : ; # + O O + # O # # 7 4 ; # # : : ; + # + $ $ # , 7 a m Z G Y J D ] R ! ~ R R o.Y Y ] X.} =.] ) =.[ ....[ ..[  . . .0... .:.d.g.g.g.g.d.d.d.d.0.$.d.d.0.d.r.....^ r.g.g.:.r. . . .0.$.X...}  .! ! Y ! ! H G V n O.S c x j V j A a V V Z c V S O.q q 0 0 2 2 0 q q 2 0 p f ",
"|.[.P.}.}..XoX].|.6XUXXX4XkXcXjXNXxX5X6XjXxXcXnXNXxX5XXXcXcXNX5X5XkXkXkX8X4X4XkX4X4XkX7XkXkX7X:X&X&X.XjX;X4X5X>X4X4XkX2X;X&X>X&XXX1X2XXX3XXX*X8XxX5X5X5X*X2X6X4X4X6X4X4XcX8X2X.X5X2XoXXX~.XX5X8X8X6XcX5X*X|.P.oX*X2X5X4X2X2X5XXXXX*X5X*X*X~.oX*X2X2XUXXX2X2X3XUX:XxX4X>X>X;X&XP.{.>X.X}.OX2X2X.XoX.X6X;X4XXXP.].2X&X;X.X.X2X|.;XoXoXoXOXOXoXXXUX].XXoXoX}..X|.}.}.}.}.S.F.F.k.S.,.:.f.f.>.....] R R 0.S % % % = # # # % # ; # # # ; # ; # ; # + > 2 2 2 2 6 y A B B o.8.8.8.8.T B T 8.8.a.t.q.8.B B B B T 8.s.a.s.a.q.q.q.q.8.q.8.8.8.B B U U U S v 8 y z t 4 > 1 , > ; # # # # ; ; # # # ; # # # # # # ; # 2 Y ] x > ; % ; ; # # # ; ; ; % # ; , t M M.`.] t 2 , , 1 , 1 5 4 5 , # : O ; ; O ; ; O O ; ; O + ; O ; ; + ; + ; 1 1 1 1 > > ; > ; ; ; ; ; : : : : : # & 5 6 y.aXpXQ p 6 p yXHXSXSXSXvXbX'.1 , : , 2 1 2 1 : 1 1 1 1 6 1 1 1 2 1 1 2 2 , 2 6 1 2 1 > 6 1 1 > 2 2 2 1 > 1 6 6 2 2 6 8 y > 2 6 y 6 6 2 6 1 2 1 2 1 1 1 > ; 1 ; 1 > ; > 1 1 ; ; 1 ; 1 ; > 1 1 > > b 6 1 1 ; ; 1 1 1 : ; ; ; 8 ; 1 ; ; ; ; 1 : ; + ; O ; ; + + + ; ; + O # O O O O ; ; ; ; ; + ; + ; ; O ; O O O O O ; ; O O O O O O ; ; ; ; O O O # O ; 1 : : ; ; : : : 1 1 : 6 1 : : 1 : : : ; ; ; ; O ; O O O ; ; ; : 5 5 1 1 5 5 6 5 5 5 3 : 5 5 $ p.bXsXfXaXu.4 o O o O O O o o o o O O O O O : # # O : 5 5 5 # $ $ o o o $ $ O $ O O o X o o o o o o o o o X O o o O O $ O $ O O $ O $ O ; ; ; : 1 , > # + O o o O O # # # : : # # : > # % + + ; O $ % & 5 a H R ! ~ ~ Y ! ! / A q f f i e X.d.d.=.=.r.f.g.g.g.g.k.g.r.g.g.g.d.r.0. .0.X...{ ^ / ~ _ _ X.{ [ X.o./ ! R L ! R L H H V V V V V V V } G w r a r x r a f f q a d e r a x x q c j c c a 0 8 2 e 2 q < r i * * e i p y ",
"|.[.}.[.}.;X;X6X6X6XUX6XcXjXjXjXNXcX6X6XxXcXcX8XkX5X5XcX6X5X8X5XzX5XkXxXkX4XjX8X7X7XkX7XzX7X}.}.&X8X7X4X;X4X>X;X6X8X;X}.oX2X4X;XXX2X5X2XUX*XUX5X5X5X5X5XkX5X8XcX7X4X4X2X3X4X5X2X5XoXoX~.~.UX8X5X8X6X*X4X4XoXUX3X2XoX*X2X2XUX*XXX6XXX8X1X[.oXXXXX8X2XXXXX2XXXXX3X4XcX7X;X.X&X[.{.[.&X{.;XoX2X*X2X=X>X.X;X4X>X;X.XoX.X.XP.].P.[..XUX5XUX}.UXoX].I.I.}.].U.oXOX}.P.oX[.].P.].S.x.k.` k.x.f.d.=...^ R E 0.E < % % % % # ; # ; # ; > ; > # + + # ; ; > 2 2 2 8 z c M v O.B v v T T q.8.8.q.q.8.8.q.q.B B v B 8.a.s.s.s.s.q.q.8.7.q.8.8.8.8.8.T T T U c c q 2 6 6 2 > + , > ; # # # ; # # # ; # > # # + # ; ; > > , D 0.D q > + # # ; # # # # + 2 y , 5 6 p D x 4 < , : 5 , 5 2 , , 5 5 : : : ; O # # ; O ; ; ; ; O ; + O ; O O + O ; 1 > 1 > > ; ; ; ; ; ; + # : : : # : # 5 7 0.aXaX{ 7 q z sXSXSXSXSXSXCXw.5 & , 5 2 2 2 > 6 1 2 1 > 1 2 2 6 1 > 6 6 6 2 6 2 6 2 2 8 1 6 2 2 6 6 6 2 8 2 2 6 6 6 6 6 i y 8 6 8 y y y 6 2 2 2 1 1 1 1 > 8 1 1 1 1 1 ; 1 ; ; 1 1 1 ; 1 1 > 1 1 ; 1 > 1 ; 6 1 : 1 > 1 1 1 ; 1 ; : ; ; > > > 1 ; ; ; ; ; ; + ; + ; ; ; + O + ; ; O ; ; ; ; ; ; ; ; ; + ; O ; O ; O O O O O O O O O O O # ; # ; ; O ; : O ; : : : # 1 ; : : : : 1 : : : 1 : : : ; ; # ; : $ : : : $ $ : : , , : 1 1 1 : : 5 : : : : & # '.fXfXfXCXCX`.9 O o O O O O O O O O O O O O o o o O : # $ $ $ $ o o o o O $ O $ O O o o O O o o o o o o o X o o O O O O # O + # # O O O ; ; 1 1 1 > ; + O O O o + O + # # O & > > % , > > % + % # # $ & < p V D Y ! Y o.G V H V e p r e a D Y G L H F H H H H m D F G H V H a s a f n O.V a a a p V 0 0 a a n d s a a 3 r w p h = = q a e w a a ~ G r a a 0 = s e r r d e y r * e q * * e c e x y < f q x y r < q y q y 2 0 0 < ",
"oX.XoX&XXXXX.X}.oXXXK.}.6XcXjXkXNXNXUXjXxXUX5X5X5XcX6X5XcX5XUX5XcXcXxX4X4XlX4XkXlX>X7XkXzX}.&X:X&X>X8XkX6X5X&XXX>X4X6X2X;XI.;X&XXXXXUX2X%X5X3X2X4X*X2X5X8XzXxX5X4X:X2X2X4X4X5X3X1XoXoXXXXXXX5XUX2X*XXX6XXX|.XX1XoXoXXX3X*X~.oXXXUX1X6X5XoXXXoXoX5XcX5X2XXXXXXXUX4XkX4X>X{.>X>X:X>X;X{.oXoX6X4X6X.X|..X}.E.}.oXR.[.[.}.P.C.P.P.oX6X5XoXOX2X}.U.].].].].].oX6X6X>XoX].].F.m.k.d.#.n.x.x.:.f.d.$.X.} ] X.D < % % % % # ; # ; # ; # ; # # ; ; ; ; > > 2 6 2 y c x n M v v v B 8.8.8.q.8.q.8.q.q.8.T B B B B t.s.eXeXa.q.7.8.8.q.8.T 8.T 8.T T U T M M v t 2 1 , 2 6 1 ; ; ; # # # ; ; # + # # # ; # # # # ; ; > 2 S w.] x , ; ; ; ; ; ; ; # > t D S t 3 6 5 > % & : : : : , 1 1 5 , 1 : ; ; : O ; # O ; ; O + ; ; + + ; O ; ; O ; ; ; 1 ; > > ; ; > ; ; ; ; # , > # # 5 5 5 5 r.aXfXt.u 4 n uXSXSXSXSXdX/.c 5 5 5 : 1 1 1 2 , 1 1 1 2 6 2 8 6 t 1 1 6 2 6 6 8 6 6 6 6 2 6 2 6 2 6 2 2 8 q 6 6 8 y 6 2 y v v y y y 8 y 2 2 2 1 2 > 1 2 2 1 > > 1 > ; ; ; 1 1 ; 1 ; ; ; ; > + > ; > 1 6 1 1 ; ; 1 1 > 1 ; : ; ; ; ; 1 ; ; > > ; ; ; ; : ; ; + ; ; ; ; ; + ; # O ; ; O ; + ; ; ; ; ; ; O O ; O ; ; ; O O O O O O O O O O O ; : : ; O ; : ; : : : : : ; : : ; ; : 1 1 1 : 1 1 1 : : ; ; ; ; ; ; 1 1 : O $ # O $ : 1 : 1 5 : O & # # O 4 sXbXfX/.aXHXGX).O O O # O O o O o O o O o O o $ : : O # $ $ $ o o $ o o $ O O $ O O $ # o o o O o o O O O O o + # # & & # # + + O O # : : ; > > : ; O O o o X o o o O o # O n Y q o + o X X o X o o . o $ $ & 0 w p e < q a r w e a y f y r w a p s r r p a e s a V s s 0 e p s a e q 0 a * - 0 s e % < q V a = a p r e w * w h * w p a d y 0 a Y Z q w e 0 = a q x r 0 e s p * = 2 * e x a 0 2 i a z y d a y q q 0 0 i % e e , ",
"[.oX[.[.|.oXXX}.oXoX}.OX>X6XjX6XnXxX5XjX6XoX5X6XlX5XOX5X5XOX3XkXxXxXxXNXlXlX0X5X8X4X=X;X&X&X>X:XXXkXzX>X:XkX2X&XoX2X2X5X>X;X>X2X1XUX1XXXUX0XcX5X5X5X5X6X2XcXcX8X2X>X:X:X2X5X4X4X5X5X|.UX5X5X5X5X1XXX2X5X6X6X5X4XUXoX3X1XUXoX~.~.|.2X4XkX6XoXI.~.5X8X5X2X2XzXzXUX>XzX4X&X.X.X>X4X>X>X:X}.oX5X4X6X>X.X2XoX>X2XoX}.E.].D.S.F.P.I.[.6X>X[.oX>XOX>XOXOXUXOX}.}.OX>X;XUX[.|.n.f.x.k.x.U.x.f. .k.d.X...%.0.o.x 2 * > + + > ; ; ; ; ; % # # ; # # > ; # > 6 6 z x c z x v v S S 8.B 8.8.8.8.8.8.q.8.8.8.8.8.8.8.q.a.s.s.a.q.8.8.7.8.8.T T T 8.8.T T T S S y 4 , , , , , 1 > ; ; ; + ; # # ; + # # ; # # # # # : ; > 4 S ] ] i , ; > > ; ; > > > > y ] W m 4 < # 7 & & & & : : , , : , : ; : # # # : # ; ; ; O ; ; ; + + O ; ; + O + ; ; > > > > > > ; # ; + ; , A Y 2 ; # & 5 5 5 { aXCX'.i y M aXHXHXSXCXu.N w 5 5 m E z 2 2 2 > 2 , 2 2 8 2 q 6 6 2 2 6 y 8 w t y 4 t 8 6 6 6 y 2 6 q 6 2 6 y 6 6 6 y y 6 y y y v y y 8 8 1 + ; > 1 ; 1 2 > > 1 1 1 > 1 1 > 1 ; ; ; ; ; ; ; 1 1 1 ; 8 1 > : ; 1 ; ; : 1 ; ; 1 1 ; ; ; ; > > 1 1 > > > ; ; ; ; ; ; ; ; ; ; ; ; ; ; ; + ; ; ; ; ; ; ; + ; O ; ; # ; ; : O O O + O O O ; O ; O : ; O ; ; ; ; : ; > ; > ; X X X o > : , 1 1 1 : : 1 : : , : O # # ; : : X .     X o ; ; + ; O $ O O O O , u.fXu.u U ).aXbXU $ o o o O o o o o o o O # , , # @ # O o O X   X o O : $ $ O o o o o X o       o X X X o X X .     . X   X .   o .   X     X         X       X   X   X X   < c t X X     X X .         . $ = q p d y d * s w a e y w r e y e d w w s h e h 5 s a a s d r a a d d * s r e q % 0 w = 0 & q x r e y = a e w - * s r q w p q r 0 r G H = = r a e 0 0 e e d p e a e d q y q s y a e e x 0 0 2 f q e z q 0 y 4 x = = ",
"[.|.].].[.}.}.oXoXoX}.UX6X>X.X>XxXkX6XOX6X6X6XcXcXkX3XcX5XoXoX>X5XxX8XcXlX>X;X8XlX;X6X&X[.&X>XkX.XI.{.>X:X&X>X.XXX8X5X6X4X4X.X;X1XXXUX8X5XUX5X5XcXUX5X1X8X8X5X5X>X$X>X2X4X6X2X2X5X*X*X4X8X5X2X5X4XoXoX3X1X2X4XXXoX~.2XUX5X5X5XoXoX2X5X5X8XXXoX5XXX5X5X5X5XNX5XoX|.kX6X;XoX[..X>X&X;X>X:XoX6X4X*X;X4X2X2X2XxX2X>X[.}..X>X>X;X}.[.[.}.}.}.].}.OX}.UX6X>X>X}.oX}.OXOX}.U.n.].].V.k.m.S.k.>.F.m.$.[ ]  .Y q * > > > % ; # > # # ; # ; ; # ; # # # > > q y z i i y z M S T T B 8.8.8.8.q.8.q.8.8.8.T T B 8.q.a.s.s.s.a.q.8.8.8.8.8.B T U T T U U M c z z 2 , , , , > > ; ; + # + + ; # # ; # # ; ; # ; # % # ; , 2 S W D p > > ; > ; ; ; > > 2 z 9.X.n 6 , a =.N : & & : , : : , 1 , : # : : # : # # O ; ; : O O O ; + + O O O O + ; ; ; 1 > ; ; ; , : ; < c q.E 2 > : 5 5 4 9 E aXGX`.n z D aXCXHXSXdXU p 9 5 5 '.sX{ 2 < q 6 6 q q 2 2 6 8 y t 8 t y q y y z y y y y 8 y y y 6 2 y y y 6 i y y y y y 6 i y i y y 8 8 8 1 1 ; + > ; 6 1 ; ; > 1 > 1 > 1 1 1 > 1 ; ; ; 1 ; ; ; 1 1 ; ; ; > : ; 1 ; 1 ; ; 1 1 1 ; ; 1 > 1 1 1 > > > > 1 ; 1 ; ; ; ; ; > ; ; # ; ; + ; ; ; ; ; ; ; ; ; + ; O ; # ; + + ; ; + + ; O O O $ $ O : # ; + ; ; ; ; ; > > ; # ; ; ; 1 > > 1 1 1 1 4 1 2 6 2 1 , 5 5 5 : : 5 p i p p t 6 1 > > 1 : , : : : , 3 h =.H 9 , < M [ c O o   X X o . . . .   O       .               X   # t 8 O X X               . X X X X     . X         y x X .                           X       X         X X X         X X X         $ # * < w & q 3 & 3 w - @ q w 0 0 r < p h d 0 p p s e d * x a y e * a p q d r y = 0 * r * * d = d < y w < * e y 3 5 w e w w r w 0 q 2 e G C 0 = a w r & * d q q e a 0 2 0 * s q * q q x a 0 a x q y y y s 2 q e a a = + ",
"OXoXoX].].XXoX}.oX].K.OX5XOX[.2XkXkX[.[.XXXX2X8X2XXX8XkX5X5XcXlX4X5X5X2X7X>X:XjX7X>X>X&X>X:X>X:X>X>X4X:X>X7X>X[.2X2X5X4X6X*X2XOXUXUXUX5XXX~.UX5X5X5XoXoX6X2X2XOX;X&X:X|.|.XX4X5XcX5X2X5X6X5X8XcX5X*XUXoX2X|.2XoXXXXX~.UX2X5X5X2X5X5X8X4X6XXX6X1XUXXX5X2XUXxX5XXX>X8X>X2X>XL..X>X.X{.:X:XUX4X6X*XoX6X6X4X>X;X[..XI.}.[..X;XOX}.oX;X}.].x.r.k.@XoXI.OXoX].;X].OX].].S.n.}..Xc.m.F.S.k.x.S.x.f.k. .F 0.c 2 % % * % % # ; ; ; ; > : > ; # # ; # # > 2 6 q 6 y z x c O.T T T T T T 8.T 8.T 8.8.8.8.w.8.8.q.8.q.s.s.s.a.8.8.8.8.T B 8.U T T T U B S v c 6 , 2 , > 1 ; ; ; ; ; # ; # ; ; # + ; # ; ; ; ; : # > > , < t x a w % % > > % ; > % , 6 c ] 0.D 7 W M.).r.a 5 % , : : , 1 : : # ; # : : # : # ; ; O O ; + + + ; O ; O + + ; + > > > ; > 1 > , ; > 6 W w.c > > & & & : 8 M sXFX/.z u Y CXGXGXHXaX] 9 4 5 E sXjXo.y q 2 6 2 2 6 q q w y w y y y z y y z i a x i i y y y q y q y y y q y q y y q y y q y y 2 y y 6 2 1 1 > 1 > 1 > 1 1 > 1 > + > ; ; ; > 1 ; ; > 1 > 8 > 1 ; > 1 1 1 1 > 1 : : : 1 1 1 ; ; ; ; 1 > > ; 1 1 : > > ; ; 1 1 1 ; : : > > : + ; + ; ; + ; ; + ; ; ; + O + O O O O + ; ; O ; ; ; ; : ; & # : # ; ; : > > 1 1 ; > 1 , t z y u y 6 2 1 t 1 1 1 1 2 , , + , % # $ @ @ o $ @ @ @ @ X X                   . $ & $ - . . . . . . .   . . . .   . . . . .   . . . . .     . . .     # : : o o     . .     . . .       . . X X @ .     r.]...& X                   X   X   X   X         X X           X X % +         O - 3 0 w 0 q = & * & & - * w 0 0 s = < 9 d * 9 e p = 5 * s x r r 0 r a 0 q 0 q e 0 > q < e < & = w p q % > e y s s 3 - a q p p & < e p H V e & d * y d 0 % * 0 0 y 2 e y 0 * + * e q 0 q d c a y s a y 2 e a * x w s < ",
"+X|.|.XX}.oX].U.XXOXU.6X5X2X2X>XxXxXoXI.|.|.oXkXjXkX4XjX4X4X4X4X;X;X;XXX;X>XlXzXMXkX7X}.:XkXzX:XkXkXkX7X4X4X4X X.XoX2X4X5XUX.X5X5X2X~.UXoXUXU.~.*XoX|.UX4X2X2X2X&X|.|.L.6X1X5X5X4X2X5X4XXX5XcX8XxX5X*X2XoXXXXX5XoX XUX1X2X2XXX2X2X5X8X6X1XUXoX*XoXXXoXXX5XxX5X5X;X4X*X>X.XP.z.F.R.>X7X>X2X6X6X2X2XXXXX>X2XoXXXoX}.{.F.S.].}.oX;X}.}.x./ 0 e M..X}.].U.].].OX&X}.oX>XoX}.}.[.].}.].}.P.@Xx.g.r.X.G X.O.< * % = % % > # # > # # ; ; + # # # # + # + 1 q q y x S T 8.T B w.8.T 8.8.8.8.T 8.8.8.8.T 8.8.8.8.q.s.s.s.a.7.8.q.8.q.8.B T T T B B M c z z 1 2 6 , , ; ; ; ; ; ; ; > > > # # # # ; ; > > > > : , , > & , 3 t 4 , , # % > % > , 2 6 t A Y F N ).wX+XE x 4 2 # , 2 , , , : : : & : # : # # ; ; O : 1 O O ; ; + + O ; + ; + ; ; 1 1 1 > 1 , 6 b U w.T 2 * % : & 5 5 5 i +X).A i x 0.GXGXGXCXFXu.u 4 i yXvXu.c y z y e y q q t t y y y y z z z a x x a z i i a y i y y y q e y y q 6 q y y q q y y y y O.y 2 2 > + O + > 1 1 1 6 1 1 1 1 1 2 1 1 1 1 1 1 ; 8 6 1 1 1 ; 1 ; ; ; : : 1 ; ; 1 ; ; ; ; ; ; ; ; ; ; > 1 ; ; ; > ; ; 1 ; ; ; ; ; ; ; ; ; O ; + # # ; + O O O O O O o o O O o O O X X X X X X X o o X X @ X X X X X + + + O X + + X X X X X X X o + O O X X X X X X       . .     .             . .                 . . . . . . . . . .   V G = . . . . . . . . . . . . . . . . . . .     o o o O O     . . . . . .         . . . 2 m.D   . F yX+XM.m X . .   X                 X       X X           X X   X @ % % X . . $ % @ * q * y q q < w - 3 q a q < e x w r = d d p - s & r e 0 s & e y a i 0 e q 0 a 0 = * w w w w 2 q d q = - q r p 3 = 0 r q w r - p 0 r V V q r 0 0 < e 2 0 q 0 0 e e a q q q e + e e 2 2 % p a 0 2 s > s c r y q a p p ",
"|.oXU.].UXoXU.].|.U.|.UX2X2X6XkXVXNXoX*X;X4X6XkXcX7X8X4XlX8XlX6X;X4X.X;X.XXX5XkXjX8X>XV.}.:X7X>X4X8X4X4X5X5X5X*XXX.XUX2X2XoX1X6X5XXXoX|.UXUXXX5XcXxXlX4X2X.XkXkX6X;X&X>X8X;X>X&X2X5X8X5X5XcX8X8X5X5X5X5XUX*X3X5XXXXXXX6X5X2XoXXX5X5X5X*XUXXX*X|.|.oX*X~.XX2X2X5X;X2X4X;X.X;X2X|.|.2X;X4X2X6X6XUX2X2X5X>XOXoX&X|.{.oXOX.X>XoX}.}.].I.| r = = Z ].}.}.}.OX}.;X}.}.oX}.}.}.F.}.].@X$.' $.F.k.g. ./ V S V * & % % & # # # : ; # ; ; # # # # # : # # , ; , 2 i x c M M B M 8.8.8.8.8.T 8.B T 8.T T B 8.w.q.q.a.s.eXa.a.a.s.8.8.8.T B T Q T T M v M A z 2 4 , 1 > # ; > > > > ; ; : : > ; ; # ; > > > > > > , > > 2 , , > > > % ; ; ; % > % 1 4 7 v Q r.9.`.tXp.n e 3 2 , 1 2 2 1 > : : : : : : & : # $ : $ 9 t.t.N $ + ; + # # # + # > 1 , 1 1 1 , 2 M ] 9.Q i : 5 # : & & : 5 4 D z w 9 x =.GXLXGXGXGX'.i t R FXvXA p p t p p p q e y i a z i p i x x x p a a z x x z y y y y q q y t y q y y a y y a x z a p i y % > + + > x q > 2 > > 1 ; 1 ; > ; # ; ; + ; , > 1 > 1 1 1 1 1 1 2 1 1 1 1 1 1 1 1 ; ; ; ; # O O O o o + + + ; + X + O O O     X X X X     o # @ X O X X X                 X       X       . . . . . . . .         X X o X o o o X X X   X X X X X X X X X X   X           .   .   . . . .     . . .         .     .   . . . . . . . . X.+XOXM.*     . . . . . . . . . . . . . . . . . .   X X o X X       . . . . .     . . . . V +Xn.2 X @ X.'.yX'.r.2       X X                 . . . . .     X o o o $ o o O & + o + > > @ & q 3 3 * 3 w p 3 e w 2 < * 3 w a 0 - w w d * 0 e p * r y % y = d r y r x * a q 2 < p & 0 = 0 p y w 3 * w d - $ = w p e & e d a w 0 G V d 0 0 e e e d 0 q * 2 0 0 y w q y q < * y q @ d e y * 2 < 0 w p r V p n y a ",
"oX[.I.K.U.U.|.].UXoXoX|.XX}.oX;XxXxX2XkX2X6XxX2X4X>XlXcXkX4XkX5X2X2X4XlX>XXXoX;X4X}.E.&X;XkX>X:X;X4X>X2XkXkX5X2XXX.X1X5X6XoXUX2XXXUXXXXXUX2XXX2X2X5XcXkXxXkX>X;X4X7X7X4X7X4X;X4X5X6XXX2X8X5XcX0XcXcX5X4X5X5X2X*X6X2XUX3X2X5X5X2XxXzX5XoXXX~.XXoXUX4X6XUX5X0X5XcXkX6X4X;X>X;X4X>X4X5X2X>X2X5XjXoX2X>X8X2X>X;XXX}..X>XkX.X>X;X;X}.}.n.G d - - V }.}.>X}.@Xn.F.F.OX].].F.c.V.x.S.c.J r J G.f.g.d./ C S A q & & % % # & : # > # # > > : ; ; , # # # : > , 6 b c v c B T B 8.8.w.8.T 8.8.8.T 8.T B B 8.w.T T q.s.s.s.s.q.8.8.8.8.B B T T T U B v v v t 6 1 , > , 1 , > > ; ; > ; > ; > > ; ; ; > 1 > , , 1 , > > > > > > > , % % % + > > , 1 z m U i._.wXdXwXN h 5 5 , , 2 1 , , : : : : # # # O 3 i : $ z t._.wXu.5 ; ; > + # ; > ; > 1 1 2 1 1 , c ] y.W x < $ 5 , 5 : 5 5 4 9 9 5 w p m L rXLXLXLXLX'.i t m sXsXm a i i i i y a z y y y i z i i a x x x c c x a z y y y y y a y q t q y y y y y z y y y y y y i i y z i y y 2 2 2 1 > 1 1 1 1 1 1 2 1 2 6 2 2 , 2 1 ; # ; + + O O X X X X X o X O O O O ; + ; + X X X X X o ; X X O O X X                 @ =     o X   X       .   .                     . .         .     X   X X o X o o X o X X X X o X X X X X X X X X X X       .   .   . . . .       .         . . . .         . . . . . . . . V  .).).e . . . . . . . . . . . . . . . . . . .     X X X X     . . . . . .   . . .   . X q  .'.x X   X w ] '.+X0.O X o A D c y           . - - $ o X     X o u m p 5 O : 5 6 & 2 q < * d y w & 3 d w p p p r 2 & 0 s 0 p 3 - p e p & * 3 = * * * d 0 d e 0 e 0 s = e r e q a e & @ w a a s p s p s w w & e r * * 0 5 w e 3 G V 0 0 0 0 0 0 > a 0 q % 0 2 e < * e w w d w a < < < a s w e q w 0 p w 2 d a V ",
"|.U.].|.U.].|.K.I.UXoXUXOX>X6X5XlXxX2XkXkXkXkX[.P.4XkXMXkX>X[.oX6XlXxX4X;X>X;X6X.X{.&XlX>XlXkX>X;X&X>X2XUX8X5X2XL.,.[.6X2XXXXX2XUX1XXXoX5X5X5X5X2XXX4X4XlX4X5X8X4X4X4X4X;X;X.X|.6X5X8X8X5X5X2X5XcX5X5X8X3X5X3X5XcX8X8X8X0X5X5X5XcX1X*XUX5X2X2X3X|.XXUX*XUXUX5XkX4XkX>X2X4X>X.X;X2XoXU.E.oX6XXXXX2XOXkX>X;X.X.X.X.X>X>X;X>X{..XP.}.n.( 0 = - j F.m.,X}.}.OX}.].>X}.].S.F.F.c.k.k.J f / F.x.k.X.! V V G q & # & # # : # # # > ; # : > > : # # # # > 2 6 u v c c M v T 8.w.8.8.8.8.8.T 8.8.T B v T 8.T B B T q.a.a.q.8.q.q.8.T T B B T U B B S B z y 2 , , : , , > ; ; ; > , > > > > > > > > > 1 , , , > > > < > > * > > > > > > > & , , y W u.t.qXdXfXtXW h 9 5 & , , , : # : > : & O # # O y { M.{ W t.eX_.wXs.m 1 > > ; > > t > > , 1 1 2 6 v T q.w.i 9 & : < 3 9 4 7 4 w 9 4 4 5 9 h F =.CXLXLXFX] u t 7 r.M.i w t y y t y y y x y y i x a i p y n V A n x x x c c c x x x c y w t y y y e q q 2 2 < < 2 < 2 2 < > % + + + + + o o o X X o o o + + O O X X X X O X X X X X X X X   X X X O O X o O O 1 2 > o X X   X   X ; X X   X X X                 .   .           . . .             .           . .                     X X X X O X o X X X X   X X X X     X X X X X       .       .     . . . . . . . . . . .   .         . . . . . . . . . . . * 3 @ . . . . . . . . . . . . . . . . . . .       X         .   . . . . . .       .       % $   .       N '.rX{ O ; M.'.+X).Y @ .     . : z 9 : O o X X 5 F W U 9 5 m m x y q w 2 < r y 3 = 3 p 0 3 w a a 0 a < a * 3 w 3 3 3 w - 3 w * % d d a 2 * q 0 s 2 y d > y q q w 0 * < = * q w 9 e 9 s w w * w w w 3 w w 3 q w A V e = e < w r * e y s 0 0 q q * 3 w 0 w 2 0 p 0 e = p p e p y e < q a < w r y ",
"].U.oXoX|.~.UXUXXXUX5X6X6X2X4X2XxXxX6X5XjXkX4X;X4XlX6X4X;X&X4X2X6XzX2X6X6X4X&XoX|.;X>X2X7X7X&X>XkX>X5X2X5X5X4X2XK.| L.2XXX*XUX2X1XUXXX2X2XUXoXUXOXOX>X5X4X4X6X;X;X&X;X;X&X6X&X2X8X5X5X2X8X2XUX2X5X5X5X5X6X5X2X5X8XcX8XzXcX8XkX5X2X2X3XcX*X5XXXUX2X2XUX2XjX5X5X5X6X8X6X4X&X6X;X|.OX|.P.K.}.oXXXoXXX6X2X;XoXXX|.[.oX>XE.6XkX>X}.P.}.U.z.G s d >.}.m.OX}.}.}.OX].OX].S.F.].F.@XF.c.+.X.f.F.x.d.| } Y F Y q : & # # % % # : ; # > : # + O + # , # # 2 2 t i c M M v v T 8.8.8.q.8.T 8.T 8.8.8.B B B T B v v 8.a.s.s.a.a.q.8.8.8.T 8.8.T T U U S v v c 2 , 1 , > : : ; > > , 1 > , > , , , , , 1 1 , , < , 1 > < < < > < , < > > > > , 2 1 T _.qXtXeXgXdXi.M 9 5 5 5 5 2 , : > : % # # # # O m r./._.eXeXs.eX_.p.=.p 1 1 1 1 > 2 z 6 1 2 4 2 t S U w.i.T 5 & & $ : : $ # # & , : & 5 5 5 p n =.fXHXJX+XN m x a n D V c x x x x x a z y y y y x c c c S z w 2 < > , > > % + + @ @ X @   X X   @ X o X X X X X X o X o + + + X X + o o o O X X X X o o X X X X X X X X o o X X X X X X X   X X X X X O O O + O X X X X X X X   + + X   X X X X                 . .             .   . .         X   .       . . .                   X X o X X o o o X o X X X X O X X X X X X X X X     .   .   . .   . . .     .   .   .   .   . .       . . . . . . .   .   .       . . . . . . . . . . . . .   . . . .               .     . . . . .   . . . . .                   X # ).+X`.i # ~ `.+X+X).x .   . 2 =.p.=.F z : O O $ u Y { Q U { D p p y < , 2 r q 3 w * r w - 3 e q < p e 3 3 e w e = * 0 * & p s e < < 0 d = % d y 2 e r s e > % < q % w 3 < y 3 e = 0 0 p d 3 0 e w w e * * 3 s V V e * * 0 e w % 2 s 0 s 2 q * 3 * * * w * < w % < w x 0 q p j p 0 2 p d p p i ",
"oX+XoXoXUX].UXoXoXP.[.|.[.[.XXoXMXxX6X4XlXkX5XXX4XkX2X>XkX&X;X>XkX4X6X8X4X.X}.;X5X8X4X2X4X8X4X6X;X;X.X4X4X4X2XoXC.:.b.UXUX2XXXUXUXXXUXXXoX4XXX2X6X5X5X6X;X>X;X>X4X&X|.;X3X2X8X2X2XUX2X5X5X2X5X5X3X5XcX3X5X5X5XcXcX8XzXMX5X5X5XcX5X5XcX5X4X2X4X*XXXoX1XUX4X4X5X5X6X5X4X2X2X>XXX.X;XE.I.K.S.>XXX2XXXXX6X6X;X&X[.P.}.&X;X}.oXoX.X].].].].g.X.g.}.OXn.+X;XOX].}.].].].F.U.U.V.k.c.m.f.n.x.m. .x.^ / o.~ Y p < & % & > : # > # > ; > , # : + ; > # , 1 t 6 z v M M 9.w.T 8.8.q.q.w.8.8.8.8.8.T v v T T T v B 8.8.a.a.q.q.q.q.q.T T T 8.T T T M W S z t 8 6 1 : : : , : > > , , > , ; , 1 , 1 > < 2 2 2 2 < , 2 2 2 2 2 < 2 2 2 0 q < 2 < S /.qXtXgXfXfXhXa.M i 3 & 5 , & > : > # # # # # % S a.eXeXeX_._.{ W Q 9 9 5 2 2 2 > > > c t 1 1 6 8 n U Q 9.w.n 4 , , 3 1 3 4 t y 7 5 6 7 q 9 a i D /.JXGXZX] z 5 : & $ # # + @ X X X X X O @ X o o % @ + > X @ X + X o o X X X X X X     X X   X X X X X X X X   X X X X X X O o X X + X X X X X X X O X X X X X X X X X X X X X X X X X X X   X X X X X X o o + O o X X X X X X X X # X               . . . . . .   . .       .   . .   .       .   . o   .   . .                         X X X X X X X X X X X X X   X X X X X X X X     .     .     . . . . . .   . . . . .   . . .     . . . . . . . . . . .     . . . . . . . . . .   . . .   . .   . . . .               .   . .   . .     .                 X . . o < M.rX+Xi o i M.+X`.).N o   o 9 =.p.s.s.=.N 5 : $ : z Q { { Q i 4 q 2 % < < p < e p d 5 p 3 e 5 % = p q e 0 e w 0 & 3 * w * p d e * = e a * d = s d d a > = < e = p * 0 p = 0 % w & w * 0 * $ s p e 3 w q < q 0 V V 0 - * q s < 0 d < < 3 * 3 3 w * % * p e < w < 0 e q 0 a p x V * w a e y a y ",
"K.I.|.].].U.~.v.K.K.n.P.oXXX|..XxXxXkX4X;X>X;X4X;X6X2X>X;X;X|.P.;XkXkX4X4XkX7X4X4X>X4X>X>X2X6XXX.X;X>X>X2X6X5XXX~.P.K.I.2XoXoX*XoX~.XXUX6XUX6X6X5X5X5X2X5X8X4X8X4X4X2X;X4X>X;X;XcX5X5X8X5X5X5X8X8X5X5X4X5X5X8XzXxXMXcXzX5XcXMXcX5X4X5XkXUX4X4X4XUXXXXXUX1X5X8X5X5X5X6XUX2X;XP.|.|.oXOX|.P.K.I.}.2X2X2X4X6X;XI.}.|.}.oX>X>X}.R.].].}.}.}.]..X>XOXn.@X}.}.OXOXOXF.U.F.F.P.F.x.F.x.z.m.n.m.x.d./ ! J Y o.a 2 & 5 , # # # # # # # > > > > > , > 2 , 1 2 5 u v z M T T T T T 8.8.w.8.8.o.T M v v v O.B T B B T q.a.8.q.q.q.8.8.T B T T T U T W c v n u y 6 3 1 , 1 , 1 , , , ; , 1 1 2 2 2 6 6 6 q 2 2 q q q 2 q q y 0 < * + > > > > , t 0._.eXtXgXuXeXqXi.n 9 5 5 : # # # # + # : # # ; T p.s.eXs.s.eXeXU b p p p w D F # > > 2 W c : 4 q c E W 7.W W i % o o o X X           X X o o $ 5 N vXGXGXaXN & $ . $ o @ o @ X X X X X X X o o X X o X o o X X X X o o o X X X X X X       X X X X X X X X X X X o X X X X X X o X o X o o X + O X O X X X X X X X + X X X   X X X X X X X X X X X X X X X O + O o X X X X   X   X + + X X           .   .   . .     . .   .   . . .   . .         X .     .                               X X X X X X X X X X   X X X X X X X X X   X X   . . . .     .     .   . . .       .   .   . . . . . . . . . . . . . . . . .   . . .   . . . .     . .   .   . .   . .   . . .       . . .   . . . . . .                 . . . $ : u.wX`.p o 5 E '.'.=.m # X X 5 =.p.'.'.u.Q b 5 $ $ : b T U 7 $ @ % * % * - 0 < 3 e 5 0 0 s 5 = & * e 0 d 3 = w 0 & * * * - w p f 0 2 a f e q 2 e e q e s < e 0 = & w w * & < * * w 3 * * e 3 w * 3 w - = = 0 d V V e * 0 e e * * 0 < = 0 p 3 * 0 y * * p 0 e w 2 q q e 2 < e a x 2 0 < w e y 0 ",
"I.U.U.U.U.K.].oXn.K.U.[.P.P.P.oXxXxX2XXX3X>X;X>X4X4X;XE.[.&X6X4XkXkXlX6X6XkXkX>X;X6X;X>X4X;X;X2X;X;X4X>X5X5X5X2XXXoXI.I.oXoXUX2XXX2X1XUXXXXX6XoX2X5X6X3X>X4XkX7X4X>X;X;X4X2X4X2X8X8X5X8X8X5X5XcX5X5XcX1X5X2X5XzX5XMXcXzXcXcXcXzX5X2X2X1X3X*XXX2X1X2X2X*X4X5XxXcX6X5X2XXXUXXX.X2X;XoXoX.X}.K.E..XoX;X2X>X4X;X.X.X[.;XOX.X>X&XoX}.OXOX.X].}.>X>X}.k...F.}.OX].].].}.].].U.F.F.S.@Xm.n.m.$.} | _ ! G G F c 3 # & # % # > : > > ; # , > , > , , 1 , > , 4 6 z N N U S B U T T 8.T 8.8.8.T W v v y v T v v v 8.q.s.a.8.8.8.q.8.T T B B U U S v c v y z i 4 6 3 1 1 1 , 1 2 2 2 2 1 2 2 2 q y y t w y y p y y e e q y q % + > < 2 0 q 3 x M.wXwXtXtXeXeX_.i.M a 9 p D N m 4 4 < > , > ; 8 s.hXhXhXhXuXhXhX=.9 5 : $ & M.'.V X X < ] z O ; y A m M m N z - . .             X X X     X . $ 7 r.GXHXFX).h : $ o o o o o + X   X X X X X X o o o X X + o o o X X X X X O X X   X     X X X X o X X X o X X X X o X X X X o o o X o o X o X X X X X X X X X X X X X X X X X X   X X X X X X X X X X X X X o o o O X X o X X X o   + , X           .   . . . . . . . . . . . .     . .                         .   .                       X X X X X X X X X   X   X   X X X + X X   X   .   . .   . . .     . . . .   . . .   . .   . . .   . .   .   . . .   .   .   .   .   . . . .   . . . . . . . . . . .   .   .   . . .     . .       . .   .                   o . : B '.'.9.o   O n Y m 5 $ o $ i =.s.'.wXa.Q m 5 : : $ 9 U N 6 & @ = 0 < - < = q 5 & 3 p w = d w w 3 e q * * $ * = s 5 & = & 5 s a e e < x q e r 2 < d * a q * = q q w 3 & - = % * w & = * 5 * w & 0 w - < 0 e q V V * d q q e * & < - < 0 p 0 & * 3 3 * a w w < & e q y q = w q a q < * q a e p ",
"].].oX|.I.U.|.].l.1.|.U.P.oX|.U.xXkX4X4X2X;X;XXX4X>X6XkX>X;X8XjX2X>X&X4X4X2X6X;X4X5X2X5X6X2X;X6XOX&X2XzX5X3X5X2XXXUX~.K.XXoXXX*XoXoXXX2XUXUX.XUX4XOXoX2X4X4XlXcX8X:X4XkX8X2XkX4X5X5X8X9XUXXX2XXX*X*XXXUX3XcXcX5X5XcXcXzX8X8XzXcX5X2X5X6X2X2XUX%XXX*X5X3X4X5XcXcX5X5X5XUX.X*XXXXXoX*X;XoX;X*X2X>X>XXX4XXX}.6X&X}..X>X>X;X&X>X.X].>X>X}.].].OX}.m.C d G @X].[.@X].].oX].].}.@X].m.U.].m.m. ._ / Z C D S x 3 & # & # : # # # : > : ; , 1 1 1 , 1 2 , 4 t z z M v B S M T T T T T T T 8.B v y b v v v B B O.T q.a.a.a.q.q.q.8.8.q.q.q.w.T W U T m x 4 5 4 6 < 2 2 2 3 2 4 4 4 4 3 2 2 2 q y y y p p a y y s y y z r q 2 q e 2 > 2 y y S /.tXfXdXfXSXfXuX(.M 5 9 r./.r.D # + q x &   o Q eXeXuXhXuXeXeXeXQ 9 $ . $ y r.+XY X   y 0.A O , M M z 8 4 u 5 . . .       X           X     o $ p u.GXGXsXE 9 $ $ o . .     X X X X X X o o + X o X X X X X o o X X o O X X X X X X X X   X X X o o X X X X X X X X X o X X o o o o X o X o X X O X X X X X o X X O + X X X X X X   X X X X X X X X X X X X o o o o X o o X X X X X X # o           . . .   .     . .     .   . . .   . . .       .           . .                           X X X X X X X X X X X X X X X X X X X X           . .   .   . . . .     . . .   . . .   . .   .   . .   . . . . .   . . . . .   . . .     .   .       .           .   .   .   .   . . .   . . . . . .   . .                 . $ $ 9 =.'./.i .   X $ # $ o o m /.'.'.`.s.t.U b 5 : : 5 U 7.N u w % & & < , $ 0 q 0 0 3 0 w 3 9 s y * 0 3 3 0 = * d & & * h - & w p 0 * * s e y a d q e q e > y * 3 p q * 4 * 3 3 * 3 3 w * = * e * e p 3 % d w q j V 0 < s a 0 e e < < * 0 d 3 q * 3 & 3 0 & p * < < 0 p p 0 < q p w d e y y , < ",
"OX].XX].K.n.[.c.C.F.P.z.c.oX;X.X4XxXkXkXkX;X6XkXlX4X7X6X;X>XoX|.oX>X2XlXkXkXkX5X6X5XkX5X5X5XkX5X5X5XjXcXjX8X5X3X5X5X%X|.XXoXXXoXoXUX*X5X5X5XXXXXXXUX5X8X8X8XcXxXcX5X5XcXzX8XkX8XcX8X5X5X2XXXXXXXUX1X5X1X0XkXcX5X5XcX5X5X4X2XzXcX5X5X5X5X5X6X5X4X5X5XcXcX5X5X5XkXcXxX5XUX2X%X2XXXXXUX*X*X6X6X2X.X2XOXXXOX5X8XXXP.>XoX>X.XXXUXP.[.XXUX}.].K.K.].n.Z - a C.U.f.].].U.].].].U.].].x.].F.x.R j r k G G D a p 5 & % & % : : : > , , , , 2 1 , 4 1 6 3 , 2 t c M v B M B 8.T 8.w.8.w.q.q.W M M v m m m M M M Q 8.M.i.q.q.q.W T 7.7.8.8.T B M v z y 6 q 6 , 3 4 < 3 4 4 q t q q q q 3 2 < < 2 < 3 q 3 & % = - @ @ o @ @ o o X .     o . & 5 N r.`.fXCXfXdX_.Q 9 A /.`.rX/.{ 5 t q.q.Y > o i.eXuXuXuXeXuXwX_.T 9 $ - $ 9 D '.D $ . y M.M O 1 m m 5 : # : # o . .   .     X           X . X o t ] +XsX9.9 , + o X X X X X + X X o X X X + o o o X X o X o X X X o o o o X X X X o X X X X o X X X X o + X X X X X X X X X o o o X X X X X X X X X X X X X o o + + + X X X X X X X X X X X X X X X X X X X X o X X o X X X X X X   X > X               .   .     .   .     . . .   .                     .   o .   .                         X   X X X X X X X X   X X X X X   X X X   X         . . .   .   .     . .   . . . .   . .     . .   . . . .     . . .   . . .   . . . . .                                         .     . . .     . .   .                     o # i ] u.x . . . . . o O # m /.'.+X`./.Q v 9 5 : : N W Q m 9 w = & < w 3 w 3 3 d w & & w 3 0 3 d d 0 - - * - 5 9 5 d d h 0 s 5 w r 0 p e 0 3 p e * * d w s w 3 0 e 0 q 0 3 w 0 3 * w e * 3 w s 3 3 3 0 - 0 3 = H k w s w e w 0 s 2 0 2 % * q e y a q 2 0 < y < % * r p y y 0 e q q r w y * r w ",
"oX|.].I.v.n.K.P.h.k.S.D.F.E.}..XlXxX5XlXkXlXzXkXkX4X6X|.[.oX.X&X&X&X2X>XkXkXkXkXkX5XUX2X6X5XjX5X5X6X5X5X5X4XUX*XUXXXoXL.oXUXXX X*XUX2X6X6X5XUXXX5X5X2XUX5X2X5X5X5X8XcX5XcXzXzXcXcXMXcX5X2X2XoX2X1XUX5X8XcXkXkXcX8X5X8X5X2X5X5X2X6X5X5X8X5X5X2XXX2X3X5X5X4X2X6X5XcXxX6X*XUX2XXXXXXX1X5X1XkX6XoXI.*X>X2X5X8X6XXX|.&XjX;X}.XXOX}.}.}.}.n.k.' J _ m.J - d d.}.U.$.x.U.U.].U.U.].}.n.m.k.P * * * j P ! H a 4 3 3 & , , , > 1 1 1 1 4 , > 1 2 1 , 4 6 4 t z v M M U U U T W 8.T W w.8.T S z 8 z v N u y c z n U 8.8.8.8.8.T W 7.8.W T Q U U U S x i y 4 1 , > % = % o @ @ .   X       . .   .     .               .   .   =   . . . o & 5 9 z Q +XfXCXaX9.u U `.aXdXaX/.U z t.(._.W i u (.eXuXuXuXhXeX_.p.N w $ . $ u r.{ 6 $ . e M.U ; z v u : # $ # o .   .     o   . X X           X $ 5 m Y U t & O X X X X X o o O O X X o X X o o o X X X X X X X X o o o X o X o X X o X X X X X X X X X o @ o X X X X X X X X o o o X X o X X X X X O o X + X X + X X X X X X X X X X X X X X X X X X X X X X o + X o X o X X X X X X X # X       .     .     . . . . .           . .                       .   . o   .           X     X     X   X X X X X X X X X     X X   X X   X X X         .     .   . .       .   . .   . . .   . . . .   . . .   . . . .   . . .   . . .                                                 . . . .     . . .   . .                     . X : i m 5 $ . . . . . o : 8 U '.`.`.'.t.B b 5 : 9 N N 9 5 & 5 & < 5 w * p 3 & & & & * w 3 * & w 9 5 5 & e 5 d r d & 9 3 5 d s d 0 e e s e 0 r d 0 3 3 q e 3 w 0 4 w w & % 0 p q = 3 * * & 3 0 3 d 3 w 3 s 0 0 m h d e w d 3 - 0 2 2 d * % q q < y 2 e q y q e * < < q 0 q w w s y t w r 0 p p ",
"[.oXU.P.n.n.n.oXh.F.R.F.I.oX4X;XNXxXkXkXlX8XkXkX4XkXkX>X8X;X>X2X>XXX;X6XkXzX4XjX2XUX6X6X6X6X5X5X4XUXUX6X2X4X*X6X2X5X2XUXXXoX|.oXXXXX*X6X5X5XUXXXXX5X5X5XUX2X2XXX4X5X5X5X2X3X4X5X8X8X5X2XoX2X XXX2XXX2XcX5XkX8X2X5X5X5X5X5XcXkXcX2X4X5XUX*XXXXX2X5XUX4X*XXX*X2X6X5XcX5XoX|.UXUXoXXX*XUXUXOXXXI.U.U.}.XX>X>X2XoXP.6X6X[.U.oXOXU.|.}.U.f.P s * d P | d 0 | ].n.k.>.n.].n.n.U.n.].F.x._ r = * = C ! ! G a p p q & , > , , , , 1 2 , 2 1 , 1 , 2 1 4 t 6 t y b z v N v S U S U S U S U M m N m M Y U U U { 9././.i.q.q.w.T W 8.W U S m z 6 : # + o X X X           .       .           .         .           .   .   .   3     . . $ : 5 5 9 N =.'.sX'.N M (.dXCXdX`.Q z Q _.eX(.M 6 T qXtXuXhXhXs.eXwXs.m 5 : . $ N M.N $ . . y M.U 1 m i : o $ $ O .   . .   X .   X     X     . X . o # 7 t 3 + X   X X X X X o o X o X X + X X + O X X X o o o o o X X X O o X o X o o X X X o X X X X X X X @ o X O X X X X X X O X o o X X X X X X o > + X X X o + + X X X X X X + X X X X X X X   X X X X X X o X X X X o   X X X X X o +                                       .   .   .                   X .             X X   X       X X   X   X X X X X X       + + X X X X X   X o X                 .             .         . . . .   . .       .   . .   .       . . .   . . .   .     .   . .       .     . .       .     . .   . . . . .   .   .   .                 . o $ : p D 3 . . X . o O 1 8 N u.`._.s.Q v 9 5 5 9 9 5 3 5 & 3 3 w 7 d d w = = = & w d & * * 3 w & - d 9 e * d 0 d * s & = * 5 3 0 s < - = d 3 e 0 e 3 0 $ * * 3 e w 0 & w r q 0 3 3 * 3 3 0 0 * e 0 9 e 0 9 a h w w 0 w p 0 d q d 2 d * q a % e 0 s 0 a 0 0 q > 2 0 < q w w y p a y x 0 q p ",
"U.F.x.c.n.U.}.].m.[.}.oX}..X>X6XxXkX>XkXkXkX6X4X8X4XkX2X>X.X6X4X;X8XkX4X4X6X&X4X2XUX6XkX5X6X6X6X5XUXXX5X6X2XUX1X3XUXXXXXoX|.|.oXUXXXoXXX6XjXUXXXoXUX2X2X1XUX5XUX2X5X5X5X6XUX5X8XcXcX5X9XUX8XUXXXUXXX5XcX5XcX5XUX5X2X5X5X2X4X4X4X4X3X5X*X*X2X2X6XXX~.*XUXXX4X6X*XcX5XUX|.oXUX~.oXUXoX2XXXoX].].oXoX}.XX>X[.].S.n.XXoXXXoXOXOXoX}.U.n.d.V = = * L m.H j f.@X].U.U.].}.}.].].].F.F.=.C s * = 3 [ d.} ! a y n i & # 2 , , % > , , : , 1 1 < 1 1 6 4 y t v c v M m B W 8.8.w.8.8.U U M z 9 9 4 5 6 6 u c M U w.W T M S v v v c c v z 9 5 : O O O o o X                     .                 .       X .                   X O i i 9 # & 5 9 b m B Y A 9 ] _.fXfXtX(.W N E _.wXy.z z q.eXeXuXuXeXt.s.wXt.h 5 : $ 5 D /.{ o o   z M.U : z 9 $ o O $ o o . X       X   . X   . X   X   . . $ # % + @ o   o X X o X o o X o X X o X X + O X o o o X X X o O O o o o X X X X X X X X X X X X X   o X X X X X X X + O X X X + + X X X o X o o o > + X X X X o X + + X o X X + X X X X X X X X   X X X X X X o + X X X X X X X X X o % X                               X                                                 X   X       X .   X     X   X X   X   X X X X   X X X X X X X                       .                         . .   . . . . .   . .   . . . . .   . .   . . .   .   . .   . . . . . . . . . .   . . . .     .         . . .   . . . . . . . .         . o : 9 Y N . . . X o O $ : 5 b { '.s.t.Q N b 9 5 : $ 5 w $ * * * d 5 * 3 $ w * - * 3 3 w * - 0 d * d s p 0 * = e * 5 & 5 0 3 s * 0 5 3 3 0 w w w e 3 0 d d 3 e w e r d & 2 q q * d 0 * 3 s w 3 d w = e e - s h p e d 3 3 s d < 2 q q q d q q s 2 q 0 q p 2 r w < w 2 < q r q p a w q 2 t a ",
"U.m.|.U.[.}.oXOXI.E.].[.}..X;X6XcXlX>X2X5XkX4X4XjXkX6X8XkXlX7X4X4X4X4XjX>X6X7X6XOXjX5X6X2X4X6X;XUXXX6X6X2X6XUXXX5X2X5X5X6XXXUXUX6XoX|.UXUXOX2X6XUXUX2X5X6X6XcX5XXX6X6XjX5X6X1XUX5XcX5XUX6XoX|.}.oXUX8XcXcX5X2X5X6XUX1XXXXX2X6X5X4X4X4X2X%X2X|.~.1XoXoX2XXXkX5X6X5X5X5XUXUX5X2X5X[.P.K.F.n.}.oX].>XjXxXcX6Xk.}.;X6X6XUXOXOX|.].].F.n.=.a - - 3 [ ].) R n.].+X[.oX}.}.].U.].P.F.S.} V V r Y } =.:.} G y 2 i 4 & % # , , , # , < 2 > # : > , ; 1 1 t t 6 2 5 8 8 9 z c v c v z 2 6 9 1 O $ ; : : : 8 M c M B S N z b b 8 N v v i 7 5 , : $ $ o o X   X         .         .   . .       .       . X .     X               # u =.t.D 9 & 5 9 9 u u 9 9 p r._.tXdXgXwX_.q.T M.(.U M 9._.eXeXeXeXt.B s._.U p 5 : : 5 D u.u.y . . p u.U : 1 O O # i $ X . X X   .     X   X . X         X o $ O o o o X X X X X o X O o X o X + O + o X + X X o X X O o o X o X X X X X o X X X X X X X X X + X X X + X X o X X + X X O + o o o X X + X O X X X X X o X X + X o o o X O X X X o o X o X o X X o @ X X @ X X X X + X X X X X X X + + o     X     X                 X                 X                                             X   X   X X   X X X X X   X X X X . X X X X X   X                     X                         .   .   . . . . .   . .   . . . . .       . . .   . . . . .   .   .       . . . . . . . .       .   . . . .   . .   .   . . . .             X $ # u T z . . X X o o O : 5 N t.i.a.7.N i t p 7 < 3 p & * & w 3 = * 3 * 3 3 w 3 * * * w = d & d d * 9 5 p s d s w 0 h 0 & & * & 0 3 0 p 0 w w 3 e w e w p d < s p 0 & * * 0 * * & 0 w * 3 d 0 e 3 3 w e y j w e 3 = * 3 q < * e 0 2 e 2 y y > > q 0 y 0 w y 0 y w w p p , w q q y q e p ",
"n.U.I.].[.U.oX[.}.F.}.;XOXXX;XOXNXjX6X.X;X4X6XkX8XlX4X4X6XkXlXlX>X2X4X4XkX8XlX4XXX6X6X5X6XjX2XjX6XUX6XUX*XUXUX6XcX6XUX5X5XUXUX6XUX}.U.oX.XoXOXOX8X0XcXcXcXcXjXcXjXcXjX5X6X4X6X*X6X5X4XUX6X6X6X2XoXXX2X2XjX5X5XUXcXUX~.XXXXoX|.XXoXUX6X5XUXcX5XcXcX6X5XxX5XcXjX5X5X5X5XcXxXxXVXcXf.V k Z H }.OXjXmXcXlX6XlX>X>XOXOXOXOX}.oXOXOXoXUXn._ r = & r =.x.^ !  .k.x.g.x.g.g.f.>.X./ ! G V s d * a H a r p & - o & $ o .         @ , X   X X   X X X o o o + # + : : 5 6 6 7 6 8 2 2 2 2 : 1 : O O O : : t b b b v v z b b 8 9 N M z 7 6 : : # O $ X X X X     .       .                   .     . . . X X .       X         o & Y )./.] N 3 5 : 5 9 5 5 7 i U t.(.eXwXuXtX(.q.w.T c t.(.qXs.a.t.7.B 7.eX(.N w & : $ & N /.u.A   . y { U : : O O n N # o o . X .       X X . X   X X     . X X + o X X         X o o o o o o o o X o X X o + X o X X X o X X X X X X X X X X X X X X X X @ X X X X X + X X X X + o X O X o o o X X X o o X o X o o X o X X o o X o X X X     X o + X X o o     o @ X X X X X X X X o X X X X X   X + X X o . X         X                           .   X       X   .   X         X               X . . X       X X   X     X   X X X   X         X   X                       X               .       . . . .       .   . . . .       . . . . .   .   .   .   . . .   . . . . .   X 7 m $       .         .   .   .   . . . .     .             X O & 9 U W n . X X   X o : : 9 N B U N N u 7 9 y p 3 w w 3 w 0 w * w w d 3 3 p d w 0 * * 9 d & & 5 0 d d 0 9 5 h 5 s 5 d 0 e e * w w e & 3 d w 0 0 3 a w d q 0 p * e 0 * * 0 3 0 * = 3 % d 5 w w w - & e e a r * 3 d * q y e 0 e r 0 q * e d * * q e s e e 0 < q t p y w q y q q a p p x ",
"U.].U.oXn.U.F.[.].{.>X.X[.[.OX2XkX>X.X>X;XkXkX8XlXxXkXkX7X4XxXcXlXkXkXkX4X;X6X4XUXjX5X6X6XjXjX>X1X5X6X6X6X6X5XjX5XUXUXUX5X5X5X5X6XoXU.}..XXX6XkXcXcXxXnX5XUXcXxXNXcXUX5X5X6X5X5XcX5X6XkX5XUXOXOXcXcXcXcXxXcX5X6XnXjXjX5XcX6X5XcXzXcX4X5XUX5X5X5XxXjXcXkXjXcXcXcXjXcXjXjXnXxXcXUX}.c.:.Z k.S.[.OX}.}.>X}.].F.S.S.x.m.x.k.=.=.=.( ..P H d - - n ~ [ ..../ } ` ! _ J J ( | Z Z G G a h r r i H x 0 = -     X .             + #   X X X X X X X X X o + # + # : : 5 5 6 1 1 1 2 1 + O $ : O ; O 9 : 1 8 8 8 b 8 8 6 8 8 8 8 9 9 7 5 5 : : & O O O o X X   X . X X .     .   X . .   . .             . X X     . X X . X O 6 { /.`.M.Y 5 : : : : O : 5 i N B q.a.qXtXdXtX_.i.v m p.i.7.7.Q B N b a.s.(.m * 5 : $ w N u./.U o . p { n 1 : : m F 7 5 X X X   X   X X .   X   X     X   X o X # o X X X X   X X X X o X X X X X o + X X o + X o X O O O X X X X X X X X X X X X X X X X X X X X X + @ o X X X X X X X X X X o o X o o O X + X X O X X o o + + + X X X O X X X X X X o X o X X o + X X X X X + @ + X X X X X X   + > X o o X X X                                   X X o   X     X . . X             X X X X X X X   X   X   X   X   X   X   X X     . X X     X     X                     X       X   X             .   .   . .   . . . .   .   . .   . .   . . . .   . . .   . . . . .     . * a E u.i @   .     . .   . . . . . .     . . . . .           . o $ : 8 N Q E , X X   X o $ $ : 9 9 9 : 5 5 4 5 5 3 * d 5 3 3 d 0 3 w 3 = * d e w 0 0 3 & d 5 d & - & d w e w p w = 0 h d 0 p p 3 * w e = d e w w 5 e r p p e e d e r r < & 0 w d d * e * * s 5 * w - * e e a r , - 0 * w q e e y q 2 2 0 2 < 2 q 0 s y y w w e q q t < d q r y y p a q w ",
"].oX].oXI.S.].}..X}.;X>X>X6X2XcX>X>XoXlXkXjX;X>XI.4XlX4X2X7XkX8XzXkX7XkX6X6X7X4X4X6X5X4XOXcXkXkXkXjXkX6X5XjXcXcX6XUXjX5XjXcXjX5XUXoX|.UXkXcXxXcXjX5XcXVXcXxXNXNXxXcXcXcXcX5XjXjXjXjX5X5XcXUXOX6XUXUX5XcXcXxXnXxXVXcXVX5XxXkXcXnXxX5XUXUXXXUXUXoXUXUXoX|.U.}.[.].].U.U.,.K.,.n.m.c.' ` >.` P G } +.J d.^ G $.X.C ! G F P n.M.H _ g.[ H = - 3 L ..^ r...} G } d.d.d.k.X.| /  .J Z C P ! D ! ! V r 0 @         .           + #         X X X o O O + O O o # # $ : : 1 : : ; ; # ; O $ : : : ; 8 : : 1 1 8 6 6 8 6 5 5 1 8 8 5 5 : : , : : # : O o X O + + o X X X     o o @ @ o X X @ @ @ . @   X # X . X X X . . X o : m i.`.rX(.W 9 : : : O O : 5 9 b m U W t.p.eXqX(.q.m z Q Q B N N b 9 b s.uX'.n & : $ $ 9 U i.y.W $ . 9 E v N 9 m U m 6 o X o o $ X X X X X X . X . X   X X X X X o X     X   X X   X X o o X X o X X X o o o o o X X X X o X X X X X X X X X X X X X X X X X X + X X X X + X X + + X O + X X o o + X X + X X O + X X X X X o o o + X X X X X X X X X X X X X X X X X X X + o o o @ o X X X X X X X + 2 + + + O o X X               X                 . o . X       X X @ X             .   . .   X X .   X X       X X X X   . X X X X X X   X X   X X   X X                   X                   .   . . . .   . . .   . .   . . .   .   . . .     . . .   .   .   . . .       E M.u./.D @ . .             .   .   . . . .     . . .           o O $ 1 b z u : X X X X X o $ # : : $ - $ : 5 & & * = = 3 = * 5 & w 3 $ - = 3 w 3 * * * 3 5 d 5 h w d & 3 3 - w d * 5 w 0 0 3 p r * w w & & w w d d p e e s * a q p q e * - * * 3 * 3 w q 3 0 s 5 3 * * e p j e * % * < w e e q r y * a y d % q s y p y d w w y p p a q q y e q p y a y w ",
"oX].U.oXoXI.].XXU.oX6X4X>X;XXXOX;XNX5XVXVXkX6X8XlXkX;XY.;X4X4X7X.X.X[.R.F.7X>X7X>X>X}.;XjX4XjX4XjXcXkXjXjXjXkX>X5XjX6X6X6XjX6X4XlXjXOXOXjXcXjX6X>XjXcXcXcXnXVXNXjXcXcX6XjX6XoXkXjX;XOXoXoXoXOXOXXXoX5X6X+X5XXX|.}.oXx.U.n.f.n.[.n.m.=.,.m.:.=.P d.k.F.G | h.g.) Z d.m.! P :.K.S._ / P ( / J C j V C ( X.J $.$.V J ..x.d.].x.H ! P _ V d 0 r j j G } H } =.g. .=.| $.^ ..C Z J ^ J ^ } V V a e r e @ . . . . . . X . X X # -   X X X   X X X o o O o @ O # # O : : : # : O # $ : O : 5 5 ; ; : ; : 1 : 8 1 1 1 8 1 1 1 1 8 : : 8 : 1 1 ; ; , & $ + % ; = @ - @ @ . X # % # o X @ . % # # $ % # - + @ X . X X . X o $ 5 { _.+X+X/.B 9 : : : $ o $ 1 8 8 z z z N U Q =.Q U 9 5 u 9 9 p 9 9 5 9 s.wX0.h & $ $ $ 9 x M.w.9.4 @ w W T U U U E i 5 , , 9 : o X X X X X X X . X . X - o X X X X X X   X X + o X o o o o X o X X X X + # o o + X X o X X X + o X X X X X o X X X X o   X o X @ o + X X @ X o o o o X @ X X X X X + + + X X X > o X X X X X o X o X O X X X X X X X X X o o o X X X X X X X X X X X X o X X X X X % t @ + + + + X         . X .                         X         X X @ X @ X                 .   X   X .   X   X X X   X       X . X X X X   X   X X X         X     X   X       X                           . .         . . . .         -         .   .   .   .   . . . . . . x M.).).E o         . .   . . .   . . .   .   . .   .           X o O : 5 1 1 O X X X X X X X X O X . X o $ , * 4 3 & & 3 = & w 0 < 0 e 3 - 9 s & * 0 w 0 0 0 = 5 * - 0 d d = p w w p e & 0 e h p = * e - 3 w h e d w d 0 * 0 r q q e 0 % * * * d 0 * < r w q d < = < q q e a a d < 0 q e q q a 2 < q e q = < * < * p y 0 e < 0 w p w 3 a i y 0 y p y a w ",
"oXUX~.UXUXoXoXUX[.6XOXcXUX[.}.OX6XzXlXnXxXkXxXxX9XC f f j f f Z _ J Z V #.>X&X>X>X>XoX}.>X>XjX>XOXjX6XjX>XOXjXOXjXjX6XUXUXUXjXjXjXjXjXOXOX6XoX}.OX].P.].U.U.m.n.x.I.x.=.g.| | _ / :._ F.d._ m.k./ =.x.|.:.=._ ~ _ _ P  .g.x.:.| P / =._ G Z _ x.:.( C V Z ! @X( d.k.Z ! k.n./ | $.$.( :.P C V J $._ / ( f d.! d.f.Z d.x...^ $.k.:.P a r s 0 . . e ^ / _ / =.J d.! k./ Z o.Z G G ! ! C e a r e 0 * - . . . . . . . . . . % +   X     X X X X o X o X o + # O O $ # ; # O O $ O $ O : 6 5 O O $ O : : : : : 1 : 1 : : : 1 1 1 : : ; 1 1 1 > 7 4 , % , 2 # o + @ # + @ o % % o o . X . X X . X X X     X     X .   o $ H /.`.wXwXu.x 9 : : $ $ $ : 1 6 8 8 8 9 8 8 b z 9 9 9 5 9 5 5 5 5 5 : : Q =.M t & O O O $ m q.q.{ y % z ] Q E T E M B S U N m &             . X X X X X X X   X X X X X X   X X X X X X o o X o o o X o O X o + X X X o X X o o X X X o + X X o X o X + o o o X + X X + X + X   X o X o o X X o X X X X X X + X > +   X X X X X X o o O X X X X   X o X o X o o o X X X X X + + o + o o o X X X X X % y % % % o X         X X X       X X           X       X       X + + + # .                 X                     X   X X X X X X X X X   X   X X   X X                             X         . . .     . .   .   . . . . . . . . . . 0 M.!           . .       . . . . . . .   x u._.] $ .   . .     .     . . .   . . . .   . .           X X o O ; ; ; + o X X X X X X X       . . $ o & 3 & - & 3 0 & * p p 0 & w y & p s * - & * 0 d 5 5 0 d 5 e 9 w * p d w r * 5 w e e & 3 & & p e 3 p * w * = * q q d 2 d q < q d * e d y r & * 0 0 0 w , d < d a a e < * < 0 q q d 0 d q y q 0 % q * w * y r e a y w q 4 w p a p w p p p a a t ",
"UXUXUXUXoXoXP.I.I.}.2XNXxXjXjXcXxXcXkXcXkX7X6X>X;XC k Z Z K Z +.].P.[.R.V.S.S.F.}.].].U.F.F.c.f.d.x.m.F.k.$.} ` ].l.=.=.n.f.m.} n.} k.F.m.m.d./ / / h.| $.P G ( F.=.=.=.x.g.d.m.U.F.m. .| | P ^ G =.=.L J L H h | :.| x.m.:.P _ L G P } h _ _ f.....! J $.^ | d.P J G :.^ / C >.H $.Z P C Z Z P _ _ :.V V C / } $.Y _ / ! | | | H C a r e - . . - R ^ ^ C  .L ^ X.P J ! X.j G Z G Z V V V a r 0 d * . . .   . % . X X . > :     X X     X X X O X o o o O O O # # # O O $ O o O O : : $ o ; 5 O : ; : 1 8 : : 8 : : : 8 : : : : , 1 : 1 4 3 & # + # % . X X . @ X X   X X X         .       X     X %       X X o 5 =._.tXpX'.W u 5 : : $ $ $ $ 1 1 6 2 6 5 : 1 5 : 5 5 5 & : : 5 : : : $ : 5 z u 5 & $ : : 5 B M.q.W t & x w.W Q M U M E W Q U z $ o X   X X   X X o X . X   X X X X X X X X X # u n a o . o # X X o X X X X X O o o o X + o X + + o o X o @ X + X o X o o X X X X X X X @ X X   X o X o + X X + X + X X + X X + + o + X X X X X X o o + + o o o o X X X + X + X X X X X X X o @ + o + o o o X X X X X , x % + > o X X   X X   X X X . X X   X       X           X   . @ - o % @                 X .       . X     X       X   X X X X X X X . X X   X   X X .     X     X X   X         X           . .   . .   . . . .   . . . . . . . . o u.vXyXG       . . .   . . . . . . . . . . @ i D i X . .           . .   .   .   .     . .               X X X O o X o X X X X X     X           @ X # & & & 2 0 & & 3 3 4 = % 0 s = & * * 3 * = 3 d 9 * * s 9 s & d 3 w 5 5 d - d w w w 3 = 3 0 e p d & 3 w 0 - w y s e q 2 d d e % > 2 < p q d < w 0 q e q 0 % d w a q < % 2 e < y q q q e 2 % e < 0 w % w r w y w e y q 3 w 4 p w p p a r p r y ",
"~.|.|.].}.UXoXF.].I.|.oXXXS.|.n.I.}.n.[.f.$.f.I.C.I o.o.( ( J ` G K ! ` ( J J j.I._ ( G Z C J J V | k.$...H G d.=.=.k.L ! [ Z m.m.P Y g.L  ._ G P  .G V Z r.^ X.) x.n.U.) k.x.F.U.d.P } / | G P =.H h ( _ Z J _ G :._ ! / ! L | P =._ P H =.x.k.m.C V J  .H C | P ..:.P } / / J Z :. .G :.( V G .._ _ V Z V Z ( ! $.} G  ...:.} Z / k h d . . . . s ! d.! ..} P G ^ ( Z G V G C f f a f e r w r e = . . .   . $ X . . . # %   X X X X   X o X X X @ o # $ O O # O O : 5 5 : $ o O O 1 O O O ; ; ; O : : : : ; ; : : 1 1 : ; : : ; 1 : : # O O X   o X     @ X X X .       X         . .           a y         o $ x u._.tXwXu.D 9 5 : $ O O $ : > 1 2 6 1 : 1 ; $ $ $ : $ $ & # : : : : 9 $ $ 5 : : # $ $ : : m 0.w.S 4 , c 0.W U v u D T U E U 6 o X X X X X o + @ X     X X     @ X X @ + y c S y.M.u.9 $ o $ o O X   X X O @ o + + o X o o X > X X o X X X X o o X X + + X X X X X X X X X @ X X o     + X o o X X + X o X X X X X X X X X X X X + o o o X X X X X X o X X X X   X X X X X X + + o X o o X X X X   . 2 x = + > o X   X X X   X @ X X X   X   X         X     X   X X $ = @ + X         X       @ o X X X X .     X     X X   X X X X X X X X X   X   X     o           X . X .   X X                 . .   . .           . . . . . . . . E sXsXsXY       = n ~ A X . . . . . . . . . . .       .       . .   .   . .   . . . . . .   .   &       X   X X X X X X X X X   X O X         .   X = @ # 3 # 3 < & & & 3 * & * & * 3 s * 0 0 p w 0 & d d d 0 h 3 d 5 d d e * w d 9 0 w e e = 3 e w d * & 3 e 3 3 e e y e r s 2 e < e d * 0 0 * < e w d - < 0 0 d % e a q s e s p s * q e 0 e s % q e < q * 2 q & 0 e w < 3 q q q p a y 0 w y p y w ",
"-.l.` | F.l./ Z P J ' G P ` +.j ` ` ' ( C J @.' K f C I J ( J P J j C o.( j.( >.n.$.C j Z ( J J P ` ( G a C ! Z V / J J H V C ( g.=.C X.` } k.! P } Z J ! g.! C L ! _  .P .._ ..[ / Z P C V C } x.:._ G Z L =.>.a P P =.:.J V  .` | Z C G _ F.U.n.^ G | _ / G Z ^ ..P H G j C Z _ | ` G J Z P C C _ V J a V C G / f.! Z :.G / ..^ H V r - . . . . < ..C ! G | / Z / V j G V J Z a j H j f e a s d d - . . . . . @ . X X + , X X X X . X + o X o X o O $ o O O $ O # # z M i # O X o O O o O O ; O ; : : 1 : : ; : O ; ; ; ; ; O O O O o o o O o     X   X       . X X     X                   X             X O # U p.wXrX`.W m 8 : $ o o o O O > 1 > 6 > 1 > O $ o o $ O X $ o o $ $ $ $ o o $ # O O O O $ : u ] 9.A , , U M.W M 1 z N D U z u > o X X X X X X X   X X . X X X X @ X X > ] /.M.p.`.'.u.a 5 . o $ X     X X X + o o X o + X O O X X + + @ X X X X o X X X X + + @ o o X o @ X X X   X X + X X + X X X X X X o X X X X X X X o X X + o + o + X X X X o X X X X X X o X X X X X o + X O X X o X X X X X o & x & = + X X X     X X X X X X   X X   X               X   X X @ + % %         X %   . o @ @ @ o X o X       o o = X X X . o X X X X X   X   X   X X X           X . X X   . .     . X         . .   % 3 # . o . p u.r.V @ . . . V +XsXaX'.4 .   < 0.+X+X`.i . - N m . . . . . . . . . . . . . .       . . .   . .     .     . .   *       X X X     X X X X X     2 z t 8 X       X @ $ @ % 2 = % < & 3 d 5 = & 5 5 - - & w 9 0 0 3 w * 5 5 r = d 3 p 0 d * p p 0 d e * * 0 w * = & w s - < & 0 w 0 3 q 0 q * e * y e * d 0 * * % < e p s * * d 2 * a e e e e e * d e 2 d i d 0 w w 0 3 q w 3 y d < q w & < < < 3 w a y w w p a w p p ",
"| ` L ,.:.G Z ' I J C I ( C ( j Z J P P Z C ( #.k s Z Z K C P >.K k I j f ' J j.( G J #.` J f C #.G ` Z J  .J G j / ..G j G e G  .Z f C $.! _ ..d.Z V k.g.d.Z C _ [ G P G V C H V / | ! a / | :.} d.:./ G C =.G P C / _ J G j | / G V V Z H G ^ d.C V / } } f f C G d.^ V / j G G ! P V H ! J J Z ! C J ( _ ..Z / Z r V / _  .$.H r j * - . . . . = G C C F ! _ ! Z Z V J C V G C J V a f a a e d * X . . .     % . @ . # % @ . X X X X o X X o @ X X X o o o o O O 8 D R i 5 O O o o O O o X O ; O O ; : 1 ; : 1 O O O : O O O O O O X X o X o o X X   .   X     . .         X                             O # 6 t.`.tX`.u.N 9 5 : O O o O o o o ; # > ; > + X o o @ o X X O o o o O X o o o $ O O O : O O 1 6 c 9.v 2 2 S w.T z 6 z v M M , O + o o X X + X   X X X X   X X X X X o o U `.rXqX'.`.`.r.m < $ o o X   X X + X X o X o o O X X X X X o X X X X X X X X X X X + + X X X X X + X X X X   + o + @ + o   X o X + + X X X X X X X X o O + + X X o X X X X o O X X X X X X X X . X X + X X X + X X X X X X     & m d $ X     X X X X X X X X X X X   X   X       X   X X X X @ # % e & . . . .       o % $ X % . o @ X X X @ $ - % + + - % % @ @ X X X X   X   X     X       .       . X . X X     . .         . & D r.M.).M.p.=.u.`.sXrXM.F p { +X+XpXyXU i x a ).`.rXwXwXE $ 9 m./.L & 4 4 & . . . .                   . . .   . . . . . .   .               X X X X X X X X X X > z M U u o .   @ + # $ = % % # < < 3 5 & * = - * & - - d * 7 d * 0 * d * 5 5 - p 0 = 9 e w s d 9 = 5 * 3 0 0 $ * * w 3 - < 3 * 0 d q d 0 < e 0 e e d 0 r < 0 * y e p w 3 3 a q q q y e e < * * q q d < q e w w p q * 3 p * w w w * w * 3 < 3 q p w a q y < w w w p ",
"Z Z P I k G C J G P ' -.I / k K P J P I j O.( J ( f P ( ` j K P P C +.C f j ( @.C C Z Z J f f r J f a ! $.=.X.Z r J  .} H J j G / a G Z a V H g./ X.G  .! ^ o.x P L V V x./ J _ C V Z P _ } Z / V P L _ _ ' ) J :.Z a d V _ G _ J G _ Z Z G a G $.G Z C :.! C G / ! P ! ! | j G / G G J :.G ! ^  .| $.>.g.$.^ / f C V C J } ! J G P Z 0 - . . . . - ! Y } G P P J G Z C f V C G C G Z V a 0 r a e 0 % - . .     X X     % + X X X X X X @ X X X X   X X X X X X X X 4 m m u : X O O o o O O O ; ; ; ; O 1 5 : ; ; O O O O O o X O O O o o X X X X X   X @   X             X   .     X     X       X     . . o 5 N t.`.`.(.W z 5 : $ O o o o o o X X X + X o X X     . X   X X o $ o o o $ o o . o o O O O O ; ; t ] y > 1 c W S 6 6 x m i 4 # o o X X X o X X X X   - X   X X X X X o c ).rXtXqX`._._.W p 5 $ $ X X   X + X X + X o o X O X X X X X o o @ + X X X X X X X X X X X X   o X X o X   X X +   o X X X X X o o @ o o X X X o o o o X X o + o X O X X X X X X X X X X o X X X X X X o o X X X X X X X X X   . & h * @ X     X o X X + % X X X X X X   X             X X . X @ - # 2 = . . . .   .   @ # # @ @ o o X o     O % > % # - % < % @ @ X X X X     X   X         X X             .   X X X X     $ * 7 Q u.).'.'.+XsXrXrXsX{ E M.+X+XrXsXsXsXqXu `.yXrXrXrXrXsX+X'.N $ =.'.p.x W u.9.8.M @ . . . .             .   .   . . .   .                       X X X X X X X X o O O 1 M M z + X o . @ @ $ % % $ * 2 & & 3 3 = & d * = & - 3 d 3 * = d 5 & * & d d 9 s w 0 p 0 p * 0 * * d 0 w & = * < < * w w * 3 * 0 % d a 0 0 e e < d 2 q 0 d q 0 * * * w a q q q e s q < e y q y p 0 d < < e 3 e & * y e q w w , w w < < w q q 3 y q w < % y w 0 ",
"C P >.Z ( ;.k j k :.f.G j I Z f j e j Z f Z Z ( G f ( ` ( C ( Z G f ( J J j f f G C J ` f C J r / C j P ..J G ! V ..d.$./ V / H G j ! G f G C H ^ / G  .X.f G C ! h j C ! C  . .G j j L :.Z a V a G C =.f.G P H ` P s e C G f P a } d.G Z G G $.| G ^ d.` ! J V J J _ ( H C C Z J J  ./ Z J $.G Z ! ! G V a ! / J / J a H j P f C C h = . . . .   . V H G F G P C V G } ^ X.Z G C V V V V a e r r < * * .   . .       . % % X X . X X X X X o o o X X . o o o o   X o $ : O O o O o o O O O o O O O : ; : : O $ O O ; O O O o X + O O X O X X X o X   o X       X   X                                   . o $ 9 { s._._.9.m 9 : $ $ O O X X X o X X o X X X X X       X X   . o o o o . o X X o O o o O O o X + X z , > > u Y c 1 t x u 6 2 # o o X   o @ X X   X X + X X + X X X o y r.rXwX(._.s._.(.U p & o $ o   X + X X X o + X o o o o O X X X X o @ o X X X X + X X + + X o @ @ o o X X X X X X X X o X X X     X o X o + X X X X o X o X o + o X X o o o X X O X X X X X o X X X X X @ o X X X X X X X X X X X o & h d   o X X X X o o % > + X X   X X     X X   X X       X + < * < 3 -           . X @ * # = $ o .   O # < # = $ & - % + 2 > @ @ X X . X X   X X   X       X         X X       X   X X X @ x Y F E ..E A x F M.+XsXr.: o $ m B u.sXsXaXaX).sXpXrXyXtXrXwX'.u.N $ 5 D m 9 =.a.s.a.9.N & o .       .     . .   . . .   .   .         X   X   X X       X X X X X X X X X + 8 c v 4 o X   . . % & & & * < - * * - & & 9 0 d * 3 e w 0 * 3 * * * d 0 w d = 0 * 0 = 3 h = 9 s * 3 0 3 e * w d * 3 a s 0 e 0 a e a 0 d 2 e 0 % d d % 0 q e < 3 0 * 3 e q < q q r a e e s q r e q 0 & 0 q p 3 * w 0 w w * * < w 3 0 * q p 3 3 q q < % 0 4 p p ",
"I Z Z r P Z J Z j ( K r k Z a r r s V C Z >.( f r J ` ( ( J Z f s r f C C C s f C r ( J P ( f Z ( f f Z C V P C e J G J P a P Z ! f C C J o.f j / X.J / $.C G J V Z / X.V s C Z P ( J f Z r f C r r Z C J / X.G C r J Z V _ f./ j G P P P V Z } _ _  .| Z V G J ! G / Z Z G G f a r ! C G G P / J P ! V C s Z / C C Z G / G C V G G j = . . . . . . 0 h e a H } j a ! X./ f a G C d f V r V r e s q 0 % X . . .   X .   % # X X X X X X X X   X X X X . X o o o o X o o o o o O O o o o ; O 1 : O O O # O O o O O O o o ; O o o O O o X o o   X X X X o @ .     X o . X       X                     X X o $ : N t.s.s.t.m 9 5 $ O # O o X X X X X X X X X X X   X     X       X X X o X o o X X O o X ; + X X X   + > ; : 4 S c 6 t x 4 1 : O O X   + o X X   X X X X X X X X X X o u 9._.wXqX(.(._.p.D u z W 0.E p < X X     X   X o + X X o + o @ o X X X X X X X @ + @ @ X X X @ @ X X X . X X X @ X X o X X X X   X X o X X o + + X o o o X X + + X + ; + o X O X X X X o o X X X X o X + o X X o X X X X X X X X X 2 m = . X X . X X @ X + + X @ X   X X X X X X X X X X     X % < < 0 < % @ X @ X X @ % % % % * @ @ O i m N 5 5 h & & & $ $ % $ % % @ X     X X X @                           X     X   X @ - q x q < 3 < % 3 6 m D D w X X . .   # ! y.M.rXyXM.T M ] /.u.W m 3 % . . @ $ 9 W a.s.a.t.8.N : O X                                       X X X   X     X         X   X X   X O ; 6 z q O   o @ % & & $ % % & & * % - % q y 0 = 3 < * 3 * * 3 d 9 d = 0 * * 5 e * * 3 3 w 0 3 s & 5 w & d p s w 3 p e a p e a 0 x r * a 0 d w d * a w e p w 3 0 * d 3 d 5 * 5 d 5 0 d 5 d 5 d 0 e 2 d 0 2 p * * * 0 < 0 y 0 0 w * 2 0 q s < < 3 q 3 a a a p p ",
"L G j k f f P r f f Z P P j r r C C C C C j J f V f f Z J k r f r f C J r f f Z Z J J / _ P X.( G V C e V G J V d C r V Z / g.d.! G V V G P V J f C o.J C f C j a o.` J 0 O.G C j X.J f C f J Z j | :._ a j f C $.( j Z / Z  .$.| / / / r j _ J j ^ _ j a C J ! _ / G _ $.G G G G V f Z _ G f f H r f f f e C G V Z _ / C G ! f Z k d * - . . . . . . r H a V G G G H G P G j V V f C j a V e p f x e 0 = . . . . .     # #     X X   X X X X X X X X X . o $ O o o o . o o o o o o o o O ; O O O O O X O ; O O O + o O o O O o O o o o X X X X X X   o X X     . X X . X   X . o         X         o o O : 9 Q i.i.t.B u 9 : $ O o O X X X X X X X X X X X X X X X   X X   X X X   X X X X   X X o X + X X X X   o + , : > c x t 1 6 5 , : O O X X # + X +   X X X @ X X X @ X X O 5 D y.qXqXqX`._.p.W 9.r.r.y.M.M.0.x X .   X o X X X @ X o X X o @ X @ X % X @ X X @ X X @ X @ X X @ X X X X X + + X + @ + X X X X X X X X X X @ o + @ + X X X + # X o > O O X X X X X X o O o X o X o X + o X X O X X X X X X X X X > j * . X       X @ + < 2 X X X   X X + X X         @ X X X = < < % % < - = = * = & 2 * < < < - o y Y Y R D 9 h p & $ - @ - $ @ % > - . +   . X X . X             X               $   + # # % @ & $ @ o   % = & 5 & $ . . . . .   . # - e c w < $ # 4 p 4 , $ @ . . . $ 8 B t.a.a.a.q.Q v 6 O o X                       o       X X X X o X X X   X X X     X X X X X X X o : 3 1 # @ o $ & % % % % < % = & 2 - < w d & * q & p 3 $ 3 3 5 * * - - 5 5 e p w 3 & 3 w 3 w w e 3 3 = 5 0 5 w 3 a w w e & e e h w w s 3 * 3 3 0 0 3 0 p e = w 3 0 w * = 3 d d - 5 - * * * * 0 d * % % < q & 0 , q * * 0 q 0 & * & & > < < * q t q y i w 0 w ",
"r j f Z f Z r s s r j f f r j j C f f ( P Z C Z J C J Z f d s r K _ J ( r s j ( j V ! P / ( j J d.` Z C C Z C Z j j C a V ! $...! J V J J f a J J f V s e j O.j C C j C C X./ r r f V j f e r Z _ #.( P Z j C C _ f C C ( Z G f.:._ C V C C G / G J V a C H _  .X.G ..( | Z J H s f ! ..P s 0 a f r / V f a V C C / P s V Z C V H C r & . . . . . . . & w G / V X.G Z G G G f P V a C Z f a e r f e e * - . . . . . .   + @     X     X X X   X X X X X o o o o X o o o o X X X o o O o + 1 O O O + O X O ; O O O O o o o O ; o + O X X X X X X X X o o X   X . . X X X X   . X                   . X $ $ 7 N 7.i.W Q b 9 : : $ O o O X X X X X X X X X X X   X   X   X X   X X X X + @   X X X X X o O X X X X X X O , : 1 M m t 1 , 1 : # # X X X X o o o   X X X X X X X X o : c U U 9./._._._./._./.t.U m F M.M.{ i . X X @ o o X o X X     @ + o X X X % X X > % X X @ @ X @ X X @ X X @ @ + + + + + @ @ X X X X   X o + X X o X o + o X X O o # X o + o o + + X o o O X o X o X X o o + X X X X X X X X X o X X + 3 h * . .   X X X + # < % @ - o     X X X X X   . X o   X X = % , < q e < < < < < < q + 2 w , - # a Y D n D N p a $ & 3 . @ $ @ # @ X X @ X X . X @ %           . X     X     . X + o @ X % > X $ @ X . o - # = * $ $ @ . . .   . . - @ 3 & 3 $ @ @ - = % = = @ . . . $ 5 m T 7.7.t.t.U x 3 o X                           o o   X X o O $ o X X     X   X X o X o o X X o o O % & O $ @ $ % # % % 3 < * < % * % & < % = * * * w * * & = s 5 * 5 $ * 3 3 p e p * 3 3 3 * * 3 & * & s 5 * w w w 3 p e w d e s * e 3 * d = = d w w 0 r 3 w r 0 3 0 d * * d 9 & w & * 5 * w * = & & < < 0 * * - % < < < q < & * 0 * < & % 2 < & , w w 3 0 p ",
"s j J Z f j k f r Z k Z r s r J G J r r Z C C J r C J C C C C r V P Z J P f / / f J C s f f r 0 f Z J ` X.C / j e r J V f J j H ( / r j Z X.C Z r e f V V Z R J C ( f f J J V j ! J C Z f C ( ! f Z a r J G ` ( / J X.V j a C H ( | a r j H / / j a Z | :. . .} / j V a V a C G V ( P V a a C G f V J H G J J H Z V a r f r 0 j V V r e - . . .     - r a ! G V L V H G J G J C f Z f r a a s r y s q d . . . . . . .   # X   X   X X X X X   X X X X @ . o o o o . o o o X o O O X O o ; O o O # O ; O O ; O O O o o O + o O o O X X X + X X X @ X @ X         . X . o X . o X     o     X X     X . o : v U t.t.U N 9 5 : $ $ o o X X X X X X X X X X   X X X   X X     X X o X X @ X X X X X X X X o X X X X X   o # + 3 A m y 6 1 1 O $ $ X o X o o o X   X X o X X X 6 A V Y 0.M.0.D T 0./.p.(._.u.N u 5 7 c i i , $ # $ @ o @ o o o X X   + +   X X X + X X % X X X @ X X @ X @ X @ X + 2 2 + + + X @ + + X X X % o @ X X X X X X X + X X O O O O O + O o + + X X X o X X X o X X o o o X o O O O O X X X X o O # 3 V d . . X . X = % # - + X + @ @ X   X X . X X X X X . @ = < w < q s q 0 < 0 q w e 0 , p w = @ < % c G D F k p 3 & 3 * % = % - @ % % = X   @   X     X         X @ X X       .   @ $ @ + + < = $ # @ . . % - o # - * @ @ @ . @ . . @ = 3 * % * = % @ @ $ * * @ . . . - # 5 z M B U B N t < + o X   X                       o   @ $ $ O $ o o X X X X X o o O O o o o $ + # O # # @ $ O @ $ = # % 3 & 2 < < % & = = % % % * 3 * 3 3 3 3 * 9 - d & = 0 & 3 & * = d w a 3 3 3 3 & & & w d r p w * r p p w w w * & * * = * * p r 3 & w d * p & 3 e 5 5 = 9 h d d = - = * w & = = & d < * * % & & & % - + > * w y a c V a n p 3 V D F R E E ",
"j C P a C j J f f P j J j f r J Z j f J C d e r 0 * f J C j k d f G j G f f C ( C j Z J ( ( s s j Z C j G f a V C f J s G ^ ! G ! J ( o.Z C f V Z o.V J C V J f G C r a f s G C V r C C V J ` G C V J f ( J C G P / $.j Z J G G P G Z / G Z ! / P P J | _ P ^ P P C r C Z C V V a ^ ! Z ! ( G ( C V r C Z ^ J a r C G G r - e V J ! V a * . . . . . e D a G V Y j G V V ! P G V C j d - 3 r r a r r e = . . . . . . .   & $     X X X X X o X o @ + + ; , 6 9 7 & o o $ O o O # ; X # o O o o O O o ; O O # ; O + + O O O o o o X X O + + X X   o X X       . . o X X @     o X     @     X     X X o O 6 N Q 7.Q N 9 8 : $ $ $ o X o X X X o o X X X X X X X   X X X X X X X   o X o X X X X X X X X + X + X     X o X + , n c u 5 5 : O $ O X X X + X   X   o X + X X % Y ] 9.r.y.{ S m z D T 9.i.u.U z 4 5 5 1 3 3 # & # # o X o + + o @ X   @ + @ X + X X X X @ + @ X X X + X X X @ % X + 2 + X > + X @ + X X + X % o + X X X X X X X X X + o o + o o O + o o X X X o + X X o X o X o o o o o o o o + o X X o X # # 3 H d - @ @ @ @ > > > > + + @ > @ + + X     . + @ - & @ < & w s * 0 r q e % < e y e = y y * < < 0 @ < c F m * . . * 3 & & * % # < * @ + @ @ X . .     X   X .   . o # @   X X X   $ @ X @ % % o % # = % # & = o @ & = - = & @ @ + = @ < < * & < & = @ . . = = . . . $ $ $ & 5 u z c n p 2 q < % O X . X o .           @ X X @ o $ @ o @ o @ o .   X X o $ $ O $ O o O # O # # O # # $ # $ % % @ < 3 % * < < % = < % < < & = & $ < % % 0 * p 3 0 * & 3 = * 3 3 & 3 p e 3 & & = * w $ w w w w & & 3 3 w & 3 w * 3 & d 3 5 3 w 3 3 * 0 = * 3 * $ w w 3 - 5 w = * 3 0 = = & @ - - * e p w w e a a V V D Y C V A ! R / E R R F Y ~ Y L A D V ",
"J I I r C C Z s s C ( P k C ( J r f Z j f e f e r r C j e r P e C C k C r j f Z j f C V j C V C f Z f s f r s C Z e r s Z J Z Z V f G Z C X.( J J J r f s 0 j G X.( j j C C Z J J C J C J ( / J J J J J ! ! C J f P G ^ / P H G P L P j G L P P / G a V f _ J a H G ! f r j V f Z J / #...Z ! j G G r a J G V C j ( V r * = a V f Z f s d - . - * < e V V R j o.j r e j V C V a r * . . = e a s e y q * . . . .     .   , #   X X   o X X X X O @ , 1 8 z M U U N 9 & O X X X o O o O o O # O O o O O O O O ; ; 1 O o O o o X o o O O O X X   X X X X   . X X X @ X   .       .     X .       X X . O : 8 m B N N b 5 9 : $ o $ X X X X o o X X X X X X X X X X @ + . X o X X X X o + X o X o X o + X @ X + X X X o X o # 2 M c u 5 : : O O o X o X X X o   X o X X @ X y E W Y E U n z i u u z D E U m x 4 5 : , # , # & O o o X X o @ > o o X + % > @ % X X X @ X % @ @ X @ X X X @ % > X + + + + > @ X o X X X % X X X X X   X X X X X X X + o O + o o + + o o X X o + o X X X o o X o o X o X X o + O O X + O   # = 0 G s * + + + = % + * > + = X % > % @ @ X o - & # w w @ w 0 w y < e w y p * * e % q % e e e = < y * % 0 w - * = - . * e < = & 3 < + p p X               X X   X X X @ @   X $ X @ $ @     > - $ 0 , $ % & 3 = @ @ < @ * * 3 = & - * X * < % $ < 0 < - & 3 & & . . . . & & & 4 4 t u u 5 1 q 3 % $ # o @ % # .             $ & $ @ $ o & = $ o $ X X X o o $ $ O O # O $ # $ $ & 2 & $ # % % $ - # 5 & $ = & $ @ $ - * * % = % = % = % * 9 p w w * & & * * & 3 3 & w w * = 0 & 3 0 - w & 3 3 * 3 & - & & & * 5 & & & $ - - & & = 3 w e p e w w w a h m D F n h m h p h h V V H D H L ~ F A V V D G D V y p a x A D Z C c a V D G Y R ) [ ",
"Z J Z C C J j Z Z Z C J s r C _ C J r Z ( f f f f d f f r K V r r e e C Z a a C C C C J Z f f J f C f Z o.C r f s V a V G C V r a j G C V C f s f a f C f r f j } J G Z r f f J | Z r G X.Z Z Z Z P G / J Z s f ( _ Z / G P j J ( G r r a G Z j r G j e x r V C C J V f a f s f f f J ! J j a r r f r G J V Z r j a s r d j ! Z f D V V r r d d e e V V ! D G C G D a f V V e a = . . . . = e r s r 0 = . . X X .       % # X X X X @ @ o X X $ + 2 z M T 8.7.t.7.N 5 O X X o X O O o o O O X o o O o o O # ; + O O o O o o o o o O o X X X X X o X X - X . X X @ X   X             X         o o o : 9 b N N z b 9 5 : $ O o o X X X X o o X + X X X X X o o o % % # @ @   o   + X X X X X X X X X X + o o X o X   X $ # 2 c n i 5 : $ & o O o O + X   , X X X @ X X X 6 z y z z u u 6 7 5 8 7 u m z p 9 4 5 : , : 3 X o @ $ # X + + + + < @ % X X # o o X . > 0 % % % + = > % X @ @ < = @ + + % X > + X X X X X @ X X X X X X X   X X X X o + X ; > + X O o o o o X X o X X X o o O X o + X X o o o + + + o + $ @ $ $ w L r & = % % * < 2 > * , = o X @ % + X @ & d & @ < < % p w < s 3 q 0 r e 0 < = * 0 2 < q y < 2 d * % = & - = $ - . . = - * & 3 0 @ y G e X .     X @ - # @   X   . X @ . o $ . $ o o @ X # - $ % 0 % $ # & . @ @ - & = < * = # $ , - < * % & * < d $ & 5 3 w - - $ & $ 3 4 q , 3 t i w q q 2 % % < , % > % # o X   X O o $ & & $ @ < 6 & $ $ @ o X o o o o o O O # & # O # @ & 5 & # # % # - $ $ = $ = = $ @ - - $ = % % * % % = - % # * 3 * 5 = * & $ $ = - & = & & $ = 5 $ = - & & & $ & = $ w w 3 = & & * < r 5 & 5 w p h m n V F F F ~ R L F R =.=.F F H D m m H H x a V a y a A F V D V S n D Z C Y D Z G G Y ~ ^ ! ~ [ Y R E E R ",
"C k C Z ' C C J k C C C r r r V f j f r f * d f f s f e f C e e e r r f J j J G o.G J G j V ( Z G Z C G H C r V G ( C X.V J j C X.J r C J f o.V V J ( V O.f G C J o.f C V j o.V f f C C Z C a C f r ! J ( J r ..Z V C J G Z ^ J a C G Z r r r d r C r a a f ( C J H V a C H f C V r Z C V p j a G ! C V G Z V f G r s s r f j j C G V r r f s f V a x f F Z H V Z V f G e d * = . . . . . & r e q f q % . @ . .         # #   @ X   + # X   o O 2 v T 7.q.i.a.t.7.U u O O O o X X X o X o o X X O o o O : + O : + O O O o o o o X X X X X     X X X X X X X @ X X X . X   X       X X .     X O O : 9 i b u 6 6 5 9 5 O O O X . X + X   + o X X X X X X X o o X X * q - X @ X o + X X X X X X X o X X + o         X X < # 3 V A i 7 5 # O o o $ X % X X % X X X X X o + 2 2 > q 4 3 6 , : 1 2 2 t p t 7 & & # # 1 % % o $ o $ $ X @ X @ % % @ $ + + % - X % % d 0 % 2 0 2 0 q d = * % > @ * > % * @ + @ X X @ X % X % X X X X X X X + X % X X o O # > o X + o + + o X X O X o o + + O O o + o X O o o O ; ; + 2 = $ = & 0 G s & < 2 < > * q < * = @ @ @ @ % - = * < 2 & * e d q a s % w % q q p e y 0 q i a 0 z < 0 e a e q @ - & - - & 3 . . @ < & < & % % < < p X . X   X X X = X .   X @ @ X o X . o @ o X @ @ @ @ % % < & @ $ = @ @ @ $ & & & % & * - $ % q 3 w = % % & % & - e w $ & 3 3 3 & < 2 % 3 q 3 5 % % 3 , % % % % % # < $ @ X   # O # O # # % 2 , & $ $ @ o o X O o o o X $ # $ $ $ # @ # 5 < & # = $ # $ $ @ $ = @ @ @ % $ - $ $ = & % 0 & + - = - - - & $ & & - - $ $ - o $ - & $ & & * 5 5 : 5 w & 5 h n m H m h x n a D F N m h H R ~ ] ) R Y D L D D F R =.Q L =.=.F F =.r.=.~ D H V p p h H H D H V f V D a j j S V Y { } { ]  .0...~ ) D L ",
"J P P ( ( Z j f r j j ( P ( C Z V j s C P Z Z C J C f j f f C G f Z C Z J f r f f C ! C s f r f a f Z j f f e s f / Z o.Z J G P Z G V P / C J J f o.C V Z J o.f r G G J o.Z C f f G Z C G C V ` V f f C J ! #.V r f P P r j Z V e j G G f e j j a Z a r C C C C V C f J C r ! Z a r r a f V f C G G r j / L P V r a a r Z G V Z / Z j a G j d V j a e d e e s a C C G V * = - . . . . . X 0 r e a r e % X . X .   X . . > % X o O   X o O X O : b B q.q.a.a.i.W B x 9 5 $ $ $ O X o X X O X X o o o o o O # O O O O o O o O o o X X X X X X   X X X   . @ X @ . X .   .   X X .     @   X X X ; 5 8 b 8 8 1 1 : 1 : O O O o X X X X X   X X X X X X X X X @ + + = * 0 @ X X . X o   + + X   X X X O X o X . @   % # @ & % % A n z y 6 2 # X O O o # X X + + + X X X - % % + ; > > 4 , > > 2 , 1 5 , & 2 2 , # # , o % o % # % X . > % + # $ > < % = * @ = * < < q q q s e 2 e 2 2 0 % > = > q % < > @ X X + % X o > o X   X X   X X % X > X   @ + < > % + % o o O O o X o X o o + @ + + X o + o O O $ $ 5 & = 3 $ = & 3 d L r * * 2 q % < % * % $ - = & $ * - 3 0 4 0 6 0 3 q 5 t * - % * < p s 0 0 e e 0 q y O.* x e y * 0 & 0 r w 3 $ 3 * @ - p o - # & e Y V e = X   . X X X @   X . X = X X @ O o $ % $ @ = $ - - : = : & - d & $ & & & = = 3 = & = @ & q p p p w 5 0 $ w 5 & 5 w 5 < 5 * w w 3 & & & & < & $ & & % & & = $ # # * % @ @ o $ . + # % # $ $ $ O $ o o o o o o o @ . o o o $ @ $ @ $ @ & $ $ @ @ $ - o @ o @ . - % $ - # % - # $ # $ & 2 % # % % o * & < w 3 w p 3 s p p q x n h z m m m h m H N H N N F D D N D D E E E D n V F ] R R L D F E F N N m F N r.~ =.=.=.Q =.=.R ~ =.r.R G V H D H H D L n D H n h V F G V D Y X...~ ~ =.{ =.Y D n ",
"C Z P Z G C C J C f j J k J V G C C r C C J / J J f J J C G J f r Z C Z J C Z C s C C r J r d s r J ` P ( o.s d C C e f o.! J f V K j ( C Z s f r j s f / X...f f C ( o.G j V o.P o.C C V j / ( ( Z f f C P | Z f G f e s J P a P _ | ^ P P P Z C Z r G V r a / / ! f V G H C G C s e f a r V ( #.G V Z C P G j a C e a j G j C j J a C j a a V c r .   . - 0 f j a a e - . . . . . . . % e a a e s d < @ X . X X . X   > % X X X   X O $ @ ; 5 b B 8.q.a.t.T c 9 9 : $ O O : # ; ; ; O O X O X o o + O o o + # o o o O O O o o X o X X X   X X X X   X X   . X X @     X .   X     #   X o O > u u 8 : : : 1 ; # O O O o o X X X X X X X X X X X X . X X @ X @ @ e 0 & .   X X X X % X X X X + X X X X o . = % @ $ + - $ , A A i p 6 < : $ $ X X X # X X + X X X X + > @ + ; > + > , > + z ; > & 2 # 3 5 3 2 2 # # + X @ o - $ $ # % % # 0 % % @ % 2 @ > * < d q % q q q 2 2 e q d = y < % % = < % @ X X + * @   + X X X   o X @ X + @ @ X X o + q % < % $ o O o O o o + + + o + + + X X + + o X O & & 3 3 3 w = & 4 3 w P a * e w e < d < % = $ % $ * 0 % * 3 s 0 w a q w 3 = y q % * < & w w x e 2 y d y a y q e q e 0 0 0 * w e s = * 4 3 . - - + q * y C c > @ @ . . X @ .     X X @ @ X # % @   $ % = $ $ : $ . - $ - 5 $ & & & = = 7 $ $ * 3 & $ & 3 < < = & 0 * e * 5 & $ w 3 $ - & * < * 5 $ - & $ & - & 3 % % o $ $ $ @ X + + @ $ # + o # @ o @ @ O @ O O o $ O @ $ o $ $ o o o X X o o X = $ $ o @ $ $ @ o . @ @ - o & % % % % < 3 q p r w w a p w 2 y e p c a n V F R F Y F H V A F L F H F R Q =.L L L ~ =.=.Q =.=.{ { =.] ] { ] [ { E A A F R ~ { L L F D =.=.=.~ R B =.R N F E ~ F H [ r.r.R L R F L ~ ) ~ ) ) Q V F G D D G D A F H Y D R r.=.r.",
"G P J f f j C j f k ( f f Z r f G Z K J C C C r C f j C r s r J P Z s r C Z C C f ( Z f J G f V J ( X.P ` _ f a f f f C j f e r a s f Z r f a Z G C C C / J C C f r C r j C V f a f Z Z f J C f G G r r a Z J ` ` J C d a C f j ^ _ P V j a j G a r C _ a f f C j r a Z J r G _ C J a r s a V ^ P a V Z r V j e C Z C V h f j Z V s a C C s f C f d . . . . = e d d e * - . . . . . . - < s f a e y d = @ . . . . X .   < 2 X X X   X o X o O : 8 v T 8.Q T m u 5 5 $ $ o # 9 6 t 6 1 + O X X O o o O O o o + X o X X o + + o O X X X X     X X X   . X X X X X X @ . X   . X X X X X X X o : u z t : ; # ; ; O $ O o ; # O o X X X X X X X o + X X X X X X o X & s e d * . X X X o o o X   X @ X X X X @ @ < w 2 0 - % % % A S z y 4 2 # o X X o o # X   o X   o + + % + > + ; + + > X ; + 1 > # 4 # 4 , t , 3 # $ $ X % + > % * w < % = * & % @ * % = < % d < * d y s d * d q e 2 > y * % = + + , @ X X = + X   X X X X   o X X X + + > o X o + 2 > 2 + % % @ o + O X @ % + + + % % @ + o + X X + & 3 * 5 3 w * 3 q s s / j d a e e 3 y , * @ & = @ * w < * < 4 3 d w 3 s * * 0 e q p w * * y c d w f q p q r a % < a d p r 3 w e w * 3 3 * . # % & p * - w q % - * @ o @ o X o @ X X @ X @ % , # $ o o @ @ @ & $ - & : - - $ & & $ & & * 3 = * 3 - & * * % * $ - < & & & w & 3 5 3 = = $ $ = - & $ $ - & < $ - 3 5 $ $ $ $ $ = X + @ @ @ @ O O # # @ $ # X O o o o . $ X X X o X . . X     o o $ w 4 & 3 p w 4 w a p 4 3 q e p p a a i V c V V c x V c A n m V n p a V c n R ~ F R [ ] ] { ~ Q H D H H N F F N F F F U =.Q Q ] { [ ~ { { E ] ~ { ~ F D R E ] ~ L R =.Q R ~ E =.Q H H N h h N n H L ] ..[ r.=.~ / ) [ { =.r.=.r.X.{ ^ ~ ~ G D N G E [ ~ ~ R Y ",
"k j I Z r r G K C J J e C f e f Z a f j f f r r C a C j d e V r j J V C r r r V V C J C f f C J C G a C J V f C V f J V C J Z j r f C V C r o.V f o.V j C G s f a f 0 e C C j C ..` X.J o.V J Z C Z f r j J j C J a e C ! Z a r Z P j r a j C j j C G a r G a j a C V C f e j Z C V G V a Z C Z f e f V P G a a V P r Z h e C J V r G j C V C V r d . . . . - d * * = - - - . @ . - @ = d a a q r * . . X . X . X . X . < 2   X o   @ o O $ : # : 8 z v N v u 6 * & $ o O # 3 6 6 6 + X X X X + ; o o O o o X X X X X o O + o o X X X X X     X X X X X . X X   X .   X X . X X X X o o X X , t , # # O O # O O O O o ; O o X X X   X X X X X X X X @ X @ X X X w h e w % X   X   X X + X   X   X     + < & w y r 0 & % d < D S c z 4 , 5 & o o o o O o X + X X X X > X + + o ; ; O ; o 1 + > + : , # , $ 2 , < % # . % % + % % 0 p 3 & % & < % > + > = % = 2 q = a * < * 2 e 2 % = d q < % + = X * * X o < + @ + @   X o o @ % @ @ + + * + X - + < < > @ - @ @ o + o o @ = + + % % % + + % % @ $ % * 0 3 * 3 a 3 * 3 p a _ j w p 3 0 w e * % > & % - & < 3 < * = - 3 p < w & 3 w p 0 p p q 0 0 y 2 q d p a 0 0 d * % a 0 r p p s 0 = 3 a w * $ = d & < < * , % % % # - X X . . @ @ X = % @ % , 2 & & $ % % * @ 3 $ $ & * 5 - - 5 3 = & & $ * & $ 3 $ = = # $ = $ % & & - & w & - & = & & = $ $ $ $ - = $ = $ $ @ # = = $ . - : % @ X @ o o o # @ % # < 4 : & % & & A A , 5 & 2 & & 3 5 , 3 5 3 5 w x : 5 5 p p i i i m i i a m j n n n A V a V V V c a a c x a c x V c n a p h a m A D F H F A D H N h N h h N D L R R E Q =.=.{ r.{ E ] r.M.M.g.u.r.r.[ { =.R D R ~ R E E R D D D H N n N k m m m n N n H H ~ ~ ~ F N F R =.r.M.r.M.M.M.r. .0.~ =.N R R N n H ",
"r C Z f s C Z f C C Z d = s f k f r s C ( ( Z f Z s d r Z f f d s a f C C f V C r f f C f s C V r J f Z a V ( J _ ` C V V Z J j s j f r f C C f J G f r J f a Z o.r e r Z V C f V f f f f V Z ( $.+.( Z _ Z a j C Z Z a Z P ! V / G Z j Z V V Z P G P V e V r j C a V Z j j Z a Z Z G f C ! e f Z G f V Z G L Z Z V Z L H C e a r r V C Z V Z x 0 * . . . . . d d = = = < % + = = 0 < d 0 e a r 0 -     . X . X   .   o , q X o X X O o o O + O O : 1 b z u y 3 # $ o o o o # 5 # : + O o X o + + o o o X X X X o o X O O X X X + o X X + X o + @ X X X X X . . X     X .   X X X X + O o : 1 1 o + + o + ; + o o X X o X X X X o X X X X X X X X X @ X     X d p a 3 0 $     X X X o @ + @ @   @ o < 2 p < w s p < = * 0 < F A c p y 2 q 2 @ o   X @   X @ o % X + > @ + + + @ + ; + > # + ; + # # O # X + , # O > o % + + o = 2 < < - < d @ 2 < 2 * + = < d e d y d = < > = e e = q q * @ % = = 2 2 % % < @ @ + > @ X > + X > + > % + 2 @ X > @ % , # & % @ @ @ X @ + # * = > = , & % % % $ @ % & * q 3 w * p 0 * 3 a x P h * e 0 s a * & * 2 0 0 % % < w q < & 3 3 3 0 w * * p a = < p r 3 q q q y > q q q < % = * % w * s s r 3 * 3 p w w * & q 0 0 q * % @ % % X % $ $ @   @ X @ & X @ X % < # # & & $ $ $ & = & < $ 5 * 5 & 5 & - & & & < $ & - 3 * & $ & = * % = $ $ & $ & $ $ - $ $ @ . = = $ $ - . - $ @ $ $ @ - - & & + % , 2 , 2 4 4 6 w 4 t t 3 4 4 6 w p t q t 4 4 4 4 6 y 4 4 4 t 4 7 7 < 3 5 w 5 w w w t 7 w w p t p p y r p y p t p p p i p t p a y a c a p i x p w a m a x x a h N h h m N H H R =.=.=.=.=.=.t.r.r.r.r...r.r.u.M.u.=.r.u.=.R L R F D H G D D H m w p x h m h h x p a h m x n D H D F R E D Y L E { =.u.r.r.] { { [ R E F ~ H F ",
"Z j r f f s C k r f k f f f Z f s r r j Z j j C G r d f C C r f C r C Z J C C r s f j r j J j f V f f / ( J ! P ^ ` J a j Z Z f f V r Z Z Z V V ! _ C r j s C G G f C J o.^ f f f f f V J J J f f Z C J I P r j f C Z V r C a j Z a j P _ | J ! Z V ! J C C a V V V s f j a j V H f r C J Z V j J Z V C P V Z ( ! j H C P G C h r j H C C Z a f r = . . . . . - * = * d r d d q d 0 0 0 a a a s d . . . @ @ @ .   .     3 y X X X   X o O o O X O O # > 5 4 4 2 $ o X o X o # # + ; ; O X o O + o O O o o + o o + O O X o X X X + @ @ + 4 < % @ X o X X X X @ X X   X   X X X X X O o + # ; # 1 O o X O X O o o + X X X X X O O X X X X + X X X X X X X X @ & x q * - @ @ X X X o o @ > 2 % % X $ 0 a q a s a a & * & = w 3 M D A i 3 < > > o X . X # o o o o o + + o o + + @ o ; ; > , ; # X + O # % # + % , % # % = % - % # < * % & * q < * 0 d q % * = % % 0 q 0 s e f > > s q % 0 < y * * @ - + % % y + @ + % * + @ + * @ @ + * * % d % . @ % + % * < % @ = $ - X * * % % % & % & < & & & # & % < * 3 d - 3 w 3 w p h G r 0 3 * d 3 * & 0 0 q < & * < r 2 0 & 4 * * 3 3 * & 3 3 3 * e w < q * % e * 2 e s 0 % * d = * w s p h = h e w s 3 & = < q y t * q % + - $ % = & $ o o . o = @   X , & $ $ $ $ @ $ & < $ $ $ - 5 & & $ - $ : $ = & $ & - $ 5 5 & * & & % $ @ - $ - $ - - $ $ $ d & $ $ . - o $ $ $ $ $ = % * w 5 5 & t q q 6 2 6 6 3 6 6 4 5 4 7 t t t 4 t i u y p t p u p y x H n u 7 w 7 p 7 5 5 5 4 5 5 4 3 5 4 4 q q y p y w t p p p a i z a x m c x x x h m i x m x x m m n n m N h N N H H D N R F =.t.=.=.Q B ~ { ] E W ~ [ { { ~ F R ~ E F n N D H m n V n D H x h m i p m m m x h x m h h h h x n m Y ~ F N F ~ Q =...r.r.=.=.r.M.=.u.f.u.=.",
"j s f j f f Z f s j f C Z j f s f s e e C r f f r C f Z f f f f f s d C J f f s d f Z j J P Z ! J C r Z f f s s Z V j a Z J G V C C C C f f V V j C Z V f C C C Z e G C C o.C V G f Z j J C Z s Z J G ! ( G j C Z r r r C P C r e j P J G P f V f V C H r a j j r s a G V Z V Z V G G ! J C G Z V f r P G j V j G Z j j V a j G G C r C f a s r d = . . . . . . - = d e e q e p 0 e e < p a s * = .   . * + @ X X X   o p f -   X o o # o o o X o O ; ; & : & $ $ o o X X X # $ 2 ; O X X X O + + + + + X X o + + + X X X X X X X X > > y e * o X X     X o X X o . X X X   @   o O # # # # O ; X X X O X X O X X X X o X   + O X X + + o X X X X X .   @ & r p = @ = = . @ X   X + + > < y * q e w p r c r w 3 - 0 3 p w y V Y A y q < # 5 . . # @ @ # # X X o > + + + + + X X > + , , X % + + $ % < + + , + % $ = = = % % & 0 0 < < * 2 0 e , * 0 > d * % d q q e q q q 0 * < q e 2 * a q < % % * % % e < * + % 2 % + + > + % + > % % > @ @ < % + o < < $ - & % % - , = @ = % * < * % & * * * % * 3 * 3 * 3 w e e h a e a r s d * 3 0 3 * * * < = < & e p 0 < * 4 = = & & * * & & < * * < < 2 * % d * d q q 0 % % * % d 3 d 3 3 3 p * 3 3 0 3 - * w p y 0 2 q q # % q p 4 5 & . o o o X O - 2 & 5 : & $ $ : & : = : $ - = & & = & : & : $ = & * * $ $ 3 3 $ - $ $ * 0 5 5 3 3 5 5 * w d * 3 0 w p w p w p w w w a w w s w 9 9 y y t 6 q 6 2 4 6 6 3 5 2 2 , 5 5 2 , 5 < 3 2 3 7 t 6 < 2 6 m a w 9 3 4 3 w w p p p t p p p i m c x c c c m n V A A A A c n V V n A V c n n n n n A n A D n A D H H F N D D N N B B U =.=.t.W ~ W [ E E E E ~ ] R D N h m n G F D H N m H N n D m m h x x x i p m h i u h p p i i p h p h h D =.~ D R ~ W L Y E ~ ) =.=.=.r.M.M.",
"s d j f Z j s r f f s s s f d s j C Z C V J Z r C Z j j r Z P J f d f f Z r f C C d r J V J C j f C s C s d d r r j G C f j C C C G e 0 r s a C j r C Z r Z G X.V r e J J Z G ( } J J J  .f f f j J Z $.( P ( P j f h Z ! Z J Z V C G C C P J V C J G s e C Z V V j J C j C V C Z C f V H ! f a C V G V a V Z a ( G V a j r V P a a f C j a V C r d - . . . . . . = d e a f f f s e e > q e e < @ . . @ > * = % @ . X % a V - X X o X O O O O X X o # # # # # $ $ $ O $ & O : O ; ; O X X O o + + ; 1 + + o + + + X X O + X X X > > > t w 2 < # X X X X X X o   X X X   X   X X X # > # ; O o o o X X X X X + O X X O + X X X + X X + X > o X   X X X - & w p 2 - = @ @   +   X % > @ d s 0 0 s a a 0 p a p * q = w 0 p 2 y c D x x t 3 = & % $ , # $ O + # # @ > 2 o + + + @ % >   > % X % , < o # 2 # - $ % > & % & < d * , e e 0 y w w < e > 0 < > e q q q 0 y f e < < e d % 2 * d d y e d < d e < % q s 2 % * 0 q % * % = + * @ @ = % % > 0 % % , < & % % & & & , = & * * = = 0 < & % < < * & * % * * 3 s 3 w d h 0 e 0 p q * & d 3 0 * & & & & < = q w < = & & & = 3 q * 3 & * % * * & * * * % * % > < * * d * % * * 3 - 3 p r p d p w a e = y w < d w r p 3 @ % x p w 7 w o o X o @ @ % @ $ $ $ $ # = $ $ & # 5 < * 9 p 9 p m N D =.r.=.{ E u.'.u.=.=.r.r.{ E ] E =.H R E D D E U F N n n m m x i p p p s 9 w w 7 9 p p z i i i y y y y u p i p t i i i i u u p i z i i z x x m m m m n n m m M V M n N n N n N A M n A D D D U D D D S D D F D D F S S S D F D V D G D D D D D H D D D A N H F B =.=.=.=.=.=.=.Q =.u.=.r.r.E U F E Y R R n H H V n m N N h x a h n n h H m m x h m h n h h n n m h x h x h h i a p 9 p N F ~ E H m m H n N D N D H F D L ",
"s k f j Z C f j Z f d d d k f s f V C r V f f r J f V Z j C Z C s f j j K r f G C C s s s f ( J C r f J r d f f r Z C r a r s d a k V r P Z G j e s r s s j G Z C r r C f V C V J Z P V r j j C k f r Z C C C J s C J P ( ! C a a C j f C Z ^ Z V C G a C H a j a a J G ! P C G Z e r Z Z V Z f Z L r V L j a j C h V Z j j j h a H G j a j V a f e d @ . . . - * y w w a a r r a a 3 - r p 3 .   . . . % d 0 * % + q y O.Z * X X @ X o X o # X X $ $ O o o o o $ $ % o $ 5 # & + o o   +     X & # $   + @ + + @ X o o o   X o , 2 2 y x q < , X X X X o X X X X X X X X X o o $ $ & O O O o o o X X X X X X X X X + X X o o + @ X   X # o   o o X   > 0 y e d & - - . . X @   # & & w h p w 0 H h w 3 s 5 * 0 3 e w x * y x D N p w 5 & & 3 5 4 & $ $ $ $ $ : & & $ $ & : - & $ - & $ & * * $ < = & * = = % $ & = & * * 4 0 w s 0 w q e w w * s 2 2 < w a 0 * a y * = 0 r q d 2 q e 0 y e q y e q 0 > * 0 > * < * < e q < % 2 0 < % & & % 0 y 2 < < < < * % < < < & & < e e 0 d q 2 % * d > = * * % 0 % 0 w a s 3 V 0 d < * * < * * * w * 3 & < * < # * * * & & & < & & & & % & & = = 5 3 w 3 w 3 3 3 < % @ 0 q < & $ = @ * p F n h s p 3 a p $ * 3 * & & & : $ . . & m m m H h 9 m x h N H n M n x x i p c A Q Q =.=.t.u.`.'.'.rX+XwXpXrXrX_.s.+X_._.`.`._.wXs.7.s.s.'.u.u.s.M.u.p./.p.p.u.u.u.u.u.=.t.=.=.Q =.U Q F Q N N B =.N H N N h h 9 9 h 9 h N 9 9 9 p p i i u i i i i x i x x x x m x x m m x m h m m N A A D M n V D D Y Y D A n A A G D D D F A A A A S H D D D D F D D H A D A D H n F R ~ =.] =.=.Y F =.r.u.=.R F E F D H N N H n D A n n H m A A m h m V M m m n V H M V h m m n n n n H n n n n h x x D L D z x D R ~ =.m 9 x z m n F H N H N ",
"C J j Z J J P V Z V r f d f Z C f C J C f V f f f r C j r r Z f f j C s r j V J C f f f j f C j C C j Z f V C G V h a a j f V r V Z r r j f G f V V j j j Z P L P Z a e r f f Z f Z _ K J j G P Z Z f Z Z J J j k J C Z Z V a j j C k Z G Z G a f P Z r H _ J V f s P } _ Z V j r e a C V G Z G G j G P Z h H ( j r h a j V G L C f j r j j r a j e d d = < d < 0 r a a a a V f a * - @ p 3 - .   . . = 0 q y 0 0 0 e 0 z C d = % @ = o o o X o O , o $ X X o o * $ 5 $ o & 3 5 $   + X o   X X O # @ X 2 # < + % X o X @ + X % 2 4 2 6 2 < < % X @   % o @ X X X X + X @   @ @ $ # # O o o o X O o X X X X X + X O + X + o X @ O   o @ + -   * - o X < < p y & = - X .   o @ o $ - & e a a w e H p e w a h 0 9 a s q a & 3 m m h p w w 3 5 w w 4 & 5 $ # & $ - = $ o - = & & & 5 * & $ 9 & & = $ % * 3 3 4 3 @ @ & 0 3 3 3 3 3 4 3 0 w * 2 2 q 2 e a s p a * 0 e w 0 * e q e < d 2 s q e d q e e * q 0 2 * * 0 p w * p r * % & 0 < 0 0 < = % * 2 0 2 < < 0 < * 3 3 % & > d * < * * * < % % * > * , & 0 q q e x y 0 s * % e q w 0 & & * & = * w % 0 j x * * 2 e p 3 y w r < 0 e w 4 3 * < & a a D a p p i S f q y a < q & 3 y a h 5 5 $ 7 e 0 w * # * $ 5 h L R a 9 & $ * A Y Y H z x N m m N B ] E W { 9.9.0.M.u.i.u.t.u.u.p.p.i.u.p.u.u.u.u.r.u.t.t.=.=.Q Q =.=.Q Q =.Q Q Q Q Q F F Q B =.=.B Q B U B B U U B H Q F Q =.F =.=.=.=.H N H H N h N N k N h k h N n A n A n n n x x i x c m x m x z x x m m n N N n V M D Y S A D Y U D F Y D H M n n D n A D D A A n A A A n A F F D n A F D F A N H H D D Q ] E U ~ D N D B N n n N H N N m N h h V h n n h h m m H V m n m H x n H n D D D H A H F G n H n H H H A m m m F =.=.E D L N =.u.=.H m h h m m h h n ",
"j C f C C r f C j f j G C f C f f P Z f f f C G f s j f r f J j r e r f Z ! Z J C Z P j Z Z f f f V f f r f f V e j f h j Z r s Z G G C C j a G _ C j L Z P H r f f C V r f f K f f r C f f j C C C J C C C Z ( P C r / ` ( P C k G G G Z Z P f C H f e V Z V f V f Z _ Z a Z V f d a G V Z Z P G h V Z r V Z L h r a h h V j H j s r a C Z V e y r 0 p 0 e a x a 0 f V j C O.0 * X . - 3 $ . . X - = % * * e y r * d 2 V C r s * & 2 $ & O o # : % X O X X   # 5 % 3 # $ & 5 4 , + % @ o O # o @ $ $ & 2 & 3 < 2 X @ X @ % X 2 q 2 4 , % % + % @ % o + + o @   X X X % + > > % o $ $ $ o o $ O # # O X X X o O o + o X # X X + # @ . $ @ % $ @ > @ # 0 q p 0 0 $ = X X @ o $ @ = % w p p p e p m p d 3 p p s h i * * q 3 p A a i 9 5 5 0 5 & 5 5 p & & & # & $ & & $ 3 $ 3 3 w w 5 * * * 0 & 3 0 e y 3 5 p x 3 0 q 0 < q 3 q 3 3 3 3 3 e q 0 0 < y e p a r * d q e 0 e e q e q < d * % * < < & * q q * * % 2 x a 0 < a q y = % % = $ @ + < < # # % i q @ + 2 2 3 3 0 < 2 < y w q 8 > > > q e y e e e y y 0 w a 0 0 w p 0 S V n a a w a p e i m a i c V y w y c h p a a x a p x h a x x p p H x c j h V a O.G c a x a i p a i a 9 p p $ 3 i i y 3 x n p w 9 p D F w $ o o , p t h N N =.E R Q { 9.9.9.9.0.0.q.w.=.Q =.=.=.Q W W W W Q E Q Q E Q Q E Y U Y U U U Q H H Q F D D U U B H N N D N D N N N H N H N k N H N k N N N N B Q =.m N h N N h N N 9 N k h h n n n n A S A n m m n n A A A m m m n n h m m m m n A A A n n A V A A A n M F D N H n A n V A A n x m x m x h m D D D F F F F D F D D V N F L =.=.=.Q L =.Q D H H N H N m h h h m m H N N m n n n H n A H H n h A V M V D A A H H D n A A H F D A n n h m x m D D F D H H H U H m h h 9 h h h h ",
"C j C e r f f f j f C P J C d C V J f j r f C Z f j a C r r f J Z s f Z J Z j C f j C a Z V f f a f r C f V Z r j G j j C s a f P G Z G G j j j V Z C C P j s C C r V C r r V C s 0 s j J P C j P k C k r j f P Z _ P Z G f e e a C C a j C e C C J C V f f V C a a C ! V Z J a r e a C f C V j V j s d h h h G V Z Z j a r V r C f s r V f V r i O.a f r V a s e r 0 p a r e - . . o - = . - - * 0 < a x a 0 w q 2 y e H C r e 0 < 3 = & & # 5 $ $ O # @ o o % 3 # # = & * 4 d < @ > + > # # % = % < 0 2 q q & % o $ o w 2 + 4 2 2 3 , + % < % , < + > o @ # @ . % > , % 2 q > o $ . $ . # & $ , 1 # o @ o $ # + X + + = % X > 3 $ @ o @ % = @ % % q w w w 3 w 0 % @ # % - $ = * 3 0 0 p e 0 p 0 d 3 3 a s p h s 0 d 3 < p m p p p h h 9 = & * 3 < & : & & < & 3 5 = 3 3 5 9 h p e s p 5 s e 9 < * * 3 n a d * < % 3 3 3 a e 4 p e 3 w * < 2 * 0 < e x p & & q w s * w w q < * q s z r e e y p y a c y y y e r e y r V 0 3 H a c a V c n V c V n A ] E V c V S S A n n n V S C n O.V S C w.o.D D S S S D D D G D H D D G Y x F A S S D G F D F F G D F G V C Y F D F Y ! Y D G D D H F F D D F F D A F A j c S D S C S m x t 9 w w & 5 h n H Y R R D x w & 5 5 p i 9 p i n D D U U D U Y U E ] ] Q E E W E W W Q Q U Q U U R Y F U R F F U F U D D F U U D D D F N H N H N H D H H H H k N H H H k H N h N h N h h N N z h H h m H H H N h h 9 N h h k N 9 h N H n H A D D A A S A A m A A D D N m N m N m n n V M N n n n n n D M n m m m V N n D D F n M m x i a n x a m m n n n A M N n n A H N n H m n n H Q =.u.u.=.=.r.~ D F F D N H n N A H m h H n V V n n A V n n n x H A H D D V n n n m n n n n n H H H H m m h p h N k m m N N m z x x h x x N N n ",
"I J k d r f j j r r C J Z s f J j Z f r r f Z J f f j f f j f C r f C j Z k s s e j C Z J r f d d d s f f r j r a r r k h h C Z Z V Z C Z C e e V Z _ / P j e e r r G Z f f Z s r f j f f j k J k J C j j k j j Z j j P P V Z r f G G j a e e j J Z V s r C C G f r j a d C j r a Z e r s e s r Z r e d h G C a V / V s h H e s G j r V r a a V V Z p e x C j e a Z c a p q q @ . - X . - . * * 0 w w w e p r 0 e e d y V C s q 3 s w * & - 3 3 < & $ $ - X @ % < < @ 3 & 3 p 3 < % % < p < > % & % p w 0 2 * 3 < , % % q q < q & < 3 & - $ # * < < 0 q + % @ @   # % > % 0 q < 3 * & * - & * $ & 2 5 % & # * 4 & & $ = # % - > & = $ = - - = * 0 d q e q 0 < 0 w < = < 3 3 0 0 4 3 w w w p 3 3 3 < 3 3 w 3 3 0 w 0 * 3 5 p p p w p a p p 3 5 3 3 5 p 3 < & 3 5 d 5 3 p 9 & 9 w w w s H L n F h i t 6 t V p w w m i p m c c x x h a V V V V V D A Y R E Y E Y { E F E Y Y Y m Y F F Y o.D U ~ Y S E ~ ] w.] o.U F D D ~ F c Y ~ Y c Y i A 0.{ 0.u.r.y.r.r.r.0.0.0.r.d.0.0.0.0.] X.0.] w.w.0.0.w.0.{ 0.{ { { D ~ X.] ] ] ] ] Y E Y Y R ] ~ ] ] ] E Y R ] ~ R ] R o.E E E E o.W Y { ] E E Q =.=.=.0.0.X.{ Y o.o.W E Y D E Y F D R L D N D F D D F D E E R D F n h a n D R R R R U D D =.D H 9 h Q E E E T T U Y T U U =.U F F Q F F F U D R U U D D F D D D D H D N F H F H N N k H N H N k N k N H N H N N k N h h N h h N h N N h N N H N H N h k N h N h N h h n H n H V S D A A S A A M m V D H N m m n N n n N n n n V M V D D n m n A F n H D D D m m h i p i a i i m m m m m m n m n m m m m n A n h x m m h N ~ ~ H D R N A n n H H H m N D L D n n n n n n m a a x x m m m h m n m m n n n n m h n n n H D n n V n m x x x x p n H H D N h h z h m H F k ",
"j f C d a j r G f r C j C f C Z Z C f f C Z J C f j f s 0 f Z V f J C V j s f s s r f f f s e C Z s d a r r r s r r h C C r C a Z H k r V j j C I ' Z e j j G r f Z J r r f f s f J C C G k J f k P j j r C k J C r V Z P P C a j j j Z V j j k H j 0 s V V r j r j V J r a r C Z V d e C V C a V s d r a s d j G k r H r a h r a a C a V r C Z C V f d j J j n G V a C a a 0 @ % = X - & 0 w 3 r e < s a s y a i q 2 e G F a e d r w 0 = & & 3 * * & 3 2 % $ * < 3 & q w 3 w 3 q , < q p * , < q 0 e w 0 q 3 w q d < > 2 , w w 3 & < & $ # - < q a y q % = @ & % < 3 3 < < 2 p e 5 w w & & 3 d * < * * * 3 4 m a m 3 & % = * < & * 3 3 & & 3 d e q p x e 2 3 e * w e & * & w w w s p s h H 0 e a h h s h 3 e p w p w a h H R F H D m i m m h p p h s p z 9 h p A V n h h h h H F n D u.+X+X'.+X+X+X'.'./.u.u.{ ).y.r.r.M.r.0.M.d.9.{ { { 0.M.y.w.r.0.y.w.0.0.0.r.u.M.r.0.0.9.r.w.w.r.r.0.w.9.0.] y.0.u.d.0.0.w.y.r.0.0.0.w.0.0.{ ~ V V A ] 0.w.r.r.r.0.w.0.0.{ w.0.0.0.0.w.w.w.w.w.] ] ] w.] X.9.] { ] E E E E W ] ] ] W E ] ] ] ] Y ] ] ~ ] E E Y Y E ] E Q R W E E Y Y E E Y W ~ E E Q Q Q =.X.] ] E ] W E E E E E R F U R ~ Q R R E =.L Q D E E E E R E R W R R W E R Y R Y U N N U =.Q N F E F U Y Y Y U Y F U D D U F F U U D F D D F D D D D D F F D D H k Q N H H H H N N k N k N k N k H N h h h N N H N h h N h N h h N k N H F =.=.h N H D k N h h N h n m m x n n A n A M V n m M n n n m m m m m n n n n n M n n N D A m D M V A A V M M h m m m m z m m a m m m m n x m n m a m m n V m n m m m m m h n n n N n h n A n M D D D H n D m n n H n h m H A h n n H A V m x h h x h n m h h x h h m m n h h m m h x m m h m x m H N k N m m V m H N N ",
"f r f d r C r j d f Z C J f f r J Z C J r J Z C j j s f s f f r r j f r f f j d d Z Z C C V f f C r k C e s e s r j j Z Z Z j e r s a a L j j h r a r a a L P r j f f f r C j s j C j I Z k J C K J j d C j r r f s r C Z P Z G P a Z V s a r C Z G j j j C j a a r r e a G f f Z V V j a j C G Z j Z V h Z G Z h d j j Z P V h r G j h a j o.G s e y e a G V G Z a s a d < = - % = < @ e r * & w e * r G V s a j s a a Y C s 0 0 a h e = * e p y e 3 * e 0 3 % 3 3 w w 3 3 s a r q q y e < q 0 < w e 0 e w q 3 e q 0 q q e i w w * < 3 < < < 3 e p y < * & < 3 3 * 3 q 0 2 e w 3 3 w p p w 3 5 3 3 n p p m a r m j a & * 3 q e 3 d 9 a 0 p w p y a x V x V n V m n H V A n H F D V H H n H n D =.{ =.Q Y U E { r.p.M./.u.'.u.r.=.t.W W { r.r.=.u.=.r.u.=.=.M.u.Q =.).'.UXsXFXGXHXbXbXHXCXfXSXhXHXfXfXaXrX`.'.(.).).)./.M./.)././.'.)././.M././.y./.M.u.y.y././././.y.y.M.y.y.M.y.M.y.y.y.0.y.9.9.r...0.0.w.0.{ { 0.0.9.0.w.] ] [ ] S n c ~ w.{ { 0.0.0.0.w.9.0.{ { { w.] ] W o.w.~ W W E ] 8.] ] ~ W E ] W R E R R Y ] X.] ~ Y ~ ~ ] Y ~ ] ] ] ~ E ~ ] ~ W ~ Q E E E W R W E E Y E R W Q N Q =.r.w.] E E W R Y E Y E E E W Y ~ Q R R U B Q =.N R R R R R E ~ E E R U R R Y Y E N =.H =.U Q Q L Y E Y F D F D D D U U D H F D D F F F H H F D H D N H H H H H D N H N H N H k N H N H N N N k N N h 9 H N z h N N h k N k N N h N k h H N =.L =.D h N h h N h h m m n N m x m A n n S A n n n D H n m m n H n n A n N n A m m m c A n M n m n n H n H M m m m x m x n m i x h m h m x i m a i a x x m m m m m m N N m N n m n n m m N D D H H N n V N h H N n n m V n m n m m h m m n h i a a i a x p m x x m p n x x m h a x h h x x h h m m h m h p z h h p h ",
"C j C r d d s f a Z Z s r j r d r f V r f V f s C f f s r d d C f f f C f C f * d Z Z k f r f Z P C C f j s C C C G s a s j h ( _ C G C Z ' J G r f e s G P C r C j a f V f J V j k j j s j r r r s f r j P k Z J f k f J H V V V j f r C H Z G j j a j G a j j e C V Z H j j r j V f d j Z ! _ V Z P a r V V V j j H h L j a j L L a j r w V G d f r V a r V G a s a * e e = . = * < d p h h * d w e r a a r V j y a C G a f V H P L G s d e e 0 0 3 3 0 w 3 < s 0 a 3 0 w h 7 e < q 2 0 q p r < 3 q p a t q e p q q y e y e y p 3 3 0 w 0 0 2 2 q * e y e w * 0 p 3 0 q q y j f.L p h e G h w r e V s s a r d j a r e 0 w y V n p h h h h n H V F ~ Y X.0././.)./.yX`.'.+XCXsXaXsXsXaXaXsXsXaXfXSXCXhXfXfXaXfXCXCXfXHXaXpXhXfXhXfXfXSXfXHXHXHXHXCXHXGXJXHXCXHXsXfXZXHXCXCXHXHXCXaXaXfXhXeXeXa.(././.u.p.u.p.u.y.r./.y.y.0.M.0.y.M.y.w.0.y.r.0.0.0.9.{ 9.r.u.0.9.r.w.y.0.0.0.r.w.0.w.0.w.X.9...r.r.{ 0.{ X.w.} } 9.} { W ~ W ~ { ] ] D p ~ 9.{ { 9.9.0.~ { ] { ~ W ] ] ] ] w.W W E ] ] ] E ] ] ~ W ~ E R E D Q Y ] ~ E ] E E ~ W ~ E Y Y E ~ W E E ] R { E R L Y ] o.R E E W o.E F E E F D N =.Y ~ Y Y Y E E R Y E R Y E ~ E ] Q =.=.=.L F N =.~ { E R E R E L R { ..Y R Y D R =.F B Q H H H Q Y Y Y D U D S D H H N H N D D D D D N H H N H D H H D D N H H N H H H H N k N k N k N k k N h N k N =.cXsX=.h h N k N h h N h N h N h N N k N Q =.N h H L N h h m h h h n n c m n A m A H M A M N m N m N n n n N n N H m n n A S n c V n m n A n M H n m h m m a m m i x n m i i m m m n z m m x x m x z a m m h m h m N V h N M h h h N m h n h n n H m H H x h m m m n H H n V n m n n m m h x m H i x h Y n h m p p m p i x p x m x h h N H H F F D =.R N =.",
"C C V s r e f a C J C d e s r s f j C f C f f f r s r f j f f C j r s s d d d r s j ( / C r K Z J f f d f C G a j j a V h V C G P _ ^ / J _ Z G f r e a j Z j a f j f k Z G k j Z k f f f f f f k d r r l Z I @.Z C C j Z C j f j s a C f a V C e s f k a j r Z Z Z V j e V Z j j r C r V P C a h G Z a C h h r r k p H j r / _ / j e e e j Z V w a r V V r f H a r e a j y d = d 9 d r s s h 9 e k s s k L r h r 0 d r s r h j G P G P j d 3 w w d 0 d e 0 0 0 w e w 3 w x e y 0 q * t a t a y 3 < & w a t 0 < d q 4 2 q 0 w q q a a a e e s e r a j V h p a a h n h s e r w r [ n h r j Z h P L h H V H L H N R ] ] { { =.{ /.u.M.M.L r.p./.`._.'.'.`.wX`.tXhXaXaXaXpXaXfXfXpXfXSXgXSXSXfXfXSXSXHXfXfXgXhXpXtXpXtXhXhXpXtXpXpXtXeXeXwXeX`._._.a.p.p.a.`.'.u.u.u.p.u.t.t.u.p.u.u.u.u.r.=.t.=.=.9.{ [ { { 0...{ { 0.0.0.{ w.0.w.w.0.w.{ w.0.{ w.] { 9.{ { 9.{ { ] W 9.9...{ { 0.E W { { { ] { 0.{ W ^ ~ ] E ! ] ] { ] ] W E ] ] ^ ] ] ! z V ] ~ ] ] { { 9.{ { { ~ R { E ~ ~ W ~ ] ] ~ ] ] ~ ] W ~ R ~ [ Q L E F E R R [ E ] E Y Y ] E ~ R R R E ~ E E R L F Q L Y Y Y Y =.R R =.B L L Q N H =.F R F R Y F R L E Y Y R F R E R ] =.=.Q =.=.U =.Q Q =.=.=.N =.F F R R =.E Y =.=.F Q F F F F D Q U D D D H N H H F p.'.UX+X=.H D D F H N H D D H H H H H D N H H N k H H N k N H Q k N N k N k N h N N L H F h h h m h H N N h h h m N H N H N H H L { k h k N h N m N m m m n m m m m m H m n V n n n m m m N H N n n n N m n n A m n n A m x n A D F D F sX+XD n n m x m n m m m m x m i m x h m m m n m h m m a z m a m m m m m H m m h x m h h x z x h m ~ =.D R ) ] E F F H m m m x i x a h n m m Y R D ~ ~ F F D A F F F E ] [ =.~ R R ~ R ~ ~ ~ ~ =.V h h F ",
"f f f j r s k f k V r f Z C r C f s f f V C f Z f r C Z Z Z j V k e d r s s f k d e G P j e a s J r j j r j r r j Z Z j k h j r ! J C f f f Z Z G P C a j P C C C C Z P C P P a j f C f C f f d k r k d r j k r r r C ! Z C a C r j Z Z s f Z V s e a r e j G Z j J ! Z d a j s a j Z H a V r V j Z G j C r h V L H h P V r / C C Z V r h j P r r e r H a e r Z G f * a f V e s s h h s h h k k k h s - r h r s f V h e d a j a G P G J Z a s p h p h a h V h r * 3 3 a 3 e a w w w q e q p x i q w q y w V q i n a a e e p Z n V V D A A n S Y R S Y Y R ] k.r.M. .r.=.r...=.r.).~ =.=./.M.M.'.'.'.'.+X).`.'.'.`.`._.wX`.pX'.sX+XUX+Xp._.tX'.pXwXeX`.wXwXwX`.+XrX`.+X`.wX`.`.'.+X`.`.wX`.rX+XpXtXpXtXtXtXtXeXeXwXs._.(.(.(.p.i.u.u.t.t.p.u.u.r.Q t.=.=.=.=.Q =.] ..=.Q =.Q ~ =.=.~ =.=.Q =.=.=.[ ] [ { { { { ] ..0.9.{ { 0.] { [ ] ] / X.{ X.] ] { 9.] { ..] ] ] ] ~ W W ] { ] ~ ] ~ { W { ] ~ E E ~ ] ! { { { ] ] E ] ] ] ] ] Y Y Y Y Y ~ U ] E E { Y ] ~ ~ { ] { { ~ W { ] { ] ] E ] W E E E ~ Q Q ) R E Y R R R E R R ^ R R R ~ Y ~ E F F R E F L L L ! =.=.o.Y Y G N H D L F Q F F =.H N L F F U R Y F E F Y G D F Y Y Y R B =.D L F B F F D D Q =.=.D =.L R U R F F F B D H H F D F F k F F D F D H F U H H =.sXsX'.N D D D D D H H H H N H H D H k H D k N k N k H k D k H N k N H N k N H h N =.+XcXHXoX=.9 N h k U N h h h h N N k F H h Q { L h N N k n V h m m m H N n n n N A A n n n n H N m n N V A M m m m m n n x c m n S m n V n D A n D ~ ] x.[ n n n m h n n n n n m m x m i i V m m m n m a i m a M a n x x n m m i H n x x m h h z h N N H N H n m n D n n V F R R R D D ] ~ ) R R ] ~ [ R F R [ R F D m h m n h m m p R M.M.f.=.=.=.F D m ",
"r s C Z f C j f C f f Z K r e Z r s r s e C Z f d r j f C V r f d d e s s f f f r Z C r f Z f s P f C Z k C J C C Z Z J H j H k J P C j J P r J ( ' J C r f Z J C f r d r Z r k Z k f k k k d - r k s d s k r j j f Z f a f k f j a j s r C J r e r j f s a C h P G C a e r f V L P L P Z P G Z a V f G L ) / P V r L Z H G a h G k e r j V H H a r j V a C V V Z a r a V H a j h 9 9 h k p h k =.k =.=.=.=.=.=._ ( C a d Z G s h k r j Z h a h p h H N a a F m e r p a m D m m x m S A S D Y ~ ~ ] ] ~ W ~ { r.0.M.0.M.r.w.0.w.0.9.M.M.r./.M.).'.).'.'.).'.'.'.`.).'.'.)././.).'.p.p.s.`.`.a.s.p.t.p.p.p.p.i.i.p.a.i.p.M.p.p.M.M.u.p.u.u.u.u.p.u.u.u.u.r.u.u.u.M.u.M.u.u.u.M.u.u.u.u.t./.u.M./.p././.i././././.p.u.p.r.0.r.{ r.=.=.Q =.W t.r.=.=.=.Q =.Q =.W E ~ ] Q =.Q ~ =.R [ E R { =.=.=.U ] ~ { { { 0.] ] { { ~ ~ { 0.] { { X.w.] { { R ] ~ ] { ~ { { ] ] ~ ~ ] W ~ ] { { W ~ ] W ~ W ] E E E E ] ~ ] ] ] R E Y ] E Y T o.Y E Y Y Y ] S E ~ Y Y F Y ~ W ~ ] { ] E ~ ] E ~ E E Y E W ~ E E E ~ ~ R D R ~ R L E ~ R ~ E Y F Y Y Y E R L F R R F L L L =.=.F F F R Y F F F L L F H F N F N =.R F F F F F E F F F Y F F D F R F D H Q F =.D H D =.F F N F F Q E L D Y R F F F N =.H F F F L Q Y F A A F D H D N =.=.k F H D D H D F H N H H H N H H H N H H N H N N k N N k N N k N k N k N k H h h m =.p.oXu.=.h k N k h h k N p h h N h k N N k k { L k N L / R m N N H n H n A n m n A M A n D D n n n n m m D N n m n m n V n n n m m n A A A n n n m r.sXsXF F F A n n n D L E ..[ D n m h m n N n n V x a n n i m a x n h a n n m n H n n m m N H E H ~ ~ L L L L R Y Y E R F D H D L N H D n n H ) n N A L R m h m x m x u p x p x p h h H =.Y h 5 9 h ",
"a d C j j s d k f d f j d f j a d r f a f C j j f s k V C s C J Z C k r d d s j Z ( I Z r I P d C f r f f r j j f j P j r e r h r C s d Z k j J r Z C s f f C k f d f s j C r l Z Z f s f r k d f s d r d j r s f k Z f V r r d f r G h r C V f r 0 s C G s e r G ! C f r h C C L H P P Z ..Z H G Z V G ^ Z j G H G H H h h V H F H h m Z H V r f V V J H G C a V n a a p r a c N H F k k x N h H =.=.=.=.L Z L ( h 0 h =.F h h h n D / ] [ { [ =.~ ) E Q ~ 0. .=.M.M.u.M.d.0.0.r.0.M.r.r./.M./././.i.M.p./.i././.M.p.i.M.M.w.w.r./.u.u./.M.q.M.y./.i.M.y.M.u.u.0.r.y.r.y.r.r.r.=.r.u.r.u.u.u.t.t.r.r.t.r.r.r.r.r.r.=.r.r.r.=.u.u.r.r.W r.=.=.r.r.r.=.r.r.=.r.r.r.r.r.r.u.=.r.=.W =.=.=.=.r.r.r.r.{ ..=...0.0.0.{ { =.r.9.r.r.{ =.Q =.t.=.=.=.W F =.Q Q W E E =.] ~ R R =.F =.E ~ R ] ~ Q R U =.[ R ] [ ~ { ~ F ] ~ W ] { X.Y Y ] E Y Y ~ ~ ~ ] ] ~ ] ~ R ] ..E Y ~ [ ~ ~ ] ] W W ~ ] ~ ~ ~ ~ ~ ~ ~ ~ E ] ~ ] ] Y Y ! Y Y o.R Y ! o.Y Y o.R Y V R Y Y D Y F Y ~ ~ W { ) ] ] E ~ Y ! ~ ~ ! E ~ ~ F R ] ~ ~ E Y R E E E E ~ R E R R R ~ E E E R ~ E R E R R F F R F F R F Q R R U F F Q R =.H N H F F F F F R Y F F F F D D F Y D U H F F F F H Q F D =.F F D F R ~ E R R R F R '.UXUXU.u.F F H H H D V H F R H H H H H N F F H H F D H F H H H H F k H H k H H k k N k N H k N k k N k N h h k N h N H h h H H F N h k h N H k k =.h h k =.h h h k N k L { ~ L u.M.=.=.F L D H F D H n H n n H M m m N n n M H N n A D A H D A n m S A V V V D A A H n n n H V n n H m A H n H n V x m F ~ A H m n n n a m n V M [ r...Y F E ~ ^ ] F D F D F R [ ] L L ~ L E E E =.u.~ m n D H n n H F D n H n n V n m h x m x h A n D A h x a x h h p p h m i m H m h 9 h p p x ",
"0 s C Z J s r a r f Z C s r r a d f j J f f k Z r d s f s V f f s a j s r f a f Z j f r s r j f j Z k s C r Z C C f j s f C h r r Z j j k f Z I f r j j j j J C f s k d s r r k k r k s f f j d d g j k d f r j C j s d d d d f r r f f f G G P Z j H j j G Z s a h s r e e d G L / x.^ P G a L ! H H V V a / $.=.! H m H h F F a V V H V h V L [ G a a x V G G R R R F Y F { r.=.=.=.=.u.=.=.L =.H N L L H =./ ! ~ / L =.=.r.=.r.=.u.u.).u.M.M.u.M.).).M./.)./.M.p.u.M.u.u.u.u.M.i.y.y.M./.r.y.u.r.u.y.0.y.y.0.r.w.w.9.] { ] 7.Q =.7.r.9.9.{ { 9.9.{ 0.=.9.{ { ] w.0.r.{ W { { =.7.r.] =.t.=.=.=.r.=.t.{ r.{ { ] { r.=.=.{ { r.=.=.t.=.W =.r.W =.=.W =.r.=.=.t.{ =.t.=...{ ] ] =.W =.=.=.{ =.{ { ..{ r.r.M.{ ] { { [ r.r.r.r.{ ] Q W =.=.=.W Q =.F =.=.=.F Q F =.Q R E R ~ =.R ~ ) ] ] ~ ~ ] ^ [ ] E [ =.] R Y Y ~ ] Y ] ] Y ] Y Y Y R ] Y Y ] Y Y E Y R E ] R F R E ~ R Y ~ Y Y ~ Y Y Y ~ ! ] ] E R E Y R E R / ~ o.E Y ] Y F Y ! Y R ~ F R Y Y ! Y F Y D G F L E ~ ~ R R ~ E ~ R E R Y F E R E R E E Y Y E ~ L E R F R R E E R R R R R E R U R R F E E L E ~ L D E L R Y R F F F F =.N H N F F F R F F L F Y D Y L F F D F F D F F F N H H =.F =.H H F R F F D F F L F Q M.n.HXbXsX=.F H L F L D H F F F F F F D H H H F H F H h H H H H H H H k k N H H N k N k H k k N N k H H N k k h N k N h k h h L k =.k N k =.k L I h L I k I k k h h k k k h H =.=.H =.=.=.u.[ D H D D F N N D H D H N H D H H D D D H A H D A D D N D R R R F M V n m n V m n m V x m m h x D M H n m m V M m H F E { [ R R E ~ R E E ^ R E E ! R F F D A a x V R ~ ~ { ) ~ ~ [ =.=.] d.=.D n H n F D F D H D A H n A H m n h x x h m n m n A V V A x i h p h x p a N h h p h m h p ",
"j O.Z K C s j K Z j r Z k f f f r Z Z J s f J J r f j r f r r r a Z j a d e r r f d r j C r r s Z C k f j f a k Z j k f J K k s a h f k Z k Z Z j k Z k j k k j j k f f r k - f k P K f K r k r d r r j k j k K ' J r f r e k j V J Z J C f Z J Z Z C G G J V H V r r j a a j Z G P L H Z ( j V P C V H ^ |  .V H H k h h m k h H H G R Y ~ ..g...} 0.0.M.m.).).).).m./.M.M.'.).'.'.s./.'./.u.=.=.Q =.=.=.[ F ~ ~ =.r.).u.'.p.p.).M.M.r.u.r.r.M.u./.M.u.y.M.M.r.u.r.r.r.r.r.r.0.0.w.0.9.w.] ] 9.{ { 9.0.9.{ ] ] W ~ E ] Y W Y Y F { E W ] ] { { [ { { { { { { [ ~ ~ {  ...[ { ] =.{ { { ] Q Q =.E ] [ Q { { { { { { ] [ ] { { { ] W ~ ] ] W =.W =.=.=.=.W =.=.Q W =.{ =.r.=.{ { { W t.] r.{ r.{ r.{ { ..{ { [ { { r.=.W [ r...{ =.=.~ Q Q =.=.=.L Q =.Q U =.~ =.F F =.E Q R ~ Q ] ] R ) ] ] [ ~ ~ { ] ~ E E ~ ~ Y ~ E ~ E ~ Y ] Y Y Y Y ~ Y R Y ~ ~ ~ ~ E ~ ~ Y Y D E R ~ ] R ~ ~ Y Y Y Y R Y E R Y R Y Y R R R Y F G Y Y ~ F F Y Y Y ! Y Y R R V R Y Z F F Y D F D D F Y R ] ~ ~ E ~ ~ R R R R F Y L E E L Y L F F R R R D F F F D Y F D F F F R Y F F D F F R R R E L F D F R N =.N =.H =.=.F R D F F D L E L L Y R Y R F R E D H F F F =.N N L H Q h H H L F F F H F F F F F H =.H =.L F H F H F F F F F F F D F F F H F H H L =.H H H H H H H N k H H H k N k N H N N k L N H H k N N h k N h k k h G L k k k =.P k k k k k k k k ' =.r k h k k H u.H H H =.=.=.u.qXFXm.N D H N H H N H D N H H N D R R =.M.M.M...E D D F R R E Y F E R Y F D F L R R ~ E Y R ) [ E =.[ ~ E L D R [ R R E F F H A F Y A H V H M n V V c n x x m n V a x x F R L R F N F n N m n n A D m a n A V A V n h m m m h x m N a x x a m h h h m n H D H n N m h x m h u p h z h x h ",
"f f k C k r f f Z s k K k G f r s r C f j s j f r s s a j Z V ( j r s C j k G j s f f k C k k r P f j r f r J k C r r I ' I k l k k k j ( Z ( V j P J d f K -.J k k r d d K d d s P k d d K f s d r k K k f f C I k K C k a k Z I P J I J P k +.( P _ :.l./ k G C G | _ V L ( L ! H ^ Z h s r s r 0 C G ^  .X.d.=.m.n.r.u.l.m.n.m.M.F.).n.).u.~ /.).).).).).).M.M.M.M.M.0.u.M.M.'.'.'.u.u.u.b.p.u.'.u.u.M.M.u.r.u.M.u.u.r.u.r.M.r.M.r.r.M.M.u.r.r.=.=.u.0.0.0.0.=.{ =.{ { { { ] ~ ] ~ ~ ~ { ] ] E E ~ ~ ~ ] E ~ E ] E R ] E ~ ~ ~ ~ E ) [ =.[ [ { { [ ..{ [ ] { [ { ^ { [ { [ ..{ { =.{ [ [ ] E ~ { { ~ [ ~ ~ ) [ R R { { ~ ~ ~ ~ =.=.W =.W =.=.Q =.W =.=.=.=.=.r.=.=.r.r.r.[ { =.=.{ =.{ { =.{ { ] ] { { [ r. .{ =.=.=.] ] ..r.~ W ~ =.~ ] Q Q R =.=.Q R =.Q ~ =.Q =.Y R =.=.F [ R R [ E ] W ~ R ] [ E ~ R R E ~ R ~ E E E ] E ] R ~ Y ] Y ] Y Y Y Y Y ~ E ~ Y R F Y R E Y R Y Y F F F F Y Y ! Y ! R R Y Y F F Y Y G R R F F Y Y G Y ] / G R R x D Y R Y Y Y D F Y E L R E E R E R R E ~ R E R L R E R F E Y F F D D D F F Y F F D F R F D F R Y L R R R F R R R Y F F F F R F F F F N U F D D F F U R F F F D D F F R E R F E H =.=.H F L F =.=.H =.=.h R L H F F F F F L L F H =.h H F L H D F F F H F G F H H H H H H L k L k k =.=.k H H H D H H H H H H H H H N H k N L k k N N k =.h h k N h k h L =.k k k L k =.k k k k k k I I k k k I =.k k Q =.H 9 k =.=.=.=.=.=.=.) R D R R =.F H F F H D F { =.[ =.r.r.=.[ L Y R ~ F F R E L Y F F F F F D V D F Y L R D n G D H A D n V V H m n n V m V V H m h m m V m m a V A j h a m a x a m x m F ~ ~ L =.E R F R [ ~ [ ] [ D n V M n n m h m n n a x a x a x x x m i m n n n n n H m h h x m p 9 h m h x 9 u ",
"o.O.f k f r r f Z j r s j J +.V r C Z C j r d d r r a Z a j a j j r a C j G f j j s C ( j J C j J f j f f f K I I f k 5.5.6.6.6.5.I Z k Z @.J K C K k f f @.I Z s d P K f k d f f k j s d f k l s f f f d f j J K s s r r h k P P J I I o.K Z J P ( _ U.=.x.g.F.x.x.:.=._ =.f.x.g.f.=.L G L G G Z j a C G } } ..=.=.=.=.=.=.=.=.) )  .0.0.r.{ 0.d.M.0.0.M.r.r.0.0.r.r.r.M.M.r.M.u.=.u.u.=.b.u.u.=.=.u.u.r.r.r.r.r.=.r.r.=.u.=.=.r.r.r.r.r.=.{ t.=.r.r.=.{ ..0.0.{ { { ] ] E ~ [ ~ ~ ] ] ~ ~ ^ ] ] ~ ~ ] ] ~ ~ E ! ~ ~ ] ~ ! E ~ [ ] R R { { ] R ^ [ [ { [ [ [ ..} [ ] ~ R ] [ [ ] ~ [ ~ [ [ [ [ { ) [ ~ { [ [ [ { [ [ =.] [ [ ~ ~ W =.=.~ [ =.W =.=.W W W =.W W W =.] t.=.=.=.=.=.r.) { { ] { ..[ { ) { ] ] ] 0.{ ] W [ [ ] [ { =.~ W ~ ] =.] E Q =.R =.R Q R U =.L E R R Q R R ^ E E ~ E ~ ~ R R E ~ E E E W R Y E Y ~ R ~ o.Y E Y ] ~ Y ! Y D Y Y D R ~ E ~ Y R E R ~ Y R Y Y F D F F F R Y Y Y Y D Y ~ Y F Y Y G Y F F F D Z G Y ~ ! Y Y ! Y V x G Y G S G Y F Y F F R R R R R R ~ E ~ E R ~ E R ~ E F L F Y F R D F R F F R D F F D F R R D L U Y F F F F R R F D F ~ F F D F F F =.D H H D D H D F F F D M.F F D F D F R R Q U H Q L L U =.=.H =.=.=.=.L ~ ! ! =.n H G H F =.h =.H L F L L L L F F L G L L L =.H k L =.UX~.=.h h =.=.H H H H H H H H H k N H L k H F k N H H H H L L F H k h k H =.k L k =.=.k k k k k I k k k k k k k k L L k =.k k =.=.=.F Q =.=.=.=.=.=.~ ] =.=.=.) ] =.[ ) =.{ =.) F ~ F F F F D H D F H n n V A A H n V n m V M V n V M n H n n m n h n m n n m V n n m m m x m n m m m m h m x x c c a m m n A x m n m n N F L ] ] ~ { E ~ R F F r.r.F F R H A F h m n H m n H m H n n h m m h m V n n h h x m x i h m h x i m h h h ",
"f l f f k r k Z C C s r j C V Z r C J j d a I j r f ! / j f Z C s V f G j j C j J j I P k -.P j s f d j r r I I k j k 5.6.6.<.5.I r j h k I J h r j f C k j k j f k s k k k k j j d r r r Z k k k I J I J I G Z k j C I P I _ H j j k k k J I k I =.=.=.=.=.=.=.:.| | } ) _ ^ _ ) L _ P / / / L L P L G / / G G Y / ! _ ~ =.L ~ / ) [ =.=.r.=.=.Q =.=.=.t.=.=.=.=.=.=.=.=.=.=.=.Q =.=.Q L =.=.Q =.=.=.=.Q =.=.Q =.=.=.Q =.Q =.=.Q =.=.Q =.=.=.Q { { { { E ^ E ] X.] ] { ~ ~ ~ } ^ ~ [ ~ R / ^ ! ! / ^ X.E [ E ~ E ~ R R ] ! ^ E ..] ~ ]  .r.X.~ { [ [ ^ { ....[ [ { [ [ { =.[ [ ] ~ { ) Q =.W =.=.) ] [ ~ ~ ~ [ [ 0.} ~ ] X.{ [ [ [ { [ ] { { [ Q =.=.E =.W E =.=.=.=.=.=.=.Q Q =.=.Q =.Q Q =.=.] [ Y ~ ] ..[ { ..{ ) { ^ ~ { [ =.=.Q ~ [ { =.~ Q [ ] ~ ] E ~ ~ [ R R ] R Y F E R R E L R E Y R Y ~ E ~ Y E R R R E Y Y Y ] E ^ R Y ] R ] ] D Y F Y F Y Y Y Y Y R G ! Y ~ ~ Y Y ! Y Y Y G Y F Y E R Y Y Y ! F F G Y D F G Y G D G Y ! F F D F Y F V c Y Y F Y Y D L Y F Y R R ~ R Y R Y R F R ~ G Y Y F R Y F F F Y Y G F R F F F D F F F F D D F F L D F H H F F F F F F F F F D F F F D D H F F F F L  .Y D Y F Y E F R =.Y R L R R F F ~ F L =.=.~ =.=.k h V k =.=.~.jXb.=.<.x.L L k H G L L F L ~ =.L P L =.=.k L k k k =.I =.=.k =.H k H H H H H H L H F H k H H N h h H H H H F h h k h k h h Z Z k h k Z L k k k k k k =.I k k h k k =.k k ' ) k k L L L =.L L ~ =.=.=.=.=.=.F F L D L L F H V A F F V n D H V n H A H M H D F D V n A n V m m V j c n c H A A V n a n m c n / D j S H S A V A V n V V m n V S c j c c V V x c c V m n V n a h n m A H F ~ [ F ~ ! E R { 0.~ F F F n n n n n m n H n n n m m m a a m a h h x x h p i h a h m N h m h h h ",
"l d r j r s r 0 e k Z s s j j j s s j C k V f C a s f h G H C a G G C j j / a j j h P a Z P a a - d * j ' V k d k r h Z 5.5.k k J k =.( =.P J I ( I J k k j k k f j k I P Z k C ' P j h k I I C I P J Z Z Z I I J Z P I P _ P ( ' I k P I J P k k =.k k J L J =.} } _ _ _ _ / _ L L L L P / P L P / R ! ! P Z ! ! ! ! } =./ L R ~ ) =.) =.=.R =.~ E R =.=.=.Q =.=.~ Q =.=.Q =.=.Q =.F =.=.Q Q =.=.=.D =.=.F F =.B =.U =.=.F Q =.U =.=.U Q Q ~ E E ^ ] [ ~ W ~ ] E ~ ! ^ } ^ X.( / P ! G J / Y ! R R ] R ~ ) ~ ^ R L R L R F ~ R [ ] M...] } ] ~ ~ ] ^ ] [ [ { [ =.~ =.{ ..) { [ ] [ ~ ~ ~ ~ =.L R E R ] ~ ] ~ ~ [ 0.~ [ [ ^ ^ [ ^ ^ ..] ^ ..r.{ =.=.E =.=.~ =.~ Q { =.W =.Q =.=.=.Q =.=.=.=.=.U ~ ] ~ ~ ^ W ~ { ] ] [ ~ ] ] ] { Q ~ Y =.[ { ~ ~ ] ] ~ ~ R ~ R ~ R R R R R L R R R Y L Y ! F G Y Y Y Y Y Y ! E Y o.R Y F Y Y R R R ! Y R { ~ Y ^ F ! ! R R G D o.Y Y Y ! Y Y ! Y R ! G Y Y F Y R Y G G Y Y Y Y J Y G D F F G Y Y D F R Y R F Z F ~ ~ D C G D G G F E F F Y D D G Y ~ R F F F F R ! Y G F R G F F ! ~ Y Y F Y Y F F R Y G F F F Y D D F F F D F F H D F F F F F D F F F D F L F F L F H H Z L m.'.nXAX].] F F F D R R F R =.+XFXUX=.L =.L =.4.=.k k k =.=.'.=.L k =.I L k L L Z k L F F 1.P J P I L k P L k k k J =.h =.k Z H H L F H H H H H H H N k H h N h p h N k H h h s 9 h h h k h k k P k k k k k k J k =.I k h k k =.k k I L k k k Q ) L ) ~ ) =.=.Q Q =.U N H H H N n H m H n V H H V H D D D F D A F D n n A F D A D H n A A A D c S V n m m n V n n n n n S Y A V V A A m n n A c c A A V V A V A V D V V n V V c c c n m m m a x a x h N H m V A E [ ~  .M.{ R F A V h x V x n h x a h h V M n n n m m h x x m x x n m p h z 9 h N N ",
"r s d k P s r G C Z Z V r r j P C Z P J C j j C C f f Z F Z f V F a a V C j V H s C G C Z a d j f P | C h j J P ' b.=.-.=.5.<.v.J.b.J.x.=.J k I Z C k C Z J k h j Z K Z L =.I I P P I / Z P +.P G J I k I =.I k G I P ( I P G I I I P J J P P =.=.P P =.=.=.L P | _ P / P P =./ ( P / ) P / / ) / P / G ! ^ ! ! P ! / ! L L ! R / P R ~ P L / ) =.=.=./ / =.Q =.R ~ L ~ Q =.L R D H =.D L =.H =.=.=.U F =.F =.Q =.=.D =.=.=.U U =.=.F =.~ =.~ ~ ^ { ~ ..} ] ^ ~ o.^ $.$.( ( >.$.$.X.( | G ! Y ! ! R R R R R R R ~ L Y F ! G F ! ..~ ~ ~ ^ ] [ ! ~ X.[ [ [ { ) { =.] [ [ ~ [ ) [ ) ~ [ ~ ~ =.R =.{ [ { ..[ ] ~ ~ ^ ] } [ E ~ ! ^ [ ..] ^ ~ ~ ) ) E ~ ~ =.R R =.=.Q =.W =.=.=.=.=.=.Q =.Q Q =.Q =.] ~ ~ Y W ] E R R R R R R ~ ~ ] =.E F E ~ R R R ~ / E R Y R L R L ~ F L R F L L F L Y F ! Y Y D ! R G ! ! R R Y E Y G F R Y R F F Y Y Y Y G ! Y Y Y F Y G Y Y ~ ! Y ~ R ! Y o.G Y F F Y o.Y Y G Y ! R o.Y G Y Y Y ! R G D G D P G R F R R R G F D ! ] V D F F Y F D F F Y o.G D G L G L F Y F F Y Y Y G Y ! D F ! Y Y ! F ! Y F D H Y F F F F F R Y Y L F F F F F L L L F F L F L L L F F F R F L L F H F F F g.VXbXVX~ L H F L F L F D H L r.=.L H L =.=.=.=.I H F =.L =.=.=.I =.=.<.=.=.=.k =.L H k P k k k k k =.k k k k h J k h k =.H k h k n h n h H H V H H N =.L h k h h k H h 9 & 5 h =.=.s h k k k Z I =.=.<.k k I Z k h h k k k k h L k k k k k L k L G R ..~ F F F H D H H N F H N D A H H A H N N H D D D D D D H V n V V A H A A n V A V M A V c A V H A n n A n A V c c V c c c c A S A A V n V c n n n n c V A Y Y Y V c A n A A n n a n x n m x m M N A S A D F Y D R Y r.[ H n m x m h n n h i m a m m c a x x m m m h h m h n m m m h h 9 z h ",
"l I ;.<.=.L.5XnX;.V.K.>.I ( P :.$.` h.>._ | h.| 1.>.} .X[.].].6X].n.[.U.x.n.| n.| ` h.#.Z C P _ I @.P I Z P ' =.1.x.1.=.=.I P =.J P ' ' J k J P P K P Z K J J Z J ' #.( =.,.=.L I ( =.I ( / ( ( I I =.I =.=.I P I / ( I I =.I P L P Z =.I P k =.P k J J I k P P / P P / L / G / ~ / / _ P G L P / ! L G ! G J ! ! ! G ! =.! ~ =.L ~ L ! =.~ F ~ L R =.~ =.~ R F / L =.=.E ~ L =.=.=.=.=.L L =.=.F =.=.=.L =.H =.D =.=.U =.B =.=.Q Q =.D E ~ ~ =.[ ~ ^ ~ / ! X./ X.| d.%.+.J j k ` >.:.} G ! ! F ~ ~ R ! F ) E L R R L F F Y F H [ ^ ! R ^ ! ~ ! ^ { ^ [ ) [ ) [ { ) ) ~ ~ ~ ~ ~ R [ E F R ] Q =.) [ [ [ ] ^ ~ ] { X.{ ] ^ [ ^ [ R ~ ^ [ ] ~ ^ ) ~ ~ ~ ~ R =.Q R =.=.~ Q F =.U N Q =.F =.L =.F H ! ] ] / ! ^ ^ R [ ~ E R ~ Y ~ ~ R R R ~ ) E ~ ~ ~ E L ~ ~ ~ ~ Y R E F R F R R ] =.L F H F Y G F ! Y Y R ] Y R F R Y R R Y R Y F Y G ! G ! Y Y Y Y G Y ! F F G D Y ! Y G R Y Y Y Y Y ! ! Y Y F F ! Y Y Y Y G R / R G ! Y F F F L H ~ L F F F F G G D / A C Y F D F Y Y L Y G Y D Y D D F F F G D G D G D R F G F Y G F G F G F R ! R ~ R ! R R F L F F F L L F L L D F F L L L L ~ F L F L H F F F H L N F F F / ] F [ =.L G G F H H =.) D F f.'.=.=.x.K.<.=.=.L L =.k k =.=.=.=.=.=.I P =.k r =.P P =.=.L I =.k =.J =.=.=.k k L k s h h H H H Z H k H H G H H H H k h H H H H D D F H k h h h H k h k h h k C G P =.k k k k Z H k h k k k L k H 9 k 9 k k k N k H H F D D F F R F F F F F L F D D D A D H m H n H H A V V n A n A A A A A V A A A A n V S A A V A M H n V H A m S V n V c V c V V n V A A A m n S n V A n S n n n A A c V A V n V D A n n A V A H D V m c V D F c V V n A ~ { F A H m m m n h m m n m h x j a x x a x H F m H n m h h h N h h H ",
"5.5.=.6.m.x.n.=.:.f.>.g.| | / | ` ! J ( :._ _ P G P / :._ | _ | =.| ` | ( n.x.x.( ` | ( j G f.x.=.=.,.U.U.m.=.=.=.I _ _ L P P I P I / G k P P L P L P I =.J k J P ' P =.I =.I P J =.4.=.( / I P =.k I I J =.=.=.` =.=.I ' I J Z I I / / J =.k %X1X~.=.L k G =.I G P L P L L ! L L / L / ) / L L / / P ! P ^ / F ! L ! } ) ! L ~ ) ~ L ~ ) ! L ! ^ ) ! ) / ) ~ =.~ ) ! ) / / / / =.=.=.=.L =.=.Q =.L =.Q =.L =.H L =.L =.=.k I =.! L ~ P ~ ~ ~ ) X.^ ~ / ( J J ( J ( $.#.2.&.Z 5.Z K J J ! _ ~ ^ R R F L ~ [ L F F L ! L F R G G ) ~ R / ) ~ ! ~ ~ ^ ~ ) [ [ ..[ ) { [ ~ ~ ~ ~ R [ ) R R R =.Q R ^ E ^ { R ! ! E / ] ^ } ! ~ ~ ] R ~ ~ ) ^ ~ ) [ ~ ~ L R / R ~ [ F ~ =.F F =.=.=.=.F =.D =.=.H F ~ Y ^ Y Y ~ ~ ~ R R R ~ ~ R ~ ~ F R Y E ~ ~ ~ E ~ ~ R R L F F L L L Y F F L F L R R ~ L F R ~ R R ! Y F R R R G Y ! ~ Y F L F F R F G R ^ E g.~ Y Y D F D F Y J Y J Y D Y Y F Y ! Y Y o.F D Y F G Y Y G Y D G Y F G F R D D L F F Y L F F D F Y G G F R n G F D D F Y D D G Y G D F G F F F H Y F Y ! G Y G Y G Y G G Y G F G F F H Y ~ R F F F R L F F G H F H L D H F F F G F F L F L L H F L F H D H G F F F F L F F L L L h n H G L F L F L F F P =./ =.=./ k k H Z L k =.k k =.5.=.=.=.k =.=.P =.k G Z L L k P P =.Z P L Z =.k L H k H Z L H H H H G H G H H H H F H F H L H F L H L H H H k H H H H H H H k H H k H k H k k k k k N L L k H k H k N k N k V F H H F R L E E F L F U R Y D F D D H F D N H D H A A V A H D S A V V S D n S A V n n V A V S S D S A A A A c S S n c n D n V n n A c n V c A S V n S A V V c n n V n V c V A D A V A A D V n V n S D A V n c n n n D n H F A m m n n m a a m h x n j V A c x x x p n h h H N m m m h h 9 F =.",
"I 6.<.<.,.,.g.x.x.>.f...>.l.` _ $.( Z Z / ( P ( P P / G P ~ / / P / P L ! / L _ / P / ( P ,.k.g.( v.oXoX|.-.I _ =.1.=.P I =.<.=.=.' I P k L =.P I I / P P G =.k ( P P =.I J P I ' ' J -.$.I / P k =.=.k =.<.=.k P ` =.P P G Z J =.J / I =.J k =.=.I k L I k L L :.I L P P P P L L L / ~ P L P L / / / / / ^ / / ^ / [ x.=.=.L ) =.=.=.P / / P =./ ^ ! / L / ) ) =.P P / L ^ } ) Q k L F =.L L F F =.=.=.Q =.F =.G =.L =.=.=.=.=.r Z ` I R ) L / / ! L F | I ( 5.$.I @.o.@.@.@.K k f f G G / / ~ R L R L F L F L ~ F R F R F ~  .R ~ F L L R R R E R ! R R ~ / E ) ~ ~ ~ R R ~ ) [ E ! R L R L =.! ~ ! R R ~ ~ ~ ] { ] ^ ~ ~ ^ ! [ ~ ) L ^ [ [ ~ ~ ! ~ =.~ R ) ) =.~ =.R =.F F =.F =.D =.D Q =.F ! R R ~ ! ~ R ~ [ R ~ ~ Y Y R R R F L ~ R ~ [ L ^ ~ F L R R F F F ) D F F F H F F F G F F R F R Y ! Y G ! ~ F D R G F G F L F R Y G G Y Y R ] R G G Y G F Y F R Y G Y G G G D o.Y G Y ! Y G G Y Y G R Y G G F Y F D G F G D F F Y G F F R R L F D ~ ^ r.Y ~ ~ ~ R F F F F ! ! F L F F F G C H H H V C D D H V V V V V a V V G G V H H F H G =.A D H D H F F F H H H H H H H H H D H D F F H F ) L H H G D H D F F D H H F F F D D H H F D H F D H H H H H k H k k k k k k k k k I k l =.=.k k P L J k k L G J k k k k Z Z Z Z Z k k H k H H H H F L L L F G G F L H F F H H H H F H F L k =.L F H H H H Z H H H k k H H H k H k h k H k k k H H F Q D Q Q L L Q F F F H F F D D D F D H H N F F F D H D D D F D F D A V A D H n V A n A D V S V M D A A V n c A S D V S A m A V n n x n c S n n V n A V n A A A S S n V A A c S V n n n c n S S A n A A n A A n n n V A V c c x x h n V H n M H Y [ L V F M m V n V R F n V j D [ R h h N n x h h m m F H H H F ",
"G P / x.v./ / ( L =.P / ( / ( _ _ ! _ ( J | ` | +.` k.:.^ P / / / / / P P P L G P P P / :.d.n.].].OXoX].<.' I =.=.I ' =.I =._ P =.P Z L P =.=.P / / P ) =.L I / P ( / / I =.k =.1._ j Z P P ( =.=.k P =.I P P L P ' _ _ J L P <.P / P P k =.=.k I k =.=.=.L k =.:.=._ I P _ ~ I J I L P / / ~ / ! /  ./ ^ ^ L _ } ~ :.+Xg.g.=.=.=.U.U.=.~ ) ) ~ / ( / ^ ( L P =./ P / / =.) ^ ^ =.L =.=.F =.k =.=.Q =.L F =.=.F =.k =.=.=.l l k K &.5.5.' ( F ! X.! ^ N.Z.G.6.3.P K I K @.@.G.6.I s f C G R L ! ~ L ~ F Y G R ) ~ Y ~ D R D M...R R G ~ L R ~ L R ! R F R ~ ~ R ~ ~ L ~ ^ ^ [ [ ~ R R ~ R =.D =.R R o.~ ~ ! ~ ~ ^ ~ [ ~ R ! ! ~ ~ ~ ~ ! R R ~ ~ ~ ~ ~ [ ~ / ~ ~ F =.L R F =.H D =.H F L H =.D =.] R ~ ! Y ~ ! ~ ] E R ~ ! ~ Y G R R R L ~ [ r.{ ~ R F F ! R F H L { L L L F F H F Y F D F F F L D F G G F L F G L F G D F L D F G F Y / ! F Y G G Y Y Y Y D Y G ! R R Y Y R Y Y ! Y ^ R F D G ! ! F G F D D Y G D H D H H F G D L D H H H V V V V D r.:. .G { ..~ F D H D D G Y D Z F H V H H H D G D C H G G D D H G D D H F D D H H F F D G A H H H G F Z F Z F H H F H F H H F L D F F F ) M.R F H H H H H H H H H N H H H H H H D H H H H H D H H H G H Z Z k =.=.L h k =.=.k L k k =.h L Z k L Z L L Z Z H G k k F L L L Z F N L G F H G Z F L L L F H H G L H L H L L L F H L H H N H L h p p h F Z H H H H H k n G H k H k k N k H k F L H D H F k Q Q k F F H F F F D F D H F H D D H F H D D D D G L L D D D A H D A V C S D D C A n n n V S D n V n A C S S V D H A n V A V x n V A x A n c A c A V V c n A V c V n n M c A V A c c A A V c c A F A A D D D A n A c V n H V M m F F F n D [ E F A N V V D Z V V V x x F M p a h m m m N h n F D =.Q L ",
"P I =.=._ =._ ' =._ ( / / P P $.( ` ` / ( ( P / _ / _ P | P P / / _ _ P / R / L Z / ` >.` K.S.OXOXoX].=.=.=./ I I =.) I P L P P P P P =.=.Z k P =.P I P / I =.I ( / ( _ =.=.L k =.P d Z P _ f.P.=.=.=.=.=.L =.Z C L I / I ( P P P ,.L I I I =.=.=.=.=.P I k =.L P ) _ _ ^ P G G / P L P / / / P ! / / / ^ _ } m. .g.m.F.m.r.M.f.'.m.u.=.=.L / / ) ~ ^ [ L ~ ! L ) ~ ) ) ~ L L P H =.H H L Q =.H =.L D =.L D =.L L L k 5.l I 5.5.6.5.&.5.I 5.=.L ,.$.A.G.2.5.5.5.Z l I I %.5.#X^.@.Z Z C C H F ! F R R R ~ R R R D L ! R R ..m.[ R L L R F F R D F ^ F G L ~ R ^ / L F ~ E ~ L ~ R R ~ L N =.L F F Y Y F Y R G Y ] ~ G Y Y G ! ^ / R / R L L ~ L ~ ~ L L L ! L ~ F L F =.=.N L =.L N D =.H F L N Y ~ ~ G Y Y F ~ ) ^ R ~ ! ~ R G F F R ~ R R =.) R R G F R R L F F F F F F D F D L R G F Y F F [ ! E ~ ! R L L F L G F G H G F F V G F D S ..g.0.X.G Y ! X.G C D Y G Y G G G G G D G R / G R D G Y F G F G F G R G F F G G F R F G F F F L Y R F R ! ~ L Y Y ~ ! R R R F F G F D F D F H F F H F G H D V G D D G D G G D G D H D G D G D H D D G D G D H H H F D H H F F F F H H D F / F ~ ~ L L F H H H V H D H F H H H D H H H F H H H D F H H H F H G H G G L L k =.=.=.=.k k =.k k k L k L L H k G L H H h G H G F H L L L L =.k L =.L L G G L L L L H H F H H H H F F L F L H F H H k H F k k H H H G H H H H H H H H H n H N k k Q N H H N H H H L N k L Q F F F F F D H D H N H N H D D F H D D D D N N F G D H D D D A D D S Z D S A S A S A A V A A A S n S S V S D A D S V S D S n V S S S A A V n n c V n n S n S A C V O.c n n V V n n A A V n A H A A V S D S S V S A V A H m ~ R D H m m H ] ~ R H V V m V V x V V a a n n N h h x k m H F k h =.=."
};
