/* XPM */
static char *bataclan_door[] = {
/* columns rows colors chars-per-pixel */
"548 718 256 2 ",
"   c #030404",
".  c #040807",
"X  c #090A06",
"o  c #030609",
"O  c #050C0C",
"+  c #090D0D",
"@  c #0A0506",
"#  c #120D0A",
"$  c #06100E",
"%  c #0A110F",
"&  c #0E1208",
"*  c #12120D",
"=  c #050E11",
"-  c #0A0E12",
";  c #050B17",
":  c #051212",
">  c #0B1313",
",  c #0E1816",
"<  c #05131B",
"1  c #0C1519",
"2  c #0D191B",
"3  c #06191B",
"4  c #121615",
"5  c #131817",
"6  c #191A16",
"7  c #13161A",
"8  c #151A19",
"9  c #1B1D1B",
"0  c #191617",
"q  c #110E13",
"w  c #211D1C",
"e  c #1E201F",
"r  c #16201D",
"t  c #21211E",
"y  c #28261B",
"u  c #382816",
"i  c #0D1B23",
"p  c #0A1924",
"a  c #131D23",
"s  c #1C1E22",
"d  c #141E28",
"f  c #141F31",
"g  c #211E23",
"h  c #0E2129",
"j  c #152124",
"k  c #1D2222",
"l  c #14232B",
"z  c #1B252B",
"x  c #1C292C",
"c  c #19282A",
"v  c #152531",
"b  c #1A2632",
"n  c #1C2B34",
"m  c #1D2D3A",
"M  c #162933",
"N  c #1E313A",
"B  c #0F2330",
"V  c #222323",
"C  c #252926",
"Z  c #23252A",
"A  c #242A2C",
"S  c #2A2B2C",
"D  c #292727",
"F  c #232C33",
"G  c #2B2D32",
"H  c #222E3A",
"J  c #272A35",
"K  c #2C3234",
"L  c #24323C",
"P  c #2B343B",
"I  c #273438",
"U  c #323334",
"Y  c #33353A",
"T  c #343A3C",
"R  c #3B3B3C",
"E  c #383737",
"W  c #30302E",
"Q  c #433C39",
"!  c #3D403E",
"~  c #48443D",
"^  c #253542",
"/  c #2C3A44",
"(  c #2C3D4A",
")  c #293743",
"_  c #333C43",
"`  c #3B3D42",
"'  c #343C48",
"]  c #2E3D4F",
"[  c #1E3342",
"{  c #423E44",
"}  c #3C4244",
"|  c #33424C",
" . c #3B444B",
".. c #374449",
"X. c #344452",
"o. c #3C4A54",
"O. c #3C4C5B",
"+. c #394754",
"@. c #334652",
"#. c #3E5161",
"$. c #434344",
"%. c #43454A",
"&. c #444A4C",
"*. c #4B4B4C",
"=. c #494748",
"-. c #434C54",
";. c #4C4D52",
":. c #444C59",
">. c #44525C",
",. c #4B5358",
"<. c #535354",
"1. c #53555B",
"2. c #5A5B5C",
"3. c #56595B",
"4. c #514F50",
"5. c #445462",
"6. c #4C5A64",
"7. c #4A5967",
"8. c #535C63",
"9. c #5C5D63",
"0. c #545D6A",
"q. c #4C586A",
"w. c #625D64",
"e. c #5C636B",
"r. c #586269",
"t. c #596875",
"y. c #536672",
"u. c #636364",
"i. c #63656B",
"p. c #6B6B6D",
"a. c #66686B",
"s. c #6B6D73",
"d. c #646C76",
"f. c #6A7279",
"g. c #737375",
"h. c #74757B",
"j. c #7A7B7C",
"k. c #77787B",
"l. c #736E70",
"z. c #635F5B",
"x. c #837C79",
"c. c #7D817E",
"v. c #90857B",
"b. c #697784",
"n. c #7B7D82",
"m. c #757B85",
"M. c #6D7A8C",
"N. c #5E7281",
"B. c #837D84",
"V. c #7B8289",
"C. c #7A8794",
"Z. c #778B98",
"A. c #7E90A1",
"S. c #838385",
"D. c #83858B",
"F. c #8B8B8D",
"G. c #87888B",
"H. c #8C8D93",
"J. c #848B95",
"K. c #8B9299",
"L. c #939395",
"P. c #94959B",
"I. c #9B9B9D",
"U. c #97989B",
"Y. c #938E90",
"T. c #A59A96",
"R. c #8A98A4",
"E. c #9C9DA3",
"W. c #959BA5",
"Q. c #8A95A7",
"!. c #A29EA4",
"~. c #9BA3A9",
"^. c #9AA7B4",
"/. c #90A5B0",
"(. c #A3A3A5",
"). c #A4A4AB",
"_. c #ABABAD",
"`. c #A8A7AA",
"'. c #ACACB2",
"]. c #A5ABB5",
"[. c #B2AEB4",
"{. c #ABB3B9",
"}. c #B3B3B5",
"|. c #B4B5BA",
" X c #BBBBBD",
".X c #B8B7BA",
"XX c #B1AEAD",
"oX c #A8A29C",
"OX c #C4BBB9",
"+X c #CBB6AB",
"@X c #CBAB96",
"#X c #CDC4BC",
"$X c #E1C4B4",
"%X c #ABB7C4",
"&X c #BCBCC2",
"*X c #B5BBC5",
"=X c #B1BCCE",
"-X c #9EB0C1",
";X c #C2BEC3",
":X c #BCC2C9",
">X c #BBC7D4",
",X c #BFD0E2",
"<X c #C3C3C5",
"1X c #C4C5CA",
"2X c #CBCBCD",
"3X c #C8C8CA",
"4X c #D4CBCA",
"5X c #D6D2CC",
"6X c #CCCDD2",
"7X c #C5CBD4",
"8X c #D3CED4",
"9X c #CDD2D4",
"0X c #CBD3DB",
"qX c #D3D3D4",
"wX c #D4D5DA",
"eX c #D5DADC",
"rX c #DBDBDC",
"tX c #DAD6D7",
"yX c #CDD1CE",
"uX c #E3DCDA",
"iX c #E8D6CA",
"pX c #DDE1DE",
"aX c #E5E2DD",
"sX c #F6E6D9",
"dX c #DCDDE2",
"fX c #D5DBE4",
"gX c #CBD7E3",
"hX c #E2DEE3",
"jX c #DDE1E4",
"kX c #DCE3EB",
"lX c #DDE7F2",
"zX c #E3E3E4",
"xX c #EAE5E4",
"cX c #EAEAE6",
"vX c #E4E5EA",
"bX c #E5E9EC",
"nX c #ECECEC",
"mX c #E9E7E8",
"MX c #F2EDEC",
"NX c #F4EBE5",
"BX c #EDF1ED",
"VX c #F2F1EE",
"CX c #FCF5EB",
"ZX c #ECEDF2",
"AX c #E5EBF4",
"SX c #F2EEF2",
"DX c #EDF2F4",
"FX c #ECF4FB",
"GX c #F4F4F3",
"HX c #FAF5F4",
"JX c #FBFAF5",
"KX c #F4F5FA",
"LX c #F5FAFD",
"PX c #FDFDFD",
"IX c #F8F7F8",
"UX c #BCC1BE",
/* pixels */
"V 0 X + q > @           X 4 q +     @                                                                                                                           @             @         @                                 @                     . .   .   .     . . X . . .                                                             . .               . . @ . @                               .           .                         . X @ +   . @ . . .   @ .               X .         @ >   o o @ o o o o   o o   o o o @ o o o o                   o     @ . .     . @ X + @ O .                                 @     @ @         @ @ # @ @ @ @ @ @ @ # @ @     @     @ @       @ @ @ @                   . .                   @ + X                         . . .                                           .                         @                                 @   @ @                                                   @ @ @ .             @   @   @ . @   @ @ . .                                   @ @                           @ @                                             @ @ @ .             @ +         ",
".       @ @   . X .     @ @                                                                                     . @ . @ @ . . @                                           @   @   @   @         @   . @   @ .                                                 .                   . . .                                         X       O X .             . . .                 X . @ . X . . .                                             . .   .   . .     . .           .   . .         . + o o o o o o o o o o o o o o o @ o o o o o o o   o o o o o o o o + . .       . . . . . .             @     @         @   @   . @   @ @     @ @ @     @   @     @ @ @ @     @ @ @ @ @   @       @                             . @       . X .           .                                                                   .                                                                                                           @   @     @ . @                           @ . @                                 @                                 .                                                   @       @             @     ",
"                                                                                                                                                                                @                   @         @           @     o o o   o o                                       . @ .         .         .   .                 .       . @                           . . . .   . . . . . . . . .         .   .                                       .         .         . .               . .   o   o o o o   o o o o o o @ o o o   o o     o o   o o o o o @ + @ X .                 . @   .     @     @ @                   @       @   @ @ @               @ @ @           @   @     @   @                             . @ @ .   . .       . . . . . .                                                             . .   .                 @                                     @         @   @ @ @                   @                   . @                             . @             @                                                                                                                                     @ ",
"@ .                       @ @ @                                                                                                                                                     @     @                       @             o o   o o @             .     X       . . . . .                 . . @ .                                                       .       . .   .                                                   . . .                                                           o o o o o   o o o o @ o o o o o         o                     o @ X .                     . . .                             @     @   @         @ @ @ @ @   @ @ @   @           @ @                             . . @         .                                                                                                                                     @         @                                   @                   @                                               @                                                                                                                                                 ",
"                                                                                                                                                                                      @           @       @   @                 o       o                 X   .           .                 .                                                   .         .   @                                     .                             .       .         . .                                         o   o @ o   o o o o o o o o o o                 o o @   o o   o       .                                                       @   @   @             @           @ @   @ @       @   @       @                   . . X .                       .                 . .           .                                                 @       @     @                   @             @ @   @                       @                                                           @                                                                                                                                                 . @         ",
"                                                                                                                                                                                            @   @ . @ @ @ .   .                   o                     .   .           .               . . . .                                     X . .   .       . . .   .   .                                       .                               .             .       .                     . .           o o o o o o   o   o   o o   o o o       o o @ @ @ o   o @ @           .   .                       @     @ @             @     @   @ @   @                         @   @         @   @   @                         .         .     . .                                                                                         @   . @ . @   @                                 @     @     @                                                                                                                                                                                                                               @ @         ",
"@ .                                                                                                                                                                                     @ @                                     o                               .   .   .                                                       .   . . .   .                       . .                             .   .                                                                                             o @ o                                                         .                           @                         @               @       @     @             @                                                     . @     . .                                                                       .                   @   @   @   @                                 @ .                                                                                                                                                                                                                         @                           ",
"                                                                                                                                                                                      @       @     @                           o o                                                                                                                                 . X . .                         @   . .                                                                                       o o   o     o             o                                   . . @ .                             @     @     @ @   @           @                         @             @             @   @                                 .     . @                                                                                                           @                             .             @                                                                                                                                                                                                                                         ",
"              @                                                                                                                                                                                                                       o                                                         . .       .                   .                                                                               .                                                                                 o o     o       o     o o     o                                                               .                                                                                                                       .       % 8 .   . 4 @                                                                                                                                                                                                         @                                 @   @                 @                                                                                                                           ",
"            @                                                                                                                                                                                                                                                                                   .       . . .   @ . . . .   . X                 .                                                                                                                               .               o                     o @   o                                   . .                                                                                                                                                         4 D e @     .                           .                                                                                                                                                           @         @                                                                                                                                                                                             ",
"                                            . @                                                                           @                                                                                                     o                                                           . .         . @ . . . . . @   . . .                 X             . . . @ .                       .                                                 . @ .           @ . .             . .     .   . @ .     . .             X . . .                 .               @ . @ .     . .         .       @             @ @                                                                     .                         .           4 A 6 +     .                               .                                                                                                     @                   @                                                             @                   @     @           @                                                                                                                                 ",
"                @ @                                                                                                                                                                                                               o                                                                     @   . .                             .   .               @ . @ X                                                   .   . .   . .     . . . .               . . X         @ .   . @ .   @ @ @   . . . . .       . .     . X               .               . X . . . . .       .         .   @         @   . . @                                                     .   .     .   . .                     @   .         X @ . . X @     .                     . .                                                 .                                                                                                     @                                               @                                                                                                                                                         ",
"                                                                                                                                                                                                                      @ @       o     o   o                                               .     .                                       .   . @       . . .     . + + + @ .   .         . .         . . . .     .   .   . .   X . . . .   . @ X .     .   . . @         . . . X . X   . . @   . o . . . . @ @ . .   @ . .       . . X   . X . X .   .   . . .   @ . . @ .   . X           .         @ . @ @       @ o . . . @             .                               .                                           .       . . . . @ .                         @                                                   .   X                                                         @               @                                             @ @                                                                                                                                                                                   ",
"                                                                                                                                                                                            @                         @ @       o o o                                         .                   .                                         .         . . X     . X + + X   . .     . . X .     . .     . @ . .   . . @ . @   . @ . @   . . . @           . . X       .   . . .   . X   . . . .     @ .   . . . @ . . X .                 .   . @ X   .       X . .                   .             . @ @ .           @ @ @   @                       .                 . .                                 .               . @ + @ .                             . . .                                             .   .   .                     @             @               @   @             @             @ . @     @                                                                                                                                                                                                             ",
"                                                                                                                  @   @ @                                                                                                     @ o o   o                         . .         . .   .   .                                         . .       .             O X .       + @ .             . X .     X .     . @ . .   . . . @ .     @ . .   .   X .             . @           @       .   .   @ .       . .     . @ . . . @ . .     . . .             .       .   . . . .   .       . . . . .                         .   @ .                             .                 . .                                                     @ . .                           .   . .   .                                         .   .   @                         @                 @                           @                       @                     @                 @                                                                                                                                                                   ",
"                                                                                                                                .           . X                                   @     @                                       o   o                 .         .           . @ @ .                           .                 . . . .                 . @ @ .     @ .                   .     X .       . @ .     . @ . .     . X       . . . .               .   .           @   .   .     .     . .     . X .     @ @ . . @ X X X X                         X . @ . @ .   .   @ .           @ @           @ @ @ @ @                               .                                                               .               . . .                         @ . .                                           . . .       @             @           @               @   @ @               @   @                           @               @   @                                                                                                                                                                                   ",
"                                                                                                  @           @           @                                               .                               . .           . .                                 . .       .       .           . @ .   . .   @   .   . .         . .         .       @ .     @ . .             .   X           .       . . @       . X         . . .     . . . .     X . .       . @     . .   @ @     . . .       . @ . .   . @ X @   . . . . . . . X X X . X @ @ . @ . X   @ . . X . . . @ . . @ . . @ .     .     @ . . @ X . . @ .                     .           . . @ . .           .         .       . @ . .         .             .             . .         . . . .                                                                       . @ +                                             .   .                                             @                                                   @                                                                                                                                                 ",
"                                                                                                                                                                            .                                           . X             .                     .   . .                 . .   . .   @   .   .   . @ @     .   . .                 . .   . @ . . .             .     . .     .                 . . . .   .     . X .   @ . . @       .   .   . . .   . .   . @ O @ . . .   . .     . @   . . . O X @                     . . . O @   . . . .       @ . . @ . .   . . . .     @       .     .     . @ . . .       .     .   .   .         .     @       @ .         .         .     .     . @ . .     .                 . .       @ .         .                                                     . .             X .                                               .     .                         .                                                                                                                                                                                                                     ",
"                                @                                                         @                       @                                         .   .         . .               . @                         . @     @     .       .               . . . @ .         . .   .   X       .             . . . . @ . . .   .       .   . X .     . @ .                   . + X     .           .     . X   .         .     . . . .   .   @ . . . . . @ .     @ . . X + . @ .   @ @ O @   .   .   . . @ . .                     .     . .                 . . .             X .       .     .   .     .   .   @   .         .   .   . . . @   @ . . . .     . X .         .         @ . @ . . . @ . @ .   . @   .                       .         X .   . .                                                             . . .                                             .                                                 @                                                                                                       @                                                                                             ",
"                                                                                                                                                                          .             . . . .                           .     .   .   .   .               @ . @ . . .         . @ .   .           .           . @ . . @ . @ @ . . @       . . . .     . . .             .     X @ .     . @ .     . . @     . . @   . @     .     .     @     . X @ . . . . @     .   . @ X . @ .     . + .           .   .     . . . @ . @ . . X . . .                       . @ . . .         . @     . .       .             . .           . .     .     .   . . . . @   . . . . @         X .     .   .   . . . . . @ . .     . .                 .                   X .                                                   .       .     .                                                   .       .                                                                                                                                                                                                                                           ",
"                                                                                @                                                                                                       .   . X       .   .             . .                           . . . . @ @ . X .         @ . .   .           .           . . @ . @ . X .   .           X . .     . .     .   .             . .     O . @ X + X O .       . @ . .         .     .   .   . X . . @ @ @ . @     . . . + @   .       . @ @ .         .             . . . @ . O @ . @         . . . . .       @ . @ . . . .       .   . . . .     .                       .                 . . . . . @ . . .   .             .           .   @ @ . . @ O . .       . .               .                 .     .         .                                     .             . . .                   .   . . .                         .                                                           @ .             @             @                                                         @                                                                                           ",
"                                            @                           @ @                                                                               .                                 . . . . . . .   .           X   .                   . . .   . @   . . . @ .         . .   . @       .   X   .   @ . . @ @ . . . . .                 X         . .           .                 @ @ . @ X + .       @   . X   .       . @ .       . . @ @ .   . . . .   . .   . . @ .         . X . .             .   X . .                 . .     . @ . . .         . @ . . @ . X @   . .   . @ .   .   .       @ .         . .   .   .         . . . . @ @ . X   .                 X         . . . . . . @ + X @ .                         . @ .                   .     . . . @     .   . X                           .         .         . .       . . @ . . . @ . X . .   . . .       .       X                 .         .                       @   @ @                 @               @                   @           @                                                                                                             ",
"                                                                      @   @             @                     @                                         .             .             .           . . @                   . .                                     . @ . X .   . @       X     @ . . .   . . . . .     . . @ .           .                   X     .                   .     . .       . .       . @ . . . .       .           X . . .   . .   . . . X @   . . .   . . @ . . . . .             . . . .                   . . . X @ . @ . . .       . . . . X . . @     .     . @ .   @   X   .   .   .   . . . @ . X X .       . @ @ . @ . X . @ .   .             . .     . . .   . @   . @ . X       .                   . X                     .     . . . . . . . X . . . . .   .     .   .   .                         . .     . . . . X . . X . .   . @ X X           .       .             .       .       @                             @                                           @                     @                                                                                                       ",
"                                                        @     @       . @                         @                     @                                           .           .                 .                     . @       .   .       .                   . . . .   . @         . . . . . X . X . @ . @   . . . . X           . .                 .       . .   .         . @   . .                 . . . . . @         @ .         . @ . . .     @   . . O @ . . @ .   + X + + . @ @ . .         . @ X     . @ X . . . O X @ . + X . X X . @ . .             . . O @ .   @       . . . .   . . . . @ . . X . X @ O X @ + X . .   . @ X . . . . @ . @ . . .         . . X .       . @   . .   . . X .   .   X .                 . .                     .     . @ @ X . . @ . O @ @ . . X . . . X . X X           .   .         . @ .       . . @   @   .                       .   .   .   .                   .       @     @   @     @                                                           @ @   @         @                                                                                                           ",
"                                                            @                                                                                                                             .                   .   .                 .         .     . @ .     . X . . . @ . . . . @ . . @ . . @ @ . @ . . @ . @     . @ @ . .   + X .   . . @ + .     .     @ @ X   X . @ . .   . . . . . @ . . . . @       @ . @ O . . @ . @ O . . . X . @ @ .     . .   . @ . .     . @ . @ . % @ . . + X X   .   .     X . @ .     . .     X + + X + X O . .       .           . .   .   . . . .         . . . . . X .   @ . .     @ . . @ . @ O @ .     . . .       . . @ @ . . @ . .   @                   @ @   @ .       . X X .                         .   .     .   .                         @ .   @       .     .     .   .   . .           .         .       .         .   .     .         .             .               .               @ @         @                             @                   @                       @         @                                                                                                 ",
"                                              @                             . .               @                                                           . .                           . . @   @           . . . . @ . .     .     .               @ X .     .                     . @ . . .   . @ . . . . . .   . . . . .     X . . . . . @ . .         . . . X . . @ . . .   @ @ @ . . . . . @   . . . . . . . . X . . @ . . @ @ . . . . O .   . . . @ . . @ @   .   . @ . . @ O @ @ . @ . . + @ @ O . . @ . .     . .     @ @ . @ .   . . .   . . @ .   . . X . @ @ @ O . . @ . .   . @ @ +   @   . . . . . @   . . . @ . . O @ @ .       .         . . . . @ . . . @ .   .     X   .       @ O . . . .     O @ O @                 . .   .   .         .                         . .     . .                                   . X   .               .                                         .               @ .       .   @                   @ @                                     @                 @     @                             @                                                                                   ",
"                                                                          @ @ @                                                               . .               . . .   .               . @ @   .         . X X   @ . . . . . . .     o . @ .       X .       .                   @ . . @ . .   . .   @ .   . .   @ . @         X . @ . . @ . .           . . X . . @ . X . @   O @ @ O O @ . . . @ .     . @ . . @ . @ . . @ @ . . @ O @ O . @ @ . . @ . . . . . .     . . + . . X O . @ .   . + X @ @ . @ O . @   . . @     . . . . . .     @ . O @ @ . @ . X + X + + @ @ @ @   .   @ @ . X @ . .   @   @   @   .   . . . @ @ X . . .       .           @ . . @ . .   . @     .     .     . . X X .   @       @ .                 . . . @ @ X                   . X .       . .     . .                 .   .                     .   .                         . .                                             . . . .   . .   @ @   @             @                     @                 @                         @               @                                                                                               ",
"                                                          @                 . @                 @               @                           @ @             .   @ @ . .   .               . . . @ .       . O @ .   . @   @ . @ .   . . X X         . . . .   .   . @ . . . X . . . . @ . . .   . .         . @ .   . . .       . @ . . . . @ @ . .         . . @ X O @ @ . . . . @ . . . X @ O . .   . . . . @ O @ . . @ . O . . @ . . @ . @ . . @ . . @   .   . @ . . @ X @ . . . @ .       .   . . . . . . X @ . . O .     . . @ . . @ . O . . X @ O . @ O + @ . @ . . . . .         . . . . . @ . . . . . . . . @ .   . . . . X X .       @         .   . . . . @ .   . . . . . .     @ . . O . . . . .     X .       .           . . . O .             .     @ . .         @   . @               .                                         .       .               .     .               .       .                         @                 @     @             @                         @           @     @         @                                                                                                         @ ",
"                                              @       @               @       @ @                             @       @                     . .           . .   . .                   .         . .     . . X @   .                 . . .       .         .   . X . . . . @ . .     @ . . . . . @           @ . . @ . . . . O @ . @ . @ O . X .         .   . @ O . @ . @ . .             X . @   .       . @ X . @ . . @ . . O . . @ . . . . . @ . . @ .   .   . . . . . + . @ . . @ O       @   . . @ . . @ . O . @ @ .   . . @ . @ + O @ @ X . @ . .   . . X . . . . . .     . . . . .       . . . . .   . . . . . . . @ .   . . . .     . X @   . . . . . . @ .   . . @ . . .           . @ X .       @     .       .           .           .             . . . @ . @     . X . . @ .       .   .             .   . X     .                 @ . .   X @ . .         .     . .               .                               .         @     @   @     @         @                                         @ @     @ @     @                                                                                                         ",
"                                        @               @       @                             @ @                               .             .     .                                 .         .           O @ . .                 @ @         @         @ .                   . . . @ @ .   @ . . .   .   . . . . . . @ + X % . . . @ O @ . . .         . . . X . . @ . .             . . @ X @   . . @ . . @ . X . @ . . X @ @ O @ . @ . . @ . @ . .   . @   @ . . X @ @ + . . @ @ . . . . . @ X % @ @ . . . X .   . @ . . . . @ . @ . O . @ . . @ .     . @ @ . @ . . . . . X @ + @ . .     . @   . . @ . @ . . @ . . .   . . @ @ . .   . .   . . X   @ @   .   . @ . . . @   .         .   .       . .             .                       . @ .       . .   . . .         . . . . .                 . .   . . .       .   .   .           . @   . X . . .   . .           .             . X         .     .               @ @           @                                             @     @   @ @                                             @ @                                                                               ",
"                                                            @                                                                           . . . .                                       . .       .           . . O . .           . . . . . . . . . .       . .                     . . . . . . . . @ . @ @ . @ . @ O . . . . . @ . . @ . @ @ . . .     @     X . .   . . .                   @ @       . . @ O @ O . @ . @ . . . . @ O . @ . . . . . .   . o . @ @ O . . + X + . + . O X @ O . . . . > + .   . @ @ . . @ @ . . @ @ @ O . . . .   . . .         @ + + . O @ @ . @ . X . @ @ @ .     @   @ .     . . @ @ . .   . . . o . .     . @ .   .     .   .   .   @   @ . . . . @ . . . .             .         .                       . . . . . @ . . . X @ . X . . . . @ @ . . @ .                                       .           .   @ .   . . @ .                   @       .     . @ .     . .     .         . .   .               @ @   @ @                               @       @     . @   @                                                                                                                         . ",
"                                @                       @                                                                               . X X . .   .   .     .           . . .     . X       .             . X X @ X . .       X .   . @ @ X . @         . . @ . . . @ . . . @   . . @ @ .   . X . . . . . . @ @ @   .   . o @ . @ . @ X O . .           . . @   .   .   .     . . .   . . . .     . . . . O X @ . . O @ . @ . . . . . . . X @     . . . @ X . . @ . O @ + X @ + @ . . O @ @     . @ O . @ . X .   . . @ . . O + . X . X .     @ . .       . @ . @ . @ . . . . . . . . . . .   . . . . @ . . @ @ . . . @   .     . . @     . X                 .   . . . . @ . . . @ X X X . .           .         . .               . .   X @ X X . . . @ @ . @ @ + X . . . @ . .   . .       .   .     .                     .             . . .   . . @ .       .     .     . . . . . @ . . + .       .     .         .     @ .                 .                                           @   @       @   @       @       @             @                                                                                       @ ",
"@ + + @     @ @         @         @                     @                         @     @     @                                               .   X             @               .             .             . .         @ . @ +   . . @ O . .       . . . .   @     . .   @ .   @ . @ . . @ .     @ o o @       @ o o   o @ @ o . @ @ O . @ . .             . . @ . . O . @ .       . O @   . X X @ . . @ O . . @ @ . @ O X . . . $ . $ . . . .     . X @ . .   # + X @ @ . @ @ @ @ @ @ . . .   @ .     . . .   . O . . . @ o   . . o O . o . . .     . .     . @ O . .   . . . . . @ O . X   X . . . . .   . O . o . . . . O . o . . . . . . . .             X @ @ @   @ .     + @ @     @ + +   @ . @ + .   @   . @ . .           . . .   . +     . . . . .   . @ .   . @ . @ @ X X . X X   X @   @   @ @ . @ . .     @ o   @                     @       @         .                       .         .   .     .   .   . . .   . X                         . .                   .             @         @ @     @ @               .       @               @         @                                                     @     @ @ ",
". @ @ @                                                             @                             . .     .   .                             . @     . .             . .         .                           . X .     . . @ . @ . . . .           . @ . . . . .         . . . .   X @ . . . .   o @ . @ o o   o o o   o o o + o . + . X @ @     . . . . . . X X + X . @ @ @ . . .     @ .   . X . . . @ . . X . . O X O @ O X . . . . . . . . . . .   . . . . . @ + + @ @ @ O + @ . @ @ + @   . + .     . . . . . . . . . . . .   . o . . . . . . o   O O   . . X @ . . . . @ + . . + @ X   . .   . . O O @   . .     . . . . . . . O . . . . . . .     X . . . . @ . . @   @ .     .   . . @       @ @ .       . o @ @ @           . .   @ . X   . . @ @ . @ . . .         . . . . . . .   . .       @       @ @   @                     @     @   @   @                       . .         .         . .                                                   @             . . . .         .           @                             @   @     @ @       @                                                                           . @ ",
"  @ @ .                         @                                                     @                   .                                 .       .   .                           .                     . . X . . @   . . @ X @ . X .         + @ + O @   . @   .   . . . . @ . @ @ . . @ .   o o o o o o o   o @ @ o @ @ O O . @ X . O . . . X @ . X X . . . X + + @ O . . @     . . .     + @ . @ . . @ . @ X O @ @ @ . + . . & . . . . . . O X     . . . @ . o @ @ . + @ X . @ o . @ @ @ @ @ . . . . . . o .   o . . O . O . . . . . . . o . .   . .     . + X O @ . @ @ . . @ X + . . . .   . . X . .   . . . o o . . . O . . O . . . . . . . . . .   . .     . . @ o . @   @ . @ @ . . .     @ @       @ @ @   @ @ @         .   @ . . @ . . @ . . @ . @ .           .   . . . . .                 @         .   @                       . @ .   .                       . .           .   .                             .     . .                 . @ .     .     . . @           .   .                                               @   @         @                                                                           ",
"    @ .                                                                     @     @         @       .                                         .   .   .                 . . . .     . . . .                 . . @ . . .   . .   . .           . X X X @ . . . . . . @ .   @ .   . O X . . @ .     @ @ o @ o   o @ o o @ o . @ o . + O @ . @ @   @ . @ . .   . . @ + + @ . . . . . X @ @ . . . O O . @ . O @ . . . @ O . . @ . . . . & . . $ $ & O   . O . . @ . @ @ @ o @ . @ @ @ o . . . @ + + + + + . . . . o . .   . . @ . . . . . @ . . . . .   . . . . o . . + @ . @ . . . . . . @ @ . . .     . + . . o .   . . O . . . . . O . O . $ . . . . X . . . .   @     . @ @ @ . @ + + + + @ @ @   @           @ @ @     + @           .     . + . @ . @ . . .                 . . @ .   .   .           .   @ .   @   @         @       @   @     .   @ @     .                     .     .           X .                 . . .   . . .   .               . . . . . @ . @ .         .                   @                             @                         @                                                                       ",
"                          @                                                     @     @ @     @ .                         .                 @             .             . @ . @         X . . .     . .     . @ @ . .   . . @ . .           . @   . . . .   @ @ . . . . @ . @   . @ @ . . @ .   o O o @ @ O @ o o @ O o o @ o @ . @ O X @ . . . @ . . .       . X + % X .   . @ . X + X O . X O . @ . . @ O @ . . @ . @ . . . . . . . . . . O O     . X @ . @ . . @ @ O @ .     .   . . @ @ + + X O O . . .   . . . . . . o   . . . . o . . o . O . . . @ . . O . . @ . . .   .   @ X @ X   . O . . . .   . . O @ . . . . . . . . . . . . . . . @ . . .   @     @ @ . o @   @   q + @ @ O X @ + . @ @ .     @ + @ .     @ @               . @ @ . . @ . . .               . . . . . . .         @     @ . @ . @ @                         @             @ . @ @       .         . .   @ X     X                 .     X   X . @ @   X . @       .         . . . X @ . @ . .     .     .         @           @ .                             @                           @   @                                                           ",
"                    @                       @   @                           @                         .         .   @                   . . .             .               .   .       . . @ @ @ . . @ .     . . . .   . . . . .             @ @   . @ @ . . @ X @ . X . . . . . . + + . . + X   o @ o o o @ @ o @ + @ - O O o o @ . + . O . . . . . . . .   .   . @ @ O . o . . @ + + + . X X X . . @ . @ . . @ . . .   . @ . . . . . . . . . .   O X + + X . . + + @ + @ . .     @   @ . . + @ . . + . . .   . . O . . . o   . . . . . . . . . . . o O . . . . . @ @ . @ .     . . + . . .   X O . .       . O . . . . . .   . . . . . . . . .     . . .     . @ @ @ @ @     . @ @         . @ @ + @ + @ @ @ @ @ @   . .               .   . @ . .   . . .             . . . @ @ . .   .   .     @ . X   . @ . . . @ .   @     @           @             @ . @         .       .   . . . . .         . .         . .   . X . + . . . X .         .   . . @ . @ X . @ O X               .     . @         @ @                   @ @                                                                                                     ",
"    .                                                     @                 @                           .       . . .                 . . .         .     @ .           .   . . X . X     . . . . @ X .   . . @   @   . . @ . X . .       . . X . @ @ O . . O X @ O . @ .   . . . @ + @ . + @ . o @ o @ @ = O o o o = @ @ o @ o @ . . . . . . .   o .   . . . . .     . . . . .   + + . . . . . @ X . . . O . . . @ . . . o . @ . . . . . . .   . O . X . . + . @ + X @ + O X . @   . . . + . @   . O . .   o . . . . . . . . . . . . . . . . . . .   O . . o . o . O . . . .   @ . . . . . . . . @ . .   o . + . O . . . . . . . . . . . . . . . o . X . . X . . . . @ . . . . .           . .   . O @ @ . o . . . . . . .         .   . . @ @   . . @ . . . .       .   . . . . . . .   . .           . @ . @ @ . @ . . .     . .     @ @       .   . .   .       .     .   .     . . .             .     .       . X @ . @ @ . . . @ . .     @ . .     . X .     . . . .                     @         .                 @   @ .                                                                                                 @   ",
"    @                                                                           @       @     @ .     .                               . X   .         .   .   .           .   . X @ . .         . . . .     . @ .       . . @ . . @ . .   .   . X % + + @ @ . O O @ . @ . @ . X . + X + . @ O . o o O @ o @ O @ @ - @ - @ + @ o . + . . . .     .   .   . . O .         . . .     O @ . . . . . O . . @ . @ X . . . . . . . @ . . . . . . . .   X O . . . @ @ + . @ + + + @ @ O   . . + @ @ . .   o . O .     . o   . . . . . O . o . . @ . . . O . . X O . . O . O X O . . . o   . . + . . . . . . O . .   . . . . O . .     . . . $ . . . . $   . . O @ + X @       . . . O @ . . @ @ + @ @ O   . @ . @ . . . . . @ @ .             . . . . X     . . @ . @ @           o O O . @ @ . . . . .               . . @ . @ . @ . @ . .     . o . . @ X @ .             . . . . .       . . . . .           .             .   . . . . @ . . X . .   .     X . . . @       . . X X   .     .     .           @ @           @   @     @ .       @                                                                                     @   @   ",
"      . @                                                 @   @               @     @         @     .                                       . X .   @ . . @ @ .               .             .       @ .       @ .   .   . .       . . . . O @ @ + .   . X + + . . . X @ O @ . . . @ O @ @ . @ .   o @ - @ o o @ o o @ o = @ o @   .   . . O O . $ . . . . $ . . . O O . . .   . & . . . . . . . . . @ . . . . . @ . . @ O + . . $ . . . . $ $ .   O @   @ X @ . O X + + + X @ . @ + + @ @ + + @ + O . . . .   . + + + . . . . . O + . . . O O + O . . . . . . . . O O $ $ O X O . . . . . . $ .   . > + + . + + . . O . . o o . . . . . O . . . . . . @ O . @ . % . . . @ + + . . + O X @ + @ + @ X + @ X + @ + . @ . @ + @             . . @ +   . @ + .   . .   O X       . . . . . . . . . .       . O @ .   . . @ X + @ . .   . . . . . . . . . @ . .     . . . . . . . . . . . . . . O . O X . @ . . .     @ @ @ . @   . . @ . .   . . . @   .       . @ .       .   @   . .             X . .   @ @                   @           @           @                   @     @ @         @                                           X ",
"      @                 @                                               @ @                       . .     .                                 . .   .   .   . . @             .   . . .     @ . .   . @ .     . . . .   .         @ . .               @ . . @ . . . @ @ . . O . . @ . . + + + . .   @ o @ o + @ + o + O @ @ o o O . . O . O O $ X & $ . . . . . . O O   O . . . O . . . . . . . . X O X O @ + @ + . @ X O @ O @ X . . & . . . . & . O X     . @ . . @ . X + @ O @ @ + + . O X X . + O . . . @ . . @ + . O . .   . . . . . . . . @ O @ X O + . .   O O O X X O O O . . . . . . . .   O % + . . @ O . . . . . . . . . . . . . . . . . . @ . X . . . X @ @ . O X @ . @ @ . @ . . . . O . @ O O @ O . . . O @ + @           . @ X + X . . @ X @ . . .   O $     O O . . . . O . .   .         . X . . . @ . . . . @ .     . . . @ . @ . . @ . . o .   . .   . . . . . . .   .   O . . @ . .   . @ .   . . . @ . . . . . . .     @ . .       @ . . .   .   .   .         .         .                 @                                   @                           @                                                     @   ",
"@   .   @                                 @ . @                   @   @               @       @ . @                   .           .                       X . . .             X . . . . . . . .   . . . . . . @   .             @ X X . . . . .   . + + @ . . @ X . O @ @ @ O @ . . . X . @ .   + @ @ o @ o o @ @ o o @ o @ @ o O O O O . O O X . . . $ $ . . . O O .     O O & . $ . . . . . . + @ + @ + @ @ X . @ O @ @ O X O . . . . . . . . . + + . . . X . @ . @ O . . . . . + @ . . . . . O @ O . . o . . O . . .   . . . . @ . o @ . . . + + . O @ . . o . O . O . O . X . . . . O $ . . . . + + + o . . . . @ O . . . . . . . $ . O . . . . . O O @ @ . O O . . . + . . . . . . . . . . . . O . . . . . . . . O . .           . X @ . @ + . @ . + + @ . O O & . . . . . . . . . . . . . O .       . .   . @ . o . . . O . o @ . . . . O . . . . .   .   . . . . . . . . O . . . . . . O @ . . O . . .         . . @ @ . @ . . @   @ . @     . . @ @ .       .     . .     . . . . @                                         @             @                     @   @                                                       @ X ",
"  @ @ . @               @                   @                         @         @       @         . .                 .       . .   .       .         . .     . . . .   @   . . O @ @ O X @ . @ @ . @ . . . . .         . . . @ @ . . O @ @ + + . @ + X . + X + . O @ O X O . . . . . @ . . . @ - O o o o + o @ - @ o + O @ O O . . . O . O   O $ . . . . $ . . O X O . O X $ $ . $ . . . . . . O . . @ . . . . @ . @ O + X + + . . & . . . . . + + . . @ . .   . . . . O . . . . + O . . O . . + X O @ . . . . O + . . . . . . . + . . . . . O . O . . . . . . O X . . .   O O . . . . . . . $   . O @ . . . O O + . . . . . . . & . . O .   O . o @ X X O @ . @ . O O + . @ O . O O O @ O X . . . . . . . . . . . . X .             . + + . . + @ . . . + X O   O $ O . O . . . . $ . . . . . . . .     . . . + . . .   . . + . . . . @ . . . . . . . . . .   . . . . $ . . . O O O . . . . . . . . @ + @ . . .     . . . . . . . .     . . .     . . . . . . . . . @ @ . . X   . @ . .   .     @       @           @       @         @                       @     @                         @                                   @   ",
"@ @ @ @ .                                                       @   @                                     . . .   . .   . .   @           . @ . . . .     . . . . . @ . . . . . . @ + @ X O X X @ . . . . @ . @     @ . . @ + + . . .     . . . + .     . @ . + O X . @ + . . X @ O . @ @ . . @ - @ o o + @ + o o @ @ = @ o @ o . . . . O . . . $ . . . . $ & . . & . . O $ O O . & . . . . . O . @ @ . O . . . @ . X @ X + @ + . . . . O   . . + . + @ . . . X O + @ O O X O O . + X . . + . @ + + + O + . O X + + O O X O & O O O . + O O . + .   . . O X O . . $ . . . . $ . . $ . & $ . . O   . @ . O . + X @ O O . O . . . . . $ . O O .   . . X O + X O . . O X X X O . . O @ O O O . O . . . . . . . . . + . @ O X O         . @ + + @ . . @ + +     . X . . $ . O . . . . . & . . . & . .   . O O O . . X O . . o . . + O . X . . . . . O O . . . . o . O . . . & $ . . $ $ $ & . . . . o . . @ + + . . . @ X + X . . . @ . @ . . @ . . @ . .     . @ X . @ @ . . . . . . . @ . X   .   @   .   @ @ .   @                     @   @     @           @ .   @     @     @                                                   .   X ",
"  @ . . @                 @                                         @                   @ @               . @ .   . . X X . .             X + X . . @ . @ .   . + @ . . . @ X X + X X O O X O & + @ @ . O X + @ @ X . + @ O @ . + . @ . @ . . @ 4 @ . @ . @ O @ @ + + . . @ + . . @ . + . @ + . + + @ o o + o @ o - o + @ - + o $ $ $ . O $ . $ . $ . & $ . $ . . . $ $ $ & O . $ . $ . . O .   + + X + X @ @ . + + + + + . @ O . & $ .   O O . + . O @ $   . X O . + + % X X O O + % O + + O . + + X + @ + + + + @ + @ O . X O X @ + + + + O @ . . . . X . O O . . & . . . . $ . & . . . O . . . . . . . + O + + . @ O . . . O . . $ & O X . O . . + @ @ O @ @ . . + + + . O O . . . . . . . . O . . . @ . . . . O O + X O       . . + + + X @ . @ + X     . $ . & . . . $ . . $ & $ . $ $ $ .   . O X X O . . % . .   . . X + O X + O X O . . @ . O . . o . . . . . . . . . . . . . . . O $ . . @ . . @ X @ . + + + @ O . X @ .   .     . . @ @ . .     . + + . . . . . @ . @ . . . @ X O X   . @ @ @ @ @ @ @ @   @ .   @ .   @         @                 @ @                                 @                                   X . ",
"  @ @ . . .                                                               @     @         . @               @ . . . . X @ . . @ .     . . . . @ @ O . @ . @ . . @ . . . @ . @ . X O @ . . X O . + @ . X @ X + . + X + @ . . . . + + X + @ + X @ X + + X + X @ + @ X X @ @ @ @ + + X X + @ + @ O @ o + @ @ @ - + + @ - @ @ + @ + . & & $ $ $ $ $ & . . $ $ & & $ . $ & $ $ . . . . $ $ . . . . O O + + + @ . . @ + X X + + X O . . . . $ O O X O + . . X &   . $ O X O + O O O O O + O X . O O . X O . O O O X + X X O O O O & $ O + O + + + + . X X O O O . . . $ . $ . $ . . $ . . . $ . $ O O + + . . + . + . @ X O . + . + . $ . . . X O O . O @ @ + + + + .   O % % O O O X . . . . . . . . . . . . O . X . + O O O O O         @ % + + + . . . + X O . . X $ $ . . . . $ . $ . . . $ $ $ . O O + O O   . O O O O . . . O O X O X O O O X O O @ . . . . . . $ . . . $ . $ . . & . . & . . $ . . . . + @ + . X . . @ X . O X . .   . .   . . @ . .     . + + X @ @ . @ . . @ X @ . . O . O X @   @ . o . . .   @         @ @   @ @   .   @     @       @ @ +   @   @                                                         @   X @ ",
"    @ O @ @ @           @                   @ . @ @                       @ .   @       @ @       .         . . @ . . @ . @ . . . @ @ .   . . . + @ + . X . @ O @ O @ . . . + . @ . O O @ . . . + O . . + + + . @ . . . . . @ . . .   o . . O +   @ + + + .   . + + O . . O + % @ @ + + + + + @ o @ - + - o @ = @ O o + - o = o . . . . . & . $ $ . . . . $ $ . $ . $ . . $ . . $ & . . . $ O X O @ @ . @   . . + > + + @ O @ . $ . . . O . O O + . . + & . . $ O . O O O X O X . O O . . O O   . O . . . . O O O O . . . . O . . . @ + . + . . O $ X X .   . . . & . $ & $ . . $ . & . . . O . > % + O . . .   O O + . . . . . . & . $ O O O O . O . + . X . O . O + > X . X O O O . O X O O . O O O O O O O O . + X + % .         . X @ @ + + @ + @ + * + O . & $ & . . $ $ . $ . . . $ & . . X X % O     O O X O . O X O O + % O $ O X O O O O O O . O . O o . & . . . & . . . . . . $ . $ . O . @ . X O @ O .   . O . . X X . @ @ .   . . @ . . . @ . @ . . . . . . . . . . + . .   . . O &   . .     . .         @ @             @ @                 . . @   @                         @   @                                 X . X ",
"    . . .                                   .                   @   .   X .           @ . X       . .         . X @ . @ . .     . . . .   . . . . . .   .   .   . . . . . . . . . . . . . . . .   . . .     . . . . . .   . . .     o . o o o . . O o o   @ o o o O O @ o O o O + o o o + - + + X O O X O X O X X $ O X . O . O . . $ . X O . . O . O . O . O O X O     O O & $ O O & O X X O O O @ @ o + @ @ + @ @ + @ o @ . . . O . & . . . & O & . . & . . . . O O O O . $ . . $ & $ $ $ $ & $ . $ . $ $ . . & . . . . . . $ + O . O O O O O O O O X O . O X X $ O X O O + % X $ O O O O O % O O O O O O . O . O O O O O . . $ $ $ $ O $ O O O O O O O O . O $ . . $ . $ . . $ . . $ . O . O . $ $ $ $ $ . $ O X X + + .             @ O + O . + o + O + o = - + o O + - O   O .   O . . . . $ O . . . $ $ . . & . . . . $ . . $ . . $ . $ O O @ . o = O O o $ . O O O O O . - + O O O @ o . O O O O . O . X   O   .   . . O . @ O . O . . X . O @ O . . . . $ . . .   . . O . . . . . . . . . . . .         .   .   . . @ . . . .       @ @   . @   . . .       @ o @     @       @                                 o             @ ",
". O + X                                       .   .           . @       . .         . . . .         @ .       . . @ . . . . .   . @ . . . o . . . o .     . .   . . . . . . . . . . . O . . . .   . O O . . . . $ $ . . . O & . . . . . O o . . O o @ o @ o o + @ + O + o O o = + @ o o o O + + O X O O X O O O O O O O O O X O $ . $ & O O O O O & & . . O O & & O O . . O . . O . O O + O $ $ > O + + + + @ - q @ @ + @ ; O . X % O O & . . & . O & . & . & . $ $ & O . $ $ . $ $ . . . . . . . $ & . $ . $ & . . $ . . . . . + O X . X O O   X & O X O O O O + $ O . O . O O O X X O O X X $ O $ O O O O O O O O O $ $ O O O . $ O O $ O O O O $ $ O $ O O O . & . & $ & $ . . . . .   . . . $ & . & . . & $ O O O + +             . O O O + O o - o - o + o - = . O O O O   . O . . . . . & $ O . . . $ $ & $ . . . . & . . . . $ . . . . O O O o O = o = o O $ O O O O O . O O O . o O O . + X X O X O O O O O O O O . . O . . X . @ . . O O . O + . @ . . . . . . . . . . . . . . . & . . . . . . .   O O   .   . . . . @ @ . @     . . .   . .   . @ .   @                             @                                     @   ",
". . O O                                   . X   .         . .   .     . . @     . @ .   .           @             .   X   . @ . + + . .   .   . . . o . .     . . . . . . . . . . . $ . . . . . . O O O O . . . . & . . . O . $ O O O $ O O . O O O @ + @ - + + + o O + + + O @ . O O . o O o + O $ $ O O O $ O % X X % $ X O X $ & O . O O O O O O X O O & O O O O O . . . . . . . . O $ $ & % O O - + @ + q - @ - @ + + - o . % & X X . . $ $ O & O O . $ . & % $ $ O . & . . $ $ & . . . $ $ $ & $ $ $ $ . . . $ & . & . . . % O O . X O O . $ O X O $ & O O O X O O . O $ $ O O O O O O + O $ O O O O O O O O O O O $ O O O . . . $ O $ O O O $ O O O O O O $ . . $ . $ . . . . . . .   .   . . . . . . . . O O + + + .         . . O @ o + o @ = + - o o ; = O o o . O @   . . . . . & & . O . . . . & . . & . . . . . . & . . & . . O $ O O o o = o o o o O O O O O O O O O . O . O O O O O $ O % O % $ X O X O X . O O O O O O . O . O O @ O + . . o . O . . . . . . . . . . . . . . . . . $ . . O . . O . . .   . . . X + X . @ .   . . . . .   . + @ . .   . . @           @                                       o o         ",
"      .                                         . .           X         . X .   . .           .   . . .     . X . . . . @ . . . . O . . . . . . . . . . . .   . . . . . . . . . . . $ . . . . $ . O & . O O O & O . O . . O $ . O O : O O O O O = + - @ + @ + + - + o O - + + + O + - + O @ + + $ X X % O % X % O $ % % % $ O X O . $ . . .     O O O . O . O . O O   . O . O . . O . . O X O $ O + + + q q @ # # - q + - o - O % % O O & & $ & & O & O & . . . % % O O . . $ $ . $ . . & . & $ . . . . & $ . $ . $ . . . $ & $ % O O O O $ X O O O O O X O O & % $ X O X O X $ & O O X O X O $ $ $ O $ O O O O O O $ O $ O O O O O O $ $ O $ $ O $ $ $ $ $ O O . $ & . $ $ . . . O . . . O X O . & . & . . . $ O X + + % @         . . + @ - + + O o - + - o @ = O . O O O . . $ . . . . & . & . O O O $ $ . $ . . $ . $ $ $ $ . . . $ & O O $ O O o o = = = o O O O X + + . O O O O O O O O - O X + O % O % % X O % + O . . & X @ . + O X X @ O X + . . . . . . . . . . . . . O . . O . . . $ . . . O . O O O .   @     . . @ @ . @ . . . . . . @     . X + @ @ @ . @       @ @   . @                                       o   X   @ ",
"    . .                                   .                           @ @ @ . .         . . @ . . . . . .   . X O . . . . .   . o . . .   . . @ O + + . . . O . . . . . . $ . . . . . . . . . . O . . . $ . . . . . . . . . . . O O O O O O . . + + + @ @ ; + @ + o @ . @ + + + o + - + @ o O - % % $ X X $ X O . X O % % + O . O O X O . . . . O . . O . . . O . . . . O + X O . O . $ . . . . O O @ O + @ q - + # - - - + > O % & . . . $ . & % X O X X O X O & $ $ . $ & $ $ . . . . $ . $ & & . . . $ $ & . $ . & . . . $ . % + X $ X $ O X X O X % $ $ $ % X $ O O X O O X $ X X O O % % X O $ $ O $ O $ O $ $ O O O $ $ O $ $ $ $ O $ $ O O $ $ O $ O $ O $ & & $ & $ $ . & $ O O & X O $ $ . & . . O O . O X % + + @         . @ % + + o o + o - o - o ; - - @ O O O X O . & . & . . & . & . . $ $ $ . & $ . . & $ & $ $   . O   O O O & + O O o + - - O O + + + + = O O - + O + + O + - O X O X O % X $ X O O O X O O $ + O O . + + + O O O + O . . . + . . O O & . O . . . . . . $ . . $ . . $ O X O X . . . .     . . . . . . . .     O @ .   . @ + . . @ @ . . @ o @     o                     @                   o @   @   ",
". O + @ .                 @     . .                                     . . . .         . O @ @ . . @ . X . . @ X X . .               o . . O + X O @ O O . . . . . . . . . . . . . . . . . . . O . . . . . . $ . . . . O . . . O O O O O . O . o o o + + @ + @ + O o o - + + + o + + - + O @ + O X % $ % O $ % . O O $ % X O O & O $ X O O X O X O O . . O . O . . O O % % > % $ . . O . . O . O O O - ; + @ # q q - # + + O + % O . X $ & & O $ X O & $ X % X $ $ $ $ $ $ : $ . . . $ $ $ $ $ . $ . & . $ $ $ . $ . $ $ & . $ % % O X $ $ % O $ O O O $ X $ X % O % X % + % % $ $ $ X X O O $ $ $ $ $ O $ O $ : $ $ $ $ O $ > > $ $ $ $ O $ $ O O O $ $ $ $ $ $ $ $ & $ $ $ & O O O . O X X $ $ $ & $ O $ $ O % O X % > . .       . O + + + O o o - o - o + o o O O O O O O X $ O . . . . . . $ $ $ . . . . $ . & $ $ . $ . . . O . O . O O $ - + = + o - = = = O O O O + O + > - > O O + O O O O O O X O X O O $ O % O . O X + + . X + % X O X X + X O . @ + . O . O O O . . . $ . $ . . . . . & $ . O X O . @ o . . . @ @ .   .   . .       . .       @ @ . @   . @ @ @ . @   @ @                         @                 @ X @   ",
"  O O O             @     @       . .                         . .     . . .         . . . @ @ .     . .         O . . . .   . . . .   . . . O . O . . . . . . . . . . . . . . $ . . . . . . . . $ . . . $ . . . . . O . . . . . . O O O O O . . o + @ q + + o @ - . o o O - - + + O O O - + + + O $ O O X $ % O X $ O % + X % + $ & $ $ $ $ % % $ X X O X O & $ O O X + % % % O . O O . & O O $ O O + @ + - - q # - - + + + O $ % $ O O % % $ O X % % % % % % % $ $ : & $ $ $ & . . & $ $ & $ . . . . $ & $ . $ & . . $ . $ $ . % % + + % % O $ % X % O % $ O X X % + $ $ O $ O % X $ O $ X $ % : % $ $ $ O $ $ : $ $ O O $ $ % $ $ $ $ O O $ $ O $ $ $ $ $ $ O & $ & $ $ $ $ $ O O O . O O O X $ & $ & $ O $ O X + > + + +           + + + + + O + - + ; o o + O = O O O O O O . $ . . & . . . . $ & $ & . $ $ $ $ & $ $ $ $ . O . . O O O O O + O = o - = = o O + O - - O + O O O + O O - > + X $ O % % O $ O O X > X O O O + > + . O % % + O O + + O O . . O O O O O O X O . . . $ . $ . $ $ . . . & O O . . . .   .     . .       . . . . @ . . .     . .             . @ @   @ @ @                                 o   o o X X .   ",
"    .             .     @   @   .   .           .             . . X     .           . . @ . .                       .   . . . . . . . . . . . o . .   . o .   o . . . . . $ . $ . . $ . . . . . $ . . . . . $ $ . . . $ O O . . O . . O O O O O + o - @ - ; @ + > O . @ + - - - O @ @ = - > - + X X $ X $ O X O $ X + + + % % % O O X $ X O O X % $ % % $ $ $ & % X % % > % > X . & $ O $ $ % & = O + + - - q q + q + + - O O O % % X $ , $ & O % % % % > % 4 % & : : $ & $ $ . . $ $ . $ . $ . & . . . $ $ $ . $ . $ . . & . & % % + + X % % X % % % X O X $ O O $ + X % % X O X $ % O O % % X % $ : $ $ $ $ O > : O $ $ O : > $ O O O O $ $ $ O O O $ $ $ $ $ $ $ $ $ $ & $ $ & $ O O O O & $ $ $ $ . X $ O $ $ + + + % .         . + % + + . + o o - @ + o ; o O O O . . . O O . & . . $ & & $ $ $ $ . . . $ $ $ $ $ $ . & . O O O O X X O . O o o o = o O o = O + O + + + O O . . . O O O + % % > X % $ X % O % % % % X % % % X O O + > % @ O O $ X O . O O & O . . . O O O $ . . . . . . . . . $ . O O .   . @ .   .   . .     . . @ . O . . . . .                   o     @   @           X   @           @   @ o @ o @ @ @ X X . ",
"O $ X                   @   @ .     X . .             . . . .     . + + . . @ . @ O @ O @ . .       . . . . . . .   . . . . . . > + + . . . + @ . . . . O O . . O . . . . O . . O X . % X $ O O . . $ & $ O . O . O O O O O . O O O O O . O O - o + @ - + + @ - + + + O @ - + + + + - + + . X q > % O % X O O X X % % % > % + % + % % % % % % % % $ X O O X $ X X $ O O X $ O O . O O O O % % % O O > + - + + + + q + - > + > % % % X $ % % % > > % + + % % > 4 $ $ $ : $ $ $ . $ $ . . $ $ $ $ $ . . $ & $ . . $ . $ & . $ $ $ % % % + % O X O % O O > % + % % O O X % + % % > 4 % 4 % % % + O O O $ O : $ O O > : $ $ $ O O $ $ : $ $ O O $ > : $ % O $ > O : $ & $ : : & $ & $ . & . . $ & . . . . & $ $ . . % + X + % +         . . + . + @ + o = o - o - o = + O O + + $ + . O & . . O & . $ & . $ & : $ . $ $ . $ $ $ & . O O O O O O X O > O o O - - + o o O o O . O O O - O O + O + + % O % $ X % X $ X > % X > % > % % $ . & $ $ & . . % % & O . $ . $ $ X O O . O O & O O O O O $ % $ : & & . . . . . . X + + @ O @ O & . $ . . . . . . O . . . . . O . @   @ @ o @ .   . @ @ X .     X @     @   X       @ o @ o o     @ X * ",
"8 e 4     .                   @   X . . @           .   @ . . . @ X + + @ . . . . @ . . . . .   . . . O . . . . . .   . . . $ . + @ + . O . . + . + @ O @ . O . . . . . . . . . O O O O $ X O X . $ O & $ X O O O O O & O X O O O O . . O O O O o o - @ @ - - @ + O o + + O - o + + - - + + - - % % + % % % + $ O O % > > % % % + + % % + X + * % % O O O + O $ O % X $ X O % O O % X % % % $ $ - : O > + - - q q + - * + : $ : % O O X + % % X % % X % + % % 4 : & : & & $ $ $ & $ . $ & $ . . $ . & . $ $ $ $ $ $ $ $ $ $ . $ + % + % + % % % % O X % % + + % % + % % % + % % + % + % % + % X $ : $ O $ O $ O % $ O > O > : O O O $ O . O O > : $ : O $ $ $ % & & $ $ : : $ & $ $ $ $ $ . $ . $ & . & $ . & $ % + + + > + .     o X + > + + + + + @ + - - - - O = + - O - X O & . O O & O & O . $ $ $ $ $ $ . $ & & $ . $ $ $ O & O & % O $ + > + o o + - - - - + + + + O + O + + - O O + - O % X % % + + + O > % X $ % % + X . . $ $ $ $ $ $ $ $ O O O O $ . X O O   . . O O & O & O X $ X X $ . . . . . . . . O @ + + X + . O . . . . . . . . . . . . . . .   . @ @ . . @   @   . . . @ @ @     @     @   @       o     o     * U *.",
"C r.c.*.>     @           @           @ . .           X   . . . % @ @ . . . . @ @ . . .     . . O $ O O . . . . . . . . . . . . . . . O . . . O . . . . . . @ . . .     . . . . X $ X % O O . O & O . . $ & X . O . O & & O O X O O . O O + O + - + + + + + + @ + + + @ o + + + + + - + - + + - % % % % % % % + O % % % % % + + + % % % % O % % X % O $ O O O % + O + O $ $ % X % % % % X $ X O : > % O - + q + + q - + + > : $ % O O O + - > + % - > + + > % > $ $ & : $ $ $ $ $ $ & $ . $ $ $ $ . $ . $ % $ & : $ $ $ $ & . . O % % + % % % > % X % % > % X > % % % % + X $ X + % % % % + + + > % : > > O $ $ $ $ $ $ > : % > O $ $ O O O O $ $ > $ $ : $ : % & : : & & : & $ & $ , : $ . $ $ $ $ & $ & $ $ $ % + + + + + .       + 4 > % q % + + - - 1 q q 1 = + - + + + + + O O O O & O O & $ $ $ & $ $ & $ & $ $ $ . $ & $ $ X O O O X O O 4 + = O - - 1 - - - - - O > - + - % + O + = - + + + % % % % + % % % $ % % % % X $ & . $ . $ $ . $ $ O O . $ . $   O . . O . & O X $ O O O O   O . . . $ $ . . . @ O @ + + . @ . . . $ . $ . $ . . . . .   . . . . . . @ @ . .     @ . @ @ . .         @ X @                 o   X 0 D S ",
"  C ! A %                     @         . . X .     . . @ X . . @         @ . @ . . @ . . . .           . . . . . . . . . . . . . . O @ . + . . + . + . + O . O O . O O . . . $ O O O $ % X O . $ O . O $ O O O . O X O $ X O O O O O O O O + O + o + - # - - q - + - + - + - + + - + + - + + - + + % + $ X O % X + % % % % % + % * > % % % % % % % % X % % $ X $ X O $ % X O % % % % % % X O O > : > O X + q 4 q - + > $ > $ $ % % O O O > O - + O > O % - + - . $ $ $ $ . . O $ $ . $ $ $ O & $ $ $ $ $ $ $ $ & $ $ & . $ $ $ % X X % % % % > > % % % % X O % % + % + % O % O X + % % % % > % > $ % $ $ % : $ $ > $ $ $ $ $ $ O $ $ $ $ $ O O > $ $ $ + $ % : : & : & : & : & . $ & : $ . . & $ $ $ $ 3 $ . $ % X + + 4 @         @ 4 4 4 - > - + - - - - 1 q - - + + + = + O O $ & O O & & O . & : $ . $ $ $ $ $ . $ $ $ $ $ O + $ & % + - + , - - = - - - > > + > + % - % > + + - > + > O > % % % % % % % + % + % + % % % % . $ $ $ & $ & $ X $ $ $ $ $ & . O . O . . O $ O X O X O O   . . . & $ . . . $ . . O . + @ + + . . . . . . . . & . . . . . . . .   . @ @ @ .   @   . @   @ . @                   @   o @ @ o o @ @       ",
"O       % 4 + .                 .   .     . . @   @ . @ . . @ . .         . .     . . . @ . .       . . . . & . O . $ . . . . . . @ . . . . . . + . O X . O . O + X O O O X O X X . X $ % O % % O + % X X O X $ . O O O O O O $ O O O O O + O + + + + + - + # - - + 4 - - + + - - + - + + q + + O X % + O X O % X % % + + % X $ > % 4 > % % 4 > % % % % % X % X $ O X X X + + % % % % + % X % O > $ $ $ $ % q > % + - % > + $ > $ + + O + > + + O + + - + > > + $ $ O O O O O O & $ $ & : $ $ $ & $ $ $ & 3 , $ $ $ $ $ $ $ $ & > % % % % % % % > % % > % X O > X % $ % + % % % % X > % % > % + > $ $ $ O $ $ $ > > > > > $ $ $ : % $ > : % $ $ : > > $ $ > $ : & : & & & 3 : & . & $ $ $ & . $ & $ & : & $ $ & % O . > > .         O > 4 % > > - - q - - - - - - - > + + % X % & % & $ & X % & $ $ % % $ $ $ % $ $ $ $ & $ $ $ % X % O X % O % - + - - > - - O O - - % + - > + O > > - % - + + + % + % % % % % O + O % % X % O $ $ & $ $ & $ & $ & $ $ $ & $ . O O O $ O $ O $ O $ O X O & O % $ . . . . $ . $ O . + X O X X . . . . . & . $ $ & . . . .   . O   . @ . @   . o @ .   @ @ .     X @ @         @ @   o     o @ o         ",
"  . X .                       @ .         . . .   . . . @ @ . @ @ . X O X @ . .   . @ X + . . . O $ $ . . . . . . $ . . . . . . . + O . O @ + . @ . + O + @ @ + O $ $ X O O $ $ O O X $ + % % % X O > % O O O % O   . O O $ X O O $ O O O + + - + + q q q - q @ - - + + + + 4 - - + + + + - > + X O O % O . O % % + O % O % $ % % 4 4 % > % % 4 % > * % % % % $ X O % $ % % % + X % + % > % > % > : % $ + % % - + > % % % : $ : > > + - + - + + + - + - > % % - : & & $ $ $ $ $ . $ % $ % $ $ $ $ $ $ $ & $ : & $ $ $ & & $ $ $ > % > % % % + X > > X * % % % % O O X % + % % % O % % % % % % * : > $ O O O O $ > > : % $ $ $ $ > : $ > > > > : > > O % > $ % > & 3 : 3 & & : : . $ $ $ $ $ $ $ 3 $ $ $ : : $ : X . X > > .   .     X 4 q 4 + q + + - + - - - - 7 - > - + + % % % % % % % % & O $ $ $ & & $ $ $ $ $ $ $ $ $ & : % $ $ X $ % - + O + - - > - - O - + + = % O + O O + O > > + - O % + % % + % O % O % % % % O % $ $ $ & $ & $ $ $ $ $ $ $ $ $ & $ + O % X % % X O O X O $ O $ % % $ $ $ . . . & $ . X @ + O X O O . . . $ . . . . . $ . . O O . O   . o . @ . . @ @ @   . . @ @ @ X X @         @   @         o @ X . @   ",
"  . & % + . .               @ . X .         . X . . @ X . @ . . . @ + % + @ . . @ X @ . @ . + @ O $ . . . . & . . $ . . & & . . O @ . . . + @ + O O @ O O X O @ $ O X O X $ O $ O O O $ % % % % O O % % % % & O . O X O & O $ X O O $ O O : + + + + q + q q - q - + - + + + + - > + - q % > % + . $ % X O X O % % % + % O X O X % % % 4 > % % > + % % % % % % O O % + + % % % > X + % % % % % % $ : > : > - + > - + > - > : $ % > - - - > > - - = - - > - > - - & , $ $ $ $ $ $ $ & , , & $ & $ : $ $ & $ : , $ $ : $ : $ $ $ $ % % % % % * % % % + % % 4 % % > + % % % % + % % % + % % % % + % > % $ O O O > : : > % : > > > $ > > $ O > > > : > $ + : : $ > : & & 3 & : & & : $ $ & $ $ & $ $ & $ $ $ & % $ & + O + 4 > . . O . X + > > % > - + q - - - - - - > > > % O > % % % % % % % X & % $ $ $ $ $ $ $ $ $ $ & $ $ $ & : % + + % + % + > - + > > - - - - O O + + O + O - O - + + + + O O O % % % % % + % O % % % O O % % $ . $ & $ $ $ $ $ $ $ & $ & $ $ X % X % X $ O . X $ $ $ $ $ $ $ & $ O . $ . . O . O O X + + & . . . . . $ . . & . . . . . . . .   @ @ @ @ @ @   @ @ o       @   X X         @ @ o             o         ",
"  $ O       @           @     @ . . @             . . . . O O .   . . @ . . X > % + .     . + 4 . . . . . . . $ . . . & . . . $ O + O . . O % > O X + . + O + O X O $ O X O X $ X X O % X % $ X % O O X % % O . . O O X O $ O $ $ $ O O O O + - O - + - + - - - + + O + + + + + > > + + - > > $ . O % % O . % % % % O $ X $ X O % % % % X % % % % % % > > > % X $ X O + % % % > % % % % > X % $ $ > $ > > > > - q % + > $ $ $ : > > - - - - - - - > - > 4 - q > , $ & $ . & $ & . : & 3 : , $ $ & $ $ $ : & $ $ & : & : $ $ & $ % % % % % % % > % + + % % + % > % % % O > X X O + % + % % % % + , > > : $ $ > > O O O $ > > 1 , , > O O + % > % > > > > + > % > 3 : & : & : : : $ & $ $ $ & , $ $ $ $ $ , $ $ $ > O + 8 4 @   > . @ + % * % q > + + - + - 4 - q 7 > > + - + % % 4 % & % % & % % & $ $ $ $ $ & $ $ $ $ $ & $ $ $ $ $ & O % + % O > + - + - - - - - % > + > + > + . O + > % O + O O X O % X % O X + X % X O X O % : $ $ $ $ & $ $ & $ $ $ . $ & $ O % $ $ O X . . % % % X & O & . $ . $ & . . . . . O X @ X X . . $ $ . & . . . . . . . . . . . . .   . . . . .   . @ @     . @ .           . @ . @   o       o .     X @ ",
". O . @         X         . . @     X X       O & .   . . $ . .     @ + + O . . . O . . . O . . O . o O O . = O O O O O . o . o O + O + O O + O + O + O O - O O + O O . O o O + + + O > > + + + X + + X @ . + % . & . . $ . & $ & & . $ & $ . $ & $ $ , $ $ $ $ $ $ & , $ $ $ $ $ $ $ $ & $ $ $ & $ @ X O X + + + + @ + % q + X % O O O & $ $ . & , $ & $ $ $ $ : $ $ > $ : > $ > > , > $ O > > $ > 1 > $ O O > > $ O $ $ > % : 4 4 q 4 q + q q - * q q 4 > 4 q + % * + + + % X X $ & $ $ $ $ & & : & : & & 3 : & 3 : : : & & : $ % & , , , $ & % > % % % % % % % $ $ % & , , > & $ % % + * - % % + % % % + % X > % 4 % > % > % % 4 4 - + o - 0 + + + @ + > + > % % $ $ $ $ & $ : 3 & & : & & & 3 $ : & > > 4 > 4 % 4 % 4 >   % X   . , - + 4 > @ + + % + 4 + - + % > 4 4 % % % * % + X > % % % 4 % % % $ $ $ & . & & $ $ $ & $ $ , & : $ . $ $ % X + X + + + + + - > % + + + > - O + O + > + - % : O > > O % : > > > $ $ $ $ > & $ & $ O $ % > % % % O $ O O % O O % % X % % > X O X O X O O O O   O . O X . . + . @ . O + + . + + + O . . O . . . . . . O . O . . $ & $ . .   O X .   . . @ X . + @ .   @ @ @   o   o   o o o         ",
". @ @ .         . .         . .   . .           $ O . . $ $ . . . O . O . . . . o . . @ . . . @ o . . . O O O O o O O . O O O @ O O O O - O o O O + O O + o O + O O @ O O O O O - + + + > % - + + + + + + + + % . . & $ & $ $ & $ $ $ $ . & $ $ $ $ & 3 $ & $ $ $ . $ $ $ & $ & & $ $ $ $ , $ , & $ > % > > > 4 > + % + % % % % O $ $ $ $ $ $ $ , 3 3 & & $ $ $ $ $ $ $ O % $ % $ > > > > O : > > % > > > $ : > > > > $ > > $ + q q + + q q - - q + q 4 q q q q # q 4 # # 4 4 % % % > > , & , : : & : : : 3 & & & : & & 3 : : : $ $ : , $ $ $ $ : % : % % : % $ > $ $ $ % , : , $ & > * 4 % % 4 % % % % % % + % % % % % * > % 4 + + + + + + + = 4 % - - - + > - % $ & : $ $ : $ & : : 3 3 : $ $ $ & $ $ $ X X O 4 % > % % *   % O   . 5 4 + % X % + + 4 % % + 4 + % % % % % % X % % % + % > % > 4 % % % , & $ $ & $ 3 & $ & $ $ $ $ , & $ $ $ O % - 4 > > q > % > > > > > > > > - + O O + + > + > $ > $ : > $ % $ : > > $ % $ > $ $ & $ % X % % % X > X X $ X O $ X % % % O + % O % % O O O X O . O . . . . . O + . . . @ O X . . . . . . . + + . + . . . . O . . . . . . . . . . . X . . O . @ @ @ .   @   @ o     o     o o o   @ @   ",
"@ . X .                   @ @ . .       . X   . O   . . . & . . O + O . . . . . . . @ O . O . . O . O o @ O O O O . O o O O O O O + + O + O + O O + O O O + O + O O O . O O + + > + O > > - > O + > + + + + % > . $ & $ $ $ $ $ $ $ $ $ $ & $ $ $ $ & $ $ $ $ : $ $ $ $ $ $ $ 3 : $ & $ , $ : & , % % % + * 4 + + * 4 % + + q % $ : , % $ & $ $ & $ $ $ $ & & $ O O O > : $ > : $ > > : > $ > > > : $ > > > > $ , > > $ > : + + + - q q + + + # + q 4 - q > - 4 % 4 q + % 4 & % > 4 , & : : : & & $ & : 3 & : , : : 3 & & & $ $ $ $ $ : 3 $ $ : % $ % % % > > > , & & : : , & : > > > > 4 > 4 4 % % % 4 * > * > % + + % % % % > 4 - + + 4 1 > + 4 - - - > - 4 4 > > $ : & : : , & & & : & : : $ $ & % % % % % % % % > % % %   % +   X 8 0 % 4 + * % % 4 + q > + 4 4 4 4 4 4 % % % % % % > 4 > > % * > > $ & $ $ $ $ $ $ $ & $ $ $ $ $ : & $ . . % % > > * - > % . + % - + - - % + + O + + > > + O $ : % O % : % $ $ > > > > > > O % $ $ % + + > % % + + O % $ % O % % % O X $ % X O O O X O O O X O .     . @ O X O . O O + @ . . . . . . . + % . . . . o . . . . . . . . . . .   . X O . @ . .   o         o             o o   @     @ ",
". . . .         .         . . . . .       O .   . . . . $ . & . . . . . @ O @ O + O . + . + + O O O . O . o O . O . O . O O + O o O O + + O O O + o O + O O O O O . O O O = - - + % O - - > + + % + > + + X % % $ . $ $ $ $ $ $ & $ $ & $ $ $ & $ $ $ & $ & & , & $ $ , $ & & $ & $ $ $ & : : $ & $ X $ + + + + + + + + + + + % $ : , & : $ $ , $ $ & $ . $ & $ O O O O % > > > > > > > > > > > > % $ % : > > + 1 > > > > > > + + - + > q 4 - + q > q > q 4 q 4 q 4 4 4 % 4 , , % % , & : & : & & : : & 3 & : $ : & : & : : & $ $ $ $ $ & & & : % $ % > % & & $ : 3 & : & , : $ % % % * + * % q 4 % % % % % > % % % % % % > * % 4 > - 4 0 0 4 - > q 4 4 4 4 - > $ : $ $ : : & : 3 : : $ & & & & , , , , 4 4 % 4 % X > % % %   % >   O 0 > 4 4 4 > % q + 4 + + * + % % 4 % % % % > % * % % % % X X % % & $ O $ $ $ $ $ $ & $ . $ & & $ $ $ $ O O . . X + % @ @ . . . + > - + + + > % O + + - % - : $ $ + $ : $ $ $ $ > , > : $ $ & O % % % + % * % % % O % X % % X O O + X $ + % % % $ X $ X O X O X . .   . O + + . + X + O O O + + + + . . . O @ . o       .   . $ . . . . . . . . . X @ X . .   @ .               o   o     o     @   ",
". . @ @               .   . . . @ .       X .   O O . O $ $ $ $ . . . @ . O + + . . . . . . . . O O . O . O O o O O . O O O - O O + o - O + O O + O O O + O O + . O O + O + + > + O > + > > % O + + * + + O + > & $ $ $ $ $ $ $ $ $ : & , $ $ : & : $ & & $ $ : , : & , % O $ > & $ $ , $ $ $ : X + + @ + @ + X + 4 + - + + + > , & $ > > > $ $ $ $ : $ $ & $ $ + + - + - 4 4 > , , 4 , > > > + > > + % > 4 - + > > + > 4 > 4 - > - 4 > > > % + % > 4 > > 4 - > % 4 4 % , , & > % $ $ & & & : : 3 & 3 & : & & $ & : & : , & $ , & : : : $ $ & $ % % % % % % > % , & & , : : $ $ % + q + > > + 4 * > % % % % % % % + + % % % > % + - 4 > > - - + + 4 - 4 4 4 q > : & & & & : 3 & & $ 3 $ $ $ $ $ > & % % % % % + % O % X % %   4 0   . + + + 4 % q % * - + + + + X % % % % X O O 4 % % % % % X O % % 4 % & $ $ $ , $ & $ : $ & & $ & $ & $ O $ & O X + + X + . . - % > 4 > 4 > > + - O + + > > + % O % : $ $ : O $ $ % > $ $ $ O X $ % * > % % % % % % % % % % > + X % + X $ X O O % $ O + O O O . + + . X + . . + X O + + X X O @ + % + . . . @ . . . . . .   . $ . & . . . . . . . . . . @ . @ . . @       @   o   o o o   o       @   ",
"  . + @               . . @ @   . .     . .   . . . . . . . . . . + O . @ .   . .   @ . o . . . O o . o @ O O O O o O O + O o + O O + O + O + o o O + O o + O O O O - % > > + - % - O + % - - + + + + + X + + % $ $ $ . $ & $ $ $ $ : $ & $ $ $ : $ $ $ $ & : & , & , : > O $ % $ $ $ , , & , & > % > 4 > 4 > > + 4 4 * * + 4 , , , & $ % , : & & , & : : : & : % + % > > > > 4 4 > > 4 4 4 > - > % O > > 4 > + % + + + - 4 > > % > + > > > 4 > > > - 4 4 > 7 > % 4 * % % , , $ $ $ $ $ 3 : : & : , , : : & $ & : & & : : & , $ : & : & $ & & 3 % > % % % % % * , : : : , & & $ % % % + + * 4 + % , % % % % > , % * 4 % % 4 * > . - 4 > O O - 4 4 - - 4 - - > > & : : & 3 & & 3 , , , & $ $ $ & % > > & % % % % X % > % % % . 4 V > O > % @ 4 4 * % + 4 4 % % + > % % % % % % % 4 % , % % % $ O > > 4 4 , & , & , $ & 3 : : $ $ , 3 $ $ $ % > , > > % > q + > 4 - > 4 > > > - % > O O + - % + > % : > % $ $ % > $ $ $ > $ O O O O $ % > % % % % 4 % % X X > > > % % % + > % % X % X X + O % $ X @ . + + % O + + . O - + + O + O   . . O O @ O O - + + O . O . O . . . . . . . . O . . . . . O @   @ @ o     o   @   @ o   o o o         ",
"  . + X       @     . @ . . . .     . .         .   . . . . . . . O O . . . . o . @ . . . . . . o O . O o O O O + O O O O O O O O O O + O O O O + O O - O + + O O - + - - + > O - % O - > > + O + % + + + + + > $ $ $ & & $ $ & & $ $ & $ $ $ $ % & : $ $ $ : & $ $ $ $ % & O % $ $ , , , , & : + 4 * > > 4 + > > + > + - * > + , , % $ $ $ $ $ : , $ & & : : & > - - > - > - > - > - > > , > + + > > > > % - > > - - % > > > > $ > > + > > > > > > > > > , > , % % > % : & : & $ $ $ $ & & : : & 3 & : & : : & & : : : : : : $ : & $ : $ & $ , % * % + + 4 % % , : : $ : : & $ % % % 4 q + + 4 4 % 4 % * > % 4 > > > % 4 > * > > 7 7 4 > + 4 0 q > > q - 4 - > 3 & & 3 , , , , 3 , , $ : & , , 4 , % 4 4 * > % % O > % % % . 5 C , + 4 4 4 5 4 > + 4 + 4 + 4 > 4 4 4 4 4 4 4 > > 4 , 4 4 , % & > > > 4 , , , : , , : : , & : & & , $ $ $ % , > 4 4 4 + > 4 4 4 + - - + O O O O > + - + - > > % > % $ > % > > $ $ $ > $ $ $ $ $ X % % % > % % % % % + + % % 4 4 % % % + % > % + $ % O $ X O % $ O + O + @ + . + . @ % + + O O @   . . @ O . @ X + + + X . . . O . . . . . . . . . . . . . . . @ @ @ @       @ o o o o   o   o o         ",
"  . + O       .       . . . .     . . X .     . O & O O . & . $     . + O O . . . + O O X O + O . . o . O . - + + O - O O O O . O + + O + O + O + O O + O o + O + + > + > > + + + O > + - % + + + 4 % * + + % > $ . $ $ & $ $ $ $ $ $ $ . $ $ & $ : & : . $ $ , . . $ $ $ O % > $ $ & $ , $ $ $ O @ + + + + + @ % . @ . + + X . & , , > & $ $ , . $ $ $ $ $ $ $ + > + + > + - - . . O - 7 4 > - + + > - - + > , % + > O > > + + O > $ + $ : > > > > > 4 , , 1 > $ $ % $ $ & : $ : : , : 3 : & & & & : & 3 & : : : & : & , : & , , 3 , $ $ $ $ , % % % 4 + + % % & : & , & , : , % * + 4 % 4 > * 8 4 % % % 4 4 4 > * 4 % % 4 > 4 4 4 0 4 - - 4 7 4 > 4 - + + 4 7 , 3 3 & , , , , & , $ , , , , r , 4 4 % > % % % X % 4 % % % O 8 8 @ . * > > 4 4 4 4 4 4 4 4 0 4 > , 4 % % 4 % % , * > 4 8 4 4 % , % % , , , , & : : $ & $ > > O $ $ $ $ % % % % % % - X + X + 4 > > > > - + + + - > % O + > > > > > : > > : > > $ $ > $ $ $ > > O % % 4 * % > % > * % % % % > 4 4 % % % % > % O % + % X % O O X + O . . . . . + . + + > + @ O + . O > + + . O . + X O . . . . . . $ & . . . . .   . . @ @ @ . . @ . @     @ o     o   o       o     @ @ ",
"  . . .         .               . . @ .         O O O & O . . . O . @ . .   .   > .     . O O @ O O O . o O O o O O O O . . O O O O . . O - O . o o O + O + O @ + O . . O - O O - + + > > > > > @ . X > % q % X % $ $ $ : & $ & $ % % X O + X O % $ % * > 4 % % + . O > > % + 4 * % % + % % % % % q % + + + X @ + + @ + + + + + 4 % > 4 4 % % 4 & $ % % % % X % 4 - - q > 4 4 4 4 > 4 q > 4 4 > > 4 4 q > - 4 4 4 4 - 4 - - q % , , > > O > > 1 $ > 5 , > > > > % > % , % % $ : : $ : , , 3 3 & 3 $ & $ , , $ , , % % $ $ $ : , & & $ $ % > % % % % 4 % + q 4 4 : $ , , % $ > > + % % 4 4 4 4 4 4 > 4 , * , , 4 4 % % & > , 4 % 4 7 4 - - + - 4 - - 4 4 4 7 4 > , & $ , , , , & , , > > & $ : % $ & > % % % & , O % 4 5 , X % 4 e X   % > 4 0 > + 4 5 8 0 + % 4 4 % % % % % % X % % % 4 , 4 4 4 & : $ , , 3 , , $ & $ > > % % O & $ & 3 $ $ & $ * + @ . % > + + > + + > > 4 > > + > - > + > > + : > > $ > % $ > > > % > , > , , % % % % % % % % > % % + % % % 4 > % > 4 % 4 4 4 % % % % % % O + % + + . . + + + + + % + + + . . 4 > O . . + O . . . @ O o o . . . . & $ . . . . . . O @ . @ @ . @ + @ @   .                 o     @   @ ",
". @ @ .                     . X       . .     . . . . . O . . . @ . + . . o . . + .     . O . . O O O o . O . o O . . . . o . . - O . o . O O @ O O O O O O O O - O O O + O + O + + > % - + - > > 4 * - + > % % > $ X $ $ & & $ % % % + % O % + & % % > 4 % % % > X X > % % % 4 > % % + % 4 % % > + % + + + 4 > 4 % > % + 4 0 4 % % > > > % % > , , 4 4 4 > > % > 4 4 + % - 4 4 0 7 7 4 4 q - > - - 4 - - - + - 4 4 4 - > q - > > > > > > > > > > 1 1 > > , , > > > % , , & > > $ $ : & $ $ : $ & , , , $ , , , , % > & $ % & % 3 & : : % > , & > > 4 * > + % 4 & , : & % , % , % > * 4 4 4 4 > % 4 % 4 4 > 4 , % > % % 4 4 4 > 4 - 4 - 1 > 4 4 q > - 4 7 7 4 > , , , , 5 , , > > , > > > % > > 4 4 8 5 4 4 4 8 O % % 4 % % $ 5 W 4 O > * + * + 4 4 4 0 % + % 4 4 4 4 % > > % % % > % 4 4 4 % , > : , & $ & , , > , , , , , , , $ $ $ $ , $ $ $ % % % > + 4 + + > > + - - > - + + > > @ O > - > % $ $ > : > : > : > , $ > > > > > % + % X % % 4 % % * % % % % + % % % % % % % > 4 > % + + + % % + X . . . . + + @ + + + + . @ . . .     . . .   . . . . . . . . $ . . . . . . . . O @ O @ . . + . + O @ . @ o   o @ o o               @ ",
". @ . .             . .       @     . . .   . .   . . . . . . . . . + . . . O + . . o O + + .   O O O O O O O . - + - + = O O O > > O O O + > > > + + O O O O - + + O + - + + O > + + - + + + + 4 4 - + + + % % & $ $ $ $ $ $ & + + X % + % + * 5 % % % 4 % 4 % % 4 > + + > 4 % + 4 + 4 * 4 4 q + 4 + + + 4 4 5 4 4 4 % * > 4 4 4 * q * * % % 0 & > 4 4 > 4 % * q - - q 4 q 4 4 0 7 7 4 4 q q q 4 4 4 q + q - q 4 > q - q q 4 - > > 4 - > > > > 5 , + - , 4 4 > , % 4 , , , > % $ & % % & & $ $ : , , $ : , & , % , % % > % % % , & , & % 4 > 4 + > > 4 > * 4 4 : , : , , % & , 4 4 4 4 * 4 + + > % % > % 4 , * 4 % % 4 4 4 4 4 0 - - - 4 0 4 4 4 - > 4 7 4 4 - , , , , , 5 4 , , & , % > > , , > 4 5 4 , > 4 4 % % % 4 4 + O 8 T 9 % 4 4 > > + 4 > * > % % % 0 , 4 4 4 * % % % , * 4 4 4 % % % > : : : : : & $ > , , % , % , , , , , , , , , , % % 4 % + % * % 4 > - > - % + X % > - + O + - = O O % % > > > > > > > > : > : > 4 % % X % % > 4 4 % % % + > % > X % + % X % % % % % % % % X X % + + + @ . O + + O X . + + + @ + + . . @ . + . . . @ . . . . . . . . & . . . . .   . O @ . . @ . . @ @ @   . @   @ @ o @ o o o           ",
". . . @         . . @         . . @ @ .       . .   . . . . . . . O + + . . O % . . . . @ O . . . = O . . O O . + + > > > > - + > - + O O > - > > - + + + O + - > > + + O > - % + > > % - > + + + + + X X + % % % % $ $ $ $ $ : % % q % + % > q 5 , * % + 4 > * > 0 4 + X 4 4 + 4 > 4 % 4 > % 4 4 % 4 * % % 4 0 + + 4 4 4 + 4 4 0 > > 4 4 % > 5 % % % + + % + + 4 q 4 q q 4 4 q 4 > 4 4 q 4 4 4 4 0 4 0 4 q 4 4 q 4 q 4 * > q 4 - > 4 4 4 4 > > 0 > - > > , > 4 4 , * % & % % , , > , , 3 $ 3 & , : & , & , , $ , % , , > > , $ , , , , 4 4 4 % + + * 4 4 * q > $ & , , : & % , 4 % % % - + 4 + * % , & 4 % % 4 4 > 4 % % , 4 % 4 4 4 4 4 4 > - 4 4 > q > 4 4 4 , , , & & , , , , , % , & , , , 4 > 4 % % % % % % 4 % 4 8 % . r W 4 . > 4 4 4 4 0 % + + 4 4 % 4 % , 5 5 4 % % 4 > , 4 > % > % % , $ & : & & : : > % % $ O & % % & $ & . $ $ $ & + + 4 4 + q > 4 > + + + % > - O - > > + + + + . $ : > : > > > > $ , $ > $ % $ $ 4 % % % % % 4 4 % % % % + % % * + % + + % % + + % % > % % % + % + + O . . @ + + + O @ . O X O + - + + + + + + O . O . . . . . . $ . . . . . . . . . @ . .   . O   @ . o o @ o o + o @ o @ o o o         ",
". . .           + @ . . X @ @ . . . X .   .     . . . . . O O O . . + + @ O + + . . . @ . . O . @ O O O O O O O O O + = + O O O . O + - + O + O O O + + > > > - + > + - O + + > > > % > + > + + X + X + > + % % > % : $ $ $ $ : > + % q * > 4 > 0 + 4 + % % % + > 0 4 X @ 4 0 + 4 4 4 q > % * 4 + 4 * 4 > > > + + 4 4 > > % 4 + 4 4 4 4 > % 4 4 * 4 4 > 4 - * > 4 - 4 4 4 7 4 q - q q 4 4 q 4 q 4 4 q 4 4 7 0 7 q > q q + q q 4 q 4 4 4 0 7 4 4 q 4 4 1 q 4 4 q 4 > q > & % > % 4 4 4 , , > , % , % 4 % : % % % % 4 * > 4 > % % $ , % , & , 4 % > 4 4 4 4 # 4 * : , , 3 > % , , % % % % + + > + % 4 % , % 4 % 4 4 , % % % % % % > 4 7 7 > + - 4 4 - 4 4 - 4 4 > , , % 4 % 4 , 4 > > 4 % 4 4 4 4 4 4 , % , * , % % 8 % > 8 &   e A O   > 0 + + 4 4 + + 4 4 4 % % % 4 4 4 % % , 4 % * 4 % 4 % % % & , 3 & 3 3 & 3 5 , , & % % % , $ $ $ $ & : & : + > 4 + q + % 4 > + + + > + - + - > > + O % - O > % > % $ > : % > > : $ 3 $ $ $ % % 4 > % 4 % 4 > % > + % % % 4 % % % + % + * + % * % + % + % + + + + + + + + * + + + @ X O + . + + + X @ O . . . O . . O . . . . . $ . . . . .   . . .   . . X   . @ . . @ o @ o o @ o o o o o         ",
". @ X .       . X .   . + 4 - . . @ . O . . . O . . O $ O . O O + + . . + O X + + . . . . @ . O . O = . O = + O O O + + O - + . O > > > > - - + . O + > > > > > > - > + + O + + - > - > > > - % > > 4 > 4 + O O $ > & % $ $ $ $ % + % + + % + * 4 4 + + 4 q > * % 0 4 % % 4 > % 4 4 4 % 4 % - + * + % 4 4 + + . + 4 5 4 % q + > 4 > 4 4 4 * 4 0 4 4 > * * > 4 4 q q q 4 4 q 4 4 4 q 4 - q - + - q - q > 4 0 4 4 q 4 4 - 4 4 - 4 4 q 7 4 4 0 0 7 + q 0 0 4 - q 4 * 4 * + % % 4 % % 4 % % % % % % * 4 % 4 & : $ & % , , % % > * % $ & , , % , > X + * 4 4 4 4 4 * & , & , , > , , % % q + 4 * > 0 , 4 4 4 4 > 4 > % 4 4 4 % % X % + 4 8 0 - O + , 4 - + - 4 4 7 > , & , , % % , 5 & , % 4 % , , 4 8 4 4 % 4 4 > 4 % 6 % % r +   A ! 4 X 5 8 4 4 > % + + 4 4 4 * % % % % > % % % 4 % % % > % 4 % , 3 3 : 3 , & , , , 5 4 , 4 , * , , & , , , , , , % * % 4 % % % % > > > - > > > > + 4 > + + + > + > : > : > $ > $ $ , > > : & 3 & % % % 4 4 4 % % * % % % % % + % > + * > > % % % % + % % % % % + + > + q + % + 4 + % + + + . . . X % - + . .   . . O @ O . O O O . . . . O . . . . . O @ . @ . @   @ . o . @ @ o o @ o o o o   o         ",
"@ @ . .     . @ @ .   . + + + . . . . @ . . . X . O . $ $ . O O + . . . + + O . o . + . . O . . O O O O O + + O - + + - > > > > + > 4 4 > > > > = + O > - - + > % > > + O O O - % - + > > - > + 4 4 4 > + + X @ $ % > % $ $ $ & % * + % + % + + % > * > 4 4 4 + > % % 4 4 > > + 4 4 * > 4 * > * + + 4 4 4 * % + q 4 4 4 * % * 4 4 4 4 5 4 > > 0 > 4 > q + + + 4 - 4 q 0 q 7 q 4 4 q q 4 4 q q + 4 + - q q 4 q q 4 q q 4 q - q q q q q 4 q 4 7 4 q 4 q 4 q q q 4 4 q + * + * q * % % % % , % % > > % % % % % & % 4 , % 4 % 4 4 , $ : & & 4 % % % 4 4 4 4 q q 4 0 , , , , > > % , 4 * > 4 4 4 0 4 5 , , 4 4 4 > 4 % % % % % % % % O - 0 4 > - > 7 - q + - - 4 4 4 , , 4 5 4 , % 4 , , % > % % 4 4 4 % % & % % , % % 8 % % r O   K =.e + 5 8 4 4 4 4 * * 4 4 4 % 4 % % % % 4 4 % % % % % > 4 4 % % & & 3 & & 3 & , % 4 4 > 4 % , & $ & $ $ $ $ $ $ > % % * * 4 % 4 4 > + > > > > + > > > + - > > % $ $ > > $ > > > > % $ , & , , : % % 4 % 4 % % % > + * % + % % 4 % 4 % > % % > % % + % + % + % % % q % % * + % + + % % + > + @ O X q > + + . . O X O . X O @ @ O . $ O O O . . O . . @ O @ . . @   @ @     @ @   @ @ o @ o o o         @ ",
"@ O .       . @ . .     . . .   . @ @ . .   o . & . $ . $ . . . > @   . + + .       + + + .   o O O = @ O + - O + + O O O + > > O - + O . . + > + - + + + + + 4 + - > - O O O + + + + + + > + > + + @ + + + % % $ > , > & $ $ $ % % q + q + + + > * + 4 4 4 4 4 > X + 0 5 + X > @ + + % % 4 4 4 > 4 + q q % 4 4 X 4 4 4 > + + 4 > 4 5 5 0 > 4 4 4 4 > * 4 4 + 4 q q 4 4 4 7 4 4 q - 4 q q 4 4 4 4 4 q 4 7 7 4 4 4 4 4 q 4 + + q 4 - - q 4 q 4 7 0 4 - + 4 0 4 4 4 4 * q 4 + 4 > > * 4 4 4 4 4 4 % % % % 4 , , , 4 4 4 % % % % 4 , $ , : , , * % 4 > q * * 4 0 4 , , , , > > % > 4 4 4 4 4 4 8 8 5 4 5 4 4 , , 4 & % 4 4 % % 4 4 - - > 4 4 0 0 7 - + + > 4 4 7 7 & 5 5 8 5 4 4 4 % % * % % 4 % 4 4 % O O % % , % O 9 , & r .   U } 0   + 4 + 4 8 4 > + 4 4 % 4 8 , & $ % > 4 4 % % > > * % % % % & 3 & : & & , 3 , , 4 4 4 4 % : & 3 , & : & , r 4 4 > > 4 4 4 4 0 4 4 > 4 > - + > > 4 - % > , > $ $ $ $ > : > > : $ , : , : : , 4 4 4 % % + % + > % % + % % % % 4 % > * % % % + % % % % % % + + + + + + X % + + @ + + > % + > X . + + % + . + + @ O O X O . O O $ . O O O O O O   . . X . . . .   @ + @ . @ @ o @ o o o @ o o           ",
". . @ .           .   O   . . . O . O O o . O O O o o . O + O o O + + O O O o o . O + = + O - O o - o O o O O o - - X O % X $ % % + % % + X % + + O % O X O $ O > > X % % % X % % % % % 4 % % % . + % % % % % % % % % % % : % % % % % 4 % % % % 4 4 4 % 4 4 , * 4 % 4 8 8 % % 4 > % > 4 4 % , 4 0 4 * q 4 # 4 4 + 4 4 0 0 4 4 * 4 4 4 6 4 4 5 5 % % % % % % % 4 4 4 4 0 4 4 4 * q 0 6 4 + q q * 4 4 4 4 * , 4 4 % 4 4 % 4 , * 4 4 4 q * * > 4 4 4 4 4 * 4 4 * + 0 4 4 % % % 4 4 % 4 4 4 , % 4 4 % % 4 4 % 4 4 4 4 4 , % 4 % 4 % $ , , , , > , , 4 4 4 4 0 4 + X , & , & & , 4 4 5 , 4 4 8 r 5 , 5 5 5 4 & % 8 8 8 4 , % , % % 4 % # q 4 q 4 4 4 % , , 4 & > , , , 4 4 4 4 4 % , > > > % > % % 4 % 4 , , : 3 , , 3 & & , r X X C A O $ , % % % % , % 4 % 4 4 4 , , , , , 4 4 > 0 4 4 4 > , * , % & , & 3 , , & : , & : & , 4 4 & 5 4 4 4 8 5 > % 4 4 , & % 4 % % , > + % % % % % % % % % % % % % : 3 & 3 & 3 3 & & & : 3 & 3 , , % % % % % % * , * % > > > 4 > % > + X % > 4 % X % * % % % % % * O O X % % % O $ % X X % % O O X O . O . . . . O O O O . O & O O . $ . . $ . O . . . . . . . @ . @ . . @         .                     X ",
". O X .         .   O   . . . . O . O o O O . o O O . O O + O @ O O O O O O . O . O O O O + + O ; - = o o = O + + O O + $ X O X + > % + % + + O O % O % X % X % % % 4 % + O % > + % % % % % % > % % % , 4 4 4 % % > % % X X % % % % % % > & % % 4 % % 4 4 , 4 , % % % % 4 % % > 4 4 4 4 4 % % % 5 4 % q 4 4 4 + q 4 4 0 4 4 0 5 4 * 4 4 0 6 5 0 * % > > % , , > * 4 4 4 * 4 4 4 4 4 4 > 4 * 4 > 4 4 > 4 4 4 > 4 % > > , 4 4 4 > 4 % % % + > % 4 4 4 4 4 4 > > + 4 4 4 5 * % % > % % 4 > % % % 4 % , 4 % % , > 4 > 4 % 4 4 % % , , , $ , & , > & 4 > % 4 4 4 4 + , , , , , 5 4 4 , % % 4 4 5 4 % 5 5 4 , > % % 4 5 4 & 4 4 > % 5 * 4 * 4 4 4 4 4 4 4 4 & > > & , 5 5 4 4 % , 4 4 * > * 4 * 4 % > > 4 , % & : & , : & & , r .   V S X % 5 % 4 4 5 4 , , 4 4 % % > : 3 & % % > % % 4 4 + > % , , , : : & , , , 3 & , 3 , , & , * 4 % % % % % , 4 % 4 4 > > % 4 4 4 > > > 4 4 4 > % * % % % % % 4 % & , : & 3 & : & : 3 3 & 3 & & : , 4 4 % % 4 > 4 % % > * % % * + % % % % % % % > % + % + % % % % % % > $ O $ X X $ O O % & O O O X % X $ $ $ $ X X O O O O X O O . $ $ & . $ O & . O & . . @ . @ . @ . . . .   . . . .             @   . ",
"@ + + @             . O . . . . O o o O . o O O = O O O + = O . . o O + O O O O O o O + O + + O + o - o o o + O O O % O O O O O + % + % % + % X O X $ X % X $ O X > > > O X % > % + % > 4 % > * % 4 4 4 5 4 4 4 4 4 4 > > O X % + % 4 % % , % , % 4 % > , 4 , 4 % % % 4 4 > % 4 4 4 , % > 4 % % 5 4 * 4 4 4 * 4 + * 4 4 4 4 4 0 4 4 4 4 0 5 5 5 4 , 5 4 4 , , , 4 4 * 4 4 4 0 0 6 4 + * 4 5 4 % 4 4 > 4 4 4 % 4 4 % 4 * % , , 4 4 4 q 4 4 % 4 4 4 4 4 4 4 0 4 4 % > 4 8 8 , , % 4 , * % % % % 4 4 4 4 % 4 4 % % > & % 4 4 % % & , $ , , , , > , 5 % + q * 4 5 4 4 , , % , 4 4 4 % % 4 4 , 4 4 5 8 4 4 % % % % % 4 % % 4 % * , 4 4 4 4 q * 4 4 4 5 5 5 4 > > > > 5 4 > % & > 4 5 > % % % > % * % % % % , & : $ , : & : , r     V W $ % 5 * 5 5 8 5 4 4 % , % % & : & > : > > * > 4 * % X % 4 5 r : & & 3 , 3 , : & & , & 4 * 4 4 4 % % % % , * 4 4 % 4 % 4 % 4 4 + + % 4 4 4 > % > 4 % 4 % 4 % > : : $ , & 3 & 3 3 & & 3 , & & : , 4 > > * % > 4 % + % > % % + % + > 4 4 % + > 4 % % % % + % % % % % $ X O O X % % X   O O O O O O O O O O X O O O O O O O O . O $ & $ & $ $ . $ . . X . . . . . . .   . . X . @ X @                   @ ",
"+ + + X         . . . . . . $ . O . O O O O . O O O O O + = O o O O O O O O O . O O O + - O + O O = o = - = + O > > X + % X % + % % % % % % $ % % + % % % $ % + X > % % % % > 4 X % % % % 4 4 % 4 % , 4 4 % % % % 4 4 4 % % % % % % % 4 , 4 4 4 4 % 4 4 % 4 4 % 4 4 > 4 , & > * , % 4 % > * % % 4 4 4 * 4 q 4 4 + + * + * % 4 0 0 0 4 0 4 5 0 5 , , 5 5 5 , > & % 4 4 4 4 0 4 0 9 4 X + 0 0 4 * + % + + % % % % % 4 , % 4 4 4 % 4 4 % + 4 q 4 4 4 4 + 4 4 4 4 4 % % 4 5 4 4 % % 4 % 4 , 4 % , 4 % 4 , 4 % % , & > , 4 % % > > , : , & : , : , % 4 4 + + * 4 5 4 4 4 4 4 4 4 , % % 5 8 8 4 4 5 r r 4 , 4 5 8 4 > 4 % % , 4 , % 5 4 0 4 4 * 4 4 4 , 4 , , > : , & 4 , > * > > % 4 > % > * > % % % * % % , , , : $ & 3 , , 9 X   t A X % 4 % 4 , 5 , % 4 4 , 4 5 , , , % , , , 4 % q 4 * % % % , 4 & , $ $ & , : $ 3 , , , 4 4 4 * 4 4 4 4 % 4 , > % % % 4 4 % % % X + % X % 4 % X % % % % % % % % , & 3 $ 3 & 3 & & , 3 & 3 : : & % % * > % % % % % + % + % % % % % * > % % % % % % + + + % + + + . O O X O X + % $ O O O $ X X O X X O O O O X X O X O X O & . O . . . . . . . . O O . X @ . X . . . @ . . . . @ @ .                   @ ",
". @   .       . . . . . . . & . O . O . . O o O . O O . O O O O + O + O o O O o o O O O O + O + = o = o O - - O + > % + % % % % + % + > % % % + % % X % + % $ % > X $ X % 4 > % % % % > > 4 4 % % , % % % % % % % 4 4 4 % % 4 % % * > 4 4 4 4 4 % 4 % , 4 4 , * & > % % % % % % % & % > 4 4 , % * 4 4 4 4 4 * q * * 4 % q * 4 4 9 0 6 0 5 5 4 4 , 4 4 5 , , , % + % 4 0 0 0 4 4 0 * + % 0 0 * 4 + > % % 4 % % % % 4 % 4 % 4 4 , 4 4 % 4 4 > 4 4 4 4 4 4 4 0 4 % % % 4 > % 4 4 4 4 4 4 , 4 4 4 , > * > % % 4 , 4 4 % , * , > , % , , : , , % , , 4 4 % 4 4 * , 4 5 5 4 5 8 5 4 4 4 5 8 r 5 4 5 r 4 4 , 4 5 5 4 4 % % % 4 4 > 4 4 0 4 * % * % 4 % & % 4 , , % , , % 4 4 4 , , , , * % > % % % 4 % 4 , , , , , $ $ $ 4 > 4 8     9 e   O , % % % 4 & > > 4 4 % 4 , $ & 3 , > 4 4 4 % 4 4 4 4 > % , , , & : , , & $ % , 4 > q * 4 4 % * > % % % % & % % % 4 , % % % , > + X % % % % % % % % % % % % , & 3 , : , & , 3 & & 3 & 3 & 3 , % > * > % % % % % + % % % % % % % + % % > % + + + % % % X + % . . O X % % % % % X X $ % + X X $ $ O & % % % % O . O O O X $ O & $ . $ . $ . $ X . . @ O @ . X @ . . . .       . .                   X ",
".         . . . . . . . $ . . . O o o O O O . O o . O O O . . O O - O + O O . o O O O + + O - O - o o - = O % + % - % % % + % > + % + * > % % % O % % O X O + % > % O O > 5 4 % % % % * 4 % % 4 4 4 * 4 % 4 4 % % % * > 4 % % 4 % > % 4 4 > % 4 4 % 4 * , 4 4 , % , 4 % % 4 4 , % > , 4 5 4 5 5 * 4 4 q 4 * 4 4 0 5 0 4 * 4 4 0 9 9 9 6 0 4 4 4 * , % 4 & , > > + * 4 0 5 5 4 * 4 * 4 0 4 + + 4 4 4 % 4 4 4 , 4 % % > % 4 % * % 4 4 4 4 4 * 4 4 4 + + 4 4 > 4 > % % 4 % % % % 4 > % % * 4 % % & % % > 4 4 % 4 4 % 4 4 4 , 4 4 4 & : : & > > % % , % 4 4 4 4 % 4 4 , % , % , % % 5 4 5 5 5 , , 4 , * % > , , 4 , % % % > 4 * > 4 > 4 q 4 4 * 4 4 % , 4 % % , r , , % , 5 5 5 * % , 4 4 4 4 % 4 , 4 4 > > , , , $ > 4 % 4 6 +   5 8   % 4 % , 4 % > % % % % % % $ 3 , : & > > * 4 * 4 4 4 4 % > % , & % > : , 3 $ , , > * 4 4 4 4 % % > 4 4 > > % 5 5 , 5 4 4 > 4 5 > % % % % % % 4 > * 4 4 % 4 > $ , & $ & , : 3 & 3 3 & 3 & , : % > 4 % 4 > 4 % % % % % % % % % > % O X > * > X % % % + % % % + % % > > % % % + % $ O $ % O O $ O X O O X $ $ $ O O O & . & X O . . . . . . . . X O + X @ O O @ @ X + @ .       . .                     ",
"            . . . . . . . $ $ . . O o O O o O . . O O O O O o O O O + O + o . @ . + O + + O O O o = o O O - + > O + O % + X % X % % % % % > 4 % % O O + % $ % X > % % % % 4 4 % % 4 , * % * > % 4 4 , % 4 % > * % % , > 4 % > * > % 4 > % 4 % 4 , % 4 , , 4 , % , 4 4 4 > 8 r 4 4 4 > 4 , 5 4 4 q 4 4 0 * 4 4 4 4 4 4 4 4 4 4 0 5 5 0 4 4 6 4 4 > 4 4 % , > , 5 4 4 4 4 5 4 4 4 4 + > 5 4 X + 4 4 4 4 4 % 4 4 4 * > % 4 % 4 > , > 4 > 4 4 4 4 > 4 + 4 4 4 > - > 4 4 % % * % > 4 4 % % % % 4 > % % 4 , 4 , % > > 4 4 % % % 4 , > , , , & % > % > , 4 5 4 5 , , % 4 * & % % % % % 5 5 4 , 4 % & % % % 4 4 , & , 4 % % % , , > % 4 + 4 * 4 4 4 4 4 , % 4 % , % , , % , 4 5 5 5 , 5 4 , 4 , , , , 4 5 , % > : , $ & > , > 4 9 +   * 5   % r * 4 , 4 4 % % % % % % $ 3 , , , > 4 * 4 # 4 0 4 4 4 4 4 r 4 > % & , , , , , 4 4 4 4 q 4 % % 4 4 4 > 4 4 8 4 5 4 , % % % 4 > > % % > % 4 > > 4 > 4 4 4 % : , & 3 , : : & 3 , & 3 & 3 & : % 4 4 , > 4 % 4 % * % % + % % 4 % % + % % % % % + % % + % % % % % % % % $ O $ X % O X $ X $ X O     O   O O O X X O O X O O O O $ . . . . . . . O + @ O X O @ O . @ . . .   . .   . . .             . X ",
"                . . . $ . . & . O O . O . O o O . = - + O @ O O . O O O O O O + O O O - O + + O - o = - o - + - O + O X O O O O % + % % > * % % X O % $ X O O X % % * % % % % 4 % 4 > > > > % % % % % % % % % % % % % 4 4 % % % 4 % > * 4 % % % , * % 4 % 4 4 4 4 8 4 % % 4 4 * % % % * % % % % + * 4 4 4 q 4 0 # + * 4 * 4 4 0 * 4 4 4 4 4 4 5 , * , % , , , 5 5 0 4 4 * * 4 0 0 + + 0 6 % @ + + % % % % % % % > % > * > % 4 % * 4 4 4 4 4 4 > 4 4 + 4 % * * @ % % 4 4 , % % 4 4 , % , 4 5 4 > , 4 * % 4 % % & % % % 4 * > % 4 & : & 3 , % 4 * % % , , & , 4 r r r 4 5 4 8 8 8 r 5 4 4 4 4 % % , 5 8 8 4 > & 4 % % * 4 4 % % 4 q * 4 4 6 5 4 4 % 4 4 4 > % , , 5 4 , 4 5 5 5 5 4 4 4 4 5 4 4 4 5 , % & % , : $ , , + > 9 X   + 4   % e 4 4 & 4 % 4 4 4 4 4 4 5 , , , , 4 4 0 0 4 0 4 4 4 4 5 8 5 , , > , , , $ , , 4 4 4 * 0 4 4 5 4 4 % % , 4 4 4 % % % & % % % % % % 4 4 4 % * % % % % % % % & 3 $ & $ , : $ , , , & : & & $ % % % > * 4 % % 4 % % % * % > % + > 4 4 % + % > % % % % > % % % % O O X O X O O % O X O $ O O O O . O O X $ X $ & O O . O O O X . . & . $ . . $ X O + @ O X O @   . . . @ . . .     @ @ .               ",
"        @ . .   . . . $ . & . . O . O . O O . O o O O + O O o + O O . . o + O O @ O o O O O O O o = o O o - O - . O X % $ X X O X O X $ + X % + % % % X + % % > X + % % % % > % % % % % > % % % % % % % * % % % % % 4 4 % % % % > % % % % % % % % % % 4 % * > 4 4 & $ % % % % % % % % , % , 4 4 0 * q * 4 4 4 q + + % % 4 4 4 4 8 8 0 0 4 q 4 4 4 > 4 4 , & > 5 9 5 4 4 4 6 * 4 4 * * 4 4 * 4 % % % 4 > % % , 4 8 4 > % 4 4 4 , 4 4 4 4 4 4 4 4 5 5 5 4 4 4 4 4 % % % > 4 4 4 % % % > % 4 4 % 4 % % 4 % 4 4 4 4 % % & , 4 4 4 4 , , % % 4 5 , % % , , r % , , , , 4 8 r r 5 , , % , % % % > 4 4 5 5 , 4 5 5 4 4 % % > , * % % 4 + * * 4 4 * 0 4 , % 4 4 , % > % 5 5 4 & , % 4 5 4 , * 4 4 4 4 4 & : & $ $ & 3 $ , , , & r % X 0 8   . 5 , % 8 , 4 , 4 4 5 4 % % , , , , , 6 , 6 4 4 + 4 q 4 4 4 , , , , , , , 3 > > 4 5 5 5 * * 5 , & % 4 4 % % O & , 4 & % % % % % % % , % % % > % % % , 4 % 4 , , % , % % & $ $ $ > > % % % , % * > % & % % % % 4 > * % % > 4 4 > % % + % 4 4 4 4 % % % + % * X % O . . X % % + % % % % X O . X O O % % % X O & $ X $ O $ X % $ . & . . $ . . O X + + + X + % . . . . @ + + @ . . . @ @ .             ",
"      . . . .   . . . . . . $ . o O O o O . O O O O O O @ . O O O O O o O O O . O O + O + + O + = o = o @ = + + . O > % % O O O % + + > % % > % % + + O O + + % % % > X % > * % > % % 4 % > % * % % % , 4 , * > % 4 4 % % % % % % % X % % > * % > % % 4 4 > > , 5 , > % 4 % % > 4 , 4 , 4 5 4 8 0 4 4 4 4 4 4 * 4 0 0 0 0 4 4 4 6 6 5 4 4 4 * % 0 > > 4 , $ > , 8 0 4 4 5 8 5 0 4 4 4 4 0 5 4 + * , 4 5 4 * , 4 5 4 > * % 4 , 4 4 4 4 4 4 4 4 4 5 5 4 4 4 4 4 4 4 4 4 > % % % % % 4 > & % 4 , % * , , 4 % , , 4 4 , 4 , , , % % & , , 4 8 8 4 4 $ , , , , % , , 4 5 8 r 8 5 * & 4 % 4 % * , 4 4 r 5 , 4 5 5 4 , % > * 4 4 % , 4 4 4 4 4 4 0 > 4 4 % 4 % , , > & 4 4 4 , 4 , 4 % > , , % , % > * , , $ $ 3 3 & & , , % % 6 %   4 8   O 8 4 4 8 % 4 4 , , , 4 4 , , & , , , , 5 & 0 0 4 # 4 4 4 4 , & & , , , , , , , & 5 5 5 4 4 4 , % % 4 4 , , 4 5 5 8 5 5 8 4 % , 5 5 4 4 4 4 8 8 4 4 % % 4 % > > % > , , , , % $ > > , , , , % % > 4 , , > 4 % % 4 > , * % 4 % * % % % % % % % 4 4 > + % % % > > % % % % > > O % % % % + X . $ % X $ X O O O $ $ $ O X O O O . . . $ . . . $ . @ + + @ X + + . @ . O X + + X @ . . . . .             ",
"        . X .   . . . . . . . . . O o O O . O . . O O O O O O O O O @ O O O + O O + = O O + - - - - - = = - + O O > > % % O X $ % % % % > % 4 > % % % O X O + % X % % O X % > % 4 % % % % * % , % % 4 4 8 4 4 > % % 4 > 4 % % % % % % 4 % 4 > 4 % * > % 4 4 4 4 4 5 5 4 > 4 * 4 * , 4 4 4 5 8 5 5 5 4 4 4 4 4 * 8 4 0 0 4 4 4 * 9 0 8 5 4 * % % 5 5 5 4 , % & 4 4 4 0 4 6 0 0 6 5 4 4 4 5 5 0 * % 4 4 8 5 5 4 4 5 , & % % 4 * , 4 4 4 4 4 4 4 4 4 4 4 4 4 % > 4 8 5 , & % % % 4 4 , % , * % % % 5 , 4 , 4 % 4 % 4 4 4 4 4 % , % , & , 4 , 5 4 , & , , , , , , & 4 5 5 5 8 5 , 4 , % * % % 4 , 4 5 5 4 , 5 5 4 , 4 % * > , 4 , % 4 4 4 4 4 4 % * % 4 % , , , , , , 5 5 5 5 5 4 % , 4 * , % % % % , & , , , & & 3 $ , & , 9 #   0 6   O r 4 4 8 4 4 , 4 4 4 , , % , , & , % 4 * 5 6 0 0 # 0 4 4 * & , , , , , , , r r , , 8 9 0 0 4 5 5 4 5 4 5 5 8 5 8 5 8 5 4 4 4 4 4 4 4 4 4 4 8 5 4 4 4 % % , > % % % % , , % % & > > , , , % % % 4 4 4 4 5 4 % % , > % % % 4 % % > * 4 % > % > > % % + + % > % > % % X % % > % + % % % % O . % O $ X O O X $ X X $ X O O X O . $ & . . . $ &   . @ O . @ @ + @ @ . @ @ O @ . @ . .       . @         ",
"      . . + . . . . . . & . & . O O . O o O O o O O O O O o O O - O O . + - O O O O O + + - + + - - - - = o O - O - % % % X $ % % % % % * % % > > % % % % % % % % % % O + % 4 4 4 4 4 % % % 4 4 4 4 > 4 4 % 4 > % 4 % , % % % 4 X % % % 4 > 4 > % % > 4 % % , 4 , 4 5 , % % % > % % * % % , % , 4 * * 4 4 4 * q X % X > * 4 4 4 8 0 5 0 4 4 4 4 5 4 4 4 > $ > , 4 0 4 4 4 4 4 6 5 0 0 0 0 5 4 4 % > , * , , % , 5 , > > 4 , 4 4 4 4 4 4 4 4 4 0 4 4 4 4 4 4 4 4 8 5 4 4 % 4 & , 4 4 4 4 , 4 % 4 4 4 , 4 4 , , * % , , 4 4 5 4 4 , > , * 4 4 4 4 , , r r r & , : , 5 5 5 5 4 4 4 % 4 , % 4 % , 4 5 5 5 5 5 , , 4 8 4 % % , 4 4 4 0 4 0 4 4 4 * > 4 % 4 4 4 5 , r 5 5 5 r 5 8 5 5 5 4 4 4 4 4 , % > , , , & 3 , $ $ , > % 9 +   4 5   + r 5 , 8 , 4 & 4 , 4 4 4 4 , , : & 4 * * 6 0 0 4 0 4 0 4 4 r , r , , , , & , , , 5 6 6 0 4 4 5 5 5 , 4 5 5 5 4 > > 4 , % % 4 % 4 % , % % % % % % % % % , * , , > % % & $ $ $ : & > % % , % 4 4 , 4 4 4 , 4 % % 4 4 4 > % % % % > > % 4 % % % * % 4 % % + % % X X O O O + X O % X % + O O O X % $ X + O % % $ O O O X O X O . . $ . $ . . . . . . @ . . . O @ . . . O @ . . X @         . .         ",
"        . O . . . . . . . . . . . O O . . O O . @ O O O o O O O O O O o O O O O O O O + O + > O - ; = o o O . + O + + % X $ $ X + X % % % % > * % 4 * % > + % % + % % O O % > % 4 % > % * > % 4 5 4 , % & % > > % 4 4 * > % % * % % 4 % % * % % % % % % 4 % * 4 , , 4 4 % % % % % % % % % * , > 4 4 4 * * 4 * > X @ > * 4 0 5 5 4 4 4 0 4 4 4 4 % , 4 % , % , , 6 0 5 4 4 * 4 4 0 5 0 4 6 4 4 4 4 4 % > % , 4 4 4 , 4 % 4 , 4 , 4 4 4 4 4 4 5 4 5 5 0 4 4 4 4 4 , 4 , 4 5 4 , 4 4 4 , 4 4 5 5 5 4 , 4 4 , , 4 4 4 4 , 4 4 4 4 4 4 4 0 5 4 4 5 5 , r r r r , , , , 4 , 4 4 4 , , % , % , , , % 4 5 5 5 4 4 4 , 5 8 4 % , 4 4 4 4 4 4 4 4 4 4 4 q % 4 4 4 , r , r r r 5 5 5 5 5 8 4 4 , 4 4 * 4 4 , , , % , : & , $ , % 4 0 + @ * 4   . 8 4 4 5 > , 4 , 4 , 4 , % 5 , 4 % % * 0 0 0 * 4 4 4 0 4 4 , r 5 , , , , , , > 4 4 6 0 4 4 4 4 5 4 , 4 4 4 r 5 , 4 5 5 , % , % 4 % * % % % % % % & % 4 4 4 5 , & % 4 % % % % > > , % % * % 4 4 , 4 % % % % % * 4 4 , % > % % % 4 > 4 % % + % % % 4 X % + % % % % + % % % % + $ X + O % O O $ X O O X % % % % + O $ $ O O X O . $ $ O X O O . . @ O @ @ @ @ @ . . . . . . .     X . .             @ ",
"        . X . . . . . . $ . & . O o o O O o O O O O + O O O O O O . o o . O O o @ . O O - + + > - @ O + = = + + + > % % % $ % % O + + % % % % + % % % % > X % O + % > X X % 4 % 4 4 % 4 * > , 4 5 4 > & % % % % % 4 , % * % > > > % > % % % % % > * % % % , % , 4 4 4 4 4 % 4 , % 4 % 4 > , 4 4 0 4 4 4 0 4 4 4 4 4 0 5 8 6 6 6 4 4 4 4 0 4 4 4 % % 4 % % , 5 5 8 9 9 0 0 4 4 4 5 4 4 4 4 6 4 4 5 5 > * , 5 8 8 4 4 4 , 4 5 4 % % 4 4 4 4 5 5 8 5 5 5 4 4 4 4 4 % 4 , 4 5 4 4 , 4 % , 4 4 5 5 5 & 4 % 4 4 5 5 4 8 5 5 4 4 > % % q % 4 4 , * % , r , & , , , & : > , & , , 4 4 4 * 4 4 & 4 4 4 4 5 5 r , , , 4 5 8 4 4 % 4 4 , > 4 * 4 0 4 0 4 4 % 4 , 4 5 , 5 8 5 5 4 , , , 5 5 * % % , > , , 4 & % > % : , , 3 $ 5 % % r %   4 4   . 8 4 > 8 & % 4 , 4 5 4 4 , r 4 4 4 4 4 0 0 q * q 0 0 0 4 4 & 5 , r , r , r > , , 4 5 5 4 * 4 4 , % % % , , 8 4 4 , 4 4 4 , % 4 4 % % % 4 > 4 , , 4 4 % % , 4 4 , 4 5 5 8 4 , & > & , 4 > 4 , , 4 4 4 > % % % > % 4 % % * > % * > > 4 % * % % % % 4 % % % % 4 4 > 4 > % % % + $ % $ % X % + O O O % + % % % % % $ $ X $ $ $ . O . . O O . O + + + @ + + + . X @   @ @ . .       . . .               ",
"        X & . . . . . $ & . . . . O O . O o @ O O O O O O @ O O O . . . . O o O O O + O + - > - = = o + - + + % + > > % & $ $ $ O O X O % % % 4 % % % % + + + X O % % % % % > > % 4 % % > > * 4 % , , 4 4 > 4 > > 4 4 4 > % % 4 4 % * > % 4 % > 4 4 4 , % , > 4 4 4 , 4 5 8 5 5 % 4 4 4 4 4 4 5 0 5 4 5 4 0 0 4 5 8 6 8 6 8 0 6 6 0 6 5 4 4 * 4 % 4 8 , , 5 5 5 8 6 6 5 4 4 4 0 0 0 4 4 0 4 4 * 8 4 4 > 5 5 5 5 5 , , 4 5 4 5 4 4 4 4 4 4 5 8 5 4 0 5 4 4 4 * 4 , 4 * , 4 4 4 % , % 4 4 4 4 , , 4 , 4 4 4 4 4 , 5 8 5 5 > 4 4 + + * 4 * > % > 4 , , , , 3 , > > % 4 4 , 4 4 4 4 , > , 4 4 , 5 , 4 5 8 5 4 , 4 5 , 4 5 4 > > * 4 * 4 4 4 0 4 4 4 * > % 4 , , 4 , 5 , 4 4 4 4 4 5 , % , % , % % % % , , , , & , , $ , > 4 9 q   4 5   X r 5 , 8 % % , 4 4 , 4 , * , , 4 % * 4 4 0 0 4 4 0 0 6 4 4 , 4 , r r , r r r , 4 4 5 5 0 0 8 4 % , 4 4 4 & , , % 4 % > , 4 4 4 4 % 4 , , 4 4 4 4 4 % 4 4 , 4 , % 4 4 5 4 4 % 4 4 , 4 > % 4 % % * % * % > % 4 % 4 % % % * 4 % + 4 * % > % % X % % % % + % % % % % % % + X + % X % X X $ X % X % % % % O $ % + + $ X O O O X O . O O X O X O + . . X + X + @ X .   . @ . .     .                     ",
"        . . O . . . . . . . $ . O O o O O . O O o o O + O . O O > O O O + O - O O O O + % % > > - - - = - - - > > > > % $ $ > , X $ % % % > 4 % 4 % 4 % > % % % O % % X > > 4 X % > % 4 , % > % % % 4 5 8 8 4 4 4 4 % > % % 4 4 % > % % % , 5 5 5 5 4 8 4 4 , * 5 , & % 4 8 8 5 4 % 4 > 4 4 5 5 5 4 4 4 0 0 4 * 4 4 0 4 0 0 4 6 9 9 9 5 * 4 + + 5 r 6 4 , 4 r 4 4 4 5 0 4 4 4 0 5 4 4 6 5 0 4 4 4 4 % 4 5 5 4 & 4 4 4 4 8 4 4 , > 4 4 4 4 5 4 4 4 4 4 4 4 4 > 4 8 4 4 % % % % , 4 4 4 % , % % % 4 5 , 4 4 , , , 4 , 5 5 0 4 4 4 4 5 9 6 5 4 5 6 r , , & , , r , % > > * 4 % , 4 % 4 , 4 4 4 4 4 4 4 r 8 4 & 4 4 % , 5 5 4 % > % 4 0 6 4 4 4 4 4 % , 4 , , 5 4 4 5 5 5 r 8 4 , , 5 8 4 4 4 4 4 % 4 * , , 3 & , , $ , > 4 9 *   4 5   $ r 5 4 8 % 4 & , 4 4 4 4 4 , , % q 4 q 4 4 0 0 0 5 9 0 4 4 5 5 5 , , r , , r r , > 0 5 9 8 r 4 , > 4 , % % % 4 4 4 % & 4 8 % , % % % % 4 4 % % % % % % 4 4 5 4 % % , % % % % % % % > * % % % % % 4 , 4 4 4 > 4 % % % % > 4 % > % > * > % % % % > % % + + % % 4 > % % % % % O % O O O % % % % % % % % $ X   $ X X . O O X $ . O O X . O . O + + + . + + . . . . .   . @ . . . .           .       o ",
"            .   . . . . O $ . . $ . O . o O . O + - + O + = O + O O O O = + + > - O O O + > O + O + - % O $ $ : $ $ $ $ $ $ $ $ $ $ & $ $ $ % , & $ : , , , $ & % % + > > * % 4 % % 4 4 4 % % % , , , , , & , , > > % , % 4 4 > 4 4 0 > + + 4 4 4 4 4 % 4 + 4 % , , , & , , , & > > > , , & , % * * 4 4 0 4 q + 4 4 0 6 4 0 4 4 4 6 4 4 4 0 6 5 4 4 > , 8 8 4 4 5 > % X % 4 4 4 5 5 0 5 0 4 0 4 4 4 6 4 4 4 4 5 6 8 6 5 0 4 4 4 9 9 6 4 5 9 6 4 0 4 4 5 0 0 4 4 r r 5 % % 4 4 5 , 4 , , & > , 4 8 4 4 4 * > 4 , , , 5 4 & % + 4 0 0 0 4 5 5 9 r 4 5 , r , , , , , % , & r 5 , , r , & > , r 5 r % , , , & % > , 5 , , , & , % , * 4 4 4 * 4 * 4 0 4 4 4 4 5 4 * 5 4 , 5 4 5 , , , , > > > , , , 4 4 4 , , > : , & , , , r % . 4 5   O 9 8 4 5 > + 4 4 4 , 4 5 8 , 4 % 4 * 4 4 0 * 4 4 0 5 0 5 4 4 4 4 5 4 5 , , r r , , & , , , $ , r : 3 & 3 3 , , , & , r , , $ , , , , , , $ & , , * % 4 4 4 X > 4 4 % > % * X % % % % > % % % , 4 % % % > 5 4 % % % 4 5 4 % % 4 % % % % * % * % % + % > % O % % % % + + + % % X X O % % > % % + + + % 4 @ @ % % O . + + + + + @ O + . + + + % O .   O X O .   . . O . . o     . . .       .       @ ",
"          . .   . . . . . $ $ . . $ O O O O O O - + + O O . o o   . . O O O + > % + O + + > > O O - + + O O O $ $ $ $ $ $ $ $ $ $ $ $ $ & % $ % , % $ & > > $ $ % + 4 % % > % * % % , 4 4 % % % , , , , , , , , 5 4 5 , 4 4 > * 4 4 4 4 4 % q % 4 4 4 4 4 4 0 4 5 , , , , 5 , , > > % , , , , % > 4 4 6 4 * * * * 4 4 4 6 4 0 4 0 4 6 4 4 4 5 5 4 4 4 4 6 6 8 0 5 4 4 > 4 0 6 5 0 5 0 6 0 0 0 0 4 4 4 4 4 6 4 0 9 0 5 5 0 5 0 4 0 0 5 4 4 5 6 0 6 8 9 0 5 5 5 5 5 8 5 4 % > 4 4 4 5 5 4 5 4 4 8 0 6 4 4 4 , 4 , , , 4 , 4 4 4 * 5 5 4 4 4 4 5 8 , 5 , r , , , $ , , , , , , , , , , & , , r , , , , , r , , , , 5 , , , , , 4 4 4 4 4 4 4 4 4 * 4 4 4 4 0 6 5 4 & , > > , % , , , 5 , & > , r 4 4 0 4 8 r r , , $ , , , 9 %   * 0   O 9 8 4 6 4 + 4 4 0 4 4 4 9 , 5 4 4 > 4 4 4 0 4 4 0 0 5 0 0 5 4 4 5 5 5 5 , , 5 , , , , , , $ , , 3 & , , & : & , , , , 4 * & , , , , , , : , , 4 % q 4 4 % % > 4 4 % % , 4 % , > 4 4 4 4 % 4 4 4 4 % % , 5 4 % % % , 4 4 % * % % % % % > 4 > % + % > % + % * % % % % % % + > % > O % % % X + X + + + 4 > + + X @ + + . . . + + . + @ . + O + @ . . @ + O .   . . . . . . . . . o         . @ @     ",
"        . @ .   & O O . $ $ . $ O O O O O O O O + - O O O . . . o . O . + O + - > + + O + - + + O O - > O O O $ $ $ $ $ $ $ $ $ . $ % , , $ $ $ , $ % $ $ % > > % * > % % % % % 4 4 4 > > 4 % % , > , , % , , , 5 4 4 4 * 4 % 4 4 4 % 4 4 + 4 * 4 > 4 4 4 5 4 4 8 5 , 5 r , 5 , > , , , , , , , 4 4 4 4 4 4 4 4 4 4 4 0 4 4 0 4 0 8 0 4 6 4 5 0 4 0 0 0 9 9 6 8 5 4 4 0 5 5 0 4 5 4 0 0 4 0 0 4 4 0 * 4 4 6 6 4 0 5 4 6 4 4 4 4 4 4 4 * * 0 6 0 8 5 0 5 4 0 4 4 * 4 5 4 4 , 4 , 5 5 5 5 4 5 5 r 5 4 4 4 * , , , r , , , 0 6 0 4 4 4 4 * & 4 4 5 , 5 , , , , , $ > , 5 , , , , 5 5 , > > 5 5 5 , , , 6 , , , , 5 r , , 5 , r 5 5 4 0 4 0 0 0 4 4 * 4 4 0 4 4 5 5 , , , , , , , , , , , > % , , & + * > 4 , r > : : r : , 9 %   4 >   X 9 4 4 9 4 4 4 4 4 4 4 4 4 5 5 4 4 4 4 * 4 5 5 0 0 0 4 0 4 5 4 4 4 5 5 5 5 % , 5 4 , : & $ & , , & 3 & , , , : , & 4 5 4 , , , , & : , , , 4 4 4 4 4 4 * 4 4 4 % > % % 4 4 4 4 4 5 , 4 * , 5 4 % % 4 4 4 4 % % % % % , 4 % > % % % % % % % % % % % * % + X > % * > % % * % > % % O X X % O . . . + + % + + . + + * > + @ . . . . . . . . @ + . . O + + O   O . . . . . . . O .         . .         ",
"        . . . . . $ . O . . . & . O . O . O o O O O + % = + = O + > - + O - O O O + + - % = % O . + + O O O O $ $ $ $ $ $ : $ : $ $ $ : & $ % $ , $ $ % % > > > > > * > % % % % 4 > % & % , 4 > & > > , , , > > % % % 4 > 4 4 4 5 4 * + 4 4 > > * 4 4 4 4 4 4 4 5 r , , 5 r , r , & , , , , 4 5 5 0 4 4 4 * 4 4 4 6 4 4 0 5 4 6 8 6 0 4 4 0 0 5 0 4 8 0 6 8 5 8 4 4 > 0 5 5 4 4 4 4 * 0 4 4 4 4 4 4 4 0 0 5 5 0 6 4 6 4 4 4 * 4 * 4 0 4 % 4 5 6 0 4 4 4 4 4 4 4 , 5 r 5 4 4 4 % , % , 4 4 4 5 8 4 0 6 4 , , , , r , * 4 4 5 4 * 4 4 4 4 , 4 5 5 , , , , , , , $ > > r , , , , 5 , , , , , 5 , , , , r , , 5 , 4 , , , , , , 5 r 4 0 4 4 4 * 4 4 4 4 0 0 0 4 4 5 , , 5 , , 4 , , & 5 , , > , 5 , + % % > , , > $ : , & , 9 % . 9 4   O 9 4 4 8 4 > 4 0 4 8 4 4 4 8 5 4 4 4 > 4 4 0 5 0 0 0 0 4 4 6 5 6 4 5 5 5 5 % , , , % $ , , & , , , , & , , , & & , 4 4 4 % , , , : & , & , 5 , * 4 + 4 > % 4 % 4 % > , 4 5 4 4 > % % % , 4 4 , % , 4 5 4 % % 4 4 > * % % 4 4 > 4 % % 4 4 % % % % % > % % + > > > % 4 % % % % X O % > > > % . O O @ + + + + + + > > > + + O + . . . . O . O + + . + + + .   % + + @     o   + .       . .           ",
"        . . . . . . . . . . & . O . . . O . O . + O - + % + > - > > + - - + + O O + + + > O O - O + + + O O O $ $ $ $ $ $ $ $ $ $ & $ & $ $ > % & $ : , > % % % % > > + % % + + 5 % % % % 4 % % > > % > % , > > > % 4 % % 4 4 4 4 4 + + 4 4 > % 4 > * 4 4 4 > * 5 , 4 5 5 5 5 4 5 5 5 5 5 r 5 8 0 5 * 0 4 4 0 4 4 4 4 5 0 5 4 0 4 6 4 4 0 4 4 0 4 0 0 4 5 5 6 8 > 4 4 4 5 4 4 * * 4 4 4 4 4 4 * 4 4 0 5 4 0 5 5 5 0 4 4 4 4 4 5 0 5 6 4 * 4 4 0 6 9 6 6 0 0 6 8 5 8 8 4 , 4 5 5 & % , % 4 , 4 5 6 4 8 4 4 , , , , , 4 5 4 4 4 4 0 4 4 4 4 , 5 r , & , , , , , & % 4 5 5 , , 5 5 5 5 , 4 4 5 4 , 5 5 4 , 4 , , % 4 4 , 4 , 4 5 5 * 4 4 4 4 * 4 % 5 0 9 8 4 * 4 4 4 4 , % 4 % % 4 & 5 5 4 % * 4 , 5 4 4 4 , , 5 , , , & , r % . e 4   O 9 , > 0 , 4 4 4 0 4 4 4 > 8 8 4 4 4 * 4 4 6 0 6 6 6 0 7 4 4 4 4 4 , 4 5 , 4 5 5 , > % , , 3 & : 3 , , , , 5 5 4 , 5 4 , & , , , , , , , , 4 , 4 > 4 % q % > 4 > * 4 4 , , % % * % % % , 5 % % , 4 5 5 , % * > 4 , % % 4 4 4 > 4 4 > 4 > 4 % > % 4 % % % % % 4 % 4 % % % * % X % + % % % > > 4 % > + q % X % + + + + + @ + + @ O O O . @ + @ O + + + + + . + O . . . . . . + .       . .           ",
"        @ . . o . . . . . . . . O O . O O O . O > % O + O O . . O O O + O O + O . - > + - + + O O O > % $ $ $ $ $ $ $ $ $ $ $ $ $ $ $ $ $ $ % > $ $ , , > % $ $ % * % % % % % % 4 % % % % > % % : $ % & & , & , 5 5 4 4 4 4 + 4 4 > 4 % % 4 * > 4 4 4 4 > 4 > > 5 5 , 4 , 5 5 4 r 5 5 5 5 5 8 r 5 0 4 4 4 4 0 4 0 4 5 0 8 8 8 5 0 8 6 4 4 * 4 * 4 4 0 0 4 4 0 4 5 4 4 4 0 5 4 4 0 5 0 0 5 0 0 0 0 5 4 0 0 5 0 6 6 4 4 4 4 4 0 5 5 9 9 4 4 5 4 4 8 8 0 0 6 5 5 5 8 r 8 4 4 4 r r 4 4 4 , , * 4 r 4 6 4 4 4 4 4 % , , 8 4 % & 5 5 5 4 4 4 4 4 5 5 , , , & , , , 3 & , 5 5 4 4 , 5 , , 4 , 4 , 4 4 5 & , & , 4 4 > , 4 4 , 4 4 5 5 4 4 4 4 4 q 4 4 5 9 9 6 5 4 4 4 5 , 5 5 4 4 & , % 5 5 4 , , 4 4 8 5 * % % , , , , , & , r $   9 4   % e 4 + 4 4 0 4 4 4 4 5 0 4 8 5 4 4 4 4 4 4 5 8 0 6 6 8 0 0 6 4 4 4 4 4 , 4 r 5 , , > , r r , 3 & , , , : , , 4 > 4 4 , , > , , , , , & , , 4 , 4 * 4 4 > > 4 % 4 4 4 4 % % , % , > 5 5 5 5 % 4 4 4 5 5 % & 4 , , * > , , % % 4 * , 4 4 4 % * > 4 % * + + % 4 % % % % % > + 4 % % + % % % + + + > > X + O X + + + . . X + + + + X O + + + + X + . + + . . O . . . . . O + + . .       .             ",
"          .       . . . . . . . O X O O O O O O O + + O O . O O . O O O O % + - O + > - + + O + - > - + $ $ $ : $ $ $ $ $ $ $ $ $ $ $ $ & $ > > $ > > > > > > > + % % % % % % % > % * > % % % > % > % , , , , 4 5 5 0 4 4 q * - 4 > 4 4 4 q 4 0 4 4 > 4 4 4 4 4 5 4 4 , 5 5 4 4 4 , 4 5 , 5 5 5 4 4 4 4 4 4 * 4 4 4 0 8 0 5 0 5 9 0 4 6 4 4 4 4 5 0 6 r 0 0 5 8 8 5 4 5 6 5 6 4 4 0 0 0 0 0 0 0 4 4 0 5 5 5 8 6 4 0 0 4 6 4 5 0 0 5 0 0 0 9 0 4 4 0 * 4 4 * 4 * 4 5 r 5 4 5 5 5 4 5 5 5 4 , 4 5 4 4 5 5 4 4 4 , 4 5 0 5 4 4 4 5 0 8 4 4 5 5 5 5 r , , , , r , , , 4 , 4 4 5 4 4 , 4 5 5 4 , % % r 4 4 4 4 5 4 & 5 5 5 , 5 , 5 5 4 0 4 4 4 * 4 * 0 4 0 0 0 5 5 4 6 r 6 8 5 5 5 4 % 5 8 4 % 4 4 , 4 4 4 % , * > % , r & , e %   r 4   . 8 + + 0 8 4 4 4 % 4 5 4 4 8 5 0 4 4 4 0 5 5 6 0 0 0 8 0 0 4 0 6 4 4 4 4 4 r 4 > & , r 5 , , 3 & , , , & , > > % * > 4 % , , , , , , , , , , * , 4 * 4 > * 5 , % % % 4 * > , * , 5 5 5 5 5 4 5 5 8 5 4 4 4 4 > % > 4 4 * % % 4 > , 4 % > > % * > 4 % % % > % % % % + % + + > > % > + > + % X + % X O X O O > + + . O X O % + + + + X + + + + + + + @ O X X . . . @ + . . O . . . O . .   .         ",
"                . . $ & . . & $ O $ $ O O - + + + O + - > - > > + - > + + > - + . = > > + O - $ - + > > $ $ % : $ $ $ $ 3 $ $ $ $ $ $ $ : > $ $ $ > , % = O > , + + % + % % % > * , 4 4 * % > , % , , % , 5 5 5 4 4 > > * * > * 4 0 5 5 4 4 4 5 4 4 4 4 4 4 0 4 5 4 , , 5 5 4 4 , 4 4 & , 4 5 5 0 4 4 0 4 4 * q 0 0 5 8 6 6 8 0 9 6 0 4 4 0 4 5 5 6 9 9 6 8 6 8 9 4 4 4 4 4 4 4 4 4 0 5 0 4 4 4 4 0 5 8 6 6 0 5 8 0 5 6 4 0 6 0 4 4 4 4 0 r 6 4 4 4 4 4 4 4 4 4 & 5 5 5 5 5 , , 4 5 , 4 > 4 4 4 4 4 4 5 5 4 4 % 8 4 > 4 5 9 5 4 4 5 4 , , 4 8 r r , , & , , , , 4 4 % 4 8 8 4 4 & 4 4 5 4 , % 4 5 5 , 4 4 5 5 , 5 r 5 r 5 5 5 5 4 0 4 4 0 4 4 4 4 4 4 4 9 e 6 0 5 5 5 5 5 5 , , % 5 r 5 % % , 4 4 4 4 5 8 5 4 * , , & , V %   e %   @ 9 * + 8 8 8 4 > % 4 5 8 5 4 4 > 4 4 4 5 5 0 4 5 9 9 0 9 6 0 5 5 6 8 5 5 5 r 5 % , 5 r 5 , r & & 3 , & : , $ $ % % % , * , & , , , r , , , % 4 4 > > 4 4 4 8 4 % % % % > % , 4 5 5 5 , 4 4 5 8 r 5 4 4 r r 8 4 % 4 4 4 , % % % % % 4 % % % + % 4 % % % % % % % % % % % + % > % X X + 4 * > > > 4 4 % % > 4 % 4 % % % % % % + . + O X O + + > + X O O . + - + + + + O .       . + O . . . .         ",
"        . @ O .   . O O . . $ $ O O O + + + O O O O - % O O . O O = O O O - - + > % + + O + - % > > + + O : > > > O O : $ $ $ , $ $ > $ > $ > : > > = O > , 1 , % X O % % 4 % % * , 4 4 4 > % & r , , % 4 % 5 5 5 5 0 4 4 % q # 8 5 4 4 4 4 5 5 > 4 4 4 4 4 4 5 % 5 9 9 8 4 4 4 5 5 5 5 8 4 5 4 4 6 0 0 5 4 6 4 0 5 0 6 0 8 6 8 5 9 9 6 5 4 0 9 t 9 6 6 9 9 8 4 > 4 5 4 > % 4 0 4 4 4 4 0 0 0 0 6 5 0 8 5 8 0 0 4 4 4 4 0 4 0 5 4 4 4 4 0 9 9 6 6 8 6 8 8 0 0 7 5 r 6 4 % 4 5 5 , 4 4 % % , 5 5 4 5 4 4 4 4 5 5 4 5 9 9 5 5 5 5 , , r r , , , 5 r r , 4 4 , 5 4 4 0 5 8 8 5 0 5 4 4 4 4 4 4 5 5 4 4 4 4 4 4 5 0 r 6 0 4 4 8 9 8 9 8 0 0 4 0 4 0 6 8 0 0 0 8 0 0 0 5 6 4 4 4 4 4 4 5 4 4 4 4 4 * > 4 4 4 5 5 4 q 5 4 4 4 8 %   e e O   9 4 9 0 8 > 4 4 8 5 5 5 5 8 8 4 4 8 8 5 0 4 0 8 0 0 0 9 6 e 9 9 6 0 5 5 5 5 4 4 4 8 5 , % , 8 e 5 , 4 4 4 , 5 , 5 , , , & , , , , & , : & > > % 4 4 4 4 % 4 , 4 , , % 4 4 , 4 4 , % % > % 5 r 8 5 4 4 4 4 5 5 , % % * > 4 4 * > 4 % 4 4 4 , 4 4 5 , & * > % + > % % % % * + + % + % % % > $ $ $ & $ $ $ & X > > , % $ $ . . . O O + . . . O O + . . + X . . O + . @ O . O @ o .     . . .         ",
"        . @ . . . O O . . . . . o @ O O O O O O O + + + O O . O O O . O O . O + + - > O > + % - + > - + $ $ % $ : O $ : : $ $ 3 > > > : $ > > + , > - : > , , > % > % > 4 > > * % > % 4 4 4 4 % & 5 4 4 > 4 4 4 5 5 4 4 4 0 4 4 5 4 5 4 4 0 5 5 4 4 4 0 4 8 5 8 * 4 8 9 8 4 4 4 5 5 8 0 8 8 5 4 4 4 6 8 6 4 4 6 4 0 5 9 9 6 9 0 5 9 9 9 4 4 6 9 V 9 6 8 8 0 0 4 4 4 4 4 4 4 4 5 0 5 0 0 0 4 4 0 0 8 6 4 5 0 5 5 0 0 4 4 4 4 4 6 0 0 * 4 5 5 5 0 9 9 9 6 6 9 8 5 4 8 r 4 , 4 5 5 , 5 4 % , 5 8 5 4 5 8 4 4 0 4 5 4 5 8 9 r 8 5 5 > & , r , , 4 5 r 6 4 4 , 4 4 4 4 5 8 5 0 4 4 4 4 4 5 7 4 5 8 8 4 7 0 8 5 5 4 4 4 5 * 4 4 8 8 5 9 6 9 8 8 4 5 4 0 5 4 8 8 8 9 9 5 5 4 4 5 5 0 5 4 4 4 * 4 % > 4 4 , > 4 4 5 4 4 0 * 4 4 r %   c k %   9 > 8 4 8 4 4 4 5 5 5 5 5 8 8 4 4 5 6 8 0 5 8 0 8 8 9 6 6 6 6 6 8 0 6 9 9 4 4 4 4 5 5 5 , > 4 4 4 , 4 r 4 5 5 5 5 r , , , , , , , , , , , 4 4 * 4 4 4 4 > , * 4 4 4 4 4 4 % 4 4 % % % 4 4 4 , 4 % 4 , , 5 4 4 % , % , , 4 > > % , 4 > % , 4 4 5 4 > % % % % * % % > % % % % + + % + % % * . $ $ $ . $ $ . $ % > > % $ . $ + @ + X + + + . + @ + + + + O + + @ + . O . . . . . . . . . .           ",
"        . @ .   . O   O . & . . . O O O O o O O O O - - O @ O O O @ O o O O O O > - > - + - > > $ + + > $ $ $ $ $ $ $ $ : $ $ $ > > > > - = = > > > > > , 1 > > 4 > % * % 4 4 > % % % , 4 5 , , 4 4 , 4 4 4 4 4 0 4 0 4 0 5 6 8 0 4 5 4 4 4 4 4 + 4 4 8 5 8 8 8 4 4 0 5 5 4 4 4 0 0 5 5 5 0 4 0 4 5 5 0 4 4 4 0 0 5 6 9 9 8 9 8 4 0 9 0 4 * 4 0 s 9 9 8 8 5 4 4 5 4 4 4 5 5 0 5 0 8 0 0 0 6 4 * 0 5 0 8 0 5 0 0 6 0 4 * 4 4 9 9 5 4 4 4 4 5 0 4 6 8 8 8 0 5 8 8 4 8 r 8 4 5 5 5 % 4 5 , 4 8 8 5 , , 5 8 5 5 0 4 4 0 8 9 8 5 5 , , , r , , 4 , 4 , 5 & , * 5 , 5 8 0 5 0 4 4 4 4 4 0 6 0 5 0 9 9 4 8 6 9 6 0 4 4 6 4 4 4 5 9 0 8 8 9 9 9 9 6 8 0 5 5 8 6 6 9 9 9 4 4 4 4 5 5 6 9 4 4 4 4 4 4 0 4 e 4 4 % 4 4 0 4 5 4 0 4 9 * . C V 4 . k 4 9 7 8 5 5 0 4 4 4 5 6 8 5 5 5 5 5 6 8 0 5 8 0 0 6 6 6 0 q 4 4 4 4 5 6 5 5 5 8 8 5 4 4 4 5 4 % 4 5 9 4 r 5 5 5 5 , , 5 , , , & , , & , 4 4 % 4 4 4 4 * 5 4 4 , , > 4 % , , 4 , , * 4 4 & , , , , 4 , 4 4 4 , 4 4 % 4 > 4 % > * , % 4 4 4 4 4 4 % % % % % % % % * % % % + % % + + % % % $ $ $ $ $ $ $ $ $ % > % $ $ & $ % * + + . + + + + X + + + + + + + . . O O . . . O . . . .               ",
"        . . . . O O     . . . . . o O o + O O O O + + O O O O O + + O O O + - + + + O % + O + % O O - + > : O O $ $ $ > $ $ O O $ : : > > > : > 1 > 1 1 1 , - > 4 4 > % % % 4 % % % 4 4 , 4 4 4 , 4 4 , * 4 4 4 * 4 * 4 4 0 0 0 4 4 5 5 5 4 4 4 * 4 4 8 8 5 0 5 0 4 5 0 4 4 6 0 4 4 4 4 0 5 4 4 4 8 6 6 0 5 6 4 5 5 9 5 8 9 0 6 4 5 5 4 4 4 4 5 s 9 6 0 0 0 4 4 9 8 4 4 5 6 9 4 8 5 6 8 5 4 0 4 8 6 5 6 8 8 8 6 9 5 0 5 5 5 9 9 6 0 6 4 4 0 5 5 0 0 8 0 5 4 4 0 4 5 8 4 4 5 5 5 4 5 5 4 4 8 4 4 , , 5 8 0 4 4 4 5 5 8 9 8 , r , r , , & , , , , 5 , 4 4 4 6 5 5 8 6 8 4 4 > 4 0 4 4 6 6 5 5 6 0 5 9 6 9 6 5 4 4 6 4 4 6 5 6 0 5 0 9 9 9 9 9 5 0 0 6 0 6 8 8 4 4 0 4 4 4 4 0 4 5 4 4 4 4 0 0 5 5 e 5 % * 4 0 4 * 0 4 4 5 e > X C C 5 % e 4 9 8 8 5 5 4 4 4 0 8 8 8 5 5 5 5 5 6 6 0 8 0 0 0 9 0 0 q 4 4 q 0 4 5 4 4 5 8 8 5 4 4 8 9 9 0 * 4 5 5 * 5 5 5 5 , , 5 , , , , , , , , r 4 4 4 % 4 4 4 * 5 4 * , * , 4 4 * 4 5 4 4 4 r r 4 4 4 4 4 , 4 & > , * 4 4 , % * % 4 4 % % , 4 4 % % > > > % % % + % - * % % > % % % % + + % % % : & & : : & $ $ % % $ $ . . $ $ > > + + + @ + % + + + O X + + + . O @ . . . . . . . . . .               ",
"          X . o . .   . . O . . . . O O O O . @ O O - + O O O O O O O O O + + - O + O - + + O - O + % % : + O O $ : $ : $ $ $ $ O = = : > > 1 1 > > 1 2 1 1 > > 4 4 4 % % % % * , 4 4 , 4 4 4 , 4 4 4 5 4 4 4 6 4 4 q 4 q # q # 4 4 4 4 4 4 4 > + 4 4 4 4 4 4 0 9 5 5 5 0 5 0 9 4 5 0 5 0 8 0 0 4 0 6 9 5 5 8 6 0 5 6 9 9 6 0 8 0 8 5 5 4 0 0 6 9 9 9 8 4 4 0 8 9 8 , 0 9 9 6 8 4 0 0 0 0 8 0 0 0 8 8 8 0 8 6 8 4 5 8 9 6 9 6 6 9 5 0 5 5 6 8 5 5 5 5 5 5 5 4 4 4 4 5 > , 5 5 4 5 8 r 4 4 4 4 > , , 5 5 6 5 4 * 0 5 9 8 8 5 , r r , , , , , , , 8 4 4 4 6 6 9 8 6 9 0 0 * 4 4 5 8 9 9 9 5 0 5 5 9 9 9 6 5 5 0 5 9 5 5 5 9 9 9 0 5 8 6 9 9 8 8 4 8 5 6 6 8 0 4 4 6 6 6 5 4 4 4 5 5 5 0 5 5 9 6 9 r 8 4 4 0 0 0 q 0 0 0 4 r * . A A 8 > V 4 9 5 6 8 8 5 0 4 4 8 8 8 8 8 5 5 0 8 0 9 8 6 6 0 0 0 0 6 6 9 0 9 9 9 9 4 0 5 5 4 4 5 9 9 6 0 * 4 0 4 4 5 5 4 4 , > , , , r , r 5 , , 5 8 4 , * 4 4 5 5 5 5 4 4 5 , > % , % 5 4 5 5 5 r 5 5 5 5 4 4 , % , * , 4 4 4 > * 4 % 4 4 4 4 4 5 % % * 4 % % % > % % % % % * > % % % % % + + % % $ $ . $ $ $ & $ $ $ $ $ $ & $ $ % + + . O O @ + . + . O X O . @ + . . . . . . o @ .   .           @     ",
"        . X . . . . . . . O & . O o o O O O + O + + + O O o O + O O O O O O O O O + $ + + + + O - + - + $ $ $ O $ : > : $ : : $ O = = - > 1 > 1 - 1 1 7 1 > 1 > > 4 > % % % % 4 5 4 4 4 4 4 > 4 4 4 4 5 4 5 4 4 6 0 0 4 4 * q X 4 4 4 4 4 4 4 4 * % 4 4 4 > 4 4 9 0 0 5 6 9 8 6 6 9 9 9 9 9 8 9 5 6 8 0 0 5 5 0 6 6 8 9 9 9 9 9 6 6 6 6 6 9 9 9 6 9 8 6 5 0 5 8 8 8 4 5 5 5 6 6 4 0 4 8 6 0 9 0 6 6 0 9 6 6 8 9 4 5 0 e 9 9 0 5 6 9 0 5 0 9 9 0 9 9 0 6 0 0 0 8 5 5 4 , , 5 8 4 5 r 5 4 4 4 , % , , 5 5 8 6 0 4 5 0 9 8 8 5 , r , , r r r , , , 8 5 5 5 9 9 9 6 6 8 8 8 0 4 0 5 0 9 9 9 9 5 5 0 9 9 6 8 0 5 5 6 6 6 0 9 9 9 9 8 0 0 8 9 6 6 8 0 0 8 8 9 6 9 6 9 e e 9 6 0 5 6 0 9 9 6 0 5 6 9 8 4 5 5 9 9 0 0 * 0 0 0 0 e 4 . A C 9 4 e > 9 8 6 8 8 5 8 8 8 4 0 8 8 9 8 7 7 9 9 9 6 9 6 4 0 4 4 0 0 0 0 9 0 6 8 0 5 0 4 4 4 5 0 4 4 4 4 4 6 9 5 5 , 5 , , , , , , , , , , r r r 8 5 4 4 5 5 5 5 5 , % 4 4 4 > & * % % % % , 4 5 5 5 8 5 5 5 4 4 4 , , % , % 4 % 4 4 % 4 % 4 , 4 % % > % % % 4 % + + % % % > * % > % % % X % % $ $ & $ & & $ $ & $ $ $ & . $ $ $ + + @ O X X O + . . @ . . . . O . . O . . . . . . o .           @ . @   ",
"        . . .   . O O O $ . . $ . O O O O O O + O - + O O O O O O @ . O O O O + + + > > - + % O % + - > $ + > % $ > > $ $ : , : - - - - > > 1 - : 1 1 7 1 , 1 , 4 > > % % % > 5 4 , , 5 4 5 4 5 4 4 4 5 5 4 4 6 0 0 4 4 4 0 # 4 4 4 4 4 4 4 4 4 4 0 4 4 > > > 4 9 5 5 5 9 9 0 5 9 9 9 9 9 9 9 6 5 6 9 9 0 6 0 8 8 9 6 8 9 9 7 6 9 9 6 9 9 9 9 e 6 6 9 6 6 8 6 9 8 8 8 8 4 4 8 9 0 8 8 6 9 0 0 0 9 9 5 8 9 9 5 6 4 4 0 6 5 9 5 5 5 0 4 5 5 9 9 9 9 9 8 9 9 6 6 8 6 8 4 , 4 8 r 6 5 5 5 , % 4 4 , , , 4 5 4 4 6 4 0 0 9 8 5 5 5 , , , , r , , , , 8 5 4 8 9 9 8 5 5 6 6 9 5 5 5 0 5 5 9 9 9 9 6 9 6 9 6 9 9 9 5 9 8 5 0 9 9 9 6 0 8 9 9 8 9 9 9 9 9 6 6 0 6 6 9 8 9 9 9 6 0 5 5 0 0 5 0 5 0 5 5 8 4 5 9 9 0 0 0 0 0 0 0 4 e %   C z e 4 e > 9 8 9 8 8 8 8 8 8 5 4 8 8 9 8 4 4 6 9 9 9 0 9 0 4 4 4 4 q 0 0 4 5 0 4 6 5 4 4 4 5 4 5 4 0 0 4 0 4 6 5 4 5 5 5 5 , , , , , , 5 r r r 5 5 5 4 8 5 6 , r 5 , % > 5 5 , , , > 4 , * , , 5 , , , 5 5 5 5 , 5 4 4 4 % % , , % % % % % 4 & , > > > 4 * % % % % + % % % % > 4 % % % X % O % % $ $ $ $ $ & $ $ & $ & $ . $ & $ . + O X + O + + + . O . X . + O + . O . @   . . . . o . . . . o   .     ",
"        . . . . O & $ O . . . $ O O O O - O + O O + O O o . . - + = + O O + + + > % - > > > > - > > + O + : : > > > : $ $ , , : : > 1 > ; : - - - > 7 1 7 > 7 7 , 0 4 * % % 4 8 4 4 4 4 4 5 8 6 4 4 5 5 8 5 4 4 % 4 * 4 q 4 4 0 4 4 4 % > 4 4 4 8 4 4 4 q * 4 5 0 5 0 5 6 8 5 4 5 0 9 9 9 9 6 8 4 0 6 6 8 4 8 6 6 6 9 9 9 9 9 9 8 5 0 5 5 6 9 5 5 5 9 9 6 0 9 t 5 8 9 8 4 0 8 9 8 9 0 8 0 0 4 4 8 6 9 0 8 6 6 6 0 5 0 4 5 0 0 8 4 6 4 4 5 9 0 8 6 0 9 0 5 0 5 8 e r 4 * 4 r e r , 4 * % > 4 8 8 4 , , 5 4 6 0 6 0 0 8 6 5 5 r 5 & , r , 4 % % , 8 5 0 5 5 6 0 5 0 8 9 9 9 6 6 0 4 4 9 9 e 9 9 9 0 8 9 9 9 9 9 0 5 0 5 8 9 9 6 5 9 9 6 9 0 9 9 9 9 6 8 7 4 4 7 0 8 5 0 7 0 4 5 5 8 6 5 4 4 4 0 4 > 5 9 r 0 5 0 6 0 0 0 * r %   k V e > e - 9 9 9 8 6 6 6 8 8 4 4 8 8 9 8 8 4 8 9 9 9 9 0 0 0 4 4 # 4 q 0 0 0 0 0 6 4 > 4 4 5 5 4 4 0 6 0 4 4 4 4 4 5 5 5 r , 5 & , , , , , , , r 5 4 5 5 5 r 5 , 5 , % 4 5 5 4 % 4 4 5 5 4 4 4 8 & % , 5 5 5 5 4 4 4 , % % 4 4 4 % % % % % % % % 4 4 5 4 % % $ X + % % % % > % > % > % % % % + % $ & $ $ $ $ $ $ . & $ $ $ & $ $ . . O + + + + > @ . + + O O X O . . . @ O o .   . . . . . . . O         ",
"o     o o @ o @ O O O . O $ $ O o o . O O O = = O + O o O O O O O + O O + + O - , > + + + - > > - - + + + + % > , > > : : $ : $ 1 , > > - > - > 4 - - 4 4 0 7 4 - 4 4 4 0 4 4 4 0 4 0 4 0 4 0 0 & , , r 4 , , , , , 5 5 4 * , 4 0 4 * q * 4 0 4 4 4 4 6 0 5 0 6 6 8 0 4 4 4 4 0 8 0 6 e 9 9 8 5 & 6 y 6 & 6 6 6 6 6 9 4 5 9 9 4 4 6 6 5 * * 6 e t 6 6 6 6 6 6 * 4 4 9 6 4 6 5 9 0 9 8 8 0 s 9 s 4 7 6 9 9 6 8 0 8 9 0 4 0 9 9 4 * % 4 4 8 6 9 e 4 5 5 0 8 6 9 9 4 5 8 8 6 7 4 8 0 4 8 5 7 4 4 4 9 6 8 5 8 8 6 9 5 0 8 6 9 8 5 5 r , 4 % * 4 4 5 9 5 5 6 9 5 4 5 5 0 0 9 0 5 0 5 0 0 9 9 9 8 5 0 9 9 0 4 4 4 5 6 4 8 0 0 5 6 0 8 0 8 6 9 6 8 9 9 6 9 0 8 9 0 7 6 5 6 8 9 9 6 8 6 0 4 4 8 6 8 0 0 5 5 8 9 9 6 0 0 6 6 9 0 9 > + W W , & , r 8 r r 8 8 9 8 0 8 8 0 9 8 6 6 9 0 8 8 8 0 4 4 5 8 0 4 4 0 6 6 9 9 0 9 9 8 8 0 0 8 8 8 4 0 0 0 6 9 0 5 8 4 4 > 4 > 4 4 5 4 8 5 4 8 , , > , 5 r , , , & , 4 4 4 4 4 4 4 8 8 8 8 8 8 5 5 % 4 5 5 8 4 4 , , % 4 4 > 4 4 5 4 > 4 4 % 4 4 4 4 4 4 4 4 4 % % , , : & & & 3 & $ : % % % % + q : & > $ + % % % % % + $ X $ X $ % % + % O O % % X $ O % O O X X & $ $ . . . . O . + + @ . @ . @ @ .     ",
"@     @ - + O + = O . O O O $ $ . O O O O O O @ O O O O O O + - O + + - O > + % > + - O O O + + + + - + > + - - % > > $ > > > > 4 4 4 q 4 - q % 4 > - + + - - > 0 6 0 0 0 * # q q 0 0 q 4 * # 4 % % , , , > & > , , 5 5 , , , 4 5 4 4 * * 4 4 0 * 4 4 4 5 0 5 5 4 0 4 5 4 0 6 4 6 5 8 9 6 8 6 0 , 6 6 * 6 6 6 6 6 6 9 4 0 9 9 0 0 9 6 6 5 * 5 6 y 6 6 * r 6 e * 0 5 6 0 6 4 9 9 9 6 9 0 7 9 7 9 4 0 6 6 9 9 6 8 6 6 8 4 5 9 9 4 0 4 4 4 4 0 6 6 0 5 5 0 6 9 9 8 4 0 6 6 8 0 0 6 4 4 8 6 0 9 8 6 8 5 0 5 0 6 9 9 5 5 0 8 5 6 0 5 5 , 4 * 4 4 5 0 8 0 4 0 8 0 0 5 4 5 9 9 5 4 5 6 5 8 9 9 9 9 9 9 9 8 4 4 4 0 8 6 0 8 8 8 9 6 9 9 8 9 9 9 9 9 9 9 9 9 8 9 6 8 6 8 9 9 6 8 0 8 0 9 8 0 8 6 9 9 9 6 8 8 0 9 9 8 6 8 8 0 9 0 9 0 % P K r % r r 8 r 6 9 8 6 8 8 6 0 9 6 8 8 8 8 6 9 6 8 0 0 4 5 0 4 4 4 4 0 8 8 8 9 8 6 6 6 8 8 0 9 6 0 4 0 0 6 6 8 0 5 0 7 4 4 4 4 4 5 8 5 5 8 4 r , , , , 5 , , , 6 4 4 0 4 0 5 4 4 8 4 4 5 4 4 4 4 4 4 5 5 8 4 5 4 5 8 5 5 4 4 , , 4 > * > + 4 4 4 + * > 4 4 4 4 4 & 3 & 3 3 3 & 3 3 , > % 4 * 4 4 & , % $ % % % % % % % + $ + O % % % % + $ X O % O X X O O & $ O O $ . . O . O O . . . @ . . . @ @ @     ",
"O o o o + + O o O O . . O $ O O O + O O O O .   . O @ O O + + - + = + - + + > - > + + O O O - + + q 4 4 > > > + > : > > $ , > , 4 7 > - - 4 - + q > + + > > 4 - 6 6 0 4 0 # 4 # # 4 q * q q * > % % , > > & > % & , , , , , , 4 0 4 4 * 4 6 0 4 4 4 4 0 6 4 4 4 * 4 5 5 0 5 4 4 5 6 0 8 8 0 8 0 * 6 6 6 & 6 6 6 6 6 9 0 9 r 9 9 e 6 t 6 6 5 6 6 6 6 5 5 6 e 6 * 0 8 6 6 6 8 6 9 9 9 6 8 9 7 0 6 0 8 0 8 0 8 7 6 9 9 6 8 8 9 9 0 0 0 0 4 4 6 4 0 5 5 0 5 6 8 6 9 4 8 8 9 8 0 4 8 4 4 0 5 9 6 6 6 8 0 0 4 5 6 9 9 0 6 5 0 0 8 5 0 5 * 6 4 5 5 5 0 6 0 4 0 5 4 4 4 + 4 9 9 4 4 0 9 5 6 5 9 9 9 e e 6 8 6 0 8 0 0 8 9 0 6 8 9 9 9 6 6 9 9 9 9 9 9 s 9 9 9 9 9 8 9 0 k 9 9 0 0 8 9 9 8 0 8 9 9 9 9 9 8 8 6 9 9 8 0 8 8 8 9 6 9 0 X U S 5 $ r 6 8 r 6 9 8 9 9 6 8 9 9 0 4 8 0 8 6 9 0 9 9 6 8 6 8 0 4 5 5 5 0 0 8 6 9 9 9 9 8 6 9 9 9 0 5 0 5 5 0 8 8 6 8 8 8 8 8 4 4 8 5 0 8 5 5 5 5 , , r r , , , r 4 4 5 8 8 8 4 4 0 4 4 4 4 4 4 4 8 4 5 4 4 5 4 4 r 8 8 5 4 4 % * 0 4 4 * 4 + 4 + + 4 4 4 4 4 4 4 , & 3 & & 3 3 : : , > % > * 4 4 > & , & % % % * % % % + % X % % O X % O X O X % X O $ O O O O $ . $ $ $ & O     . . @ . .   .   @ . @   ",
"- @ @ @ - @ O . O . . . O $ $ O + O - O O O . o O O O O O O - + O + O O O - O + > > > + > + % + + > - > q - + + > > $ > : $ : > > - 4 4 4 + 4 4 + - - 4 0 4 7 0 * 4 4 4 q 4 4 4 4 4 4 * 4 % q * % > > , > % > % , , , , > % , 5 8 4 4 4 4 4 5 0 4 4 0 4 4 0 4 4 4 > 0 0 5 0 0 4 6 8 0 5 8 0 6 6 & 6 6 6 * 6 6 * 4 6 9 9 9 9 g 9 6 e e e 6 4 6 9 r 6 6 6 6 6 6 5 6 6 9 6 6 9 9 9 9 6 9 9 8 0 4 5 6 8 8 8 0 8 9 6 0 9 6 0 5 9 9 6 6 5 0 6 4 5 0 4 5 0 6 9 8 9 6 6 0 0 6 8 0 5 5 6 0 0 8 6 8 9 6 0 0 4 4 0 8 6 9 9 8 9 9 9 6 9 5 9 5 5 6 6 0 9 0 5 6 4 4 8 6 0 4 0 * 4 9 9 0 5 5 0 9 9 0 5 5 9 9 e 9 9 s 9 6 9 9 6 9 8 9 0 8 6 9 8 9 9 s e 9 9 9 9 9 9 9 9 9 9 6 9 9 6 6 9 8 6 9 s 9 9 6 9 9 9 9 9 6 0 8 6 8 0 6 8 6 6 9 8 8 +   S r $ . , 8 8 9 r 9 9 8 6 6 0 8 6 0 5 8 6 6 8 0 8 9 6 6 0 6 9 8 0 8 6 5 7 0 6 9 9 9 9 0 9 8 6 9 9 5 0 4 0 0 5 0 4 6 9 9 9 r 8 8 5 4 4 4 5 5 8 8 5 , 5 , , , , , , 4 4 5 9 8 8 8 4 8 8 4 0 5 4 4 5 8 4 4 , 4 4 6 8 6 6 5 5 4 4 > 4 4 4 > 4 4 4 4 4 0 4 4 - 4 % 4 4 , $ & , 3 & $ & & $ > % > > 4 4 % , > % % > % % * % + % % % + % O $ X % $ O O % % % $ X O $ X O . . O . O O O       . . .     .   @     ",
"+ o o @ + @ o o O O o . O O $ O O O + O O O o O + O O O O + O + + + O + O + + O - > > + > O - > - + + - + - + > % % : % : > > > > 4 - 4 - 4 q % - + - 4 4 0 7 7 & % * > * 4 5 5 0 4 4 * 4 % * % , 4 4 , % 4 > 4 4 , 4 > % > 4 5 0 4 4 4 4 4 6 4 4 4 5 5 4 4 4 4 0 4 4 4 0 5 8 6 9 0 8 8 0 5 8 6 6 6 y & 5 6 e e 6 4 e 6 9 6 s s 6 6 e 6 6 6 6 9 e 6 6 6 6 6 5 6 9 9 9 9 9 9 9 9 9 8 9 9 9 5 4 6 9 6 9 0 5 6 6 9 8 9 9 0 4 8 9 6 8 5 5 5 0 5 8 8 9 8 0 9 9 9 8 9 8 6 6 8 8 5 0 9 0 4 0 8 0 4 4 4 4 4 5 5 5 9 9 9 9 9 9 9 9 9 9 8 4 5 0 9 r 9 0 0 9 5 0 8 9 5 0 5 0 6 8 9 9 9 6 5 9 9 8 0 0 4 6 6 9 9 9 9 9 9 9 6 7 9 9 9 9 9 6 9 9 9 k t 9 9 V 9 9 9 9 9 9 9 6 9 5 5 8 9 6 9 9 9 6 8 6 6 9 9 8 8 6 8 6 5 0 8 5 6 5 6 9 0 0 +   A r . O 5 8 8 r 6 e 8 8 6 0 5 5 5 9 6 8 0 0 8 0 4 8 8 0 8 6 9 9 9 6 8 0 0 4 8 6 9 0 8 8 0 8 8 6 6 0 4 4 4 4 4 4 0 8 0 8 9 6 8 5 4 4 4 5 5 5 8 8 8 5 , , , , 4 , , 5 4 8 8 6 9 8 8 5 8 5 5 4 5 4 5 8 5 4 4 4 4 8 5 4 4 4 4 4 4 % 4 % 4 q 4 4 4 0 8 5 5 4 > 4 4 4 > , , , & , & & $ $ : , & > 4 * * > 4 > * > % % % % % % + O % % % . O % X $ X O $ O % + O O X O X $ . . . . . . . . . + @ . .   .         ",
"@ o o @ + o o o O O . . O O O O . . o O O + O O + O + O . O O O + + + O + O O O + + - + + O + O 4 + - @ + + - > : > > > $ , , , 4 - 4 - 4 - - 4 4 4 - - > > - O 4 , 4 5 4 5 , , 4 4 4 4 > 4 > > % 4 5 4 4 % 4 5 , * 4 4 4 % 4 4 0 4 * 4 4 4 4 4 4 0 4 5 6 0 4 0 8 0 8 0 4 8 6 9 6 8 6 6 6 6 6 6 6 e r 6 6 6 e 6 6 6 9 e 9 8 9 s 5 6 e e r 6 9 e 6 6 6 6 6 6 r 6 9 9 9 9 V 9 V 9 9 0 0 9 9 5 4 0 9 9 8 8 8 6 9 9 0 8 9 4 4 0 6 8 0 5 0 5 5 0 0 9 0 6 8 6 9 6 0 9 0 8 9 0 0 0 8 9 5 5 6 8 0 4 4 4 0 4 6 6 9 6 9 9 9 e e 9 9 9 0 6 0 0 8 9 9 6 6 8 9 8 4 6 6 5 0 8 9 6 5 6 9 e 9 5 9 9 0 5 4 0 5 5 9 9 6 8 8 8 8 6 9 6 6 9 8 6 8 6 9 t 9 s 9 9 9 9 9 9 9 9 8 9 9 6 0 0 5 6 9 9 9 9 6 5 0 8 9 9 6 0 0 6 8 0 8 0 0 6 6 4 9 8 e 4 . D r O O 8 r 8 8 8 8 e 9 5 5 5 0 4 s s 9 9 8 0 5 4 8 0 5 6 9 9 9 6 6 0 8 5 0 8 8 6 8 0 0 8 0 8 0 8 4 0 0 0 4 0 0 4 6 9 8 5 9 5 4 8 4 4 5 5 5 5 8 8 5 4 , , , , , , 5 8 5 5 5 8 8 9 5 5 4 0 0 4 4 4 5 5 5 5 4 4 4 0 > 4 * 4 4 4 4 4 4 % % 4 4 5 5 8 4 4 4 4 4 4 5 5 , , , 3 $ $ $ $ $ : $ $ + * - 4 % % % 4 4 % % % % + % % % % % > O % % % + O + X % + % $ % O O X . . . .   . O O . O + . . . @ .         ",
"o     o o @ . o O o O o O O O O O o O O + O + O O O O O O O + + + - > + - O O + + + + + - + O O + - > + % % > $ > % $ : : > , , > > 4 4 > > > > > q > > > - + + , , 5 5 5 5 , , 4 , 4 , 4 % 4 * , 4 5 , 4 , 4 4 & , 4 , % 4 > 4 4 0 4 4 0 4 4 4 0 4 0 9 6 8 0 0 9 9 8 6 6 6 9 6 9 6 9 9 9 9 6 8 6 6 6 6 4 e e e 9 9 e k s 0 9 g 9 e t t 9 9 9 e 6 9 9 9 9 9 6 e s 9 9 9 s V V 9 9 4 0 e e 6 * 6 9 9 6 6 6 8 6 0 4 9 8 0 4 0 8 0 6 5 0 5 0 0 6 9 8 9 8 9 8 9 9 8 6 9 6 6 5 8 6 9 6 5 6 8 5 0 4 4 6 8 9 9 9 9 9 9 9 9 9 9 9 5 5 0 5 8 6 6 6 6 9 8 6 0 0 6 6 8 0 4 9 9 6 5 0 0 0 5 9 9 6 8 4 5 5 0 9 9 6 0 0 0 0 9 9 9 6 8 6 0 5 0 9 V 9 9 9 6 9 9 9 8 6 9 0 6 6 8 5 0 5 0 5 0 8 8 5 0 0 8 6 9 8 0 8 8 5 5 4 0 8 8 6 0 4 4 e 4   C r O & r r 5 8 8 9 8 9 6 5 0 0 0 9 9 9 9 6 9 8 6 9 6 6 8 8 0 0 4 8 0 8 6 9 0 8 7 6 9 8 5 8 0 0 9 0 6 6 6 0 0 0 4 9 9 5 9 5 8 8 8 4 4 0 5 5 6 6 8 r 4 4 4 4 , , , 5 4 4 4 4 8 9 8 8 8 8 5 5 5 5 5 4 0 4 5 5 5 0 4 4 4 4 4 4 4 4 4 > 4 4 4 4 4 8 5 % 4 4 4 5 0 4 4 , , $ & $ , & : , : , & - > 4 > 4 4 % % > > % % % + % % + % 4 % O X % % % X + O + % X X O O O O & . & . . O O O O X + @ . . @ X         ",
"+ o   @ + O . o O O . . O O O O O O O O O O @ O o O O . + O - - > > > > - > > + > > > - > + > + - + - 4 > > % & $ : % % > : > : > > - > - 4 4 - > > > 4 4 , , > % % > , , , , & > > > , > , , , 4 , 4 4 > , 4 4 % , 4 4 4 4 > 4 5 5 5 0 6 0 0 5 4 6 5 5 9 6 9 6 9 9 9 9 9 9 0 5 8 9 9 e k 9 9 6 6 6 6 * * 6 9 9 e 9 g V s 0 9 Z e t V V t 6 9 e 9 r 9 e 9 9 9 9 g 9 s 9 k g 9 9 9 4 4 e t 4 4 9 9 9 9 9 9 5 9 5 4 0 8 4 , 4 0 0 9 5 6 5 8 5 6 8 6 9 9 0 9 9 6 9 8 9 9 8 4 0 6 9 8 0 6 6 8 6 8 6 9 6 9 9 9 9 9 9 8 9 9 0 6 0 4 4 5 0 8 6 8 5 9 6 8 4 4 5 5 0 4 7 9 9 9 5 4 4 5 6 6 9 5 0 5 0 9 6 9 9 8 8 4 8 9 9 6 8 9 0 8 8 8 7 9 9 V 9 9 9 9 9 9 9 0 8 9 8 8 6 9 9 5 0 4 4 4 0 8 0 8 8 9 9 9 0 6 0 4 0 4 0 8 6 e 0 4 4 e *   r , . + r r 5 r 8 e 9 9 8 9 0 8 8 9 9 9 9 9 6 9 9 s 9 6 0 8 8 4 4 0 8 9 6 6 6 5 0 9 6 9 6 6 8 9 9 0 0 9 9 6 6 0 4 9 9 8 9 5 8 6 r 4 4 0 5 0 8 8 8 r 4 , & 5 r 5 5 8 4 4 4 4 8 8 9 9 9 8 9 8 9 8 8 4 4 0 6 0 5 4 4 6 4 0 4 6 0 4 0 4 4 4 4 4 4 4 4 4 4 0 4 5 4 > % & $ $ $ $ , , , , & : , * % 4 0 % % 4 4 > * % % % % + % % > * > O + % > % > % X % O $ O O X X O . $ $ $ % % X O . . O @ @   . . @ @     ",
"@ o   + - @ o = + O o . O : $ O + O - > + O O O - + O > - + - > O O + O - + > - > > > > > - + > + 4 - > 4 q > + > % : % , : % , > > > , , , , , > 4 > , , 1 > > : % , , , : , , , : & > > % % , % * % % 4 > 0 5 5 0 4 5 4 4 4 8 5 6 0 9 9 5 5 0 6 5 9 6 8 5 5 5 9 8 6 5 4 4 5 9 0 s 9 6 e 0 0 t 6 6 6 e 6 5 6 t V 0 s D s s s V S V S D 9 9 9 V y > V D 9 6 9 s 0 s g s 7 0 9 s 4 e 6 6 * e y 5 s 9 9 9 6 6 8 9 6 9 0 6 8 9 6 9 0 9 0 8 6 8 8 0 8 9 0 8 0 8 0 8 0 0 8 0 0 4 0 8 > 4 0 8 8 6 6 0 0 4 0 0 5 8 9 9 0 9 8 5 9 5 5 6 5 8 0 8 9 6 9 9 0 6 8 6 6 0 8 0 9 8 8 0 9 9 6 0 4 6 r 9 0 4 4 5 4 4 8 6 9 9 9 6 9 0 9 8 8 8 0 0 6 6 9 9 9 9 9 9 9 6 8 9 9 s 9 0 9 9 9 9 9 5 9 e 9 9 5 6 8 6 9 9 8 4 4 4 4 8 8 5 6 9 4 4 V 4   e 5 & O , e r 5 e e e e e 9 6 6 6 9 8 6 6 0 7 0 0 9 9 8 9 7 6 9 9 8 8 0 8 6 6 9 9 9 9 8 8 8 6 6 9 9 9 6 8 0 0 0 0 9 9 8 9 9 9 8 5 9 9 s 9 5 0 4 7 8 6 4 % , 8 r 4 4 5 8 9 8 9 8 8 0 8 8 5 8 5 4 4 * 0 4 0 4 0 0 6 6 6 0 4 4 4 8 6 4 5 5 4 % % * 4 8 5 4 4 5 5 4 , $ , , , , , , & 4 4 4 4 4 * 4 + % 4 4 4 4 % * % % * > + % > > X + % X % % % % % O % O % O X $ $ $ $ . $ $ $ O . . O X . @ . @ . @       ",
"o o o @ + @ o o - O o . O O : O O + + O O + O O > + . - % + + > + O + > > + O + + + + + + + > > - 4 4 - - + - + : % > > : > , : > > : , > > > > > , , , , , > > > : $ & : , : , , , , > > , , , 4 4 4 > 4 4 4 4 > 4 4 8 5 4 5 4 6 8 9 5 0 0 5 5 4 0 9 6 0 5 0 4 0 9 9 5 4 0 5 9 4 9 6 6 9 5 4 V & 6 e 5 5 6 e 9 g s 0 8 Z s 0 Z 9 C U D 0 4 V V V 4 9 s 8 6 9 9 7 g q s J S D g C 6 & t e & X r e 9 9 9 9 6 9 6 8 0 8 8 8 0 8 9 8 6 8 6 8 0 8 8 6 9 9 8 8 6 0 8 6 8 8 8 8 8 9 7 0 4 0 6 6 6 8 8 0 8 8 8 8 6 6 9 8 6 6 9 9 0 0 5 6 6 9 6 6 6 8 6 8 8 0 9 9 8 6 8 9 6 4 0 8 0 5 5 4 0 9 9 5 4 4 0 4 0 8 9 9 9 9 9 8 9 0 9 0 9 8 6 9 9 9 9 9 9 t 9 9 6 0 0 8 6 9 5 5 6 9 9 6 8 9 e 0 9 9 9 9 9 9 8 6 0 4 4 0 8 0 8 6 s q 4 V 4 . V e > > r t r 5 r r 6 9 9 s 9 9 s 9 9 9 6 9 6 8 8 9 9 9 6 9 9 0 8 6 5 6 8 8 6 9 9 6 9 9 0 6 9 9 9 0 8 0 5 0 8 8 8 9 5 5 5 8 8 9 8 8 6 9 9 5 0 0 8 9 r 8 4 4 e 8 4 4 8 9 9 5 4 5 8 > * 4 4 4 0 4 0 4 4 4 4 4 4 4 4 9 9 9 6 0 4 8 0 5 8 5 4 4 * 4 4 5 4 4 0 5 4 4 % , , , , : , , & 4 4 4 + - > + > % % % > % % > % % > % + X > % > % + $ % + > % % % X % X % % % & $ $ $ . . & $ . . . @ . @ . . .         ",
"o     o + o + @ + O . O O $ $ $ O + - % - O + + + O + > > + + > > - + > + + O O . O O > > + - + 4 > - O O + + > % > : > > : , > : > > > > > > > > > 1 > > , > > $ % % & : & : , : , & , , > , % , 4 4 0 4 4 4 4 * * 5 9 6 6 0 0 6 6 6 9 8 6 5 0 5 5 0 8 0 4 4 4 8 6 9 0 4 6 0 9 8 9 8 8 e 8 8 V & r t 6 4 V V 9 s s 7 7 K G g J V ` Y G 9 0 G G S 0 4 D D s 9 0 Z G - 7 s 7 9 4 4 5 5 5 6 t y t 9 9 9 9 9 7 8 9 9 9 9 6 6 8 6 8 8 6 0 8 6 9 9 0 9 9 9 9 9 9 6 9 6 9 8 0 6 9 8 6 0 5 6 9 9 7 6 8 8 9 6 9 9 6 9 6 8 6 8 0 8 8 5 5 9 9 9 8 0 5 8 4 6 8 8 9 9 6 6 8 9 9 8 0 0 5 0 0 5 0 9 9 6 5 5 8 4 0 6 6 9 9 9 9 0 8 8 6 6 6 9 6 9 9 9 9 9 9 9 9 9 8 4 4 0 8 6 8 4 4 9 9 0 9 8 9 5 8 9 9 9 9 6 5 6 8 0 4 0 8 9 6 6 w * 4 V 4 . C r % $ r r 5 4 5 8 4 5 9 s 6 9 9 9 9 8 9 6 9 9 9 9 8 6 9 8 6 0 9 6 8 8 8 8 0 7 9 9 9 9 6 9 7 9 9 0 0 0 0 8 8 9 9 9 6 4 4 4 8 8 9 7 0 0 9 6 9 9 9 8 9 5 4 5 r e 8 4 8 9 8 4 4 4 5 > 4 4 4 4 5 5 5 4 4 * 4 4 0 4 0 9 9 9 0 0 0 0 4 8 8 4 4 4 4 4 > 4 4 4 4 5 4 * % $ 3 , $ & , : & + 4 * * * + > % X % * > > % 4 % 4 > % O . + % % % $ + % % % + + X > % % % % $ O & $ . $ $ . . . O . @ O O . . .   @   @ ",
"      o @ O . o O O O O O $ O O O O + % + - O % - . O > + + O - + + > - + = O + O - + - > + O O @ . @ O + + > > : > % % % , : > % : > > > : > > > > > > , > > > % % > , & : & : , & , , , , , % X % * * 4 4 4 0 % 4 0 0 8 8 5 8 6 8 8 0 9 8 8 4 0 6 5 0 6 0 0 4 8 0 5 5 0 5 6 9 9 k 6 9 t e 9 C , y V r 0 t V 9 g S g g ` Y ` S U $.G U V > R R U V - V 9 g s = Z Y s g Z 0 S V t W y 6 & 6 6 & e 9 9 9 6 9 6 9 6 8 9 9 9 9 9 0 9 9 9 9 6 9 9 8 9 9 9 9 6 6 9 8 8 9 9 9 6 6 9 9 9 9 s 9 9 9 9 6 9 9 9 9 9 8 9 9 0 8 9 9 0 6 0 5 8 6 8 0 8 8 0 0 0 8 0 9 6 8 0 8 9 9 8 4 5 5 4 5 5 0 9 9 6 5 0 0 4 7 0 9 9 9 8 9 8 8 0 9 8 9 8 9 9 9 9 9 9 9 9 9 9 9 6 8 0 8 9 8 4 0 6 9 9 9 5 0 6 6 9 9 9 9 6 9 6 6 5 0 9 9 9 9 8 9 4 4 V 4 @ S r $ . , r 4 , 5 4 4 4 0 6 8 6 9 0 0 8 6 8 9 9 9 9 9 6 8 9 6 8 8 9 0 6 0 8 9 6 9 9 9 9 9 9 9 9 9 8 0 0 6 0 6 9 9 9 9 5 4 8 9 8 8 0 0 9 0 6 6 8 9 9 8 8 8 4 8 8 8 4 8 e 8 4 > 4 6 > * 4 4 4 8 5 5 4 0 0 4 0 4 6 4 6 9 9 0 5 0 4 4 0 4 4 4 0 5 4 > 5 4 4 4 5 4 4 % $ & & $ & 4 , % 4 * > q > 4 4 * % > % 4 % % % % X > % X X % > % % X % O + % % % % O % % % % & . . . . & . $ . . @ O O @ . X @ .         ",
"        o @ O o . O O O O O O O O O + > O + > - + + + + > O O + O + - + > + > % - + > > - + + @ @ O + + - - - % > $ > > $ > , > $ : > > > > : : : > : , > : > > % , % % , % , & , , 4 , 4 4 4 , * % * % * * 0 0 5 5 0 5 4 4 0 8 8 8 6 9 8 0 8 4 9 6 0 8 6 6 9 5 4 5 8 0 5 0 8 9 9 V 6 9 V e 9 C 8 6 9 9 9 4 0 9 V s s 7 W J ` V R $.T $.7   *.p.4.S q Y 9 0 7 o s P q o 8 s A V 6 % & t y * 6 C 9 9 9 9 9 6 9 9 6 9 9 9 9 6 6 8 0 6 6 9 9 9 9 9 9 9 9 7 8 8 6 8 6 6 8 6 8 0 6 8 e 9 9 9 8 9 6 8 9 9 9 s 9 9 0 8 0 6 8 8 6 6 5 0 0 0 5 5 6 8 8 9 8 0 8 6 0 8 0 8 5 6 8 6 8 9 9 9 5 6 9 9 9 0 6 8 0 4 6 9 9 9 9 6 0 8 8 9 0 9 9 9 9 9 t 9 9 9 9 9 6 9 9 9 9 9 6 0 5 0 9 0 9 5 4 4 9 9 6 0 8 8 9 9 9 8 9 6 9 s 9 8 0 9 4 0 V % X S , . . , r r * 5 8 4 5 6 9 5 0 8 5 0 0 8 6 8 6 9 0 8 6 6 6 9 0 8 6 8 0 6 0 6 9 9 9 9 9 9 9 9 9 9 9 9 9 0 9 0 8 6 9 9 8 8 e 8 e 8 0 9 9 9 0 0 5 6 5 0 5 5 5 4 5 8 4 8 9 9 0 5 8 9 > > 4 4 % 4 4 % 0 6 4 0 5 0 0 5 4 0 0 5 6 0 4 4 0 > 4 4 8 8 4 0 5 5 0 4 8 4 4 % : : > > > 4 5 4 q * 4 4 * 4 , * > 4 4 , % % > % . % 4 % > 4 > % $ % + % % > % $ O % > % $ $ O O $ . . . . O . . . . + . O @ X           ",
"  o     o @ O O . O = O O $ O $ O - + > % - + > O O O > - O . + + + % > > % - > + > - > > > > > - q - 4 4 - % + $ > : > , > : > : > : > > : > , > > > : 1 > > > , 4 4 4 * 4 4 4 , , 4 5 4 4 4 , 9 0 4 4 4 4 0 5 0 5 5 5 4 4 4 8 6 9 8 0 9 6 0 0 9 9 5 5 9 r 6 5 0 5 0 8 8 0 6 9 9 9 6 6 V 9 0 e 9 9 9 k e 4 0 9 g s o 7 1.` 1.1.u.u.j.k.0   k.2XF.0 + P.9.  - ;.!.W.;.; 7 S D W S C C y r & & * 6 9 9 9 9 9 9 9 9 9 9 9 9 9 6 5 8 8 0 8 6 9 9 9 6 9 6 9 9 0 8 0 6 5 6 8 0 5 9 0 9 8 0 5 0 8 8 0 9 9 w 9 9 9 6 8 8 0 9 6 9 8 0 5 4 4 0 5 6 6 6 6 0 8 8 9 6 8 8 0 8 6 0 9 9 9 9 V 5 9 9 9 9 9 9 8 5 5 5 9 9 6 8 6 6 5 6 8 8 8 9 6 9 9 9 9 k 9 9 9 6 9 V V V 9 6 8 9 9 5 9 9 8 0 > k 9 8 4 0 6 9 s 9 6 7 9 9 9 9 9 0 e 5 0 V 4 + U e , % r e r 5 6 e 9 9 e 9 6 8 9 8 5 8 0 0 6 6 8 6 8 8 0 6 8 9 6 6 6 8 8 8 6 9 9 9 6 9 9 9 9 9 9 9 9 9 0 0 6 0 8 5 9 8 9 e e e 8 0 w 9 0 8 5 0 8 5 5 5 9 5 4 4 8 5 8 8 8 4 8 8 e 0 5 4 4 0 4 4 4 0 0 0 0 0 0 5 0 * 4 4 4 0 0 0 5 4 4 4 4 5 8 8 5 5 5 5 5 8 5 4 % r r 5 4 > 5 0 * 0 * q 4 4 4 > , 5 5 4 4 * % % 4 . % 4 4 4 > , * % X % + O X O % % X % % & $ O . $ . $ O & O . . + . @ + X . @ X         ",
"        o + - @ . O $ O $ O O $ + + > - + + O > - O + - > O O O + + % % - + - + - + > > > 4 > > > 4 - 4 4 > + - % > > % $ > , : > : > , > > : , , , > , > > > > 4 4 4 4 4 4 4 5 5 4 4 4 4 4 5 4 9 5 0 4 4 4 4 4 4 0 5 0 4 4 0 4 0 9 9 0 6 8 8 4 k 6 0 0 9 6 6 6 4 0 0 9 8 6 9 9 9 9 8 9 V 9 4 9 9 V D V s s s k S G o Y .Xn.h.}.E.I.1X`.s - (.PX).  o 8Xn.o R }.ZXdXF.-   7 @ 9 % t y 6 6 y C e 9 9 9 8 8 9 9 9 9 9 9 9 s 6 6 0 0 8 0 8 8 9 6 9 9 9 9 9 9 6 9 9 9 9 6 8 9 8 9 9 9 5 0 5 8 0 8 8 9 6 9 9 9 9 9 0 8 9 6 8 5 0 0 5 8 8 0 0 0 4 8 5 8 6 9 9 9 9 9 6 6 9 9 9 0 8 9 9 0 8 9 9 e e 9 0 5 0 9 9 9 9 8 0 6 9 8 0 6 9 0 0 s e e e 9 9 9 9 9 9 V 9 9 5 6 6 9 9 5 0 6 9 5 0 9 9 6 0 0 6 9 9 6 9 8 9 s 9 9 6 4 e 5 8 t * + U e > > r e r 5 r r 9 6 9 9 6 9 9 8 6 9 8 8 0 8 0 0 8 0 8 8 0 8 8 9 0 0 8 0 8 8 9 9 9 9 9 9 9 9 9 9 9 9 0 6 0 6 9 9 6 8 9 8 k r e 9 9 9 9 0 5 0 0 0 5 5 9 8 4 4 9 9 5 4 4 8 9 9 8 5 8 8 9 8 9 8 8 6 0 6 5 0 4 4 0 4 0 0 0 0 4 0 4 5 4 4 4 4 4 5 5 4 4 5 5 5 5 , % , r 4 > % * 4 X q 0 4 4 > % % 4 4 4 4 % % % % > O 4 5 > % > % % + % % $ X $ $ X % + X O $ . . . $ . O . O O $ . O + O X O @ X .         ",
"  o       + - O . O + $ O O O O - + > > - O + + + O + > - O O . > - > - > % + O 4 4 > + % % - - > - + O + + + > : > $ : , : : > > : , > 1 , , > : , , , , 3 , , % 4 > 4 4 4 4 5 5 5 4 4 4 4 5 5 4 0 4 0 4 0 4 4 * 4 5 6 0 0 8 0 8 8 6 8 6 5 0 0 k 6 4 4 8 9 8 0 4 4 8 6 0 8 6 9 9 t 9 s A 9 0 6 4 V D 9 9 V V 9 s U   { KXH.i.2X1X}.mX'.o @ E.PXJ.@ o U.R @ B.KX;X8X).g   9   t 4 * 6 t e * * 9 6 9 0 9 9 9 9 9 9 9 k s 9 9 5 4 4 4 0 8 0 8 9 9 9 s 9 9 9 9 9 9 9 9 9 9 6 9 9 9 9 9 9 9 6 9 9 9 0 9 9 9 9 9 8 8 0 5 9 9 6 8 5 5 6 6 8 8 8 0 0 4 9 9 9 9 9 9 9 9 8 6 9 6 0 7 8 9 9 0 6 r e 9 9 9 0 8 5 9 9 6 6 8 9 9 6 9 6 7 8 8 9 s 9 e V 9 9 9 8 9 s 9 8 0 0 8 9 8 0 5 9 9 6 6 6 9 9 9 8 8 9 9 7 6 6 9 9 w 9 6 4 e 6 6 V + + T , & . r r r 4 r 6 5 0 8 6 8 0 8 9 9 9 6 9 9 8 8 0 5 4 8 6 9 6 9 8 8 6 8 8 0 9 9 9 9 s 9 s 9 9 9 0 9 0 6 9 9 9 9 9 8 4 4 8 8 e 9 6 6 6 9 0 0 5 9 0 5 8 9 9 4 4 9 9 8 4 4 4 8 4 4 4 4 5 5 9 8 9 9 5 5 0 5 0 4 4 4 0 0 5 0 5 0 0 5 5 4 0 4 > X > 4 8 4 4 4 5 5 & $ $ , , + X + q q 4 4 q * > * % % % , 4 % % % 4 % % 4 5 % O X % % + $ % X % O X O O % + O . & . . $ $ O $ & $ & . X O X O @ O . @         ",
"o       @ o o . - . o O O O O : O O O O + + + - O % + > - % > > . X % X $ O X > % X O O % % % % + % % % $ O $ $ $ & $ % , , : , , : , , % , , : , , % , , > , , % % & 4 > 4 4 , 4 4 4 5 , , , & % % * 4 4 4 4 4 4 4 0 5 0 5 0 5 8 6 6 8 6 0 8 0 0 0 5 8 9 0 8 0 9 9 0 0 9 w s 9 9 g V D D 0 6 0 9 W W 4 4 8 5 5 V X . T hXY.{ ;X;X;XhXY.@ q OXPXB.# g _.g # <.HX4XtXtXW @ 4.oXOXx.u # w q g 0 D 0 D 9 4 6 V 9 9 6 6 9 9 0 9 0 0 9 9 9 6 9 9 0 8 5 9 e e 9 6 9 9 9 9 9 9 6 9 6 6 e e e e 6 5 6 6 e 6 6 6 e 6 6 e 6 6 6 r 6 6 6 6 9 9 9 6 9 6 8 0 9 8 6 8 8 6 9 6 9 9 6 8 9 9 8 0 9 9 9 s 9 6 6 9 8 0 9 9 9 9 9 8 9 6 8 0 6 9 9 9 9 6 9 9 9 t s 9 6 9 9 9 9 9 9 9 9 9 6 9 9 9 9 6 9 8 9 9 9 9 6 6 8 9 9 0 6 5 9 e 5 6 9 9 V 0 X R 4   % k 5 4 0 9 7 0 0 9 6 0 9 0 9 9 6 6 9 6 0 9 0 0 6 9 9 9 6 8 9 6 9 9 9 9 9 s V s 9 9 9 6 8 9 0 0 4 5 0 8 9 9 k 9 8 9 9 e 9 5 8 8 6 0 7 8 9 9 9 9 8 8 0 5 9 9 9 5 6 6 8 4 4 * 5 4 0 5 9 5 0 8 4 4 4 5 5 5 * 4 8 6 6 5 0 6 8 6 0 5 0 6 5 4 4 > 4 4 , , , , , & 3 & , % % , % % % * > * 4 , % % 8 4 % , > > * % % * 4 % % % % 4 $ $ & $ : $ & : , $ O & * + @ X > O O X O O O X O O X $ X     .         ",
"o       o o . - > O O + > O O > - O + O + O O > + O + O + > O > > + O + + % % O % % $ + + % % + % % % % $ & $ $ % $ % $ % & % , & % , % , % & , % , , , , , % % & , , 4 4 % 4 % % , 4 4 4 4 5 4 4 4 4 0 0 5 0 4 4 4 5 5 6 8 5 5 6 6 0 8 8 8 6 6 4 8 6 6 8 9 0 8 9 9 6 9 9 g w 9 V V 9 W W g 6 + S 2.! 4 % 9 V 9 9 4 . U xXB.W OX;X4XhXB.  D 8XPXz.@ E uX{   { hX.XOXtXE # B.NXNXCX!.x.=.# 0 0 q V 7 s S 9 4 0 9 g k g w g s 9 9 9 6 9 8 8 9 9 9 9 9 9 9 9 k e e 9 9 9 6 r 6 e 6 * 6 6 6 6 6 6 6 6 e e 6 6 6 6 6 6 6 6 6 r 6 6 9 8 6 9 9 8 6 8 6 0 0 9 6 9 8 0 8 9 9 9 9 9 9 6 8 8 9 9 9 9 8 9 9 6 9 8 9 9 6 8 0 9 8 9 9 9 9 9 9 s 9 9 9 V k 9 6 9 9 9 9 9 9 9 9 9 8 9 9 s 9 9 9 8 0 6 6 9 6 9 8 0 0 8 9 6 6 5 9 5 9 e 0 e 4 % } 9   % k 9 9 8 V 6 9 9 0 9 9 7 0 0 6 8 8 0 8 8 6 8 8 9 9 9 9 9 6 9 9 8 9 6 9 9 9 9 s 9 6 9 6 9 0 9 8 6 8 0 9 9 k 6 8 0 5 5 0 4 4 0 9 9 6 0 8 9 9 6 0 4 4 4 0 0 4 5 5 5 6 0 5 4 4 0 > > 0 0 * + 4 5 4 5 , 5 , 5 5 8 5 5 0 5 0 6 8 0 5 0 5 4 4 4 5 , , , , 3 , & , 3 & & & & > % % 4 % > 4 4 > % % 4 % % % 4 > , > % > > % % % % % $ $ $ $ : & : : & . X $ + > - % % + % O X $ O $ $ O O & $ O . .         ",
"o     o + @ . - + O O - $ $ $ : O + + O - O + + O + O + - O + O % + + + % X O O % X O % % % % % % , > , % , : , , % & , , % , % , , & , % : , % : & % , , & , % > % 4 % 4 > 4 % % 4 , , 4 5 5 4 4 0 0 5 9 8 9 6 6 0 4 6 6 6 0 6 0 5 5 8 0 5 5 5 7 0 8 6 9 6 0 9 g 9 9 9 9 w 9 9 w 9 6 U S g 9 q =.I.<.4 4 9 C 5 8 V @ E HXB.Q ;X;XhXMXl.@ w.HXIXp.@ 4.hXW @ Y.hXtXOXuX{ @ oXSXiX4XOX;X!.G q g J   9 0 - V U D q g s s 9 g 0 s 0 0 9 9 0 8 0 6 9 e 9 0 9 V V V e 6 9 6 9 6 6 e 6 5 5 6 6 6 6 e e e 6 e 6 e 6 6 6 6 6 6 6 9 6 6 6 0 9 9 9 9 9 9 9 4 8 9 9 9 9 0 4 9 9 8 6 9 9 8 6 6 9 9 9 9 0 9 9 7 9 9 6 9 8 0 8 9 0 8 6 6 9 9 9 9 9 9 9 9 9 9 8 9 9 9 s 9 9 9 9 9 6 8 6 9 9 9 9 0 8 8 8 8 0 0 5 4 4 9 9 9 8 5 0 5 9 9 0 9 % * *.C   % V e e 9 s 8 9 9 9 9 9 9 0 8 6 8 0 0 5 6 9 9 9 9 9 9 9 9 9 0 8 9 9 9 9 9 9 9 6 8 0 8 9 9 9 9 6 6 6 8 6 9 9 V k 9 9 e e 9 9 0 8 9 6 8 6 9 s 9 s 9 6 9 9 s s 4 4 0 5 8 6 0 5 9 0 0 8 4 % * > 8 r , , 4 , 5 r 4 4 4 * 4 4 4 5 0 4 0 4 4 4 4 8 , , , , r 3 , & , , , , % , * % 4 , > > 4 , % % % % % X X % % X % % > % % % % % & . . & $ $ . $ % O O $ + + + 4 O % O $ % X O X & O O & X O   .         ",
"o o   @ - @ O O O . O O O O O O O + O + O > + - + O + = + + O > % % % % $ O $ X % % O + % % % % % % , % % $ , & , > , : $ , % , % , : $ & , $ , % % % , , , $ $ , % , 4 4 , * , % * % 4 , 4 5 , 4 4 5 0 0 8 6 0 6 4 0 6 6 6 5 9 5 5 0 4 8 0 0 5 8 6 8 6 8 9 8 6 6 9 9 0 9 9 9 6 w s g R V 6 6 + z. X*.. 4 5 k 5 9 e   $.HXB.4.SX4XhXSX4.@ !.PXSX!.@ 1.SX@ + SXhX5X3XGX4.@ OXuX4XOX!.+X4Xx.g @ { %.    G 9 - Z V s 9 0 9 0 7 0 s 9 9 9 9 9 9 9 9 e 9 9 9 9 t 9 9 e 6 9 6 e 6 6 6 * 6 6 6 6 6 r e 6 r 6 e 6 6 r 6 6 e 9 6 6 6 6 6 9 6 9 9 s 9 9 t 0 8 0 9 9 8 0 4 9 0 8 0 9 9 9 0 8 0 6 9 9 8 6 9 8 6 8 0 9 6 9 6 9 8 9 6 9 9 9 9 9 9 9 9 9 6 6 6 8 9 9 9 9 9 6 9 8 0 6 6 9 s 9 9 6 8 0 9 6 8 8 0 0 5 8 6 9 6 9 5 0 9 9 4 9 % % *.C   + k e 8 8 9 4 0 0 9 0 0 9 9 9 9 9 8 9 8 9 9 k s 9 6 8 9 9 9 9 9 9 9 9 9 9 9 9 6 8 8 8 6 9 9 s s 9 9 9 0 9 9 6 0 8 0 9 6 9 0 9 9 9 9 6 9 9 9 9 9 6 6 5 8 6 9 0 4 4 0 8 6 5 0 9 9 9 9 9 4 4 4 5 5 , , 4 5 5 5 4 4 4 5 4 4 4 0 4 0 0 0 4 4 4 5 r , r , 3 , , , , , , , 5 5 8 8 4 % 4 4 4 4 4 4 r 8 4 % > > > > X % % % O X % % , $ $ , & : , & 4 % X % 4 + + % O X % X $ O O O O . . $ O               ",
"@ o o @ @ o . O . O O . . O O O + - O - > + % - O - O + O + + O % % % % % O + O % X % + % % % % % > , % % % > , , , & , , : , % , , $ , , & , % , $ % , & , & : % , 4 , , > 4 % , , * , 4 * 4 , 4 4 4 0 * 5 0 5 0 5 5 5 8 6 9 8 0 8 0 0 0 5 8 0 6 8 0 8 9 9 9 9 0 9 6 6 9 9 9 g D V V =.D 0 4   g.UXS   e 9 9 9 k 4   2.GXl.l.HX;XuXSXQ @ 2XHXSX;X@ w.PXg @ NX8X;X8XPXw.# OXiXNXiX;X[.;XB.0 @ B.&Xi.q o J 0 @ g s 0 s g s 0 g g 9 9 9 9 9 9 9 9 9 9 V 9 6 8 8 9 6 6 e 6 6 e 6 e 6 6 6 6 6 6 6 e e 6 6 6 e 6 9 6 6 r 6 6 r 6 6 8 8 9 9 9 9 k 9 9 8 6 6 9 6 9 8 9 9 8 0 6 9 9 9 9 8 9 0 8 9 9 9 9 6 0 8 9 8 6 9 8 9 9 9 8 9 9 9 e 9 9 9 9 9 9 9 9 0 9 0 8 6 9 8 8 0 4 0 5 9 9 s 9 9 9 9 9 9 6 8 8 8 6 8 6 6 9 9 9 0 9 8 4 t 4 * $.A   O r 9 9 8 6 9 6 6 6 0 9 9 9 s 9 9 9 9 9 9 9 9 9 9 9 0 6 9 9 9 9 9 9 6 9 9 9 6 9 6 0 6 9 9 s 9 s 9 9 6 9 8 9 6 6 6 6 5 6 6 6 9 9 9 9 9 9 9 6 6 6 6 8 6 8 6 6 8 0 5 0 0 5 5 0 6 6 6 6 9 0 5 5 5 , 5 , 5 5 4 4 9 8 0 0 0 0 6 9 4 4 0 8 6 4 4 5 , , , , , , , , % 4 > , 4 4 5 5 4 , % * > 4 > * 4 % $ $ % % % % O X % % + O % % : $ $ $ $ $ $ $ 4 % + % % X . O X $ % O O X O X . . . . . .   .       . ",
"o     o + o   o O = O O O $ $ $ O O > + - > + O O + - O O + O + % % % % X % X % > % + + % % 4 + % % : > % $ $ , % : , : & , & , : & % % : % $ % , & , , , > % % 4 * , 4 * , % 4 4 5 4 4 , , , & 4 * 4 4 4 4 5 5 5 0 5 0 8 6 0 9 8 0 8 8 5 0 8 8 9 6 6 8 8 6 9 9 0 9 9 9 w V V Z V 6 w 4.D V 4   (.yXD   C k 4 V V > . p.HXa.l.NXhX8XhX{ 0 8XSXSXOXq x.IX1.q 8XuXtX8XHXw.u ;X;X;XOXuX+X4XB.q ; ;X8XPXY.o   J g q s s s g g s 0 g s 9 9 9 9 9 9 9 8 9 9 s 6 0 8 9 6 e 6 6 6 6 6 e 6 e 9 6 6 6 6 e 6 e e 6 6 6 6 6 e 6 6 e 6 6 6 6 9 9 9 s s 9 9 9 9 9 9 8 9 6 9 9 8 9 0 9 9 9 9 7 6 6 9 9 9 9 9 9 9 9 9 8 9 6 0 9 9 9 9 9 9 9 e 9 6 9 k k g k V e 8 6 9 9 9 9 6 0 8 0 0 8 9 9 9 9 9 6 9 9 9 6 8 0 9 9 8 0 8 9 9 9 6 8 0 4 V 4 + $.S . + r 8 9 8 9 k k s 9 0 9 0 6 9 9 9 9 9 9 s 9 9 9 6 9 9 9 8 9 9 9 9 9 9 9 9 6 9 8 8 9 6 9 9 s 9 9 9 9 9 8 9 6 9 s s k 9 9 k k 9 9 8 9 9 9 9 5 9 s e s s 9 e 9 9 9 6 5 0 4 5 5 4 4 4 0 0 4 4 4 , , , , 5 , , 4 5 5 5 4 4 6 5 5 4 0 0 8 5 4 4 4 , & , , , & : $ % % % & , * , , 5 4 % % % % % % O X . O X % % % % % + % + + % $ . $ . & . . . $ % O X + + + X @ $ & O O O + O $ O . . $ & . . .         ",
"o     o @ o o o O O O . . $ $ O O + + % > + % + > + % + > + O O % + + % % % > % % % % + % 4 4 % > % , , % , $ : $ % & , % , , > $ % , : % , % , , > > % $ % , , 4 4 4 , , 4 4 , 4 4 , 4 4 4 4 4 0 5 4 4 0 5 9 9 0 5 4 4 4 7 8 6 8 6 9 8 6 6 8 9 6 7 6 8 9 8 9 9 s s g g g g V D s S $.k.G 0 q + tXzXK . C C % t D k   g.PX4.<.uX;XxXxXw.{ 4XhXSX[.D Y.SXl.w ;XhX8X).8Xl.Q ;X4XOX;X8X[.;XP.q @ W.8X;XSX.X-   _ g g s 0 Z g s q s 9 9 9 9 9 9 9 9 5 6 9 e s 9 6 9 6 6 e e 6 6 r 6 6 e 6 6 5 6 r t e 6 e 9 r 6 6 9 6 e 6 6 6 6 6 6 9 9 9 9 9 9 9 9 9 9 9 9 9 9 9 9 9 9 8 8 9 9 9 6 9 9 8 9 V e k 9 9 9 9 6 9 9 9 9 9 9 9 6 9 9 9 e 9 w V 9 9 9 9 k 9 9 9 9 9 9 9 9 0 5 4 8 9 9 9 9 9 9 9 9 6 8 7 0 9 8 0 4 9 9 9 6 6 9 e 4 t * % $.S . % 9 6 9 6 e V k 9 0 9 0 6 9 9 9 9 9 9 6 9 9 6 9 9 9 9 9 9 9 9 9 9 9 9 8 8 9 9 9 8 8 9 6 6 9 9 9 6 9 6 8 9 8 4 0 8 6 4 0 6 6 9 9 8 9 9 9 5 0 0 4 0 4 0 0 4 4 9 9 9 5 5 5 0 5 4 % * 5 5 4 4 4 4 , 5 , 4 , 5 4 4 % * 4 4 * 4 4 6 9 5 0 4 4 4 8 , , , , , , , , , % , 4 % , % 4 4 > % % % * % % 4 4 5 5 8 8 8 4 + % % % % $ X % r & , , , & & , X . . + > + + + % % O   O X O % O . . O O . . .         ",
"@     o - @ o   o O O . . O $ . O + + - > > - O > - > + - O - + + % % % + % % % * % + + % % % % : > > & & : , & $ $ $ $ % % : , , % $ & % $ : : , , , $ > , , , 5 4 4 4 4 4 4 % % % % 4 , 5 4 4 6 5 0 5 0 6 9 9 5 5 0 4 4 0 8 0 9 6 9 6 9 9 6 6 9 9 9 0 0 9 9 9 9 s g g s 9 g D W 1.B._.E + + 0 zXzXS   8 S % V C A   z.PX=.{ sX;XxXNXB.w.;XuXhXtX0 B.IXx.q ;XuXOXY.xX!.{ OXiX;X4X;X!.;XB.o q [.8XY.;XIX!.g @ q Z g g G J g s g s 9 9 9 9 9 s 9 4 0 6 9 V V V 6 r 6 6 6 e 6 6 9 5 6 6 6 5 6 6 9 6 e 6 6 9 6 6 6 e 6 6 6 6 6 6 4 9 9 9 9 9 8 0 6 9 9 9 V V s 9 9 0 6 8 6 9 9 9 9 9 6 9 9 9 V t 9 9 s 9 9 9 9 9 s 9 9 9 9 9 9 9 9 6 9 9 9 6 8 6 6 9 9 s 9 9 V 9 9 0 5 0 8 9 9 9 6 8 9 8 0 8 0 4 4 5 4 0 8 9 e 0 4 8 e e 0 9 + % &.S   + 9 5 8 8 e 0 8 0 0 0 6 g g 9 6 8 0 8 6 8 9 9 9 9 e 9 V e e 9 9 9 9 9 9 9 0 6 6 5 0 7 0 8 9 6 6 8 9 9 0 0 8 8 8 9 9 9 6 9 s 9 6 6 6 9 9 5 4 8 6 8 6 6 9 5 6 9 5 0 5 0 5 6 0 8 4 0 6 0 4 0 8 8 5 , , , 4 5 r 5 5 0 4 4 4 0 4 9 6 0 * % * 4 9 5 8 5 5 , , , , 9 r 8 8 5 4 4 4 % % % > 4 8 r 8 5 5 5 5 5 , & O % % % > X % % $ : & : : , $ $ $ > % O % 4 + + 4 % % O O . O X % . . . . O   . .         ",
"@ o o @ O @ o @ O O O O O O O $ - + O O + - + > % - O + > + > + + O X % % + % % % > % % % % % 4 & : , % % % $ , & , $ & : % $ & , % & , $ % & , % , % : > , , , , , 4 4 4 5 5 4 , 4 5 8 5 5 r r 9 6 5 0 7 0 5 8 0 6 6 9 6 6 9 6 6 8 8 0 0 8 9 9 9 8 6 6 6 6 6 8 g 0 g G g 9 V S 4.L.2X XU -   G JX`.X X z 5 9 r A 6 # W ;X1.l.SX;X;XsX!.x.4X;XNX8Xw x.SXOX{ oXuX;X[.8X8X+X!.;X$X+X8XB.+XB.g q B.[.!.P.[.SX[.0 @ 0 J o V D g 5 t s 8 e V 9 0 e e t 9 9 9 e e 9 9 9 e 6 9 6 6 r 6 e 6 5 6 e t e r e 6 6 e 6 6 6 r 6 6 6 6 e 6 6 6 6 9 6 9 9 9 9 8 9 9 t k 9 0 8 6 8 8 9 9 6 8 9 0 9 V 9 e 9 9 9 9 g 6 6 9 V 6 8 9 t e 9 9 k V e 9 9 9 9 9 9 e e 9 s 9 9 9 9 9 9 6 5 5 5 9 0 9 9 9 s 9 9 9 9 9 9 9 0 5 8 s 9 9 6 9 9 9 e 9 e % O } C   % e 9 e 9 e 9 6 0 6 s g w 9 9 9 9 9 9 9 9 s 9 9 9 6 9 9 9 9 9 9 9 9 9 9 9 9 9 6 0 7 0 8 9 9 V 9 6 e 9 6 6 s 9 V s e e e 9 9 V 9 9 9 6 0 0 0 9 9 9 9 9 e 9 9 9 6 5 5 0 5 0 9 4 4 0 r 9 6 0 > 8 , , , , 5 5 5 8 9 e 9 9 0 5 0 5 5 4 4 4 0 0 5 8 8 8 8 8 8 4 4 8 4 4 8 r 8 4 4 % 4 % % % * 4 8 % % % % % > % > % > 4 4 X X $ % , & $ $ $ $ & $ + % % % % % q + X $ % % O O X % O . . . . . . .         ",
"o     o + . o + + O + + O > $ : O O O + O O + + > + > + + > + = X + + O + X O + % % % X + + % % : & $ , & $ % $ > > , % , $ , : % % , : & , % , , % , , , , & % , & % , 4 4 , 4 , % 4 4 4 4 4 4 6 6 5 8 5 6 6 6 0 5 5 6 8 8 6 9 6 9 6 9 8 9 9 9 9 9 9 6 9 9 s k 0 s 0 g G g D %.P. XrX'.S @ + 2.PXG.. 0 C 4 r V S g   q SXx.Q uXuX;X8X;XY.4X4XxXoX{ Y.8XuX!.oX;XiXB.[.xXuX[.OXhX$X4X[.8X8XB.g B.;XB.!.!.[.8X[.{   @ { 0 7 V V e V 0 9 V 9 9 e 9 9 9 9 9 9 9 9 9 e 6 6 6 6 y 6 6 e 6 6 6 e e y 6 e 6 6 6 6 6 6 6 e e e y e e e e 9 9 9 9 6 9 9 6 9 s e 9 9 6 8 6 6 9 9 9 9 9 9 9 k 9 9 9 9 9 9 9 s 6 9 9 e 9 6 9 9 9 9 9 9 e e 9 9 9 9 e 9 9 9 9 9 9 9 9 9 9 9 9 0 5 9 8 9 9 6 8 9 9 9 9 6 9 9 6 6 5 6 9 9 9 6 s 6 6 9 5 9 * X ! C   X 9 8 e 9 9 6 8 0 8 9 6 9 9 9 9 9 9 9 9 9 9 9 9 9 9 9 9 e 9 9 9 9 9 9 9 9 9 9 8 6 8 6 8 9 9 9 8 9 9 9 0 8 9 9 9 9 s 9 9 9 9 9 s 9 6 9 8 8 8 9 6 8 9 9 6 0 4 0 8 0 4 4 5 0 9 4 4 6 0 6 8 8 7 4 , & , , 4 4 % 4 4 0 4 4 4 4 5 4 0 0 5 6 4 4 4 4 4 4 4 4 4 4 > 4 , % 4 4 4 , % % 4 4 % % % > 4 % * % % % * > > % % % % > % % $ $ $ $ & $ & $ $ % + + % + % X + O % % % % $ % % X O O O $ . . .     . . ",
"o     o o @ + - O + - - $ : $ O % + O % > > > > + + O - - > + + % O % % % % > % > % % > % % % > $ > & : : $ $ , $ , : % & % $ $ > , & , , , > % $ & % & : , , > > , 4 % > > , 5 , , , % , , % , 0 4 0 5 8 0 8 0 5 5 5 5 0 0 0 8 5 6 6 5 6 8 8 5 0 4 8 5 8 6 9 9 s q D D @ G n.P..X[.qX|.Y     I.IX*.  9 S > 9 V + e 0 # ;Xx.Q ;X;X;XiX!.l.XXOXS.B.OXNX;XtXOXY.CXSX;X8XSXhX@X+XuX8XiX8X8XhXhXE [.SXOX[.!.!.;XiXB.0 - > 9 U 4 6 e V 5 9 t 9 9 k 9 9 6 6 9 9 9 9 9 6 6 9 6 e 6 6 6 e 6 6 6 e e 6 6 6 e 6 r 6 6 6 6 6 r r 6 e 6 e 6 9 9 9 9 9 9 9 0 6 9 9 t 9 9 6 6 9 9 9 9 9 9 8 9 9 9 9 9 9 9 9 9 9 8 9 s 9 9 9 9 8 9 9 9 9 9 e k s k 9 9 9 9 9 9 9 8 9 9 9 9 9 9 6 5 9 0 6 9 9 5 9 0 8 6 9 6 8 8 9 6 6 9 9 6 9 g 8 9 9 5 V q   E k   % r 8 e 9 9 0 8 0 6 6 0 9 9 9 9 9 6 9 9 9 9 9 9 9 9 9 9 V V 9 9 9 0 6 9 9 9 8 6 6 9 9 6 6 8 9 8 0 8 9 4 0 8 6 9 9 9 9 9 9 9 9 9 9 9 6 9 9 9 9 5 0 0 0 5 4 4 5 5 5 4 5 5 4 5 4 4 4 4 0 8 6 9 5 5 , , 4 5 4 , 4 4 5 4 4 4 6 9 4 5 0 5 5 5 4 4 4 4 4 * 4 4 0 4 4 % % % * > & % > > , % % % % 4 > % % % % % % * 4 % + % 4 4 > % $ $ $ $ $ $ $ $ % % + X + + + > % % % % % X X $ O O X $ O . . . .       ",
"@ o   o @ - . - O O . O O O O $ $ + - - + + + - = > + O > + % - X % + % % + % % % % % + % % % % $ $ % $ $ $ : & , & , % , % % , > > , , , , , $ : , , % , % > , 4 * 4 > & , 4 5 4 4 5 4 4 4 4 4 4 4 8 6 6 5 5 0 5 0 0 6 5 9 6 8 9 9 9 e 9 9 0 0 8 0 8 4 0 0 0 0 S 7 J Z 0 a.;X;X[.'.rX[.U @ - 8XIXD   9 A 5 e V 4 V g @ B.w.D ;X4X;XiXNX#XOX4XT.;XIXNXiXxX#Xl.CXuXuXSXhXhXOX4XhXuXuXhXiXhXxXY OXHXsX;XiXSX;X!.T.S.l.  @ D V 6 r V 5 0 V 9 9 k 6 k 9 9 9 9 V 9 9 6 e 6 9 6 r e 6 6 e 6 6 e e 6 6 e t 6 6 6 r 6 e 6 6 e 6 e 6 9 9 k 9 V 9 9 9 8 9 9 9 k 9 9 9 9 8 9 0 9 8 9 8 9 6 9 9 9 9 9 9 9 9 6 9 9 9 9 9 9 9 0 9 e 9 9 9 9 t 9 9 9 9 9 9 9 9 9 8 6 9 9 9 9 9 9 9 9 9 9 8 9 0 8 6 9 9 8 6 9 0 9 6 8 9 9 9 9 V 0 9 9 8 V %   U e   % 8 5 9 9 9 0 9 9 9 0 9 9 s 9 9 9 8 8 6 9 9 t 9 9 9 9 s 9 9 6 8 9 9 9 9 9 9 9 9 9 9 9 6 8 7 9 6 8 0 6 8 9 6 6 9 6 9 9 9 9 9 s 9 9 6 9 9 9 s 9 5 5 5 9 6 4 4 5 0 6 0 6 6 0 5 6 6 8 0 9 8 6 8 5 , 4 r 6 r 8 5 0 5 9 9 0 5 9 9 0 5 5 8 0 4 0 4 4 5 6 4 4 5 8 8 4 4 , 4 > > > , 4 * 4 % % % % % > 4 4 % % 4 % % > % % 4 , 4 > % & $ $ $ $ & $ $ > * q + + + % * % * % % % O $ O     O O O . .           ",
"+ o   @ o @ o O O O O O O O O $ O . O . O O O + % % + O + - + O O O O X O O X % X + X % + O X % $ $ $ % $ $ $ : : , , % : , $ % , % , , , , : , $ % , , % & , , 4 4 % 4 % 4 5 5 5 5 5 5 5 5 5 5 0 8 0 8 6 8 0 4 6 7 9 6 8 9 9 9 e 9 e e e e 9 0 9 9 9 9 9 9 6 6 Z Z q g B.[._._.*X;XSXE.q o g hXIXK X V A k V 9 K W 9 @ [.B.q OX4X+X4XHXuX+X#XF.sXHX4XuXJX#Xx.aXsXiXuXtXhX$X4XsX$XuXsXhXSX8X{ +XHXtXNXuXuXaX5X4XNXuXI.t   E e 6 V 5 8 t 9 e e 9 9 9 9 9 s e V 9 6 6 6 e 6 r 6 6 6 e 6 e 6 t 6 9 6 e 6 6 6 6 6 6 6 9 6 e 9 6 6 6 w s s 9 9 9 9 8 9 9 e 9 k 9 9 6 6 9 6 6 9 6 9 6 9 9 9 9 9 9 9 9 0 6 9 9 8 9 8 9 9 V e V 9 6 9 V 9 9 9 9 9 9 e 9 6 9 6 9 6 e 6 e 9 8 6 9 9 5 6 6 9 6 9 9 9 9 9 9 s 6 6 9 9 9 9 V 8 e e 0 V 4   A 9   % r 5 e 9 9 0 9 9 9 9 6 9 w 9 9 9 6 9 9 9 9 9 9 9 9 9 9 9 9 9 9 9 9 9 k t 9 0 9 9 s 9 9 6 0 6 9 0 8 8 6 9 6 9 9 9 9 e 9 9 V 9 9 9 9 9 9 9 s 6 8 8 6 6 6 9 5 0 0 0 9 9 8 5 0 0 6 6 9 6 8 4 4 , > , , 8 8 8 5 4 8 0 9 0 4 4 * 8 5 0 5 4 4 4 4 0 0 6 8 8 6 0 8 5 4 > * > > 4 4 4 4 , % * > % 4 4 4 > > > % > % % , 4 4 % % % > & : : $ $ $ % % 4 > % + + + > % + + X % O O X .   . O O . . .           ",
"@ o o o - @ o O + O + + $ $ : $ + + - + + + - > - + + - > + > O X % % % % % % % > % % > > % % > $ & , & & $ $ & , & % , , $ , & : , , , > , , & % , , & , % , , 5 5 4 , 4 5 4 5 8 5 8 8 5 r 5 r 8 9 9 6 8 0 4 4 9 9 6 9 9 9 9 9 0 5 0 8 8 0 5 5 8 6 6 8 9 9 s s Z 7 7 w.[.[.W.!..X&XZX!.+ o @ 6XPX$.+ 9 V V k 4 > . 9 . x.U.{ +XsXuXiXNX5XOX#Xv.iXNXuXCXCX+XoXCXSXuXuXiXuX+X;XiX4XiX4XiXSX4Xw.[.PX4XNX4X4XaXcXCXMXxXJX`.E   6 r t 0 9 V 9 9 V 9 9 6 0 9 9 9 e 9 6 r e 6 6 e 6 e e 6 e 6 r 6 e 6 e e 6 6 6 6 e 6 6 6 6 6 6 9 6 6 9 9 9 9 9 9 9 6 9 9 9 V e s 9 9 9 9 s V s 9 9 9 9 9 6 9 9 9 9 9 > 6 9 6 0 6 9 9 V V V 9 9 9 9 9 9 6 9 9 9 9 9 V 9 9 9 9 r 6 e 6 8 9 9 9 9 9 9 9 9 9 9 9 9 9 9 e 9 9 9 9 k 9 e V 0 e e 9 V 4   V 9   4 8 8 k 9 9 9 9 9 s 9 9 g V s 9 9 9 9 9 9 9 9 9 9 9 9 6 9 9 s 9 s 9 9 e 9 k 6 8 9 9 9 9 9 6 9 9 8 0 9 9 s 9 9 9 e e k t V 9 9 9 9 9 9 9 9 9 6 6 0 9 e 9 9 0 6 8 9 9 9 9 9 8 8 9 9 e 6 8 0 4 4 , , 5 9 6 8 8 5 0 r 9 8 4 4 * 6 5 4 4 0 0 4 4 4 4 0 4 4 0 0 0 4 4 , , % % % 4 5 4 4 4 4 4 4 > * > % 4 * % 4 % % 4 5 4 % X % % $ : & $ % % % % 4 > > * % % % q % X O % $ X O . O O O & & . . .         ",
"o   o o + @ @ . O - + + $ : % O > - - > > - > > > + O > + > + > > % > > > > 4 % 4 , 4 4 5 5 4 > % : : : % $ $ , , , , % : , : , % & : , % , > > $ > , , > $ , , , 4 4 4 , 4 4 4 5 5 4 4 5 5 r 5 9 9 6 8 0 8 6 9 9 0 9 9 9 9 9 9 4 4 4 5 4 4 0 4 8 6 0 8 0 9 0 s g q <.E.!.W.'.).'.[.hX'.7 o o F.IX2.  9 e k 8 8 W 4 E   Q ;XuXIXuX;X$XSXsXXX$X#XIXsXsXNXaXiX#XsX8XiXuX4X4X+XiXhX4XiX4X;XxX4XB.$XiX4XuXiXNX5X3XaX5XuXaXJX#Xr X r t 8 e t 9 9 e 9 9 8 8 9 9 9 9 9 6 e e 6 6 6 6 r 6 6 e 6 e 6 e e e 6 e 6 6 r 6 r 6 6 e e 9 9 9 9 9 9 9 9 6 9 9 0 s 9 9 9 t k 9 9 9 9 s 9 9 9 s 9 9 9 9 9 9 e 9 e 4 9 k 9 6 9 s 9 V 9 9 9 k 9 9 9 9 9 9 9 9 9 9 9 9 e e 9 9 e e e 6 6 9 9 9 9 9 9 9 9 9 e e 9 e 9 9 9 9 e k e 9 V 0 e e 9 C 0   8 8   4 9 5 k k 9 9 9 6 9 g 9 g 9 e 9 9 e e w s 9 k 9 9 9 9 9 9 9 9 9 9 9 V 9 V t 9 9 9 9 9 9 9 9 8 9 9 8 6 9 9 9 9 V t k 9 V 9 9 9 9 9 9 9 6 9 9 9 9 8 6 r 9 6 5 8 9 0 9 9 6 9 0 9 9 9 0 6 8 5 8 r r r 5 r r r 8 9 r e 9 9 0 5 0 9 8 4 4 * 4 4 6 4 4 0 6 0 0 * 4 & , 4 4 4 % % 4 , 4 % % 5 5 , > % 4 4 4 4 , * , % 4 > % % % % $ , $ % $ $ % % > % 4 + + X $ & O O O O O % % O O O O O . O O . .         ",
"      + - O O O O . O O O O O $ O O . O . + + O + > + O > % - O O % X % % X % % X % % > % % % X , & % , % $ % % , % % , , & > $ , $ , & % % , & $ > , , % > & , % % 4 , , * , , , * , , 5 5 5 5 0 6 8 6 9 9 9 9 8 8 7 6 8 6 8 9 9 6 0 5 0 6 9 9 g 9 s 9 9 9 s g @ Y n.!.!.E.E.E.!.8XIXW.@ 0 a ;.GXa.  e D V 7 D D   4   w.IXxXhX8XsXSXNXhX4XsX5XHX4XMXxXuXuX#XtXuX+X;X;X4X+X4X;X$X4X8X$XxX8XB.OX4X4X4X4XiX4XaXiX5XJX5X5XJXOXX X e 6 e V 9 5 9 t 9 9 6 9 k V e 9 6 6 e 6 6 6 6 e 6 6 6 e 6 6 e e 6 e 6 6 6 6 6 6 e e e e e e t 9 9 6 9 8 9 9 8 9 9 9 9 6 V t 9 9 9 9 9 9 9 9 9 9 9 e 9 9 9 e 9 e 0 s V 9 9 9 e V 9 9 9 9 9 t 9 9 9 s k 9 9 9 6 9 t e t e t 9 6 e 8 0 9 9 9 9 e 9 9 9 9 9 9 9 9 e 9 9 9 V V 9 e t 5 9 e 6 V 4   5 r   4 e 9 k k 9 9 6 0 6 9 g 9 6 e V k 9 9 9 9 V 9 e s 9 9 9 9 9 6 9 9 9 9 9 9 e 0 8 8 9 9 9 9 9 0 9 9 6 6 9 k 9 9 t e 9 V e 9 9 9 9 9 8 6 9 6 8 9 8 9 9 6 8 5 4 6 5 8 6 5 5 5 0 9 6 5 5 0 8 6 9 r r 5 , 4 8 4 > 9 9 9 9 5 5 9 9 9 5 4 4 * 4 0 0 4 5 6 9 6 0 4 * % 4 4 4 4 % 4 % % % % , 4 5 , & , % 4 % > 4 , 4 % % X % 4 > % % & : % : $ % % % + % % + $ X O . % + O X % % X O . . . . . . . .         ",
"-     @ o o O @   o O . O - > O + O O O O O $ $ O O $ > $ $ O O + + % + X O . . . O X O O X + % & $ & % $ % & , , , , , , 3 & $ , % % , : , , , r , % % > , , , , 4 5 5 5 5 5 5 4 5 5 5 r 5 5 5 9 0 0 9 8 0 4 0 0 8 9 9 0 0 0 4 8 8 6 6 6 6 6 0 0 0 4 g 4 9 q @ ;.B.).[.!.W.!.W.B.7XhX[.q J { J ;Xw.o q g Z U 0 @ 0 q g ;XSXSXSXxXNXNX8XxXsX;XuXtXMXMXzXPXtX3XaXhXtXtXSXqX.X#XaX4XtX4XuX4X4X[.OX5X5XsX5XNX5X#XtX#X#XsX5XCXJXv.& X 6 V D 4 D 8 V 8 9 9 8 r e e e e e e 6 6 6 e e 6 r 6 6 e e e 6 e e e 9 e e 9 e 6 9 9 9 9 s 9 e 9 s 9 e 9 9 9 9 6 9 9 V 9 9 9 9 9 9 s 9 9 9 9 9 9 9 V 9 k g e V 8 0 9 V 9 6 6 s V t e 9 9 9 9 6 6 e 6 r 6 e 6 y e e e e e e e e 6 6 9 9 e 6 6 6 6 r e e 6 6 e t * e e 6 e 6 e e 6 6 6 r C 6   * 8   O r 6 r e 5 e 8 5 6 9 e 9 9 9 e k 9 6 8 9 k 9 9 9 9 9 9 9 9 9 6 6 8 8 8 0 8 0 8 9 9 8 0 6 6 8 4 8 9 9 9 6 9 9 9 9 9 V V 9 9 9 9 s 9 9 9 8 8 8 8 5 5 5 r 5 5 5 8 8 5 8 4 4 4 8 8 8 8 5 4 8 9 * 4 8 9 5 5 5 0 8 8 5 8 0 5 8 5 0 0 0 6 5 * 4 4 9 4 * 5 0 5 4 6 5 4 > & % % 5 8 , 4 4 , 4 % 4 % % > 4 5 4 > % % * > * > % % % % $ . $ & $ $ $ , $ $ $ & $ & $ $ % % % O X O X O $ . . . . O . .         ",
"q   o @ o @ = O @ O O O O - > O : > $ O $ $ $ $ O O $ : : > $ $ % * % % > % > X $ % % % > % > * $ $ > % % $ : , & , , & 3 & 3 , % , , & % , & , % % $ % % , , % , 4 , 4 , 4 , 4 5 5 5 8 5 8 8 5 8 0 0 9 9 0 4 0 9 0 9 9 9 9 0 0 5 8 6 6 8 r 6 0 6 9 q g 0 q 0 Y B.~.).].W.P.!.B.|.8XhXB.q ;.w.w.;X{ @ ` q s g @ ` Y.U g IXIX8XIX8XtXNXSXIX;XuXPXPXPXzX#X.XXXzXGXIXPXmXPXPXqXqXrXtXuX8XtXtX3XT.tXsX5XiX#X5XiXiX#X#X5X5XiX#X5XsXu.@ V 4 S 9 0 9 0 9 9 8 9 9 9 9 r y e e 6 6 e 6 e 6 6 6 e 6 6 e 6 6 e 9 e 6 9 9 9 9 9 9 9 9 9 e 9 9 9 9 9 9 9 9 9 9 9 9 s 9 e 9 9 9 9 9 9 k 9 9 9 9 9 9 9 9 9 9 9 6 8 9 V V 9 9 k k e V 9 9 9 6 9 6 e 6 e e 6 e 6 6 6 6 r 6 e 6 e 6 9 9 9 6 r 6 6 e 6 6 e e 6 e 6 5 6 e e 6 e y t e 5 6 6 C 6   % 5   $ e r 6 r 5 r 9 0 5 9 e 9 9 9 e t 9 6 6 6 s 9 9 9 9 9 9 9 9 9 8 0 0 6 9 9 9 8 9 9 9 8 8 9 9 6 0 6 9 e 6 9 9 s 9 9 6 9 s e 9 9 9 9 9 s 9 9 8 8 4 4 4 5 & , , 5 4 0 5 4 4 4 4 8 8 6 5 0 4 5 9 4 5 6 8 5 5 4 4 5 0 8 5 5 8 5 8 5 5 5 9 9 4 4 0 9 4 4 0 6 0 4 4 8 4 4 , 4 , , 5 % 4 % 4 > 4 % , % * > 4 4 4 % % 4 % > % % % X % $ $ $ $ $ $ & $ $ $ & $ & $ $ O % % % % $ O O X & $ . . . . . . X .     ",
"7 @ o + @ + - O + + % + O > > $ % : > $ > : : % O $ % : % : % $ > % 4 > > 4 % > % % 4 4 5 4 > % % % > % $ > % , : & , : , 3 & 3 , % , > , , , , % % , , > , & , 4 , 4 4 , % % 4 5 5 5 5 r 5 8 8 8 0 8 9 6 4 4 0 9 0 9 6 0 0 6 6 6 5 6 5 6 6 9 9 9 g q g 0 q G B.].'.E.E.!.!.).W.B.;X8Xi.; { 1.{ ;X1.; 0 D D q D IXSX4.# SXIXSXxXSXSXIXxX8XuXXXz.2.2.R 0 0 k.2X2.E.}.}. XnXzXSXSXPXIXPXPXPX8XB.4XaX5XaXcX5XaXaX5XsXpXpX#X#X5XsXCX<.@ q D 4 D 9 6 9 9 e 8 8 8 r 8 r t 6 9 6 e e e e 6 e 6 e e y e r e 6 6 9 6 9 9 9 9 9 9 9 9 9 9 9 9 9 9 9 9 e 9 9 9 9 9 9 9 9 9 9 9 9 9 9 9 9 9 9 8 9 6 9 9 9 9 0 8 9 e 9 9 9 e t 9 V e 9 9 9 9 6 6 6 r 6 6 e e 6 6 6 6 6 6 6 6 9 6 6 9 6 6 6 6 y r 6 6 6 y r * 6 6 6 e y e e t e 6 6 6 t 4   5 , . > C e r r r 9 9 9 9 9 9 9 9 6 s V 9 9 6 9 9 9 9 9 9 9 9 9 9 8 6 8 8 6 9 9 9 6 9 9 8 6 6 9 e 9 9 9 9 9 9 9 9 V 9 6 8 6 9 9 V 9 8 9 9 9 t 9 k 8 9 8 8 , r r , 4 5 4 4 4 4 4 4 0 8 8 8 4 4 8 8 * 5 r 9 5 4 4 8 5 8 0 8 8 8 8 5 0 4 0 0 4 * % 4 9 4 4 0 8 4 4 4 8 5 5 , 4 4 4 4 4 % 4 % % * * % % % % % % % % % % 4 % % % % % % $ $ $ $ $ $ $ $ $ : $ $ $ $ $ $ % + % O $ X O O & O . . . O . . X .   . ",
"q @ @ = o @ - + + - % O O > + O O > > > > > > O > > O $ $ % > > % % % % % % % % % % % 4 > > % + > % 4 4 > , & % , : : , & & 3 & > , , , , % , , , , , r 5 , , 5 4 & % , 4 4 4 4 5 r r 8 8 6 8 6 9 0 0 6 6 0 0 8 9 9 0 0 0 8 0 8 6 6 6 6 6 5 0 0 g 6 9 g o 0 4.`.*X[.E.!.].).[.[.B.;XhXm.0 n.w.q !.w.g g ;XE.g B.SXIXl.  hXIXhXSXSXNXNXY.=.hXk.4 @ @       oXGX+   + @   E  XuX2XuXtX4X X;XuXuXHXJXaX5XsXaXNXiX5XaX#XaXaXaX5X3XJX2XD . 0 4 D V 6 9 9 8 9 8 9 8 8 e 6 t 6 6 6 e 6 6 6 6 e 6 e 6 r e 6 6 r 9 9 9 6 V 9 e 9 9 9 9 9 9 9 9 9 9 9 e 9 k 9 9 6 6 9 9 t 9 9 9 9 9 t 9 9 6 6 9 9 6 9 9 9 9 9 9 e t k 9 V 9 V 9 9 9 9 9 9 e 6 6 6 e e 6 e 6 6 6 6 e 6 e e 9 9 6 5 6 6 e e e 6 6 6 6 e e 6 6 6 e e r e e 6 t 6 6 6 t 4   5 , . , C r r e r e 9 9 9 9 9 9 9 6 9 e e s 9 9 9 e s 9 9 9 t 9 e s 9 9 9 0 9 9 9 s 9 9 9 0 9 9 e 9 9 9 9 9 9 9 9 9 9 6 8 6 9 9 9 6 9 9 9 9 9 9 9 e 9 r r 5 r , r 0 8 8 4 8 4 4 4 5 5 8 8 5 4 8 8 % 8 9 9 4 , 4 9 8 5 8 8 5 6 0 8 5 4 4 5 4 q + 4 6 4 4 5 0 4 4 4 8 5 5 5 4 4 , * , 4 % 4 > > % % 4 4 % % % > % > 4 % % 4 % > % % & % % % $ $ & $ $ & $ $ $ & $ $ % X X $ $ $ $ O O O $ . . . . . .       ",
"q o o - O o - O X $ % O O $ O O $ $ $ > $ > O $ $ : + $ O % > > % + % X % % + % % % % % X % % % 4 4 , > % , , , , 3 & 3 $ : & : , , , & , , , , & , r , , , , r > % 4 4 5 6 8 8 5 r 5 5 r 5 5 5 6 5 0 9 9 0 4 0 9 6 9 0 6 0 0 6 6 6 8 6 6 6 6 0 g 4 g w   E B.[.].[.).[.[.].[.[.B.[.;Xw.0 l.w.q l.{ @ g IX8X@ [.PXPX|.{ hXPXSXzXB.{ D # X HXj.  D q w V X I.HX% 4 * w   @ wXY.@ 0 D @   @ l.4Xx.5XHXNXaX5X5X5XzXaXpXaXBX#X#XCX<XPX_.4 @ V 4 S 4 9 6 9 8 8 e r 9 t t t 6 e 6 e 6 6 e 6 6 e 6 e 6 9 9 e 9 e e 9 e e 9 9 e 9 9 9 9 9 9 9 9 9 9 9 V k 9 9 6 9 9 9 s 9 9 9 9 e 9 V 9 9 9 9 9 9 9 9 9 6 9 9 9 k V e 9 e g k 9 9 9 9 9 e 6 6 y e 6 e e 6 5 6 e 6 e 6 t e 6 e 6 6 6 e 6 6 e y 6 6 6 6 r e 6 6 6 e e e e t e 6 5 t 5   r r . , r r r e e e 9 k 9 9 9 9 9 6 9 s s 9 9 9 9 9 9 9 t 9 9 e 9 s 9 9 9 9 8 0 6 V 9 9 9 9 9 9 V 9 s 9 9 9 9 9 9 9 9 6 9 9 6 9 9 9 9 9 9 9 9 9 8 r 8 8 5 , 5 , , 8 8 8 5 5 5 5 0 0 5 8 6 8 5 8 8 4 8 9 6 4 > 4 9 5 8 5 6 8 0 8 5 8 0 8 8 4 * * 4 5 0 0 5 4 4 4 * 8 8 5 8 5 4 , , * , % 4 % 4 % % 4 , % % 4 % , * 4 > 4 % 4 % 4 % : & , $ $ $ $ & $ $ & $ $ & % % X O % % & O O X O O O . . . & O .       ",
"4     @ @ O = @ O $ $ O O $ $ O O O $ > $ $ O $ > $ $ O $ $ : > % % % > + % % % * % % % % % > > % , 4 , % % % , & , , & : : : & % , % , & , , , , , , , , & , , 4 4 , 5 6 r r 9 r 5 r 5 5 5 5 r 9 7 0 6 9 4 4 0 9 6 0 9 6 0 5 6 5 5 4 6 6 r 9 e g 4 D 0 @ a.!.[.B.[.[.[.[.).[.).!.[.hXB.@ { B.B.B.w.q B.SXmX@ &XmXKXhXk.wX(.{ q 0 q q q E cX!.@ D w S V   (.GX4 9 0 D q   PX.X+   * q q @ k.xXW X S.qXGXPXPXVXaXJXCXBXJXpXyXzXrXcXPXl.  V w 4 V 9 9 9 9 9 9 r 9 e 6 e r e 6 6 e 6 e e 6 6 e 6 e e e 9 9 9 9 e 9 9 s 9 9 9 9 9 9 9 9 9 6 6 9 9 k 9 s 9 6 9 9 9 9 9 6 9 9 9 9 9 9 9 9 9 9 s 9 e 9 9 e 9 9 9 t V 9 9 t 9 t s 9 9 9 6 6 r 6 6 e 6 6 e 6 6 e 6 e e e 9 e 6 6 6 e 6 e 6 6 e e 6 6 9 e 6 6 e e e t 6 e y r 6 6 t 6   5 r . > k r 5 e e 8 9 t 9 9 9 9 9 9 9 9 9 9 V 9 9 9 9 e 9 9 9 9 9 V t V 9 9 6 6 8 9 9 6 9 9 9 9 9 9 e s 9 9 V e 9 6 9 s e s 9 8 6 9 9 9 9 9 6 8 8 r 8 r 5 r , , 5 8 8 8 6 8 8 6 8 4 8 9 8 5 5 0 5 4 5 5 5 5 0 5 5 8 8 8 5 8 6 5 8 9 6 9 9 0 4 4 0 5 0 9 4 4 6 4 5 4 5 5 5 4 4 4 % , 4 4 4 4 4 4 , 4 % 4 % % 4 4 4 % 4 % 4 4 % 4 > , & : , > $ $ $ . $ $ $ $ , , : % % + % % $ X O O . & O O . O O .       ",
"-     O o . - . O O O O O $ $ O > $ $ O $ $ : % : $ $ O O > > $ > % % % % % % > % > % % * > % > % 4 % * % > > % , , , , 3 & 3 & , > > > , , , , , % % % , , , , r 5 4 4 r r r 4 5 r 5 5 5 4 5 5 6 8 0 9 6 4 0 0 8 6 9 9 9 8 4 6 & 5 5 0 9 9 9 w 9 0 0 + U !._.[.!.[.).[.).].[.!.!.).hXB.@ { ;X[.!.!.{ hXSXSXg P.PXmXvX!.u.7 s   q W q @ $.BXU.  % 9 D %   3XGX4   9 G U 0 nX;X0 w 0 D g # B.PX1.  4 t $.F.<XGXzXUXF.}.pXPXLX3XBXtXDXrXD + W   S e e e 8 r 9 9 r 6 e 6 e r y 6 e e 6 6 e 6 e e 6 9 9 9 9 9 9 9 9 9 9 e 9 9 9 e 9 V 9 9 9 9 9 9 9 9 e 9 9 9 9 e 9 9 9 9 9 9 V t 9 9 9 9 s 9 e e V e e e 6 9 V e 6 e e 9 9 e 9 9 9 6 e 6 6 e 6 y r 6 6 e 6 y e 6 t e e e e e e e 6 r 6 6 e e 6 9 e 6 e e 6 e y 9 6 e e 6 6 y 6   5 r   $ r 8 r e r 8 9 e e e 9 9 9 9 9 9 9 9 9 9 9 9 9 9 9 s 9 9 9 V t 9 9 9 9 9 9 9 9 6 9 9 e 9 9 9 9 t 6 9 e V e 6 9 e e s 9 9 6 8 9 9 9 9 8 8 8 9 r 8 5 5 r 5 r 8 8 6 8 8 5 8 4 0 8 8 9 8 0 0 8 8 0 4 4 5 8 8 4 4 8 8 8 8 0 8 5 9 9 9 9 6 4 > 4 > 5 6 4 * 5 5 5 4 4 5 , * , 4 4 4 > % , 4 > , * % % * % > * , 4 % * % > * % % % $ $ $ $ $ $ $ $ $ : $ $ : % % $ % + % % $ $ O . O X O O . . O $ .       ",
"> o o O . O + O O O $ O O $ $ O > : : O O O $ > O $ O $ $ O $ $ 4 > > X O X O X O X % 4 % 4 4 + * , 4 > > % $ > & , 3 & , , , 3 > > > > % & > , r , % , , 5 5 , r 5 5 5 6 r 4 * r 5 5 5 , 5 5 5 8 0 8 9 9 0 4 8 0 8 9 9 9 6 6 4 5 r 6 8 0 6 6 6 q D q @ 1.;X`.[.).[.[.!.!.[.|.B.B.[.;XB.0 s.SX[.[.;X{ hXHXhX4.!.PXPX(.s.w.  1 G q W g # U HXj.% V V S 0 +  XqX0 0 D 4 D V ;X`.  W q g 0 @ h.IXx.9     . +   Y T W   & c.3XnXPXBXaXtXPXg.  * V 4 t k k k e 9 9 r e e y 6 e 6 r 6 6 e 6 6 e 6 6 6 9 9 9 9 9 9 9 9 6 9 9 9 9 9 9 9 k 9 9 9 6 9 9 s 9 9 9 9 9 9 9 e 6 9 9 9 9 9 9 k 9 9 9 9 9 9 9 9 k V e 9 9 V e 8 e 9 k 9 9 e 9 9 6 6 e e 6 e 6 e e e 6 r 6 6 r 6 e e e t t t e e e 6 5 6 e t e 6 e e 6 6 9 r t r e 6 9 6 V 8   4 r   & r r e e 5 8 9 e k e 9 9 e 9 9 6 6 9 e s 9 9 9 9 9 9 9 9 9 9 k 9 9 9 t 9 s 9 9 8 9 9 s 9 6 9 k 9 9 9 V V e 9 k V V 9 6 9 s 0 6 8 6 9 9 8 9 4 4 4 4 , , , , 8 0 8 8 8 4 4 4 4 8 8 8 8 5 5 8 8 4 4 4 5 9 8 4 0 8 5 8 5 5 5 8 8 8 8 6 5 % % 4 4 8 9 4 4 4 5 , 4 4 % , , , 5 4 % , * % % % % % % % % > % 4 % > % % + % % % % % $ . $ $ & $ & $ & , , % $ $ & $ + % % % & O .   O O & O O . O &         ",
"- @   O % O . . O . O O O $ $ $ O O O $ $ > > % O $ > > > O O O . % % > + % % 4 + > % % * > % 4 % , , & & , , $ 3 & & 3 , , & 3 : , $ % , % & , , > > & , 5 , % % 4 5 5 4 , 4 5 5 5 5 4 4 5 4 4 9 8 5 0 4 4 4 0 4 8 6 6 4 4 0 9 e 6 6 6 6 6 0 0 % D @ + B.3X!.!.).[.[.).!.[.[.[.[.;X;X[.D OXSXB.;XxXw.8XPXIXY B.!.{ s g.E.7 s S G @ * 4 4 nXI.X q # g @   .XJX0 q 0 D J 0 wXY.# q 7 W g @ i.PX*.@ s 4 V S 7 @   4 0 - o 0 G n.PXPXeXPXzX4 0 w 9 9 9 9 8 8 e e j e y r 6 e 6 e 6 y e e 6 6 e 6 e e 9 e 9 9 9 9 9 w 9 9 9 9 e k e V e 9 9 9 9 9 V e 9 9 9 9 9 9 k 9 9 e t 9 9 e 9 9 9 9 9 9 9 V 9 e 9 9 k w 9 9 9 9 9 9 9 9 9 6 9 6 6 e 6 e e e 6 e 6 6 r e e 6 6 e e e 6 e 6 6 6 6 e 6 e 6 e 6 r 9 6 6 e e 6 6 t t e t e e e & 5 5   % c r e 8 9 9 9 6 8 6 6 9 s k 9 9 9 9 9 9 9 V 9 6 5 0 6 9 9 6 9 s 9 6 9 e 9 9 e 9 9 9 V t 9 t V s 9 8 6 9 9 9 9 6 9 9 9 9 8 9 6 9 9 9 9 e 8 e e e 8 , r r 5 8 6 8 6 8 5 4 > 8 0 4 4 4 5 8 8 8 8 6 8 8 8 6 5 9 9 6 9 9 9 9 9 4 4 4 5 , 4 , , 4 5 , 5 5 5 5 , 5 5 8 5 , , 4 4 4 4 4 4 , 4 , % , , 4 % > % % > 4 > 4 % % % % % : % % % & : $ % > % % $ & > : $ + % % > % + X O O X O O .   . .     X X ",
"- .   o O O O . O O O = $ $ $ $ % : > > > > > : O $ $ > > $ : $ % X % % + + % % * % % > % > 4 % 4 % , > , : , , & 3 3 & & 3 3 & , & , , , , , , , , , , , , , % 4 r r r 5 5 5 r 8 8 5 r r 5 r 8 8 0 6 8 9 8 0 5 5 0 8 6 9 6 6 5 6 6 6 6 6 6 9 9 t V + S !.8X[.[.).[.[.W.T.[.[.[.B.[.;X;X4.[.SX8XhXuX4.hXSXhXp.Y q   q n.H.- s Z g W S 0 V nX(.O D D S 0 V tXhX{ D W g B.l.;X`.` 0 E Y g { F.xX1.Z %.q V S + K 0 V g V - @ o @ 0 (.PXPXIXG.+ V t 9 9 e e 8 e r e e 6 e t e 6 6 e 5 e 6 e 6 e e e 9 t e e k 9 9 9 e 9 9 9 9 9 e e 9 e 9 9 9 9 9 e 9 9 9 9 9 9 9 9 k 9 9 9 9 k 9 e 9 9 9 9 9 9 9 9 9 e 9 9 9 k 9 9 e 9 9 9 9 9 9 9 6 e r y e e 6 e e 6 6 6 6 e e e 6 6 e e 6 6 e r t e e 6 6 6 6 6 6 6 6 e e 6 6 e t 6 t 6 t 6   & %   r k 9 r 8 r 8 e 9 9 9 9 9 9 s 9 6 6 6 9 9 8 e s 9 9 8 9 V V 9 9 9 9 6 s 9 6 9 9 9 t 9 9 9 e 9 s 9 9 6 6 9 9 9 9 9 9 s 9 9 9 9 9 6 6 8 9 9 s r e r r 5 r r , 8 8 8 9 9 9 9 8 6 8 5 5 8 8 9 9 8 8 8 9 9 8 8 8 8 8 8 8 8 8 8 8 4 5 5 5 5 5 5 4 5 5 5 5 5 5 5 5 5 5 4 4 4 5 5 5 , 4 , 4 4 , 4 % 4 4 4 4 4 4 4 > % % 4 % 4 % % 4 $ $ % $ $ , , % $ $ $ $ $ $ % & + % % % % + X O X + $ X O O . . . X   . ",
"1 .   o O O $ O O $ $ $ $ $ : $ O O O O $ O . . O O $ : > $ : > + % % % + % + % % > % > * % 4 % % 4 , > : & 3 & & 3 & , , 3 , & , > & , , , & > > , , , & , , , r r e e r 8 r e r 6 r 5 5 5 r 6 4 4 8 9 e 9 6 8 9 8 5 8 e r 6 * 6 , 6 6 6 6 9 9 g 0 @ <.;X2X`.`.!.[.).!.!.!.[.[.B.4XuX8XB.uXSX;XSXSXB.HX'.W U U s 7 g 8.n.q 7 g D V @ q R pXoX$ # g D 0 D MX(.# 1.B.{ E.;X;X!.` g =.;.g { E.3X` p.9.W w g s g s s 4 D D s K g   . 2XnXGXzX*.. 4 9 9 9 e k r 9 9 t e 6 e 6 e e 6 6 6 e e t e e e 9 t 9 9 9 9 9 9 9 9 9 e 9 e 9 V 9 9 9 e V 9 e 9 t 9 9 9 9 9 9 9 e 9 e 9 9 9 9 9 9 9 9 9 t 9 9 e V 9 9 9 9 e e V e k 9 9 9 9 9 9 e 6 r y 6 e 6 6 y 6 6 6 6 e t e e 6 e 6 e 6 6 6 e e 6 e 6 6 e 6 r 6 6 e e r 6 6 e e e 6 V r   4 $   r C 8 8 8 r k k 9 9 9 9 k 9 9 0 6 8 9 9 9 9 9 e e 9 9 9 9 s 9 9 9 6 9 9 s 9 9 9 9 9 9 V 9 9 9 9 9 9 9 9 e V 9 6 9 9 9 9 9 9 9 9 9 5 6 8 9 8 r r r 5 r r 5 , 8 8 9 9 9 6 9 8 5 8 8 9 8 6 9 8 5 5 8 8 8 8 8 5 8 5 8 0 8 5 5 5 8 4 8 8 r 5 5 5 r 5 5 5 , 5 5 5 5 , % , 4 r 8 5 4 4 4 4 , , % 4 4 4 4 , 4 % % * > % % % % 4 4 % & $ $ $ $ & , , $ & $ & $ $ $ $ % % % % % + % % + % % $ O X O O X . .   ",
"4 =     O O O O O O O O $ : $ $ $ > 1 , > : 1 > O $ $ $ $ $ % > % % % % % + % % % % % * > > % 4 , % , & : , & , 3 & 3 , , & , 3 % > , , , , , , > & , > $ > > , 4 4 8 8 4 5 5 6 5 5 5 r 5 r 5 5 4 4 8 9 8 9 8 8 9 6 5 5 8 6 8 5 , 6 , 6 6 9 6 9 0 + q k.4X;X!.!.!.!.[.!.[.[.[.[.[.;X4XxXB.;XuXuXSXSXB.B.Z o ` 1.g U g { Y.J @ s Z 4 > + E qX`.% g W 4.{ 2.PX(.D B.uXl.w.vXtXB.{ g { n.;.s !.SX*.E 9.W   0 s 6 g S 7 Z V 9 V g 7 9 x.BXPXPXrX9 @ k e e 9 8 e r 8 6 6 e 6 e 6 6 e 6 6 6 6 e t 6 e V 9 k e e 9 9 9 k e 9 9 9 w 9 9 9 9 9 e V 9 9 9 9 9 9 9 6 9 9 V 9 e 9 w w k 9 e 9 9 9 9 k 9 9 k t V e 9 9 9 9 e e 9 t 9 V e 9 s 6 6 e 6 e e e e e r 6 6 e 6 e t 6 e 6 e e 6 e 6 6 e e 6 e 6 e 6 6 6 6 e 6 e t y e 6 e r D 6   r %   r V 6 r r r 9 8 9 8 6 9 9 e 9 9 7 6 9 9 9 9 9 9 9 9 9 9 9 6 6 s e 9 9 e 9 6 9 e 9 9 k 9 9 V 9 9 9 9 9 9 9 e k 9 6 9 9 9 9 6 6 9 9 9 9 9 8 0 8 6 r 5 , 5 r r 6 8 8 8 5 8 7 4 4 7 8 8 8 8 4 4 5 0 8 8 8 4 0 8 8 8 5 4 4 0 5 5 5 , 8 8 5 5 5 r 5 5 4 , 4 5 5 r r , % * , 5 5 5 4 , , 4 & 4 4 4 4 % , * % % % % 4 4 4 4 % % % % $ & $ $ $ $ $ > $ $ $ $ $ $ $ $ X % O + O + % % + % % % O . O O + X     ",
"5 : . . O O O O O O $ O $ O $ $ $ > > , > , , , $ $ O $ $ $ : % X % % % + % + % % % % % % > % 4 & 4 % > , & , , & 3 , & & , & , $ > , , , , > > > , , % & $ , r % & 4 5 5 5 r 8 4 , 4 5 5 5 5 4 8 8 8 5 4 5 8 5 8 8 8 4 4 4 5 r 6 6 6 6 6 6 6 0 0 q Q (.8X|.!.[.!.!.!.[.+X;X+X[.;XhX8XhXB.8XSXSX;XwX!.s o ;.=.{ g 0 g { Y.` @ g q w z.D 9 zX X+ 0 q Q Q B.8XB.B.[.SXB.x.wX;XB.B.s.S G g a ;XdX  W !.D g =.# D q 0 9 D g w 7 q 0 +   2.I.rXPX4.  V V 8 8 8 9 r 9 e e 6 6 e 6 6 6 e e r 6 y 6 6 e 9 9 9 9 w 9 k 9 e 9 t 9 9 9 9 V 9 9 V e V 9 9 9 k 9 9 9 9 9 9 s 9 e 9 9 9 e k 9 9 9 s 9 w e e 9 e 9 e 9 9 e k V 9 V e 9 9 e e e 6 e 6 e e e t 6 6 6 e t e 9 e 6 e e 6 6 e 6 6 6 * 6 6 e e 6 6 e 6 6 9 6 6 e e e * e e 6 S r . W e   : r r e r e s 8 9 6 6 8 9 9 9 6 9 9 9 9 9 s 9 9 9 9 9 9 6 8 9 9 s 6 8 9 e 9 e 9 9 9 9 t 9 t e k 9 9 9 9 9 9 s 9 9 6 6 8 0 4 5 0 e e e 9 5 4 4 8 8 5 5 r 8 5 8 8 8 0 5 5 0 5 4 4 8 8 6 8 4 , 0 4 4 4 8 4 4 5 8 6 8 8 8 8 5 5 5 , r , , 5 , , r , , , , , , 5 5 5 5 4 % > 4 4 4 , , , % , , 5 , , % % % % % % 4 4 4 % 4 % % % % $ $ $ $ $ & $ $ % % $ & $ % % % + % X X % % % O & $ $ O . . $ X X     ",
"4 + . . O O O . O O O O O $ $ $ . O $ $ O O $ : > % $ $ $ $ $ $ > % 4 % % X % % > * % > % > * % % % * % : $ $ $ & & 3 , 3 , & 3 $ $ $ % & % > > , > , , , > , 5 4 , 4 5 5 5 6 r r 5 5 5 5 5 8 8 9 9 8 4 4 4 4 5 0 8 5 4 4 % 4 e 6 6 6 r 6 6 9 9 q 6 k.;X<X}.!.[.[.[.!.!.OX;X;X;X4XSXSXtXB.SXSX[.4.J H.` - ;.J Y ;.@ g { w.J g g V 0 a.4.D MXXX@ q g g g [.4XB.B.4XSXl.[.OX;X[.B.!.n.w.;.U [.1X*.[.`.g 2.D.q @ 0 - q g g D E D S g t   E PXrX$.  C e 9 8 9 8 e r e 6 e e 6 e e 6 y e 6 6 6 e e e 9 V k e e 9 9 9 9 V 9 9 9 9 9 k 9 9 9 9 9 9 9 9 9 9 9 9 9 9 9 9 e 9 9 k e 9 9 9 t 9 9 e 9 k e e 9 V e V e e 9 t 9 9 9 V 9 V e e e 6 e 6 6 6 e e 6 6 e t t e 6 e 6 e e e 6 e 6 e 6 6 e e y r e 6 6 e 6 6 6 r y e 6 e e 6 S 5 X ~ W   O r e e 8 e 9 9 6 6 9 9 9 9 9 9 9 9 V k 9 9 9 e V e s 9 9 9 9 9 9 9 6 s 9 6 9 9 9 k 9 9 k 9 9 9 9 9 9 9 9 9 s 9 8 6 9 0 4 4 5 8 9 e 9 9 5 4 5 r r 5 , r r , 8 8 5 8 8 9 8 s 8 6 6 9 9 8 5 4 4 4 0 8 8 5 4 4 9 9 9 8 8 8 8 8 5 , , 5 r , 5 , 4 , 5 & > & , 4 , 5 8 5 , & , 4 4 , % * 4 , 4 5 4 5 5 4 * , 4 , % % % 4 % * > , > , & : $ $ $ $ $ % $ > $ % $ % + % % + % % + O O O X O . . . . X .     ",
"1 O   . O O O . O O $ O O $ $ $ $ $ , 1 > $ > , : $ $ O $ > $ O % % > % > X X > % % % > 4 % 4 % % % > % , & 3 & 3 & 3 , & , , , & , % % $ > & , > , & , 5 r 5 , 8 8 5 8 8 5 8 5 8 8 8 r r 5 8 8 4 8 8 5 8 5 4 5 > 4 5 8 5 8 r r , 6 6 , r 6 e r X V `.2X_.[._.[.[.[.XX[.;X;X;X;XhX4X8XSX4XB.B.B.B.` H.{ @ 1.` V J q _ ` 1.g 0 Q F.<.z.p.{ hX(.# 4.B.w.w.$XhX+XB.8X8XB.8XP.;X!.{ '.[.n.w.*.&XdXH.8X4.q =.p.D # 4.4.g w w q 0 # X q R .   GXVX<.% t e 9 8 e e e 5 t e 6 6 e 6 e 6 r e 6 6 e e e 6 9 V 9 9 9 9 9 9 V 9 9 9 9 9 9 9 e 9 e 9 9 V 9 9 9 9 9 9 9 9 9 t 9 9 9 k 9 9 w e 9 9 e e e 9 e e 9 e e V t e V 9 9 9 e 9 e 9 9 V e 6 6 e 6 e r e 5 e t t e 9 9 e r y 6 6 6 6 r 6 e r e 6 6 e 6 6 6 6 r 6 * e t e 5 e e 6 C 4 $ <.! . . r k r 5 j k 9 9 9 9 9 s V 9 9 9 9 9 9 6 6 e V 9 9 9 9 9 9 6 s 9 9 6 k 9 9 9 9 9 e e k s e 9 9 6 9 9 t 9 9 9 9 9 9 9 9 9 8 5 0 6 9 9 9 8 5 8 6 6 8 8 r 8 5 8 5 8 8 8 9 k e 8 8 9 8 8 8 0 7 , 4 4 4 4 5 4 4 8 k 8 9 6 8 8 4 5 , 5 , , 5 , , , , 4 , , , , , % 4 8 8 4 4 > * 5 4 4 > % 4 , 5 5 5 8 5 4 , 4 4 % 4 % % % 4 4 % , : > $ & $ $ $ $ & % $ % % $ % + % % % % % O O O O & . . . . . X .     ",
"O     . O : O O O O O $ $ $ $ $ O $ > $ O O O $ $ O O $ > > > $ + % % % $ + + % % % % * % > % 4 % 4 % > : : & : & 3 & , , , 3 & , , % $ $ > , 4 , , , 5 8 r 5 4 r r 5 5 r r 5 5 8 5 5 8 5 5 8 8 4 4 8 r r 9 8 8 4 > 4 r e e 8 5 6 , 6 y r e y e @ G <X2XI..X_.[.!.oX[.;X;X;X8X4XhX4XSXSXOXw.q B.*X;.i.g - 1.{ Z 0 ;.l.` w.q @ g.SXtXL.k.{ hXXXD [.B.@X;XOX;XhX8X;X[.;X8X`.;XB.4.'.1XB.;.Z '.0Xs.L.4.S Q g w w.B.Y.U U { D q D V 9   E   z.PXa.. e e 8 e V j r 4 e e y r e e 6 e r 6 * e t y e r t 9 e 9 e 9 9 9 9 t k 9 9 9 e 9 V e 9 9 9 9 9 V t 9 9 9 9 9 9 9 k w 9 9 9 t 9 9 k t 9 9 e 9 e V 9 9 e V V V 9 9 9 e 9 9 9 V 9 9 e 6 e 6 6 e y t 6 e e e 9 9 t V 6 6 e e e 9 6 6 y t e 6 5 6 6 6 5 y 6 5 6 e t e 5 y e * k & & 2.! . & A C 8 * k k k k e w 9 k t 9 6 9 9 9 9 6 5 9 9 9 9 9 6 6 6 9 9 9 9 9 9 9 9 9 9 9 9 w 9 9 s 9 6 6 9 e V V 9 9 9 6 9 t s V 9 9 6 5 8 0 0 9 r 6 r r 8 5 9 j 5 6 6 5 5 5 5 5 5 8 8 8 5 5 0 4 4 4 4 4 4 4 4 4 4 9 8 9 8 8 8 0 4 8 r 5 r r 5 r 5 , , , , r , , , % % % 4 8 r 4 % 4 4 % & , 4 5 5 5 5 4 4 4 4 % % , 4 4 4 % % % % & > % $ $ $ , & $ $ $ $ $ $ $ $ + % % % % % O X $ & O $ $ . . O . X .   ",
"O > o O = . > O O = O = : O O O O $ O O O O O O $ O O $ O > $ % % % $ $ & % $ % $ & $ % % , , $ , > > > > , > > , , , , , , 1 > , , % > , 4 5 8 4 4 * 4 4 4 0 0 r r r r , , , , 4 4 4 4 8 4 5 5 * , , r , r r r , , r 6 , r 6 , & r , r 8 0 s 7 g B.8X;X;XB.;X[.[.[.OX8XtXxXhXtXSXSX8X;X;X{ ; !.!.{ i._ q J Y g { W.!.4.1.u q B.IXvXZXY.{ SX;XB.;X8X4X+X;XOX4XSXhXOX8XOX[.hX[.{ B.;XM.1.g ].SX{ =.2.=.U w.w.U 1.'.Y.Y.L.{ @ J 0 Y q R @   G.u.O 9 9 k 4 S e e 4 6 e 6 e 6 r 6 y 6 e 6 e t t y 6 9 e t 9 9 9 9 9 9 9 9 k V 9 e 9 6 9 9 9 9 9 9 9 9 9 k 9 9 9 9 e 9 9 9 k k 9 9 9 s 9 9 9 k 9 9 s V e t w e 9 9 9 e 9 9 9 9 9 9 9 9 9 9 V e e 9 9 V 9 9 9 9 9 e e e e 6 y 6 e e 6 y 9 6 e e e e e 6 6 e 6 e 6 6 e e e 6 0 V + @ 1.*.  . V 8 e C 9 9 9 9 9 9 t V t 9 9 9 9 9 9 9 k 9 9 9 6 9 9 k s V 9 e 9 k 9 9 9 6 9 9 9 9 6 s V 9 6 6 8 9 9 9 6 9 9 9 9 9 9 9 9 V 9 9 6 8 8 6 9 s 8 8 k 9 7 4 9 6 6 9 8 0 4 8 5 0 6 9 6 0 4 4 8 4 8 4 8 5 0 5 0 9 5 * 4 6 9 9 0 4 4 4 4 5 5 5 5 , , r , , , , , r 6 4 q * > 0 5 4 , , & , , , , , 4 & , % 4 > 4 , * 4 , * 4 % % 4 % X % > 4 > % % % % + % + X % + O + % O $ X $ & $ X O . . .   X .     ",
"> >   O O   > . + O + + + + O O $ : > > > > > > O $ : > > $ > : % % > % $ : $ > $ : : > & $ : & $ > : > > , > , , , > > , , > > % , , % , 4 5 5 4 * 4 4 0 4 0 6 8 r r r r r r r 4 4 8 4 4 8 5 8 5 , , , 5 5 5 5 , , , r r 6 , , r 6 , 5 k s - o { ;X8X[.;X[.[.[.[.[.;X;XuXNXxXhXSX;Xw.b.8X1.; B.m.{ n.0 ; w.:.; ;.`.hX;XB.{ { T.SXdXKX|.w.;X8XB.B.@X[.[.iXhX4XiX8X4X8X8X[.hX!.;.[.].B.J ; ;X].1.{ ;.1.*.k.Y.g =.E.w.m.!.{ J g 0 g g > 9 C ! ! % > 9 V 8 r 4 8 e e 6 e e t e e 6 e e t e e 6 r e e 9 9 s t e 9 V 9 9 9 9 9 V 9 9 9 9 9 9 9 9 9 9 6 e V k e 9 9 9 9 t 9 9 9 9 t 9 e t t 9 9 t 9 t k t 9 k 9 9 9 9 9 9 9 9 9 9 9 V 9 9 9 V 9 9 e 9 9 9 9 e 9 9 e 9 e 6 e 6 r 6 6 e 6 e e 6 6 e e e 6 6 6 e r 6 9 V e t s 9 V - - 2.R   + D 8 9 V 9 9 9 9 9 9 9 9 V 9 9 9 9 9 9 9 9 t 9 9 9 9 9 9 9 e 9 9 9 9 9 w 9 8 9 9 9 9 9 6 9 9 9 9 9 9 9 9 6 s 9 9 9 9 9 e 9 9 9 9 6 0 8 9 9 e 0 4 6 6 0 4 9 8 8 9 9 9 9 9 9 9 9 9 9 8 0 6 9 6 0 6 0 0 5 6 5 5 0 9 0 5 5 8 9 6 8 8 8 5 5 r 5 , , , , , , , , 9 0 4 * * 4 , 0 4 4 , , , , , , , 5 , 4 4 > 4 % > , > , > % 4 > % 4 > % 4 % > * % + % + % X % O X % O % X % % + O O O O . . . . .       ",
"+ >   O .   > o O O O + O + O O $ > $ > : > > : O $ > $ $ : $ O > $ % $ , : % % & , : , , , $ % % > , % > > , > , , > > > 1 > > % , & , % 5 5 4 4 4 4 4 4 6 0 8 8 , r r , r 6 r 4 5 4 8 8 8 5 8 r , , , , , , , r , , , , , , 5 , r r 5 z k ; o B.fX;X[.[.[.B.[.[.+X;XuXhXxXuXuXSXB.q B.hX:.; m.s.1.i.Y 1.i.{ B.{ n.IXY.D !.B.l.mXhX;X).;XtX;XB.B.w.B.!.[.iXhXhX8X+XB.!.B.8X8Xq.B.B.q.J &.dXH.D.E U Y.4.p.B.R { p.{ i.p.; g g J Z 0 S q 9 V   V * e e 9 4 9 e V 6 e e 6 6 t e e 6 t t t e e e 6 9 9 9 9 9 9 9 9 9 9 9 t e 9 e 9 9 9 9 9 9 V 9 9 9 9 w k 9 9 9 e 9 9 t 9 9 e 9 9 V V 9 e e V V e V 9 9 V 9 9 9 9 9 9 9 9 9 e e e e 9 9 9 9 9 9 e 9 9 9 e V e 9 9 y e e e e 6 e 6 r 6 e 6 6 e e e 6 6 6 e 6 6 e V 9 V k s V + q u.E   % D 6 9 k e k 9 9 9 9 9 9 e e 9 9 9 9 9 9 9 9 9 9 9 9 9 9 9 k 9 9 9 9 V t 9 6 9 k V 9 6 8 0 e 9 9 9 s V 9 9 9 s 9 9 9 9 9 9 9 9 9 8 0 8 6 6 9 5 4 5 0 4 4 9 0 0 8 6 8 8 6 9 9 9 9 8 9 9 6 8 6 6 0 4 5 8 8 6 5 9 e 9 0 4 4 0 8 8 6 8 5 4 5 5 , , , , , , , , 5 4 4 4 4 4 4 4 , % , , 4 5 , , 5 5 4 4 , & 4 % 4 4 , * % 4 % 4 > % % % % % % % % % % % + % % + $ O % + X $ O + O O O . O . & O .       ",
"> > . O O o O o O . O O + O + O O $ $ O $ $ O O O $ O % : % > % % % > > $ & $ > > % , , : > % $ , : , > > > : > , , > $ > > , , , % , 4 4 4 4 , 4 * 4 4 0 4 4 0 5 r , , 6 r , , 5 5 8 8 8 8 9 5 5 5 , r , 5 , 5 r 6 r 6 , r r , , e k 4 k k 7 g [.7X[.8X!.B.!.!.OX;XiXuXhXuXuXuXIXB.q B.SX{ @ l.s.;.w.) ;.i.{ ;X*X{ ;XB.{ ;Xl.l.wXPX|.w.;XSXmXB.B.w.x.;XxX8XhXSXhX!.B.l.q w.hXB.B.B.{ J h.ZXn.h.V G l.4.x.B.;.U.).w.w.w.J s @ ; s g 7 V S   5 S 0 9 4 V 5 D e 9 6 6 6 e 6 e r y 6 e 6 r y 6 e e 9 V t 9 9 k e 9 9 9 9 k 9 t e 9 9 k 9 V 9 9 9 e 9 9 e e 9 t 9 s 9 V 9 9 e 9 e 9 9 9 e e 9 9 e 9 9 e 9 9 9 9 9 9 9 k 9 9 9 9 9 9 V 9 9 9 9 9 9 t 9 9 V e 9 e 9 9 6 r 6 e e e 6 e 6 6 6 6 e e 6 y 6 * 6 e e 6 e V 5 t 9 9 g - 9 s.R   % V 9 9 9 V 9 t 9 9 9 9 k k 9 9 9 9 9 9 9 t k 9 e 9 9 9 9 9 9 9 9 9 t 9 k e 9 9 s t e 9 9 9 t 9 9 9 9 9 9 9 9 9 9 9 e 9 9 9 9 9 9 6 9 6 9 9 e 6 0 6 0 5 8 9 8 9 9 6 0 4 0 5 6 8 4 0 6 9 8 4 9 9 5 5 0 5 0 9 5 0 9 r 0 4 4 5 4 4 4 4 6 4 5 , & , , , , & , , 4 0 0 * 4 4 4 4 4 * , , , % , > 5 5 4 , 4 4 % , 4 4 % % % % % 4 > * % % % 4 % % + % + % % + % + % + X $ $ % X O & . O O O O O O X       ",
"> 4 o O O . - . O O O + O + O O $ $ $ $ : % $ $ $ $ : % % % : : : & $ , % , $ & % & , & , $ $ $ > > > , : > , > 5 , > > > , , , % , , , , 4 * , 4 4 4 , 4 4 5 5 , r , , , , , > 5 5 8 8 5 8 8 8 r 5 r 5 5 6 r 8 , r 6 , 5 8 5 5 6 y r , g g ; g 1X8X[.8XB.[.[.[.;X4XuXhXuXuXtXqXSXtXW 1.vXw.; n.w.2.T.{ g B.B.w.;XB.B.B.{ B.B.{ ;XhX8X!.P.hXhX;X4XB.B.SXSXiXIXxX8X[.hX[.g g 7X;X_ ` ` -  .jXs.;.4.g =.S.;.` Y n.;X[.B.9.s.w.;.{ 9 D 5 5 V t <.8 6 0 4 A 0 V s 6 e 6 e 6 e e 6 6 e 6 e e t e e 6 9 9 9 k 9 e 9 9 9 9 9 9 e 9 V 9 6 9 9 9 9 9 9 6 9 9 9 9 9 e 9 9 e 9 e 9 9 V w k 9 9 9 9 9 9 9 9 9 9 9 9 9 9 9 9 V V 9 e 9 9 9 9 V t 9 9 9 9 9 V 9 e 9 9 9 9 t 9 6 e 6 e 6 e y 6 6 6 r 6 6 6 r y 6 6 6 r y 6 e t 0 9 s 8 s # s k.} . + V e t 9 9 V 9 9 9 9 9 9 w t 9 9 9 9 9 9 9 9 9 s 9 9 9 9 9 9 9 9 9 t V 9 9 k 9 s 9 9 9 V e 9 9 9 9 9 9 9 9 e 9 9 e 9 9 e 9 9 9 9 9 9 9 9 e 9 9 9 e 9 9 5 0 9 9 9 9 9 0 6 9 9 8 4 0 8 9 9 0 9 6 5 5 5 5 9 5 6 0 5 6 9 9 0 4 4 5 4 5 5 5 5 5 , , & , , , , , * 4 4 4 4 4 4 4 4 4 , 4 > > > % 8 5 5 , % 4 4 % 5 4 4 > % % 4 , > % % % % > % % % % % % + % + > % + % % % $ O + O O . O O . . . X   .   ",
"- 4 . O O . > . . O O - + + - + $ $ $ $ $ > $ O O $ O > : $ % O , % % : % $ % : $ $ $ : $ $ & $ , > > > > > > : 1 , > > , , , 2 , , , , 4 4 , 4 0 4 4 4 4 4 5 4 , , , , & , & > 5 5 5 5 6 8 8 8 5 5 5 r 6 r 6 r 6 , r , 5 8 r 5 r 6 r & J g   g [.hX!.[.!.[.!.+X4X8XuXhXhXiX5XuXuXIXB.B.8Xw.q n.w.i.hX;XB.8XB.b.J g B.;Xl.w.{ { 8X;X;X;X[.hX;XB.[.[.B.$XhX8XSXNX[.$XhX!.l.w.8X;Xq s 7 = z H.k.r.j.E { s.!.Y.!.w.g 1.;.@ 1.!.;X).s.V 6 & 9 4.u.$.g * 6 S 4 0 6 s 6 e 6 e 6 e e e e e 6 e t 6 6 e 9 e w 9 e 9 9 k w 9 k 9 9 9 9 V 9 9 9 9 9 9 9 9 V 9 9 9 9 9 e V V 9 9 9 9 9 9 9 9 9 9 9 9 9 9 9 V 9 9 9 9 9 9 9 V e e e 9 9 9 9 9 9 9 9 9 k 9 9 e V 9 9 9 9 9 V 6 6 6 6 y r e e 6 e 6 e e e e 6 6 6 6 e r 6 r y 8 9 s 0 s - s k.$.+ @ k V V 9 e s t k 9 9 9 k 9 9 9 9 9 9 9 9 s 9 9 9 e 9 9 9 9 t 9 9 9 9 9 V 9 V 9 9 6 9 k V V 9 9 9 9 9 9 9 9 9 9 9 9 9 9 9 9 9 9 9 s 9 9 9 s 5 5 9 9 9 9 5 5 0 6 9 8 8 8 9 9 9 6 9 6 9 9 9 6 8 9 9 6 6 0 5 0 9 5 5 5 9 9 6 4 6 8 5 8 5 5 5 5 , , , , , , , & 4 4 4 * * 4 4 4 4 4 , % > > % % 5 5 4 4 4 % % 4 4 4 % % % 4 * % 4 > % 4 % > % + % + + % % % % % % % $ X O X O O . O & . . . .   X . X   ",
"+ >   O O o > O O O O - % > > + O O $ $ $ O O O O $ $ > $ > > $ $ $ : & % % , $ : , > % % & % > > > > > , > > > , 1 > , , 1 , , , , , , % 4 , 4 4 4 , 4 * 4 4 4 r , , r , > , , , 4 5 4 0 4 0 5 r 5 6 5 r 5 5 5 r 5 5 5 8 5 8 8 e , y 6 Z 0 ; { [.hX[.!.!.[.[.;XiXiXuXhXuX5X4XtXxXHX;X;X;X{ q w.u.p.uXPXSX;X{ !.1.0 B.B.{ w.w.[.xXIX4XB.B.IXtXw.B.Y.4XSXhXNXSX;X[.hXhXl.J Y [.SX{ ) O Y ! $.k.g.{ [.B.g 2XU.P.'.b.4.{ { m.!.B.B.2X$.  <.<.S c. XE + 0 V V 4 9 9 6 6 e 6 e e e 6 y 6 y e e r e e k 9 9 e 9 w e 9 e 9 9 9 9 9 9 t 9 9 9 9 9 9 9 9 k 9 9 6 V 9 9 9 9 e 9 9 9 9 t k 9 9 9 9 9 9 9 9 9 9 9 e 9 V e e 9 9 9 9 9 9 e e 9 9 9 k 9 9 t 9 9 9 w 9 k 9 9 9 e e 6 e t 9 e 6 r e y 6 6 e e e 6 6 6 6 6 6 r t 0 9 s 0 g + 7 a.R X X e V V 5 k t t 9 9 9 9 9 t 9 9 9 9 9 9 9 e 9 9 9 e 9 9 9 9 k 9 9 9 V 9 9 9 e 9 6 6 9 9 9 9 9 9 V 9 9 9 9 w 9 9 e 9 9 9 9 9 9 9 9 9 9 k 9 t 0 0 9 8 5 9 5 4 4 5 0 5 0 0 8 6 0 8 9 9 6 8 9 9 6 6 9 9 6 5 0 4 9 9 0 0 0 5 0 4 8 0 8 5 r 5 6 r r , , , , r , , > 4 4 q % 4 4 4 4 4 , , , 4 4 , , > * > % 4 % % , , * > 4 % > % > * % > 4 % % + % % % % * % > % + % % O $ X O X . O & . . O O . X .     ",
"O > o . O   - . O + + % - + > - $ > $ > > $ > : $ O $ $ % : $ $ % $ $ & $ $ $ $ & $ % : , , % , > , , : > : > % > > > > , , , > 5 , % > & , , 4 4 4 4 , 4 , 4 , , , , , r r r r 4 4 4 5 5 4 8 8 6 r 6 r 5 5 , 5 5 6 5 , 4 4 r 6 6 6 C 6 0 q q B.hX;X!.8X!.[.$X4XhXuXuXhXuX4X4X4XuXIX;X!.!.w.; { l.v.4X.X8X8X;.[.[.{ w.4.{ B.B.OXhXMXIX8Xw.;XSXB.T.[.SXxXSXIX4XOX8X;X[.l.g 0 B.hXn.J P } ,.r.a.V.k.U.D q !.4X[.;XB.{ w.{ 1.P.!.|. X2.! l.u.l.U.PX2.+ . V U w D 0 e e 6 e 6 e e e 6 e r e y 6 e 6 9 9 e 9 k 9 9 9 e 9 9 9 9 9 V V 9 s e 9 t 9 s 9 V 9 9 6 9 V e e 9 9 9 V e 9 9 9 9 e 9 9 V 9 9 e t 9 k 9 e 9 9 e 9 9 9 e V e V V 9 9 t 9 V k 9 9 9 9 k 9 k t 9 6 e e e t 6 r 6 6 y t r e e 6 6 e y 6 6 r e 6 6 t 8 e g 9 D + - w.U @ % V V e 0 V V 9 9 9 9 9 9 9 k 9 9 9 9 9 9 9 6 9 9 9 e e s 9 t 9 k 9 9 9 9 9 9 9 5 9 9 9 5 0 9 e e k 9 9 9 V 9 9 9 9 9 e 9 9 8 0 9 9 9 9 9 9 9 9 9 6 0 6 9 0 9 9 9 9 8 8 8 0 4 0 6 8 8 0 8 9 9 9 9 9 e 0 4 4 9 9 r 9 4 * 4 6 4 5 4 5 , r & , , , & , , r , & 4 + > > * q 4 4 4 % 4 5 5 5 8 8 , & > % % % 4 % * % , 4 > , * > 4 4 > * % % % X % # % % > % * > + % % $ X % O O O . O . O O & O   .     ",
", ,   O = O >   . O - + O + > > > O $ > % O O > : O O % > O O $ $ $ , $ % $ , & , , % , , , & $ , > 1 , , > > % > > , 2 , > > , 4 % 4 % 4 4 , , & , , , , , , r , , r r , r , , r , 6 , 8 9 8 4 6 8 5 5 5 5 5 5 0 8 8 8 0 4 6 r 6 e r r r   S .XhX`.[.[.OX;X;XhXhXhXsXhX8XhX8XsXxXMXqX[.I.B.m.w.F.OXPXtXY.[.4.|.!.{ [.[.4.;XB.hXHXxX8XSXw.x.NX;XOXT.[.xXPXL.g x.SXwXB.w.q ' B.;X{ ; B.m._ ;.h.s.2.U.{ l.[.3X2X2XB.{ B.{ { J i.;.S S.3Xj.V u.PXPXR X g 4 D 0 V 9 e e 6 e e e e e t e e e 6 e y r 9 e 9 9 s t 9 9 e 9 k V 9 e k 9 e e 9 e 9 w 9 e 9 9 9 e 9 9 V 9 9 t k e 9 9 9 V 9 V V 9 9 9 k V e 9 t 9 9 9 9 k 9 V 9 V V k 9 k 9 9 9 9 9 s 9 e 9 9 V 9 9 s t k e 6 e e e r e e r e e 6 y r e 6 y 6 e e 9 6 e V 9 k s V 9 + s *.s @ - V 9 6 t 9 e V 9 V e 9 e 9 9 9 9 9 9 9 9 9 9 6 9 s e 9 e 9 9 9 9 9 9 9 9 6 6 9 e 9 9 9 8 9 9 9 9 9 9 9 9 k 9 8 8 0 6 9 9 6 0 9 9 9 6 8 6 9 5 9 8 0 5 0 5 0 9 0 8 0 8 8 9 9 7 0 9 6 9 6 8 4 9 8 8 9 6 0 0 7 4 4 0 5 4 4 0 4 5 8 8 8 8 5 5 4 , , , 6 , r r , 4 4 , > , & 4 4 % > 4 4 4 4 4 4 & , 4 4 % , , % > > , > % 4 4 4 > % * % % % % 4 X + % % % + X % % + X % X $ X % O O O X . O   . X .     ",
"> 4 o . + . >   O O - % - O + > > O O : : O $ : > $ O : > $ O $ $ & % $ $ : % , : , , & , , $ $ > > > , , , > : > > , > > > , , > % 4 , , 4 , > & , & , , , , , , , , , , r , , , r r 6 6 8 6 8 8 8 5 4 5 0 4 0 8 8 8 8 8 9 0 4 6 6 y y t   1.dX8X[.!.!.[.;X4X8XuXxXuXhXiXhX8X4XHXmX<X(.B.;XvXH.L.CXnXT.p.tXw.4.N.;XhXB.w.hXSX[.;X!.B.IX4XB.xXOXOX8X;X;XHXQ @ p.!.[.B.{ ;.B.t.wXB.g n.d.q 1.h.a 0 w.l.XXP.u.{ 2X|.w.{ { w.s.1.B.D R }.j.D # HXPX<.  V V w 4 V 9 6 6 r e y r y 6 e e e 6 e 6 6 e 9 e t 9 9 9 9 9 w 9 9 9 9 9 9 e 9 9 9 9 k 9 e 9 9 k 9 9 e 9 9 9 9 9 9 9 e 9 t V 6 9 s 9 9 9 9 t 9 e e 9 6 9 9 9 9 9 V t 9 w e 9 V 9 9 9 9 9 9 e 9 9 9 9 9 9 e V e 6 6 e y 6 6 y 6 6 6 e e 6 6 e 6 e e e 9 9 9 t 6 t 9 s g + 0 =.V @ % V 9 9 V k 9 9 9 9 9 t k 9 9 t s 9 9 9 e 9 9 9 e 9 9 9 9 6 t e 9 9 k s 9 6 6 9 9 9 9 6 9 9 k 9 9 9 9 9 9 9 6 9 9 9 9 9 8 9 6 9 9 9 9 9 6 9 8 6 9 6 5 5 5 9 6 9 0 8 0 8 9 9 8 6 9 9 9 6 5 0 9 6 9 6 9 8 5 8 4 4 0 6 6 0 4 4 5 5 0 5 5 5 4 4 6 , r , , , , , 4 4 4 4 4 % % 4 0 4 4 4 4 4 5 5 4 5 5 5 4 4 4 4 , 4 4 * % % % % , * > > 4 % % > > > * % O + % % % % % O $ X $ O X % O $ O O O . + X .   ",
"7 >   o O . = o O + + O + + + % : O $ $ > $ $ > > O O > > > $ % $ : $ % $ & % , , , : % , % : & > , > , , > > $ , 1 > > , 2 , , % , & 5 4 4 , > , , , & , , , , , , & , , & , , , 6 e r 9 5 8 9 6 0 5 6 0 5 4 5 9 6 5 6 k e 0 % e r r , @ o G.mX).!.).[.OX8X8X4XOXxXuX8X.XiXIXxXtXPXuX&XG.[.AX!.g.JXHXI.W !.l.1.B.!.Y.{ { w.8XSXtX+XOX+XuXhXSXXX!.hXSXSX4X  l.SX!.P.m.B.;X).d.B.;XJ 1.B.7 7 w.;.0 Z n.Y.F.W B.mXSX;X!.!.w.m.w.).zXY.z.<.p.*.U.nXS.  D D 0 # g w 6 e e e y e 6 e t e e e e e 6 e V t 9 k 9 9 6 9 9 k 9 9 e 9 t 9 9 9 k 9 e 9 V 9 t 9 t 9 9 9 e 9 6 9 9 V 9 9 k 9 6 9 9 6 6 9 9 9 9 9 e 9 9 9 6 9 e e 9 k e 9 9 9 9 9 9 9 9 9 9 9 9 9 9 9 6 9 9 e e 6 6 e 6 e 6 e 6 e e 6 e e 6 e 6 e e 6 6 9 e e 9 k 9 s g - a { V . * V k 9 V 9 9 9 9 9 k t V V V 9 t 9 9 V k 9 e 9 9 e s 9 6 6 V 9 9 V V e e 9 9 9 9 9 9 6 9 9 s 9 9 9 9 9 9 9 9 9 6 9 7 9 6 9 s 9 9 9 9 9 9 9 9 9 9 9 6 8 6 9 9 8 8 0 0 6 6 8 9 9 9 s 9 8 0 4 0 6 0 0 8 9 9 6 5 9 9 e e 9 5 4 0 8 5 8 8 5 5 5 , , , , , , r , r r 5 5 4 , % , 4 0 4 4 4 0 0 0 5 5 4 4 4 4 4 8 * , 4 , > % % % , > % % % % % * 4 4 % % X $ % > % % % % $ O X + % X X $ O X $ $ X X . . ",
"7 ,   O O . > . O O % - O > - > O O $ $ $ $ > % % : $ $ > : $ $ $ & : & % $ % > % % $ $ : , & : : > > 1 , > > > , , > > 4 2 5 7 & 4 5 , 5 4 , & & , , , , , , , , , & , & , , , , 5 r 6 8 5 5 5 6 5 5 5 4 5 5 0 9 6 8 9 9 e 8 4 6 y y , - g &XSX[.&X`.!.[.hXhX4XB.uXhXiXl.Y.MXxX;XPXhX;XU.H.8X].g.zXGX`.{ b.{ !.;X;X;X;.B.8X8XhXSXHXtX;XOXT.NXhXtXMXHXNX1.@ PXPXSXhX;X[.P.[.s.!.W.) J B.J o k.h.I.p.p.3X1XU.mXPXvXw.b.8Xn.{ q Y g.4.@ W S.l.  ;XU.  D w 0 g w 0 e 6 6 y r e e e e e t r y r e 6 9 9 9 9 9 9 9 6 e 9 9 9 9 9 9 9 V 9 t 9 9 9 9 9 9 9 k 9 V 9 9 9 8 9 t 9 V 9 9 9 9 9 9 8 9 9 9 9 9 e e e 9 9 9 s 9 e e e e e 9 9 9 9 9 9 9 9 9 6 9 9 e 9 9 9 9 V e 6 6 6 e e 6 e 6 6 6 e 6 e 6 6 6 6 9 e 6 9 9 9 6 s 0 s V q 7 R V X q V e 6 9 9 9 6 9 V 9 9 9 V 9 k 9 t e e 9 e 9 9 9 9 9 9 9 9 e 9 9 9 V 9 9 9 9 s 9 9 8 6 9 V 9 9 9 9 9 9 9 9 9 9 9 9 9 9 9 9 k 9 6 9 9 s s 6 9 9 9 9 9 6 6 9 9 9 6 6 5 5 6 9 9 9 9 9 9 6 8 0 8 8 8 8 0 6 9 9 8 6 9 e 9 9 5 4 8 8 6 8 8 5 5 5 , r , r r , , , r 5 r , 5 4 4 4 > * 4 4 * 4 4 * 5 5 % , % % % , > 4 % 4 4 % * > > * % % % % % % , 4 > % % O % > % % % + $ X % % % O O O O X + & X X     ",
"> , o . O   > O O + O + O + - % O O $ $ $ $ > > $ $ $ $ $ > $ O , $ % $ $ $ $ $ & : % $ & , $ % $ > > , > > : > , > $ > , 4 2 4 & , , , , r 3 & , , , 3 , , r , , , , , , , , , 6 5 4 8 6 9 5 4 9 6 0 5 0 8 9 9 9 9 9 9 6 e e r 5 r k r 7 - ).zX].[.[.;X`.hXhX[.[.hXHXhX{ W tXPXIXIX&X*XB.B.wXW.m.).[.B.B.[.;.W.h.!.SX{ 2.PXxXaXSXNXhXsXOX!.hXNXIXNXHXHXo   PXmX0 !.IXn.;XQ.).d.;X7X8.%.  P L.S Z OX1.g B.B.!.KXHX1.{ B.{ o 0 ` 2.2.G.I.`.{   [.l.@ W 0 D S w g t 6 6 6 6 e t t e e t e e e e 9 6 9 9 9 9 9 9 s 9 9 9 9 9 9 9 9 9 9 9 9 9 e 9 e 9 s 9 e 9 9 V 9 0 9 9 k e 9 9 9 9 9 9 9 9 9 9 e 9 V V e k 9 9 9 V k V t e t 9 9 6 9 9 9 9 9 6 9 V e V 9 9 9 9 9 6 6 6 e e 6 6 e e 6 e 6 6 e 6 e 6 6 e 6 9 9 9 9 9 9 7 s V 4 q G s . + V s 9 9 9 9 9 9 t 9 t 9 9 9 9 9 9 9 9 9 e 9 6 6 9 9 s 9 t 9 9 9 t e e 9 9 9 t 9 9 6 8 9 V 9 9 9 9 9 9 9 V 9 9 9 7 9 9 9 9 e 9 6 9 9 k 9 9 9 9 V 9 9 6 9 8 9 9 9 8 5 0 6 6 8 5 6 6 8 9 0 8 8 6 6 8 8 9 9 9 9 9 0 0 5 5 0 5 5 9 8 8 8 8 5 4 , r , , , , , , , , , , r , 5 r 4 4 4 4 * 4 * 4 4 , , % % 4 4 4 * % % % % * , > , % * % % % % % % > 4 > % X O O + X % $ + % % % O O O . . O O O X .     ",
"> , o O O o > O + + > O > > O + O $ $ O $ > > $ O $ O $ $ : $ O : & , % $ & $ & % , : : > , , % $ > > , > > > > > > : $ > 1 , , , & 6 r r , , , , , , , , , , r , r r , , , 6 r r r 4 6 9 r 9 5 8 8 9 9 6 9 9 9 9 9 9 9 6 6 e e t & r e >   n.KX;X;.;.wXtXmX4Xl.`.hXIXIX<.# S.tXSX8Xl.!.[.N.[.fXi.w.E.B.Y.wXB.1.J l.hXs.l.JXxXtXIXsXHXuX4XIXNX+X8XhXHX3X  4.IXPXw.B.mX).H.;XJ g H.PXi.- 7 1.n.k.W q w.Y.).p.;XIXB.g 0 { s.J 9.h.2X8XuXmX`.D x.IXW   W * D g q g t e e 6 6 e t y e e t y t t e e 6 9 9 9 9 k t V 9 e V 9 9 9 V 9 e 9 V 9 9 9 9 9 t 9 9 9 9 V 9 9 6 9 9 s e 9 9 9 V e 9 9 s V e V e V V V V t V e V t V V V e V e 9 9 9 9 9 9 9 9 9 V V 9 9 9 V 9 e 6 6 6 y 6 6 e e e 6 e e 6 r 6 e 6 6 e e 9 9 9 9 s 0 9 V 4 - Z 9   + V 9 6 9 9 k 9 9 9 9 e 9 9 9 9 9 9 9 9 9 9 9 6 9 8 9 9 e V k 9 9 9 k e t 9 s 9 e 9 9 9 9 s 6 6 6 9 9 9 e V 9 9 9 9 9 9 9 9 9 9 9 6 6 9 9 9 6 9 9 9 9 9 8 9 9 9 6 8 5 0 9 6 0 5 8 0 0 6 8 6 0 8 6 9 6 9 6 8 9 6 5 5 0 5 9 9 8 8 6 8 8 5 8 8 & r , r r r , , , , , , , , 5 8 4 4 4 0 4 4 4 4 5 5 4 4 % , 4 4 % % % % 4 > 4 % 5 4 4 , 4 4 4 4 % % > 4 > + X O O % X O O % % % X O . O . . . O         ",
"- 4 . O O   - . - + O + + > + O $ $ : $ O > : O O : $ $ O > > O $ $ : % & $ $ , > : , & , , % % O % , , : % > > > > 1 > > > > > , , & r & r , , , , r , , , , , , , r , , 6 , , r 6 5 4 8 5 9 r 0 8 8 0 9 6 0 9 9 6 9 9 r 9 r 6 r , > r k O e.bXdX@ o `.;XSX1X` p.tXhX4Xw.@ # S hXSXB.[.;XN.{ ).B.1.!.%Xw.B.B.0.3.U.rXp.l.aXPXcXxXIXsXsX4XuXSX;XOXPXHXQ g hXIX1XPX7X;X8X).B._ { 8.;Xd.J K &.s F.mX;.G.PXhX[.SXIXg ; :.[.[.;.k.8XGXPXxXPXG.@ S.IXW   w * S w 0 w 6 6 6 r e e t t e e t t t t e 9 s 9 9 V 9 V k t 9 9 9 9 e 9 e 9 9 9 9 9 e 9 e V 9 9 e V 9 9 9 e 9 9 e e e 9 9 e k 9 9 9 e e t e e e V V V 9 e e e V e V t V t e 6 9 s e V 9 9 9 e e e e 9 9 9 k e 6 6 e r e 6 e y e e 6 6 6 e y 6 6 6 y t e 9 9 9 V 9 9 g 7 + 9 9   + V V 6 9 9 9 9 9 9 9 9 9 9 e 9 9 e V 9 9 w 9 9 9 9 9 9 k k 9 9 9 V V V t 9 9 e e 9 9 9 9 s 9 9 9 9 9 9 s 9 9 9 9 9 9 9 9 9 9 9 9 8 8 8 9 9 6 9 9 k 9 6 0 8 9 9 6 5 8 0 8 5 9 6 8 6 6 8 8 8 0 8 9 9 9 6 0 4 0 5 5 5 5 9 6 9 8 6 8 9 8 8 8 4 , 6 , r , , r , , , , , , , 4 4 4 4 4 4 q 4 q 4 4 4 5 4 4 4 4 4 % % % % 4 > > % 4 4 4 4 , % 4 4 % % 4 * * % + + % + O + O O O $ % $ O O O O   O X .     ",
"+ > O O O o > O > + O O - + O O $ > > O $ $ > O O > > $ $ > > O & $ $ $ $ : , , $ & > , , , , % O $ , 1 > $ > , , , r 8 , 1 , , , , , , , & , , , , , & , , , , , , , r r , , , 6 6 r 5 4 4 0 e 5 5 5 5 4 5 9 8 6 6 6 6 9 t r % r e 8 7 k     9.h.q { ).w.*X;Xg w.NX[.{ D 0   # [.SXm.B.=XfXm.1.H.s.s.*Xm.0.i.8X).G $.l.zXGXaXCXuXNXHX;XOXNXNXCXHXPXIXq 4.PXtXtX2XPX;Xh.s.q J n.P.b.w.K   s.;.n.PX;XmXHXhXD [.xXZ q w.hXhXhXwXzXuX[.4XIXS.# G.iXw.0 w 0 W g D 0 w 6 e r e e t t e e y t t e 9 9 V V 9 k t 9 V 9 e 9 V t 9 k 9 V 9 V 9 e 9 e 9 9 9 e 9 9 9 e e 9 e 9 V 9 9 9 t V V 9 9 9 e V V 9 9 e V V t e 9 9 e e e e k V 9 9 9 9 9 V k 9 9 9 9 e 9 9 9 6 9 9 e 6 e e t e e t e e e e e e e e y e r e t t s 6 9 V 7 0 Z 7 @ 0 6   + V V 9 V k 6 9 9 9 9 9 e V 9 V e 9 9 t k 9 9 9 9 6 9 9 9 g 9 9 6 6 9 9 9 9 9 9 9 V t 9 9 9 V k t 9 9 9 6 6 s 9 9 9 9 s 9 9 9 9 9 6 0 8 6 k 0 9 9 s 9 8 0 6 9 9 9 8 0 8 8 0 s 9 9 9 8 0 6 8 0 8 9 9 s 8 0 4 5 5 0 0 9 9 9 e 8 8 6 6 r 8 8 5 , , , , r , , & , > > % & , & , % 4 4 * * 4 * q , , 4 , 4 4 % > 4 % % % % , * % % , % % % % % % % 4 > > % % > 4 % % X O . . .   % X % X X $ O . X . .   ",
"> + o . O + - - X - + > O + - + > > > > > : > $ O % $ > + $ % O $ > $ > : % > > , , , > > 1 , , > , > 4 4 > 7 > 7 > 4 4 4 7 5 2 & 5 , , r , , , , & 3 , , , , , , , 5 5 8 4 4 4 5 5 5 5 5 0 0 0 5 4 4 5 5 5 6 4 6 9 9 5 5 4 4 0 V 1 o s - J { q q @ ' ;XP.P.wXY n.wX{ @ 0 D @ U ;XSXU.!.[.!.].J m.G.w.ZXP.G j.tXB.<.l.g.JXNXtXJXxXsXHXuXuXaXuXMXMXMX3X@ l.SXhX`.U.tXtX9.{ Y.` s.n.{ n.W.{ Z s.IXGXU.}.VXJXv.j.Y.*   4.#X_.MXtX}.S.8XPXw.  HXL.!.=.@ w w q D 9 q t e e t e V 9 V e t V V V V 9 e 9 9 e 9 9 9 9 6 9 9 t 9 9 e 9 9 9 9 9 e 9 9 e 9 e 9 9 s 9 e 9 9 V V t 9 9 e e 9 9 9 9 9 V t s V 9 e V t V e s e t V k t V e 9 k 9 e 9 k 9 V 9 V V 9 9 V 9 e V 9 V t 9 9 9 k e t 9 9 9 e V 9 9 e r r 6 t k 9 e V V 0 0 e V 0 . 4 4 + * V t 0 e 9 V e 9 e 9 9 s s 6 9 9 9 9 9 9 8 9 9 t e 6 8 6 9 9 9 9 9 9 9 9 9 k 9 9 9 9 9 9 6 s t e 9 6 9 9 9 9 t 9 V 9 9 9 6 7 8 9 9 k 9 8 8 8 8 8 0 4 8 8 8 0 8 8 9 8 8 8 6 8 6 9 9 0 0 0 0 8 8 8 0 7 8 6 9 8 6 6 6 9 8 6 8 r 5 5 5 5 r 5 , , r r , 5 , , r , 5 5 , 4 , 4 , % , % , % * , 5 4 , , , , , & , % , % , % , % , & 3 $ & & $ $ , & & , > 4 + * > X % + % + % % % % + O O $ $ X       .   ",
"4 O o O + O O O O O > + + O O > : > $ > > % > > $ : > O : % = $ $ $ $ % % > $ : , , > 1 , , , , > > > > > 4 > 4 > > > 4 > 4 4 7 , , , , , , , 3 $ , , : , , , , , 5 5 5 5 4 5 5 4 4 0 9 6 0 4 4 8 r r r r r 6 r e r 9 9 6 9 9 6 s - J q 0 Y.;XD 0 g q _ *.;XZX{ n.SXE.g @ 0 0 B.IXhXw.;XhX!.!.B.B.:.@ 9.U w.XX[.a.PX5XY.PXtXNXCXNX;XiXCXtX4XPXrXPXxX<.@ l.HXHX;XY.B.;XJ g !.w.{ s.hX*XB.B.{ g hXPXnXoXzXzX9X*.6   3.=.*.  @ 3.~ D uXMXoX# Y.Y.Y.4.@ D w w D D w 9 9 9 9 t s V 9 e k e V 9 e e 9 e 9 9 9 9 9 9 9 9 s 9 V t 9 9 9 e k 9 9 k e 9 9 9 9 t 9 9 9 e e e 9 e 9 9 9 V e 9 9 9 e t k e t 9 9 9 V t k t e k t t V e V t 9 e 9 9 9 w 9 k k 9 e 9 9 9 9 9 9 9 e e e 9 9 9 V 9 V 9 9 9 9 e 9 e 6 9 9 9 9 9 9 V 5 9 9 k 8 + V V + + t e 0 e 9 e e e 9 9 9 9 9 9 9 9 9 9 9 9 9 w k 9 9 9 6 9 9 9 9 9 9 9 e 9 9 9 9 9 9 e 9 9 9 e 9 V 9 9 6 9 9 k 9 9 9 9 6 9 6 4 4 8 8 8 8 5 8 9 8 8 8 8 8 8 9 8 8 9 r 8 9 9 6 6 9 9 9 9 9 0 0 6 6 5 0 0 6 6 9 8 0 8 0 0 8 0 8 r r 5 , , , , , , 5 r 5 , , , , 5 5 5 5 4 5 4 , 5 5 4 5 5 5 5 5 4 , 4 , , , , , , % , % , % , % $ & , : $ $ $ $ , , & , - > + + % + % O % + $ X & $ $ X % % $ O X + X   ",
"1 O . O + O . O O + > > - O O - $ $ O $ O $ $ $ % : : % % : % % $ $ $ : $ > $ > > > > , , > > > 4 > > 4 7 > , 4 - > > - 4 > , , , , % , , , , & , , 3 , , , , , r , 5 , 4 5 8 8 4 5 6 9 9 9 5 4 5 5 5 5 5 r 5 r e 9 5 9 9 s 9 9 V = s   1.mXmXJ q D 1.{ o [.GX` ;.PXKXh.# W g.uXSXPXB.`.;XB.q.i.B.n.{ @ @ k.!.[.<.XX5XOXPXNXsXHXHXIX3X4X5X5XOXPXcX<X@ @ 8XIXxXT.!.[.;XB.@ i.B.J ;XB.7 { B.w.g n.PXPXT.!.3XVXY.e   U PXoX  D 4   D MXGXu.q     MX4.@ V q w 0 g 0 9 9 9 e 9 t t 9 9 V e t k e 9 9 9 e 9 e e 9 9 9 9 9 9 e e 9 t 9 9 9 9 w 9 9 k 9 e 9 t 9 t 9 9 9 9 9 9 9 9 e 9 V V e e 9 e 9 e e 9 e 9 V e k 9 9 k e k V e e 9 e 9 e 9 e 9 9 9 9 9 9 t 9 k 9 9 V 9 k s 9 9 e t 9 e 9 9 9 9 9 e 9 9 6 e 9 9 9 w 9 V 9 9 9 t 6 * W R % X 9 e 8 9 9 e 9 9 9 9 9 9 9 9 9 9 8 9 0 9 9 k 9 9 s s 9 9 9 9 9 s 9 9 9 9 k 9 9 9 9 9 9 t 9 9 9 e 9 6 9 9 9 9 e 9 9 9 9 9 9 8 9 8 9 9 8 8 5 9 8 6 8 8 8 6 8 8 r 9 9 8 9 9 9 8 8 6 6 9 9 9 9 9 6 8 5 0 8 6 6 8 8 0 8 8 6 9 8 r 5 5 , , r , , , , 5 r 5 , , 5 5 r 5 5 5 5 5 5 8 8 5 5 8 r r 8 5 , 5 , , , , , % > , , , % & , 3 , , 3 , , & , > % % % * + + + $ % + % O % + % % O O O X % & O @ @ .   ",
", = . . = O O O + > - + + + O + % : > > : % > $ % $ > > > : > : : > > $ > > > > : > , , , > : > > - 4 > > > 4 > 4 - 4 > > > 4 > , , , > & , : : & & , , , , , , r r 5 5 5 5 6 6 0 5 5 9 0 5 5 5 5 , , , 5 4 5 5 9 5 5 0 9 9 9 9 7 Z 0   B.SXtX4.# 1.;X;X+ *.L.S i.vXSX[.@ w ;XHXxXIX).;X;Xi.f w.n.{ h.Z o D.Y.*.4.}.L.T.PXuXnXHXHX8XOXCXHXxX4XnXPXXXq p.PXIXxXT.w.l.[.I.w { p.B.!.B.q q 1.G ;.&XXXzXPXOXqXHXcXE # XXnXp.9 Y.MX4 4.PX8X4 0 @ { }.{ # 9 w g 0 w 9 9 9 e 9 9 k 9 e e 9 9 e 9 e 9 9 9 V 9 9 9 9 k 9 9 t 9 9 e s 9 9 9 t k 9 9 t w 9 9 9 9 9 k 9 k 9 9 9 9 9 e 9 e e V e V e t V e 9 9 e 9 9 9 V t V 9 t V 9 V 9 V 9 9 9 e 9 9 9 6 9 9 9 9 9 9 9 9 9 t 9 9 t 9 9 9 s t 9 V 9 9 e 9 9 9 9 e 9 e e e 9 e 9 9 9 V 4 % R $.O @ t e 9 9 e 9 9 9 9 9 9 9 9 9 9 9 9 9 9 9 6 e 9 6 9 9 V 9 9 9 9 9 9 9 9 9 9 9 9 9 9 9 9 9 k 9 9 9 9 9 9 9 s e s 9 6 9 9 9 k 9 9 k 9 9 9 6 8 6 8 8 8 5 6 8 9 5 8 9 9 9 8 6 8 0 9 0 5 0 0 0 9 9 9 6 6 8 6 8 6 6 9 9 9 9 9 9 8 5 5 , , , 5 & , , r , , , 5 , , 5 5 5 5 , 5 5 5 5 4 5 4 4 4 5 5 , 5 , , , , & , , % > % % > , > , & , & $ $ $ , % 4 % % % + + % % % % % % X % O O X . . . . O O . .     ",
"+ . o . = O + % + > > + % O + O % $ > O > $ : $ : > > > : % > $ > % > > > > > > > > , , , , > > > > 4 - 4 4 > 7 > > 4 > 7 4 > 7 5 , % > : & , % 3 , , & 3 , , , , , , , , 5 r r 8 8 5 5 6 0 6 6 r 5 5 r 5 r r 5 8 8 9 9 6 6 9 s * C   X _.xXhXz.0 XXhXtX*.  % =.dXSXKXPXU   `.PXSXxXP.dX;X:.; 1.B.J !.{ o D.!.l.  4.x. XJXNXHXCXT.l.{ +XNXHXPXuXVX_.w CXHX[.;XuX1.!.;X{ B.B.B.B.Y n.s.p.s.o 9.6X2XJXcXF.Y.VX#Xq 6 PXJXQ 6 + Q   l.HX_.  0 q @ W D q + D 0 V 0 V w e e 9 V e V 9 V 9 9 V 9 9 9 9 9 9 V 9 9 9 9 9 9 k 9 k 9 w 9 9 9 9 w e 9 t 9 9 9 9 9 k 9 V 9 e V k e e e 9 V 9 V V V V s e 9 9 9 e 9 V k 9 k t V 9 t e e e V 9 t k 9 9 9 9 9 9 9 9 9 9 9 9 9 9 9 9 9 k 9 9 9 t 9 e 9 e 9 e 9 9 e e e e e e t k 9 e 9 9 C 4 . R !   + D e 9 9 V e 9 9 9 6 9 9 6 9 9 9 9 8 9 9 9 9 6 8 6 s V 9 9 9 9 9 9 9 9 e 9 9 9 9 9 9 9 9 g 9 9 9 9 9 9 s s 9 9 9 6 6 9 s s 9 8 8 9 8 8 8 8 5 5 5 4 0 5 5 4 4 8 9 8 0 5 5 8 7 4 8 4 0 6 0 9 8 9 9 0 8 9 0 5 4 0 0 8 0 8 6 8 8 8 4 , 5 5 4 4 5 5 5 5 5 5 5 , 5 5 , 4 4 , 4 & 4 , , % % 4 4 4 , , , , & , > , & > , & , : , > , & , 3 & $ $ $ * % + + + + X X + % % + + O % % $ O O . . . . O . . .   ",
"O o   O O + O - + + - > O O O + : > $ > $ % > > % $ $ > : > $ > > > : > > > 1 > > > , , , , > > - 4 > > > > 4 > 4 4 > 4 > 4 4 > 4 , > , , , , , , , , , , , & , , r , 5 5 5 r 8 9 8 5 4 4 4 9 r 5 r r 5 6 r r r 8 8 s 9 6 8 9 V 9     p.uXtXxXx.l.NXuX;Xw.    S.AXhXPXvXE   *.xXHXxXB.dX;Xw.d { H.h.hXs.@ i.B.[.XXa.(.uXaXPXsXoXsXxX;XQ uXCXMXJXcX<.0 PXB.# l.x.w.[.HX;X{ @ ).l.Y Y.L.E..X@ @ l.rXPXcX<XaXPXi.  y cXtX@ 6 * X w 4 [.2.@ w D q X 0 w q W 0 D 0 9 9 e 9 V e e e e 9 e 9 9 9 9 9 t V 9 9 e 9 V 9 9 9 9 e 9 9 e e 9 k 9 e 9 9 e 9 k 9 9 9 9 e 9 k w e V e V V e 9 9 9 t 9 9 e 9 e 9 9 e 9 9 9 t 9 9 V t V 9 V 9 9 e 9 9 t 9 9 9 9 9 V 9 e 9 9 k t 9 9 9 w 9 k 9 9 9 s 9 9 9 9 9 9 V e e e e e e k t 0 t e 9 D 4   R R   4 S 9 9 9 V 9 9 9 9 9 6 8 9 s 9 9 9 9 9 0 8 9 6 6 9 9 9 9 9 9 9 9 k 9 9 9 9 9 9 9 9 9 9 e 9 9 e s 9 9 6 9 9 V 9 9 9 9 9 9 9 e 9 9 8 9 9 8 9 8 5 0 4 , 4 8 0 4 8 8 6 5 7 0 8 0 0 0 0 0 0 8 8 9 9 9 9 9 8 8 8 4 4 4 4 4 0 0 8 8 8 4 4 4 5 8 4 r 5 r 5 r 5 5 4 5 , 4 , , 4 4 4 5 5 4 4 , , 4 4 % , % , > > > > , , : , & , % , , , & $ $ , $ & % > > + q + + + % % % + % $ O X % % % % X O O O @ X .   ",
"- .   O - O O + O > % + + O O O $ % % : O > $ $ $ % : $ % > O $ $ $ % > > > > > > > > > > > > > > > 4 4 4 4 > 4 > - 4 > > 4 > > > > & , , r , , , , , , , , , 3 & , , , 5 5 8 8 9 8 8 5 8 8 8 6 , , , 4 4 5 5 5 6 9 9 6 9 6 9 9 6 @ E rXPXOXtX5X;XNXSX4XE X 9 E.SXKXPX[.q # 1.PXmX;Xs.8X8X{ ; { ).i.&Xi.@ h.l.4.#X}.z.#XJXVXaXu.[.HXSX+Xz.PXuXPXuX  { 3Xw 4.SXB.{ B.uXxX!.2.1.uXL.Y.dXtXs.@ 7 *.E.aXPXBXzX5XW y     S   X w L.JXx.  + D * 6 0 4 9 S V W 9 D V w 9 t e e 9 e e V V e 9 9 9 9 9 V V e 9 t V 9 9 k 9 e 9 e k 9 9 9 9 e 9 9 e 9 9 9 9 9 9 w e e k w 9 9 t V e V 9 9 9 9 9 k t 9 9 9 9 9 9 9 9 9 9 V 9 9 t V 9 e 9 9 s 9 9 9 t 9 9 9 9 9 9 e 9 9 t 9 9 9 9 e 9 9 9 9 9 t e 9 9 V e 9 6 9 9 9 9 9 e e 9 t 9 5 S 4   $.R   5 S 5 V 9 k e 9 9 9 9 9 9 9 s 9 9 9 9 6 8 6 6 9 s 9 9 9 9 9 9 9 9 9 9 e 9 9 9 9 9 9 9 9 9 9 9 e 9 9 9 6 9 9 9 9 9 9 9 9 9 9 8 e 9 9 8 9 9 s 5 5 4 4 4 5 8 8 5 5 8 8 8 5 5 6 6 6 0 9 9 8 0 0 6 9 9 9 9 8 0 5 4 4 4 0 0 8 8 8 8 4 , 5 5 r 5 5 5 5 5 5 5 5 5 4 5 5 5 5 , 4 4 , 5 5 5 , * 4 4 4 , , & , , > , , , : , % , & , % , , , $ , : $ $ 4 % * * % + + % % % % + $ X O $ O % % % & $ O O O X @   ",
"% . . O + O O . + - > - - O O + $ : O O $ O $ $ O : + > $ $ $ $ $ $ $ $ $ $ + : > : > > : > > > 4 - > > > 4 4 1 - 4 > - > - > > & , 5 , , r , , , , , , , & , & , , , 5 , r 8 4 8 8 8 9 6 8 8 r , , , , 4 4 5 5 8 8 4 0 8 6 8 0 6 # D XXPX5X#XuXNX8XHX4X@   6 F.bXAXmX.Xq   p.MXSXmXH.fX;Xg @ N.*XB.i.o q ).B.h.2X3.D 3XuX4XPXJXB.+XxXSXT.j.PXuXg.w G.l.q IXSXY.D l.B.!.[.;X[.p.!.E U.SXI.R   2.`.aXJX5X`.VX! + G.D X D 4 w JXPXPXi.@ X V + 3X`.  q q # 4 6 V 8 9 9 9 9 9 V 9 e e V e e 9 9 e 9 9 e V 9 e 9 9 t 9 w 9 k 9 e e 9 9 9 9 k 9 9 k 9 9 9 9 e 9 9 e k 9 9 9 e e 9 9 e 9 9 9 9 9 9 9 9 e k 9 9 9 w V V 9 V k 9 V 9 9 9 e 9 9 V 9 e V V e V 9 e t 9 s 9 9 9 9 e V 9 9 9 9 9 9 e 9 e 9 9 6 9 9 9 9 9 9 9 9 V 6 4 S 5 X $.R   6 V 4 D t 9 e 9 9 9 9 9 9 9 9 9 9 9 9 9 9 6 9 9 V s 9 6 9 k e 9 9 9 9 9 w 9 e e 9 e 9 9 9 6 9 t k 9 9 6 9 9 V 9 k 9 9 9 6 6 5 4 4 5 5 5 8 8 8 8 8 0 5 8 8 8 5 8 8 9 8 0 8 6 9 9 9 g 9 9 6 0 9 9 9 9 9 0 0 4 5 0 6 8 6 9 6 9 r 8 4 5 5 5 8 8 5 5 , 5 5 r 5 & r 5 5 5 5 5 , 5 4 4 4 % , % , % , , , , , > & > , > % , : , $ , , , 3 , & , , $ % > > % % + q + % % % % % % X X   O % * & . O O . . .   ",
"= O . . O O O + + O O % O O + - $ O : $ > % $ O $ % $ $ $ $ % : : % : % O : > > > > > $ $ > > > 4 > > , 4 > > > 4 > 7 4 > > 7 4 % 4 4 , > > > , , & & , & , , , , , , , , r , , r 5 5 5 4 5 8 8 r r r 5 5 5 5 4 > 4 9 9 9 9 9 9 w # # ~ oXPXuX}.5XJXcXI.& 6 . ! _.6XPX~.  q   Y.SXHXn.8XhXs ' W.].s.o @ { wXh.B.w.z.Y.U l.uXMXMX4X+X;XiXIXx.Y.iX  =.XX  Y.SXHXT.{ Q l.x.4.hXl.  1.k.Y.3XU.D @ k.zXpXJXpXI.5Xr S CXS.    0   cXPXqX<.q D * @ GXeX  0 S W 0 V 0 e 6 9 6 9 9 k V V 9 9 9 9 9 9 V 9 9 9 9 9 9 9 9 9 9 9 9 9 s 9 9 e V 9 9 9 e V 9 9 V 9 9 9 9 V 9 t 9 9 9 9 9 9 e 9 9 9 k k t 9 9 9 k 9 t k 9 V t 9 9 9 e V V V 9 9 V 9 9 k V k 9 w 9 9 t 9 V 9 e e 9 9 e 9 9 9 e e 9 9 e V e 9 9 e e e 9 9 9 9 9 e 9 e 5 9 D 4 0 =.R   5 C 5 D e 9 9 V k 9 9 9 9 9 9 e e e 9 9 9 9 6 9 s k t 9 s 9 9 9 9 9 9 9 9 9 9 9 s 9 6 8 9 s 9 9 9 9 9 e e t 0 9 e e 9 9 9 k 8 9 e 9 e 8 8 8 8 8 k e 4 4 4 6 5 4 8 8 9 8 9 6 9 8 9 9 9 9 9 s 9 9 8 0 9 9 9 6 5 6 9 9 8 6 8 0 8 4 4 4 4 8 8 5 4 5 5 8 8 4 4 4 4 , 4 , 4 4 , 5 8 5 5 > 4 % , 4 & , , , , , $ , % , % , % , : , & $ : & : : $ , + > + * % q + > + % % + % % + + % % . . O X O   @ .     ",
".   o   . O + O - + - + > + % O > % O > > : > O % : > > > > $ $ $ $ + : > $ > % , > > > % : : > 4 - > 4 4 4 - 4 - > > > 7 4 7 5 > > 4 4 4 4 , , , , r , r , , , , , , , r , , r 5 5 5 r 6 5 5 4 5 5 , , , 4 5 4 > 0 6 9 9 9 9 9 @ W   @ x.NXPXMXtXyXcXpXr . r r n.&XdX}.9 V w   J g o PXdXZ d ).*XB.q ; ) &XB.B.!..XY.=.(.SXPX4Xz.;XSXSX8X4X1.!.U y Q 4 uXHXhXp.q l.[.SX(.;X<.@ .X!.vXeX;.Y % }.tXtX XXX5XaXv.oX6X* +   =.v.PXPXg.  + V 4 @ GXqX+ y g V 4 6 9 V 9 9 9 9 9 9 9 V e 9 V 9 e 9 9 9 e 9 e 9 9 k 9 e V 9 t k 9 t 9 9 9 9 9 V 9 9 e 9 9 9 9 e 9 9 9 e 9 k 9 e 9 k 9 9 e e 9 9 9 9 9 k 9 e 9 9 9 9 9 9 V V e V 9 e t 9 e 9 6 s 9 9 9 9 e 9 9 k 9 V e e t k 9 9 e 9 9 V V e 9 9 9 9 e e 9 9 9 9 9 9 9 9 9 e 5 e C * > =.R   0 C 5 V k 9 9 9 9 9 9 e 9 e 9 V 9 V e e 9 9 9 6 9 9 e 9 9 9 6 9 9 9 9 9 9 6 9 9 t 9 9 9 9 k k 9 9 9 9 s 9 k 5 9 k 9 6 8 9 9 8 8 8 8 e 9 9 8 9 9 8 8 8 4 5 8 8 8 8 8 8 8 5 0 9 9 6 6 9 9 0 0 9 6 8 9 9 9 9 9 4 0 0 5 6 6 8 8 8 0 4 4 5 8 8 8 4 4 4 8 8 0 4 4 , 4 5 4 , 5 4 5 8 4 , & 4 8 4 4 , , , , > & % > , % , $ , & & > , $ , : : & & 3 % + + + + + + + % % % + + X O % % O X O O O O O @ . .   ",
". . o . O O O O + = + + O + + - : O O $ % > O O $ > > > > $ $ O $ : $ $ O > $ > > 1 > > > > $ $ > > > 7 , > > 4 > > , 4 4 4 1 4 * 4 5 5 5 4 5 5 , r r , , , , , , r , , , , r , & 5 5 r r 8 4 , , , , , 5 5 8 6 5 8 9 9 9 9 9 6 0 E @ @ 0 x.XXsXCX5XJX5XW . r C ;.x %.dXY.+ 4 w 0 @ o PXvXJ o H.8Xi.o q { *XB.w.`.3XF.PXx.F.NXPXoXq x.oXx.z.;XPX<X  @ k.HXPXPXl.0 l.;X3X5XY.U.W 8XXX4XOXu.6   .XPXtXzX#XyX5XF.3X4.  6 5XPXPXVXGXI.* 4 * % W IXS.+ V 4 e q 0 V e 9 s k e t 9 9 9 9 9 e 9 9 s e 9 e 9 t 9 t 9 9 9 9 9 9 9 e 9 9 9 e e 9 9 e 9 9 9 9 e 9 9 9 9 V 9 t 9 9 9 t 9 e 9 V e 9 6 9 6 V t w 9 k 9 9 t 9 k t k e 9 9 e e k 9 6 6 9 k 9 9 9 9 9 e 9 9 w k e k w 9 k e 9 9 V V e 9 9 9 9 V V 9 e e 9 9 9 9 9 9 e 5 9 V * 4 $.E   4 V 4 t 9 9 6 9 9 9 k w s t 9 9 V 9 9 9 9 9 9 9 e 9 9 9 6 9 9 9 9 9 9 9 9 9 9 9 9 9 9 6 9 s 9 9 9 t 9 9 9 9 6 9 9 9 8 0 6 9 9 8 9 8 8 8 8 8 e 9 8 8 9 9 8 7 r 8 8 8 8 5 0 5 9 6 9 9 9 0 0 0 9 6 0 8 0 9 6 7 4 4 0 5 8 0 0 5 9 8 0 8 6 6 8 0 4 4 5 0 5 0 5 5 5 , 5 5 , 5 , 5 r 4 % % 4 5 5 , % , , , , $ : , % , & , % , , : , $ & , , $ , & % + + + + % + + + % + % % O X % O % X O O . X X @ O . . ",
"> = + + + - + O % + > O > O > + $ $ $ $ > $ : $ O O : > > > $ O % O % O : $ % : > > , , > > > $ > 4 > 4 4 - - 4 0 4 , > , > > , 4 5 5 5 5 4 5 5 , , , , , r , & , , , , , , , r , , 5 5 5 5 4 4 , , , 5 8 r r r 9 6 9 9 6 9 9 9   @ 4.x.@ * w XXJXyXGX#X=.& . T o > Y h.k.=.V 8 @ { Z [.KX^ ; B.*X' o 0 { B.Y.` U 4X!.4XuX4XHXuXNXiXz.=.XXhXIXuXv.0   nXPXSXhXx.@ !.4X.XHX.Xp.q F.S.S.tX(.$.  z..XrXJXaXnXtX_.cXu.# 3.GX5X0 yXJXV   V V   4.PXk.  V % C 6 8 C 0 9 9 9 t V e 9 9 e 9 9 e e 9 t 9 9 V 9 V 9 V V 9 e 9 t 9 9 e V 9 9 9 e 9 9 9 9 V 9 9 V 9 e 9 9 9 9 V V 9 9 V 9 V V 9 9 6 6 9 9 V 9 9 9 9 9 9 9 9 t 9 e e V 9 e 9 t 9 9 9 e 9 9 e V 9 9 9 t k e e 9 9 9 9 9 9 9 9 e t 9 9 9 9 e e 9 e e e e 9 9 0 9 V 9 9 V % % $.S   4 V 0 e e 9 9 9 e 9 9 9 9 6 9 9 9 9 9 9 9 9 k 9 9 9 9 9 9 6 9 9 9 s 9 9 9 9 9 V 9 9 9 9 9 9 9 9 V 9 s 9 9 6 9 9 9 t 9 6 9 9 8 8 8 k 9 9 8 8 8 9 8 9 8 9 8 8 8 9 8 9 0 8 5 9 9 9 9 9 6 6 4 7 9 8 6 8 9 8 9 6 9 9 6 9 6 8 0 5 9 9 6 8 6 8 0 8 0 9 9 8 9 9 6 8 5 5 5 5 5 5 5 5 8 4 > , 4 5 5 , & , , > , , , & , % , > , % , , $ $ , : & $ $ , % > + 4 % * * > % % % + % % X $ . O % O   O $ $ O @ .   ",
"O O = + + - + > % + % - + + % - $ O O $ > % > $ O O : > > > > $ : % $ $ % $ > > $ : > > > , > > 4 > 4 7 4 > - > 4 7 7 > > > > > 4 4 4 5 , r , , , , , , 3 , , , , , , , , , , , , , , 5 & 5 , 4 5 , 5 , 8 r 8 r 9 8 8 6 9 9 9 9   * [.HXz.@ @ iXPX#XbXIXV.. O K 1 k ` &.2.$.0 @ n.KXF.F.8X; J *Xb.; g ; g i.[.;.@ k.F.XXuXhXuXPXHXIXxXHXiX4XPXPXl.+ uXMXHXxXuXOX# B.SX4XMXuX Xp.rX!.=.i.g.PXj.  .XJX3.F.PXqX#XPXz.* x.zXXX& T.5X+ 4 r W   *.zX=.  V + D V 9 S 5 8 9 9 k k e 9 9 9 9 e 9 9 9 e 9 9 9 9 9 9 9 9 9 9 9 9 9 9 k 9 9 9 9 9 9 9 e 9 e 9 9 k t t 9 9 e 9 9 9 9 9 9 e 9 t 9 9 9 9 9 s t 9 9 e 9 9 9 9 9 9 9 k V V 9 9 9 V 9 9 9 V e 9 e 9 9 V V t 9 V 9 9 9 9 9 9 9 9 9 9 9 s 9 e 9 9 9 9 e e e e 9 9 8 9 C 9 e C * + R D @ 4 V 6 9 V e 9 9 9 9 9 9 9 9 9 9 9 9 e 9 9 9 e 9 9 9 9 9 9 9 9 9 9 e 9 9 9 9 V 9 9 9 6 9 9 6 9 9 s 9 9 9 9 6 9 9 k 9 9 9 9 e 9 9 9 8 8 e 8 e 8 9 e 8 8 4 8 9 r 9 9 5 9 9 9 9 9 9 0 9 0 0 0 0 0 0 6 9 9 8 6 8 9 9 6 8 6 6 6 0 0 9 6 6 0 5 4 6 6 0 6 9 9 6 6 0 5 5 5 5 5 5 5 5 4 8 8 4 % % % 5 , , > , , > , , % , & , % , % , : & , , > % % > % % + % + q % > + % % % + X % $ . O $ $ X . O % X @ .   ",
"    . . O O + - > - % + > - > % $ O $ : $ > : $ O O $ : > > > $ > $ > > > > > > > % > , , > , , 7 > > 4 4 > > > > > > 7 4 7 4 7 & 4 4 4 , & , 6 & 3 , & & , , r r r 3 r , r r , , , , , 5 5 5 r 5 r , r 8 4 5 8 8 8 0 9 9 s 9 9   B.SXIXOX    U.tXPXGXVXL.  r e 8 k &.D.i.0 0 D .XPXH.'.;Xo ' *X{ @ g ; { !.;X{ '.8Xi.hXPXU.xXHXxX5XIXHXg.D PX4X  OXxXGXxXOXXXB.q z.xXuXIXOX_.G.aXPXzXj.E U W   VXJX#   L.5X3.      xXPXI.W a.. @ C t E   5 S.<.X V 4 V 5 9 C 9 6 6 9 9 e V t 9 k e 9 9 e 9 9 e 9 9 9 9 9 9 9 9 9 V 9 e 9 e 9 e t e 9 V e 9 9 9 e 9 9 9 9 9 e 9 9 9 9 9 9 9 9 9 9 k 9 t s 9 9 9 9 9 9 e t 9 e 9 6 9 9 e t V e 9 V 9 9 V e 9 9 e 9 t 9 9 9 e e e 9 9 9 6 6 9 9 9 6 9 e k k s 9 6 e 9 9 e e e 9 e 9 V 9 e D 4 X S V + 4 V s 6 V k 6 9 9 9 9 k e e V k V t V 9 V 9 e s e 9 9 9 9 9 9 9 e 9 9 e 9 k V 9 9 9 9 9 9 9 9 9 9 9 9 9 9 6 9 s 9 s 9 e e e 8 e e 8 8 9 e 8 4 8 e 9 4 4 8 9 8 8 5 9 8 8 9 e 0 9 9 9 9 9 0 0 7 8 8 9 6 8 0 8 0 5 4 0 5 8 8 9 4 5 8 6 5 0 5 5 5 5 5 5 4 6 5 5 5 5 5 5 5 5 5 , > 4 8 5 % & , 5 5 , > > , & > % , : , % , % , % , : , , > % > % + + + + + + X X % % + + % O O + X $ $ X O O . O . .     ",
". . = O . O O O + > + > > + + - $ O O $ > > $ $ $ $ > > % : $ $ > > > : > > 1 > 1 1 , > > > > > 0 > > 7 4 > - > > > > > , 4 7 5 4 4 5 5 6 , 6 , , & , , & 3 , , , r r r r r , , , r , 5 r 5 5 5 , r , 5 8 8 8 8 9 8 6 9 9 9 6 0 @ OXHXhXxX4.@ @ z.PXIXI.$.$ 8 5 K - K 1X}..   a.PXIXn._.'.o { ;X9.f ; q Q.hXP.;.L.E.[.OX4.PXPX;XIXHXNXSX4XtXPX=.  4XHXPXHXIXuX0 w.PXtXIXIXl.# G.GXrXIXcXxX    4 j.E   #   X 0 <Xz.9 F.cX=.uXGX  6 9 % e r e r   4 e 9 e 4 9 9 k 9 9 s 9 9 9 e 9 9 w 9 e 9 9 9 t 9 e 9 9 t 9 9 k 9 e 9 k e 9 9 e 9 s 9 9 9 9 V 9 9 e 9 e 9 k 9 e 9 9 V 9 9 9 k w 9 9 k 9 9 e 9 e 9 9 9 9 9 9 9 e s 9 9 9 9 9 e V e 6 9 9 V 9 9 e 9 9 e 9 k t 9 V s e 9 9 9 9 k 9 9 9 9 t 9 9 9 9 9 e 9 e e e e e 9 V 8 e S 4 . V 6 X * V e 6 9 9 8 0 8 6 9 9 k e w e e k V 9 9 9 9 9 9 9 9 9 e e 9 e 9 9 k 9 9 9 V e 9 9 9 9 9 6 9 9 9 9 9 9 9 9 9 9 6 9 9 e V e k 9 8 9 8 9 e e 4 8 9 8 4 5 5 6 r 8 5 5 5 5 9 9 9 9 9 9 9 0 9 0 4 8 9 9 6 0 0 8 4 5 0 4 4 0 6 9 * 0 8 0 6 4 4 0 0 5 4 4 4 4 5 4 5 5 5 5 5 , 5 , % > 4 4 > 4 & 5 r , % , , , , , % , $ , , & & : , , , , > $ > > + + + + + + + + % % % % % O % X O X O O $ O O . X .     ",
"> 1 5 4 > + O O - + - > + $ > $ $ O O $ % : > $ , > > $ $ $ $ $ > > > > , > , , 5 7 , > : > : > , > , 7 4 > + - > 4 4 4 > , , 7 & 5 6 5 , 6 , , r r , , r , , , , & , , , , , & , , r r r 5 , 4 , 5 , r 8 8 e s 9 9 9 9 9 0 4 4 { uXHXtXIXNX=.  X I.IXc.  j S Z Z - a _.zXw.@ B.IXhXP.!.|.; :.=X' g o Z [.KXY.2X;X;X.X0 @ L.;XT.uXHXPXsXPXVXQ 0 q 4.w.w.w.IXIX# a.HX;XPX<X  @ p.PXzXPXF.U 0 q w     * Q 9   6 NXu.  0   2.HX}.  4 k K % e e   C > k V V > e 4 9 V t k w 9 9 9 9 e 9 9 k w k 9 9 9 V 9 V 9 k 9 e e 9 w 9 9 9 e 9 e 9 9 9 V e 9 9 9 k 9 w 9 9 9 9 V 9 V 9 e e 9 9 9 V 9 9 9 9 9 e V 9 t k 9 V 9 e V 9 9 6 5 9 e V s 9 6 e 9 9 9 9 k 9 9 t 9 s e e t k V 9 t 9 V V 9 9 9 9 9 9 9 9 e 9 9 9 e e V V 0 V 4 9 S 0   6 4 + > V s 8 s 9 6 9 9 9 9 6 9 9 9 9 9 9 9 9 9 6 9 9 9 6 9 9 9 9 9 9 9 V 9 t 9 9 t 9 9 6 9 s 9 8 9 9 6 6 9 9 9 k 9 9 6 6 9 V e V 8 9 8 8 8 8 8 9 8 5 4 4 8 8 5 5 9 5 5 4 4 4 0 5 6 9 0 9 9 9 9 9 4 0 9 9 6 5 5 6 9 9 6 8 8 8 0 8 % 4 6 0 4 4 4 5 5 5 5 0 4 5 5 5 , , & , , , 4 5 % & % , 4 4 5 , , , % % % , > : , & , > , : , , , & , , > % % > % > * * > + 4 % % + % % X % + $ % O X $ % X .   X O     ",
"- A 8 k o 4 O . $ : % $ $ O $ O O O $ $ $ > % > O $ $ > : % $ $ + - > > - 4 > 4 - > > > > 4 > > > > , 4 > > > - 7 > > > 4 > 7 5 8 8 5 , 4 , 4 5 5 5 5 5 5 , 4 , & % % , , , r r 5 5 5 5 r r 6 6 4 8 r e 6 8 8 9 9 6 0 e w 0 0   u.PXxXuX4XPXu.# # `.hXY.@ A - s - V Y B.SXY.@ !.IXSX[.!.*Xo Z 8X1.; @ 0 g p.hXG.l.!.hX;.@ @ @ { { w z.qXVXMX. +   0 @ +   Q R   q q 1.PX;X@ s @ ;XPXk.    G g Z 0 g 4 w @ *. X4.* 6   X R `.6 D * 9 + y 4 S e W C t y t e 4 4 6 9 9 e 9 9 t 9 V 9 9 9 9 9 9 e V 9 9 V e e e 9 9 9 9 9 9 9 9 9 9 9 9 e 9 e 9 e V 9 9 9 9 9 9 9 9 e 9 9 9 9 9 V k 9 9 9 9 9 9 9 9 V V k 9 6 9 9 9 9 9 9 6 9 9 9 V 9 t 9 9 e 9 9 9 e 9 e 9 t 9 t 9 s 9 e 9 9 e w e k 9 V 9 9 9 9 9 9 9 t 9 9 9 k 9 9 9 V 9 V 9 . + 4   > V V r 9 9 0 9 9 w 9 9 9 9 9 e 9 9 9 e w e k V e e 9 9 9 9 9 9 9 9 9 9 9 s 9 V 9 9 9 9 9 9 e 9 9 9 9 9 9 9 9 6 8 9 9 6 8 9 8 9 6 9 8 0 5 0 9 9 9 8 8 9 0 9 6 9 9 9 9 6 9 s 0 9 6 8 6 9 5 4 9 9 6 6 8 9 8 0 9 9 9 9 0 5 4 0 5 0 4 4 4 4 4 4 r 8 5 , , , , , , , , , , , , , , , 5 4 , & 4 8 > 4 4 5 , % % & > , , , $ $ , $ , % * > % % > > > % % % > % % + > * % 4 % % X + % + + O O O . . . @     ",
"o 9 s 5   = > O O % $ > > : $ $ : % > > > $ : % $ $ > > > > > > 4 > + > > + > > 4 4 > - + > 4 4 4 4 1 5 4 4 4 > 4 > 4 > 4 > > , 9 8 8 5 4 5 5 5 4 5 5 5 5 5 , 4 5 r 8 r 5 5 5 5 r 5 , 5 5 r 8 5 5 8 6 r 9 8 9 9 5 6 9 6 V V 8 X z.HX6XuXtXHXqX  X `.PX.XG   g G q - g E.PX.Xg XXIXSX!.!.!.s q.;X1.o Z H.W.(.&Xa.B.L.SXD.0 ; q !.<.+   <XPX`.  @ S w D + 6   a.l.  q W 4.{ @ o @ -   @ - Y @ g + 0 V W +   l.BXE * HX3.~ JXD 9 * y A e e   y e & 6 4 5 e e e e t V 9 9 9 9 9 9 9 V 9 e 9 9 9 9 9 9 9 9 9 9 9 9 9 9 9 V 9 e 9 e w e 9 9 e 9 9 9 9 V 9 9 9 9 9 9 e 9 9 9 9 9 V 9 t 9 9 9 9 9 9 9 e V 9 9 6 6 9 9 9 9 9 9 9 9 9 9 V 9 9 9 k 9 e V 9 9 V e 9 9 k 9 V 9 t 9 e e 9 9 9 9 e 9 9 9 t 9 e 9 k 9 e 9 9 9 V k 6 V 6 V 9 @ + 4   % V k 8 9 9 8 9 9 6 w 9 w 9 e 9 9 k 9 9 9 9 9 9 9 9 s 9 9 9 9 9 9 9 9 9 e 9 9 9 9 9 9 9 9 9 9 g 9 9 9 9 8 9 9 9 9 9 9 9 9 9 9 0 9 8 6 9 8 6 9 9 6 0 6 9 8 9 9 9 9 9 9 9 6 9 8 9 9 6 6 9 6 0 9 9 9 6 0 9 6 9 9 s 9 6 8 0 5 4 0 5 4 4 4 4 5 5 5 , , , , , , , , 3 , , , , , , 5 , , % > > 4 4 4 4 5 , , , , , , : , , $ $ & , , % > % % 4 * % 4 % % * * > % % % > % 4 % + % + % % % X O X O O + +     ",
"  7 Z + o o > O O : $ : $ $ $ $ > > > > > > : $ : : > > > > > : > % 4 % > - > 4 4 4 + - + > 4 4 > 4 , 0 7 7 4 , 7 > 4 4 4 7 4 7 8 8 8 5 5 5 5 r 4 4 , 5 5 r , , 9 r r 6 5 5 5 5 5 5 5 5 5 5 5 5 8 8 8 4 5 8 9 0 9 9 V + 9 V X # S.xXCXSXzXxXPXY.  D KXPXj.@ G   n.w.0 { xX;XW XXIXtXB.;XW.q d.;XJ q i.8X|.!.;XSXPX8X8X`.o q KXSXD q * PXPXR @ D D 4 W q a.6 L.PX4.@ q   W 1.{ SXqX!.0 @ q   G <.  4 @ y D     X L.GXPXVXIX!.  * 9 * C U 4 t C 4 S t t t y 9 6 r 9 9 9 e 9 9 9 V e e e 9 9 9 9 9 V e 9 9 9 9 V e V 9 k 9 e 9 e 9 k 9 e 9 9 t t 9 9 k 9 e 9 9 k e 9 e e 9 9 9 e k 9 9 9 9 9 9 9 9 9 9 9 9 6 9 9 s 9 9 9 9 k 9 9 9 9 V 9 t 9 9 9 9 e V 9 V 9 k 9 V 9 9 9 V 9 9 t k 9 9 e 9 9 9 s 9 9 w k e 9 9 9 t 9 9 k 9 V 9 . + 4 . % V k 9 e 9 6 9 9 9 9 9 0 s e 9 s 9 e e 9 k 6 9 9 9 9 9 9 s 9 9 w 9 9 9 9 9 9 6 9 9 9 9 k 9 e 9 s 9 9 9 9 9 9 9 9 9 9 9 9 9 0 8 8 6 9 9 9 9 8 9 8 9 9 0 9 9 k 9 8 6 9 9 9 6 9 9 6 8 9 9 9 5 9 9 9 8 8 6 9 6 9 9 6 9 6 5 8 0 5 5 8 6 8 8 8 8 % , , r r , , $ & 3 , , , , , & r > % & 4 4 * * , 4 5 5 , , , , $ : , & : : $ : % , * % % > % 4 , * > % 4 % > % % % % % % + O X > % % % % O O X + @ @   ",
"O 7 U . -   4 O $ % O > : O : O > > : > > > > > % > $ % $ > > > - > + - + 4 4 > 4 > 4 % - > > 4 - - - > > > > > , 4 > > 1 4 7 , 4 4 4 , , 4 4 , , , 5 5 5 5 4 5 % , 5 4 , 5 5 5 5 5 5 , 5 5 4 , r 4 4 4 5 9 9 5 9 9 V q 0 6   D tXHXx. XJX4XPXrX# 0 I.PX|.. o 0 U.ZXw.@ 4X4XD ;XHXhX!.;X'.@ b.*X0 @ m.4X).[.[.6XmX[.|.h.- Y mX!.+ 0 9 VXzXw . 6 + w D . 2XnX4XqXz.W x.  w dX(.8X_.Y 7 W Z G.*.=.~ S.<.9 # 2.*   PXBXPXBXUXX + C e 4 6 t t w 9 & e * % * 4 6 6 6 V 9 e 9 9 k t 9 9 9 9 V e V 9 9 9 e 9 9 9 9 e 9 9 t 9 V 9 V 9 k 9 9 t 9 s 9 9 9 e 9 9 w e e 9 V 9 V 9 9 9 V 9 t e 9 e w e 9 e 9 9 9 9 9 9 9 e 9 9 9 9 e V 9 9 9 9 9 9 9 t 9 s t 9 9 9 9 t 9 9 9 e 9 9 9 e 9 9 9 9 9 9 e 9 e e t 9 9 9 e k 9 9 9 k 6 e 9 V 9 . + 4 . % e e 8 9 9 9 9 9 9 9 w 9 9 9 9 9 9 9 9 9 9 9 6 9 9 6 9 9 9 9 9 9 k e 9 9 6 9 9 9 9 9 V 9 9 e 9 9 9 9 9 9 0 9 9 9 9 9 9 9 9 6 8 0 9 9 8 9 9 9 0 9 6 8 9 6 9 k 9 4 0 9 s 6 8 9 9 8 0 8 9 9 5 9 9 9 6 8 0 9 9 9 9 9 8 6 0 5 5 0 0 8 5 8 5 5 5 , , > , , , , , 3 & & , , & , , 5 4 , % 4 , > > % , , 5 , & , , & , , : & & : , , 4 % , % * > % > 4 % > % 4 % % + % % + % $ + $ O % X O O X . . X @     ",
"- 4 T   > + 4 O $ : % O : $ : $ O $ : > > > > > $ $ O : $ $ $ > - % > > - > - 4 > > - > 4 > 4 - + + - > > > > - > > - > > > > > , , 4 , 4 4 , 4 , 5 5 5 5 5 5 5 % % % 4 , 4 5 5 5 5 5 5 5 4 , * 8 5 4 4 8 8 9 0 9 4 V 0 9 9 X =.MXCX=.Q uXNXIX_.@ q 2.mXs.  7   l.IXP.@ uXhX4.hXSXhX!.).[.d B.B.q @ p.|.!.hX|.B.SX!.L.g   ;XSX1.-   g.PXg.  g q E V   q <XPXMX.XD !.!.E !.PX[.OXl.@ Z @   _.SX  * aX X  S PXu.  4.BXJXzXW X D * C S r & t D t 4 E S t V C C C C V 9 9 9 9 9 9 9 6 6 9 k w k e 9 9 9 e 9 e 9 9 9 e 9 9 9 9 9 e 9 9 w 9 w 9 e 9 k 9 e g 9 9 t k t 9 V 9 9 9 V 9 k 9 e 9 9 9 9 9 9 e 9 9 9 s 9 V e 9 e e 9 w k 9 9 9 e 9 e 9 e 9 9 9 e 9 k 9 9 k 9 V 9 9 9 9 9 9 t 9 9 9 w 9 k e e 9 9 9 9 9 9 w k 9 9 e 9 V 9 . + 4 . % V 9 9 e e 9 s s 0 0 9 9 w 9 9 9 9 9 9 9 9 s 9 9 9 9 6 6 9 9 k 9 t 9 9 9 6 9 9 9 9 9 9 9 9 9 e 9 9 9 9 9 9 9 9 9 9 9 9 9 9 9 9 9 9 9 6 8 8 9 8 6 9 6 9 9 9 9 6 7 0 9 9 9 6 8 6 6 4 0 9 9 5 9 8 0 8 6 9 9 9 9 9 9 9 8 6 0 8 4 5 5 8 8 5 4 4 5 , & > , , , , r , , , , , r , , , 4 5 * , , 5 % 4 , 4 , > , , & 3 & 3 3 & : 3 , % 4 % > % > * 4 % % % % * % % % % % + X O + O $ O X O O O . . X .     ",
". 4 ` . + + > O O % $ > $ $ $ O O O O $ $ $ $ > $ O $ $ $ $ $ $ 4 % + > % > > > - > 4 4 4 4 > - > > > , 4 4 > > > > 0 , 4 7 4 , 4 4 5 5 5 5 5 5 5 5 5 5 5 5 4 4 4 8 5 5 5 4 4 r , 5 5 5 , , 4 4 r 5 4 8 6 8 9 5 0 4 w 9 9 0 + $.MXPXXX@ `.PXGXQ   W V 4   k.*.0 m.HX;X0 l.B.w.HXhXhX;X!.).; M.!.o Y i.s.!.;X!.;XmX!.'.*.@ PX X  6 <X6X<.@ w w g 4   w (.GXrXGXw.{ B.F.SXSX`.hXSX2.0 q - E i.I.<.XXPX<X4 6 y   L..XaXVXoX    V w 5 t D D 6 & + e W C e 6 6 * * * 9 e 9 9 9 e 9 V 8 9 9 t 9 e e V 9 9 e V V 9 9 9 9 9 9 9 9 9 9 9 9 k k 9 e 9 9 t 9 9 9 9 e e 9 V e e V e V 9 t 9 k 9 V 9 9 V V 9 k e V t e e e 9 9 e 9 V e 9 t 9 9 9 w 9 9 9 k 9 9 9 9 9 9 9 9 9 9 9 9 e w k 9 9 9 9 9 k 9 9 9 V 9 9 V V 9 9 9 9 s 6 9 9 V 6 . + > . % k k 8 9 e w 9 w w g 9 9 9 9 9 9 9 9 9 9 9 k V 9 6 8 9 9 6 9 9 9 9 k 9 9 9 k 9 V 9 9 9 9 6 e 9 e 9 9 9 9 9 9 9 9 9 9 9 9 9 9 9 9 9 8 0 9 0 9 9 8 0 8 9 8 9 6 6 0 5 9 9 9 9 0 8 0 0 8 9 9 0 6 9 9 6 0 9 9 9 7 9 6 6 6 8 0 8 4 4 5 8 5 8 4 4 r 5 , , > 5 , 5 , r , r 3 , , r , , 5 5 , % 4 8 4 4 5 , , > > > & & 3 & & 3 & , % 4 % 4 4 4 % % % % % % % > > X % % + % % % % % X $ > % % % X O + + @   ",
"  7 &.> @ = - > O : $ O $ $ $ $ O $ $ $ > : $ > $ $ O O $ $ $ > > - % - 4 - > 4 > > > > > > 4 > > 4 , 7 4 4 4 > 4 7 8 7 8 5 0 7 4 4 4 5 5 5 5 5 5 8 5 5 , 5 4 % 4 8 r 5 5 4 5 5 , 5 5 5 4 , 5 r 5 8 8 8 8 8 9 9 9 9 9 9 6 4 q w OXcXx.D 3XMXIX0 + @ V D 0 '.k.o p.SXIX4.@ 0 Q xXSXhXvX8X[.f B.>X` E.B.p.hXhX!.8XhX'.PXs.7 ;XU 0 3XuXw.    w * S 0 # w.rXPXVXqX4 @ T.tXPX4XI.|.<.  w W   *.U.  u.IX=.  D U   * <XPXcXG.q   W 4 E * 6 C W . C y   r 6 6 e t y V D 9 9 t 9 9 k t 9 s 9 9 9 9 9 9 9 9 e 9 9 e 9 e 9 9 9 t 9 k 9 9 9 9 9 e 9 9 9 9 9 9 9 9 9 9 k 9 V e e e e e 9 e 9 9 e 9 k t 9 t 9 w k V 9 k 9 9 9 e 9 9 k 9 9 9 9 V 9 e k k e 9 9 9 9 9 9 9 9 9 9 9 e e 9 e 9 k 9 V e 9 9 e e 9 9 9 e e 9 9 9 e e s 6 s 6 9 9 . O > . % V V 9 9 9 k 9 9 9 6 9 9 g 9 9 9 9 9 9 9 9 t e 9 9 6 9 9 9 9 9 9 9 9 9 9 9 9 9 9 9 e 9 9 9 9 e 9 9 9 9 8 9 9 9 9 9 9 9 9 9 9 9 9 9 9 9 9 9 9 9 9 6 6 9 6 9 9 9 8 8 5 5 0 8 0 9 5 8 8 9 9 5 9 9 0 8 8 9 9 9 9 6 8 8 8 9 8 6 4 5 8 8 9 8 5 5 r 5 5 5 5 5 5 , , & , & , , , , > , , 5 4 4 4 5 4 5 5 5 % & > % : : 3 , 3 : 3 , , % 4 % % * % % 4 % % % % % % % % % X % + % % % X % % % % X O . + + @   ",
"  9 ,.7   . @ > $ O > > $ : : O $ $ $ $ $ $ O O > > > O $ $ > > > + 4 > + > > > 4 > - 4 > - > > > 4 4 7 4 > 4 - > - > > > , > > > & 4 , 5 4 , , 8 5 r 5 4 , > & % 4 4 4 , % , 4 , 4 r 5 5 5 5 8 4 8 e 9 9 9 6 e 0 e 9 V 9 g t X =.~ @ =.PXPXPX2XS s 0 }.j.q { o ;.hXIXB.g { g B.SXSXSX;X).{ B.W.i.B.k.w.;XdX`.n.!.;XPX{ q ;X6Xo Y.8XF.z.4 q W 0 g @ S.PXzXU.D # @ B.IXxX8XPX`.@   R   X 9 j.0   E %   v.u.* y (.PXJX@ X 6 6 * D 6 t 4 + X }.UX6 * 5 9 t t r 8 6 V 9 9 9 9 9 9 9 V V 9 9 9 9 9 9 k e 9 9 9 9 9 V 9 V 9 9 e e e w 9 e 9 e 9 k e 9 9 9 6 9 9 9 9 e e e V V e V 9 9 V 9 t 9 9 k 9 V e e 9 V 9 9 6 9 V V e 9 9 e e 9 9 9 9 9 9 9 9 t 9 9 9 9 e 9 9 w e 9 9 9 k 9 9 9 9 e e 9 9 9 9 9 9 9 9 V 9 9 e 9 9 6 9 6 V 9 @ X * . > V k 9 9 9 t V s w 9 g 0 9 6 9 9 6 9 9 9 9 e 9 9 9 9 s s t 9 9 9 9 9 9 9 V 9 6 9 9 9 9 9 V 9 9 e 9 9 9 9 9 9 9 8 0 6 9 6 9 0 6 8 9 9 9 9 9 9 9 9 8 6 6 9 9 k V 9 6 0 4 4 4 7 6 6 8 9 s 9 0 7 6 8 9 9 8 9 9 9 9 0 9 6 6 0 8 5 5 9 9 9 8 5 5 r 6 5 5 r 5 5 , r , r , , , & , > % % % 5 5 4 & 5 5 5 5 , , > > : & & 3 & & & , % > % 4 , > % % 4 % % 4 4 > * > > % % % % % % 4 . O O + % O O . X @     ",
"  - ;.,   > > > + : % > $ $ $ $ $ > , , $ $ $ % O : > $ $ > : $ + % > > > > > > 4 > > - > 4 > 4 > > > 4 4 4 > 7 > > > > > > > > , , 4 4 , 4 4 5 , 5 , 4 4 5 5 5 4 , 5 5 5 r 5 5 5 5 5 5 5 5 r 5 , 4 8 6 9 r 9 0 9 4 6 w 9 * S   0   @ Q 5XIXhXPX<X    3XE.    7 g P.IXSX!.hXw.w B.8XKXhXB.:.B.B.F.P.n.l.!.8X'.;XSX).!.;.  { k.  q PXIXW + 0 W w 4   !.PXMX=.  w.`.2.z.XX.X.XOXp.# 6 6 S.!.E 5 4   @ R PX.X  u.}.HXc.6 X w C C t y C * *   PXJXe X t e t y 6 e e 9 V 9 V 9 e k e 9 9 9 9 e t 9 9 w e 9 9 9 9 V k 9 e 9 9 9 9 e k 9 V e 9 e 9 V 9 9 9 9 9 9 9 t e t e 9 9 V t s 9 e V e V V 9 9 9 9 9 9 9 9 9 e 9 9 9 e 9 k 9 V V 9 t e 9 k 9 t 9 V e k 9 9 9 9 9 e e 9 9 9 9 9 9 V 9 e 9 9 9 9 9 9 9 e V 9 9 9 9 9 9 8 V 9 9   + 5   > 9 8 9 9 9 6 9 6 9 9 0 9 0 9 9 9 9 9 e 9 9 9 9 9 t e e 9 9 9 9 9 9 9 9 9 9 9 9 9 9 9 9 9 9 k 9 9 9 6 0 8 9 9 9 9 9 9 9 V 9 s 9 9 6 9 9 9 s V 9 6 8 9 9 r 9 6 8 6 6 9 9 9 9 8 9 6 8 9 0 9 0 5 4 0 8 9 9 9 9 9 s 9 9 9 6 9 9 5 8 6 9 9 8 8 5 , 5 8 5 4 4 5 0 r r , r 8 4 5 8 8 5 4 , , , , , 4 , , % $ , , , 3 , , , & 3 & 3 5 , % % 4 4 4 > 4 % % % > 4 > 4 % % * % % + % % % % + O O O X % + +     ",
"  - *.>   > - + - O $ $ : $ $ $ > : > > > $ > : $ > % : > O : % - + - > > + - + - > + - > 4 > > 4 > > > > 1 4 > 4 7 4 4 4 , 4 7 4 4 5 5 , 5 5 5 5 5 5 5 5 , , , 5 5 5 5 5 5 5 5 5 5 5 5 r 5 8 8 8 8 8 r 9 0 5 5 9 V 9 0 w D 4 D @ Q @ 0 =.PXuXPX_.@ 9 hX X@ Z   q 8XSXhXhXuXT.@ Y.HXtXhX;X{ Q.*X9.B.h.G.hXhXY.h.;X).!.w.o l.{ + q mXhX@ @ g D g   D OXxXPX  u.MXNX8XoXB.(.hXMXPX@ q @ u.PXR   V S   6 G.~   2.cXz.+ X S 0 * y + C + C E   L.PX6 X e 6 e e 5 e e e 9 9 9 9 9 s 9 V e 9 V e k e 9 e 9 9 9 9 9 9 t 9 9 9 t 9 V 9 9 9 9 9 e 9 9 9 9 9 9 9 9 9 k 9 V V V k 9 9 9 9 6 9 9 9 9 9 9 9 9 V 9 e e e 9 s t 9 9 9 e 9 9 9 9 9 9 9 k 9 e 9 9 t 9 w 9 e 9 9 9 k w t 9 9 k e 9 9 e e e V e 9 e 9 9 9 9 V 9 t 9 9 9 0 V 9 t   + 8   4 e 8 9 9 9 9 9 9 9 9 w 9 9 9 9 g 9 9 9 e 9 9 9 9 k 9 s 9 9 9 9 9 9 9 9 9 9 9 9 t 9 9 k 9 9 9 t e 9 6 9 9 k 9 9 9 9 9 9 9 9 6 8 9 9 9 9 9 9 e 9 9 9 9 9 9 0 0 6 8 6 0 8 6 8 9 0 9 9 9 9 9 6 5 4 0 0 6 9 9 s 9 6 6 6 8 8 0 6 8 8 8 8 8 8 4 0 4 4 4 0 9 6 0 6 , , , , 8 4 4 r 8 4 4 , % , , 4 , & , > , , , & & , 3 & 3 & 3 & 4 % % % , % > * 4 4 4 4 4 4 % > 4 % > % % % % + + X $ X O $ O X + @ @   ",
"  4 &.4   4 > + $ > > : > $ $ $ > > $ $ > > > > % % $ O $ % % > + > + > 4 > - > % + > 4 4 > > - - 4 4 - > 4 > 4 7 7 7 , 4 7 7 7 5 4 5 5 5 r 5 5 5 5 8 5 5 5 4 4 r 5 r 5 5 5 4 4 5 5 5 r 5 5 r 5 8 8 9 8 8 5 4 4 V 9 4 g 6 0   XXx.z.5X0 W NXSXKXS.  q p.w.  G o ` SXhXmXSXxXB.{ ;XSXKXhX[.m.B.B.w.B.9.w.PXPX`.g.h.U.PXh.o { { g   Q 4.w D g g w # L.SXIXQ # ;XHXCXPXSXHXGXPXJXJX  * V t   ! c.X   Q oXu.  6 pX5X  . 9 D t t V 0 t 5 E r   S.PXe X e r e e * 6 y 9 9 9 9 9 9 9 6 9 9 9 9 k 9 9 9 e e 9 9 9 9 9 e 9 9 9 k 9 9 9 9 9 e 9 9 9 V 9 e e 9 9 9 9 9 9 V k s 9 s k 9 9 6 9 e 9 9 9 6 9 9 V 9 e 9 t e 9 V 9 9 9 9 e t 9 V 9 s w 9 9 t 9 9 9 9 9 9 9 9 V 9 V k 9 e t w k t V t V 9 e 9 e 9 9 9 e e k V V k e 9 0 V 9 V   + 9   4 e 9 k k t s 9 V s 9 g g w 9 9 9 9 9 9 9 9 9 9 9 9 9 9 6 9 9 9 9 9 e 9 9 k s e s 9 t V 9 V V V 9 e 9 9 9 V 9 9 9 9 9 9 s e 4 8 6 9 8 5 8 6 9 9 e 9 9 9 5 9 0 5 8 6 6 8 9 0 9 9 8 9 8 0 8 9 5 0 0 8 9 6 9 9 8 0 8 4 0 5 8 0 9 8 r 5 5 4 4 4 6 0 4 4 9 6 0 4 6 , & r 5 4 4 4 5 4 , % % , , , * , , , : & , , & 3 , , , 3 & 3 , % % % % 4 % % 4 > > % % % % X 4 % + % % % % % O % + O O X O X + @ @   ",
"  4 $.-   > - - : O > % $ : : : > $ $ $ > > > > > : > > > : > $ - + > 4 4 4 4 4 > > > > 7 4 > > > > > 4 4 > 7 > , > 4 > 4 > , > , , 4 , 5 5 5 5 , 4 , 5 5 5 5 5 5 5 5 r 5 5 5 5 5 5 5 5 8 5 r 5 4 4 5 9 8 8 0 6 D 9 4 S 8 @ t PXXXz.PXW D GXJXPXp.  0   g 7 s q g ;XIXvX+XSXB.0 [.hXHXhXW.B.Q.:.h.[.L.w.;XdX[.6X!.!.8Xo @ g q q w D # * q 0 * @ 0 4XPX<X  R L.Y.8X4X4.[.MXxXPXcX4.  0 j.  Q G.D   4.JXU.* 4.PX3.  V y * 9 V t 0 t D C   ! aXBXt   e e 6 e 6 t r V 9 V e 9 9 9 6 9 9 9 9 9 9 9 6 9 9 9 k 9 k 9 9 s t 9 9 e 9 e 9 9 9 e 9 9 9 9 9 9 9 9 e 9 9 e 9 9 6 9 9 t V V 9 V 9 9 e e s t 9 e V 9 e 9 9 e V 9 9 9 e 9 9 e 9 9 e 9 k 9 9 e 9 9 9 9 k e e 9 V 9 9 e 9 9 k V e e 9 9 V 9 e 9 V 9 9 9 e t e e t e 9 9 V 9 t   > e   4 k 9 k 9 k 9 e 9 w w w 9 s 9 t 9 9 9 9 9 9 9 9 9 9 9 9 9 9 9 k w e 9 9 9 9 t 9 9 9 9 9 9 9 9 9 9 9 6 9 9 9 9 9 9 9 6 9 9 e 4 0 9 9 6 0 0 6 0 9 r 9 0 5 9 9 4 8 0 5 8 0 8 8 6 8 9 0 6 9 9 8 8 6 8 6 7 9 9 9 0 8 0 4 4 4 7 5 r 8 4 5 4 4 5 5 8 4 0 8 6 6 4 0 5 6 & 6 5 4 4 0 5 4 4 4 , , % , > 4 & , , , , , 3 & & 3 & & 3 & % % > * 4 % % % 4 % % > * % % + + % % % + % % O + O + % % X O . + X     ",
"  4 T O   - O . O > : > $ $ $ $ $ $ O O $ > > : > $ > $ > > $ > + - > > > , > , + > > 4 4 4 > + 4 - > 4 > 4 7 , > > > 4 - 4 > 4 % 4 * , 4 4 , 5 5 5 4 , , 4 8 r 5 5 5 r r 5 6 8 5 5 5 5 5 5 r 5 8 4 8 8 8 8 6 6 V k 9 V 9 0 u.MXuXxXaX<.W MXzXGXT.4 9   - D 0 7 o H.IXhX4.l.;X0 l.IXhXhX].1.].B.a.l.k.L.hXPX'.'.8XY.l.J o 0 o q SXhXD 0 # @ q p.x.!.tXU.0 Q U.!.3XIXS.4XPXxXBXPX4.  R I.~   a.E     z.e   XXaXU w   9 W 9 6 V 6 C * X X }.JX5Xe   e e e t e t e k t 9 9 9 9 9 6 9 9 9 9 e e 9 9 9 t 9 9 V 9 9 e w e 9 9 k 9 w k V 9 e 9 e 9 e V e 9 e 9 e e e V 6 6 6 9 9 V e V 9 9 e e t e e k 9 9 9 9 9 9 9 9 9 9 9 9 s t V 9 e 9 k 9 9 9 9 9 9 9 9 9 9 e e e 9 9 9 9 9 9 9 k 9 9 9 9 9 9 9 9 9 k s w k 9 V 9 e 9 9 V e e   + e   > e 9 k 9 9 9 9 0 w 9 9 9 9 e 9 9 9 9 9 9 9 9 9 9 9 9 9 9 9 9 s 9 9 9 9 9 9 9 9 9 9 9 9 9 9 9 9 9 6 6 6 s 9 9 9 9 9 9 9 9 9 0 9 9 8 8 0 8 s 9 9 9 0 4 0 8 9 8 0 8 0 0 6 8 0 6 6 8 9 0 9 6 8 6 6 8 8 8 6 9 9 6 8 0 5 5 5 6 8 8 4 5 4 4 7 6 8 0 0 8 6 0 4 0 0 6 & 4 0 4 4 > 4 5 , , % 4 , , , 4 , 4 , $ , , $ & & , 3 3 3 & 3 % % % % > % % % % % % % > % % % % % % + % + + % X O $ X % O O . + @ @   ",
"  8 U . . O . + O $ $ > : $ : $ $ O O O $ > > > : > > > > $ > > 4 > > + + + - + - + + + > > > - 4 > - 4 > 4 > 4 > 4 > , 7 > > 7 % % 4 % , 4 5 4 r 5 4 , % 4 4 4 5 5 5 5 5 r r 5 5 5 5 5 r 5 r 6 8 8 8 8 8 8 9 6 V 4 6 D 9 . L.VXVXPXMXl.Q JXPXPXIXU @ D S 4 J q q [.IXhXw.i.SXXXB.IXmXhXY.m.;XW.n.Z { !.1XhX[.Y.W.[.;.@ 7 Y q D PXPXD   @ Y.8XIXzX8X4XS.@ { HXHXT.IXGXHXxXMXJXJX`.# & _.yXL..X& ! }.3Xa.6 4 D 6 4 0 t C t w y V S & % e rXBXBX5   e e t y e y e e V V 9 t s 9 V V e 9 V t t e e 9 9 9 t k 9 e 9 e 9 e 9 e 9 9 9 9 9 V 9 9 9 9 9 9 9 9 9 9 9 9 9 V 9 9 9 9 9 9 9 9 9 9 9 9 9 9 9 9 9 9 9 9 9 9 9 9 e 9 t 9 9 9 t t 9 9 9 9 9 V e 9 9 k 9 e 9 k 9 9 9 9 6 9 9 9 e 6 9 9 9 9 9 9 9 t 9 9 9 9 9 9 9 e 9 9 V e e   > 8   % 9 6 s 9 9 9 9 s 9 9 9 9 9 9 t k 9 9 9 6 9 9 9 9 9 9 9 9 9 e 9 9 9 9 6 8 6 9 6 8 9 8 9 6 9 6 9 9 9 9 8 9 s V 9 9 9 9 9 9 9 s 9 9 0 8 6 9 9 9 9 9 9 5 8 9 s 9 9 6 8 6 8 6 8 0 8 6 8 8 6 8 0 6 9 9 6 0 8 6 8 8 6 5 5 6 8 6 6 5 5 5 5 8 8 6 6 4 0 9 6 0 4 4 0 6 5 0 6 5 4 q 4 4 4 4 4 , % % , 4 4 4 % , , $ & 3 3 & & , & 3 & % % 4 , % % * % , % % % > * 4 % % + % % + % % + O % % X X $ O O @ @     ",
"o z U O - - > % $ $ O O O $ O O $ % : > % > > > > > $ > : > : > 4 > > > - - > > > > > > , , , > > 4 - > > 4 4 > 7 7 4 4 4 1 4 > , 4 % , 4 5 5 5 8 4 5 5 5 5 4 , r 5 r 5 5 5 r 5 5 5 5 r 5 5 5 8 8 8 8 8 6 9 9 9 V + 9 S 9   !.PXcXuXCX!.@ (.uXVXPX$.q =.F.U 7 @ q wXHX;X`.xXxX;X;XuXIXhXB.P.!.d.L.W i.hX3X2X;XG U |.&X  o h.KXPXNXB.@ D 2.;XhXNXuXIXuXE 0 x.IXtXXX4XNXPXxXHXaXl.#XI.  z.XXVXCXC E JXJXPXGX4 X S @ U V @ 9 t * 0 S 6 0 X }.cXPX*   9 e e t e V r 9 t k 9 9 e 9 9 k 9 9 t t t 9 9 9 9 V 9 9 w 9 9 9 9 e e 9 9 t k t 9 9 9 9 e 9 9 9 9 9 9 9 e V 9 k 9 9 9 e 9 9 9 9 9 9 9 9 9 9 9 e 9 9 9 9 9 9 9 9 9 9 9 e 9 e 9 9 V 9 9 9 9 e 9 e 9 9 e w 9 9 9 9 9 9 9 9 9 9 9 9 9 9 9 9 k e w 9 9 9 9 9 9 9 9 r 9 0 V 9 e   + 9   % 9 6 k 9 9 9 9 9 9 9 9 9 0 k 9 9 s 9 9 9 6 V 9 9 9 9 9 9 e e 9 9 9 9 9 9 6 9 9 9 9 9 9 9 9 9 9 9 9 6 6 9 V 9 9 9 6 9 9 9 9 k 6 6 9 9 9 9 5 9 9 9 9 9 9 9 0 9 9 9 9 0 9 9 8 8 6 8 0 8 0 8 6 9 9 0 8 6 6 5 0 0 0 4 8 8 0 9 8 8 8 8 8 8 8 8 0 7 0 0 0 0 0 0 0 6 0 0 6 6 4 q 4 , * , > , , % > , 4 4 4 , & , : & 3 , , 3 & & 3 % , 4 % 4 % % 4 4 > * > > 4 % > % % % + % % X % % $ O $ O O X + . @     ",
"  k S o - + + > O O $ $ $ O O $ $ : , , , : > > > > > > > > % > > - > > 4 4 7 8 0 7 > 4 4 8 4 5 > > > 4 7 > > 7 4 > , > > 4 , 4 & > 4 4 4 5 5 r & , 5 8 8 8 5 , 5 5 5 r r 5 4 4 5 r 5 5 5 r 8 8 5 5 8 5 9 s V V V 9 D V e S oXrXPXHXPXOX@ q (.PXmX=.4 g ;X9.  q q ).IX8XXXY.;X;X;XhXSXmX!.b.1.{ D.h.8XPXB.j.PXB.w.PXPX  q Y.HXhXY.* @ p.uXPXtXIXxX.XF.0 g OXIXY.3X4XXXNXJXcXPXoXXXXX4 g._.cXcX  y PXnX2X#XK   9 C y D D y D t + C 5 4   _.PXzXe   t e 6 e 6 e 6 9 9 9 9 9 9 9 9 9 9 6 9 9 9 9 6 9 9 9 k V 9 9 9 9 e 9 9 e 9 9 9 9 9 e 9 e 9 e 9 V 9 9 9 9 9 9 V 9 6 9 9 9 e 9 e 9 9 e 9 9 e V V 9 e 9 9 9 9 9 V 9 9 k 9 9 V 9 k V 9 9 9 9 9 e V 9 V e 9 e 9 9 9 s t e e 9 9 9 9 9 9 9 s 9 9 e 9 6 6 9 8 9 9 V 9 9 9 5 t 9 e   X 9   % e 9 V s 6 9 9 9 0 w 9 9 g 9 s 9 9 9 9 9 6 e 9 9 9 9 9 e t t V 9 s 9 9 9 9 9 9 9 9 9 9 9 9 9 s s 9 9 9 e V s s 9 9 9 9 9 9 9 8 6 6 V 9 6 4 9 9 9 V V V 6 4 9 9 9 9 9 9 6 9 0 8 6 8 6 8 8 0 9 9 9 6 8 6 6 8 5 4 0 4 0 8 0 9 9 8 9 8 8 0 5 4 6 0 0 0 0 0 0 * 0 4 6 6 6 4 * > * , 4 , , % , & 4 , 4 5 , 3 & & & 3 3 & , , 3 & % , 4 4 % % , 5 4 4 % 4 4 % 4 > % + % + + + % X % X X O O O $ X + @     ",
". r A $ % O : $ $ $ $ O % : : > O $ > > > > > % > , > > 1 % : % & $ & % , > 4 > % > > 4 4 , 4 4 - > , 5 5 7 4 > > 7 > 4 7 4 4 4 4 4 4 0 5 5 5 5 4 4 0 5 * 5 5 5 4 4 4 4 0 4 8 8 8 8 9 8 5 8 8 9 5 r , , r r r 6 5 C K r r R XXPXPX<XMXSX@   l.nXtX+   5 3Xu.X 0 4 4.zXPX;X*.2.[.OXSXSXwX;X[.@ 4.k.l.PXdX` 4.wXPX&XSX6Xo P.HXmXHXw.# l.T.;XuXhXSXSXB.q 4.OXuXT.T.uXuXxXPXMXoX_.PXyXXXk.cXBXI.K.. . <XBXPXF.  S e 8 V X 9 5 e e 6 t 6 X * qXVXPXe . 9 6 t 0 V 0 w 6 6 6 6 6 6 5 6 6 e 6 e e 6 y e 9 9 9 e s 9 e 9 e 9 k 9 9 9 9 9 9 9 9 9 t V 9 k V 9 9 9 9 9 9 V 9 9 9 9 9 9 V e 9 9 e 9 t 9 9 9 9 V 9 e 9 V e 9 k e 9 9 9 9 9 e 9 9 e 9 9 V 9 e 9 V 9 t 9 V 9 9 e e 9 9 k 9 9 9 9 9 9 9 9 9 e 9 9 V e V 9 V 9 9 V 8 9 9 V 6   @ 9   % V w 9 e 6 9 e t 9 9 9 9 s 9 V k 9 V e e e 9 9 9 9 9 V s 9 9 9 9 9 9 9 t 9 V 9 9 9 V V t 9 9 9 9 9 s 9 e e 9 9 9 6 0 8 8 9 9 9 9 9 9 9 9 9 k 9 9 s 9 9 0 4 s 6 0 4 4 6 9 9 8 9 5 0 4 0 8 9 0 8 6 9 9 8 8 0 4 8 8 6 8 0 0 8 6 8 0 0 7 4 0 4 4 0 5 4 4 0 4 4 6 6 4 5 8 4 4 % , & , : & , , , 4 4 5 , 4 4 4 % * > > , % , % % , , , , , & , , , , 5 , 4 + + + % % % % 4 > % O   + % > % % $ . + + @ . ",
"O r A O $ O $ O > + : > $ > % $ > $ $ $ > : : > % : > > > > > > % % % > 4 % % * % X X % % % % % - > > 4 5 7 > 4 > > 4 > > > > > 4 > 4 4 4 4 4 4 4 4 4 5 4 5 5 5 4 4 4 4 8 8 8 9 8 9 8 9 8 9 8 8 5 5 5 r 5 r 5 4 V t e e   8 yXPX`.D F.KX{ 4 L.PXPXy % W (.U > V 0 @ %.IX1X=.S 0 U.hXSXhX;X`.w l.B.R g.(.E.`.1Xh.!.` q + l.PX8XhXl.w HXHX;X8XSXhX4Xw.# B.oXx.B.IXHXXXNXHXHXl.l.VXyXc.U &...! UXk.p.3XPXzX! + % W 4 V 8 V 9 C V 4 t S   9 VXHXHX6 @ 9 6 t 6 y 0 e e 6 r e e 6 6 6 e 6 e e e e 6 r 9 9 9 9 e t 9 V 9 V 9 9 9 V 9 9 9 9 e 9 9 9 t 9 9 e 9 9 9 9 e e 9 9 9 9 9 e e 9 9 e 9 k 9 V V 9 9 9 e e 9 9 9 V 9 9 e 9 9 e 9 9 e 9 9 9 9 9 9 e 9 9 e 9 k 9 9 V 9 9 e 9 e w 9 9 e 9 9 k 9 9 9 k 9 9 e 9 e 9 t 9 9 6 9 9 V e . 4 9 . % V 9 9 9 5 k V 9 9 9 9 9 9 9 9 9 9 9 9 9 9 V 9 9 9 9 9 t 9 9 9 9 9 9 9 9 9 9 9 9 9 9 V 9 9 9 9 9 9 9 9 e e 9 9 9 9 9 9 9 6 9 6 8 9 9 9 9 9 9 9 9 9 9 9 4 4 9 8 8 0 8 6 9 9 9 9 0 5 8 0 8 6 0 8 8 0 9 0 6 8 0 6 6 9 8 0 6 6 9 9 9 6 5 8 4 0 0 4 4 6 6 4 6 4 5 8 5 4 5 4 , , , , , , , , , , , 4 5 4 , 4 , , , , 4 % % % % % , & $ $ , $ , & $ & % % * % + X % % % % % 4 % % X O O % % O O X + @ .   ",
". 2 j . > O $ O O : : % % > % > > : $ O O > > , O $ $ $ % > : > % > , & % % % % % % % > & % , > % > > 7 7 7 7 > 4 > - 4 > > 4 > % * 4 % 4 * 4 > 4 4 5 5 6 5 5 5 4 4 4 5 5 6 8 9 8 5 8 9 9 9 8 8 5 r 5 5 r r r r e k r e W g.BXGX<.# Q MXU.X  XPXGXD O *..X! % % S @   ZXI.@   q U.hXSXuXtX;XW { a.&.G.L.P.1XrXn.E.[.o @ IXPXqXNXOXxXxXtX+XwXSXIX!.U iX[.Y.B.+XhXIX5XtXHXPXxXL.(.JX.X& c c <._.:XpXL.BXI.  F.3.  0 S e e 9 D S 4 9 U   0 PXJXBX9   9 w t 6 t 0 t t e 6 e e 6 r t e 6 e 6 e 6 6 e 9 9 9 e 9 e 9 9 V 9 9 t 9 e e 9 k 9 9 9 9 9 9 9 9 9 e 9 V 9 e 9 9 9 e V V 9 9 9 9 9 9 e 9 e 9 9 9 9 9 9 9 9 9 9 t 9 e 9 9 V 9 V w k t 9 9 e 9 V t k e V e w t 9 9 9 9 e e t V V 9 9 9 t 9 e t 9 t 9 V e 9 9 9 9 9 6 e 9 V e @ 4 9   + V 9 6 9 5 V 9 9 6 9 9 6 6 9 9 9 9 9 9 9 9 k 9 9 9 9 k 9 9 9 9 9 9 9 9 9 9 k 9 9 9 s 9 9 9 9 9 9 9 9 9 9 9 9 9 9 9 9 9 9 9 9 6 6 9 9 9 9 9 9 6 9 8 9 9 0 5 8 9 9 8 0 0 8 9 e 9 9 9 9 6 6 9 8 9 6 9 9 6 9 0 4 8 9 6 8 5 0 5 9 9 9 6 8 6 5 6 5 5 0 5 4 8 4 0 5 4 4 4 4 5 4 % > , , , , , , , , 4 5 5 , 4 4 4 4 4 , > * % , % : , , & $ $ , : % % % * + + + + 4 % O O X % > % O X O X X O O O X @ .   ",
". > ,   > $ : O O % $ $ % : > : > > $ $ O $ > > $ $ > > > > : % % % > : % % % % % 4 > 4 4 , 5 5 + > , 4 1 , > 4 4 > > 4 > 4 > > 4 > % 4 > 4 , 4 4 4 4 5 5 5 5 5 4 5 4 4 5 5 5 5 0 4 5 8 8 8 4 4 5 5 r r e e t e k 8 C t L.zXzXzX=.# U PX.X  qXPXaX9.O W GXL.  C - 7 $.LXu.0 S <.PXSX8XxXSX'.g 4.2.z.JXrXB.).&X}.E.SX|.W ;XMXNXG.OXHXoXQ g Y.HXmX!.{ SXSX;XIX;XoX5XHXHXuXPXcX}.W 3XE.r a.! c.f.! 2XyX3X* 4 pX*.X t S 9 6 5 V C 9 * D X X qXPXGXy   9 9 t 4 t 0 t t e e t y 6 6 t 6 e e e e e 6 6 9 e 9 9 9 e V 9 e t e 9 V 9 9 9 V 9 V 9 V 9 9 9 9 9 e 9 e 9 9 9 9 9 9 V 9 V e e e 9 V 9 V 9 9 9 9 9 9 9 e 9 9 9 V 9 9 9 9 9 9 e e 9 9 9 9 9 9 9 9 9 9 9 9 k 9 9 V 9 e 9 9 k 9 e V 9 V 9 9 V 9 9 9 k 9 e 9 V 9 9 k 9 9 9 V 6 . + 4   @ e 9 6 s 6 9 8 4 0 9 V k 6 9 9 9 9 9 9 9 9 s 9 6 9 9 t 9 9 e s 9 9 9 e 9 9 9 9 9 9 9 9 9 6 9 9 8 6 9 9 9 g 9 k 9 9 9 9 9 9 8 9 9 9 9 9 9 9 9 9 8 0 5 9 6 0 0 6 9 9 8 8 0 9 9 9 9 6 8 0 9 9 8 6 8 9 9 8 6 8 4 0 0 8 0 4 4 4 9 6 8 8 0 8 6 8 0 8 9 5 0 0 6 5 4 4 4 4 4 , 4 % , , & , , , , > 4 4 , 4 4 * , % 4 4 % & > % % % , , $ : $ $ & $ X % % % % q + + % X O X O O X % $ $ % $ X O X O + . .   ",
"O $ $   , $ $ $ : $ O > % > : % $ % : % % : $ $ > : > > > > $ $ $ $ $ $ $ $ $ & % % > , % , & , - + 4 4 7 4 > > 7 4 > 7 , 4 > , + > 4 4 , 4 * 4 4 4 4 4 , 6 r 5 5 4 5 5 4 4 > 4 4 0 5 8 8 9 5 4 8 5 8 r e k k e S 4 V T .XBXqXpXQ 0 Q SXhXX R xXGXR   4 _. XC   V   $.zX=.h.nX!.4XhXxXSXmXI.D Q ! u.aX3XUXLX6Xn.!.hX8XXXXX4XPXSXB.l.Q NXxXi.hXIXw { x.B.[.[.Y.Y.OXMXIXxXPXVX X9 c.2.C r.p.UXLXU.I._.a.O Y.2Xe   V V 5 6 9 0 k e 6 * D   v.PXHXW   9 9 s 6 w 4 y y 6 r e e e 6 r y r 6 e 6 e 6 r 9 9 9 V 9 e e e k V 9 9 9 e 9 e V e V 9 9 9 9 9 9 9 e V V 9 9 9 t 9 k 9 9 e k V e e e V V 9 9 e V e 9 V V 9 9 9 9 V 9 9 9 9 9 9 9 e t 9 9 9 9 e 9 k 9 t 9 k 9 9 9 V 9 V 9 9 9 9 9 e V 9 e e k e 9 9 V 9 9 k 9 9 k 9 V 9 e 5 . > 4   X e 9 9 V 0 9 6 0 8 9 t s 9 9 9 9 9 9 9 9 9 9 9 9 9 9 9 9 9 9 9 e 9 9 9 9 9 9 9 9 9 9 9 8 6 9 6 9 9 9 9 9 9 9 9 9 9 9 6 8 9 9 9 9 9 9 9 9 s e 9 9 9 9 0 8 5 0 8 9 9 8 0 0 6 9 9 6 8 6 9 6 8 6 8 8 6 9 6 8 9 5 5 5 6 5 5 0 4 6 6 0 5 0 5 6 0 9 9 9 9 8 0 0 4 4 4 4 4 4 4 4 & > , & , , % , , , & 4 4 , > 4 , 8 4 4 > % 4 % , , , : : & % % , % > % * > > + % % % % % X O % O % % % % O % X % @ .     ",
"$ $ $   > O O O % $ O > : $ % > $ $ $ > > % : O > > > > > $ $ $ . & $ & , , , 3 % % : > , % , , > > > > > 7 4 , 7 , , 7 7 , 7 7 0 4 4 4 4 4 4 4 4 4 5 5 6 , , 4 8 6 5 4 4 4 4 4 8 8 5 8 r 9 8 4 8 r 8 r e r e 9 e C e 4..XcXLX#Xg   E PXzX@   g.IXa..   yXPXK 8 Z   S PX!.` p.  s P.IXhXtX;X{ @ E (.pXUX_._.3X_.E.+ dXPXs.(.oX}.oXD W HXHXxX`.B.q B.uX;X8XB.NXSXPXxXuXMXBXPXY.X L.qX..k.qXL.o.<.yXk.  ! PXV.  4 e 5 5 V D + 9 0 D X U   $.PXJXR   w w y 6 t 0 V e e 6 t e 9 6 6 e 6 e e y 6 6 6 9 9 9 9 9 V 9 e t 9 e V V 9 e 9 9 9 9 e 9 9 9 9 9 9 9 V t e 9 9 V V 9 9 9 t t V e t V 9 9 k e 9 9 e 9 9 9 t V 9 9 9 9 9 9 V 9 V k 9 9 9 9 s 9 V 9 9 9 9 9 9 9 9 V k t 9 9 9 9 6 9 9 9 9 9 9 9 w t 9 9 9 9 9 9 9 9 6 V 9 V 9 @ 6 9 @ > V s 9 e 5 V 9 8 6 9 9 9 6 9 9 9 6 6 9 9 9 9 9 9 6 9 9 9 9 9 9 9 9 9 9 e 9 9 9 t 9 6 6 9 9 9 9 9 9 9 9 t 9 9 9 6 9 9 9 6 0 8 0 0 9 9 9 9 9 e e 9 9 9 9 6 5 8 6 6 9 6 8 8 9 9 8 9 6 6 8 8 8 8 0 9 9 8 0 8 0 9 6 6 6 9 6 0 4 8 5 4 0 4 5 0 8 9 9 9 0 0 4 4 4 4 4 4 4 4 4 4 , , 4 , , , , , , 4 4 4 , 4 4 % 4 4 4 % % > % % , , , & , , % , % % > > * q 4 4 > % > 4 4 > % % + % % > X $ X % $ @ .     ",
"$ $ >   > . O O > O : % % > % > > % : $ O : $ O $ $ > > > $ : % $ $ $ , $ & $ $ > > > > & , , , > % > 4 4 > > , 4 7 4 , 4 7 4 , 4 4 > 4 4 4 4 4 , 5 4 4 , 6 , 6 8 8 8 8 5 5 5 5 e 8 8 8 9 9 9 5 9 8 r 8 8 r 8 5 4 S 8 z.yXzXHX}.  # V SXPX9 X z.VX3.  + F.2XV . V 0 + dXPX{ @ 0 # w.SXhXxX;XQ # ! <.c..X~.L.bXbX[.' XXL.  V p.Q IXIXw.{ HXSXB.q 4.OXxXSX[.;XNXHXcX2XHXaXJXVX5Xz.<.yXC z.cXr.. k.pXT C .XyXX 5 D 5 9 9 t C 4 t 5 D * D   S PXPX$.  9 t V 0 9 5 y e 6 6 e 6 6 6 y 6 6 e e r 6 e y 9 9 9 9 e 9 9 9 t k e k V 9 e e 9 9 e 9 9 9 V 9 9 9 V 9 9 e 9 9 9 9 t 9 V 9 e k 9 V V e t 9 9 9 9 e e 9 k 9 9 e t 9 9 9 9 9 9 e 9 9 k 9 9 9 9 9 9 9 9 9 9 9 e 9 9 s 9 9 9 9 6 8 e 9 e e 9 9 k 9 9 9 k 9 s 9 9 6 k 6 V 9 V 9 X 8 9 @ 4 V e 9 e 5 V e e 9 9 9 9 6 6 9 9 9 6 9 6 9 s 9 9 9 9 9 9 9 9 e 9 9 9 9 9 9 6 9 s 9 9 9 9 s 9 9 9 9 9 9 9 k 9 9 9 9 9 6 9 8 9 9 8 9 9 9 9 9 9 9 6 9 9 9 9 0 9 6 0 8 9 8 8 6 9 9 9 9 9 9 9 0 0 9 8 9 9 6 6 8 e 9 6 9 9 9 0 5 6 8 0 8 8 8 5 8 5 5 8 5 4 5 0 8 4 0 4 4 5 5 4 4 4 , 4 , , & , , , , 4 , , 4 % > , % & > % , 4 4 , , , & : , , , 4 % 4 4 % 4 * * % 4 4 % % % + % % > % % $ $ $ X X . .   ",
"O O $ . 1 . O > $ $ % : $ > : : > : % O O O $ % O $ $ $ $ $ > $ & $ $ $ $ $ & & $ $ $ & : > % % - - > - > > 4 7 > > 4 > > 7 > 4 > % 4 4 , 5 4 4 , 4 4 8 6 , 6 , 4 6 8 6 9 9 e 9 e 8 4 4 8 9 9 5 r 8 8 8 e e e 9 S 9 % p.BXUXE.rXQ   { PXPX6   k.GX*.      E % 9 s q   F.IXn.@ J @ <.IXSXSX;XW # . W yXeXa.G.wXa.E.E.B.S.w.0 W x.Y.HXx.w.8XY.@ @ w.;X;X!.x.4XSXxXaXzXuXGX3XoX~.! e a.,.g.c.r V.V.9 X 2.BXnX4 X V 9 V V 0 V 5 D 9 t 9 4 X W PXJX*.  w 9 y 4 9 0 V e e e t t e 6 e 6 e 6 e e e e 6 9 9 9 e 9 9 V 9 V t k w 9 V 9 9 9 9 9 9 e e 9 V 9 9 9 e e 9 e 9 9 9 9 k t V t 9 V k t V 9 V 9 9 9 9 9 9 9 9 9 9 9 9 V 9 9 e 9 t t 9 9 9 9 t e e 9 9 9 9 e 9 9 9 9 9 9 9 9 9 9 9 9 9 9 9 9 e 9 9 9 9 t 9 9 9 9 6 V 9 V 9 9 5 . 0 8   X k 9 6 9 0 t 9 k 9 9 9 9 9 s 9 9 9 s 9 s 9 9 9 6 6 9 9 9 9 9 9 9 9 9 e 9 9 6 9 9 9 9 6 9 k 9 V 9 9 9 9 t 9 9 k 9 9 9 9 9 9 9 6 9 9 9 9 9 9 5 5 0 9 e r 0 4 9 8 4 0 9 9 6 8 9 9 9 e 9 9 9 9 0 8 0 9 8 9 8 0 e 9 8 0 9 9 5 4 9 6 8 0 6 6 6 9 0 4 0 0 8 6 6 6 6 4 4 4 5 5 5 4 , 4 4 4 , , % % , * , * * > 4 % % * , 4 4 4 4 , , , , , $ , , , % 4 4 % 4 % + - % % % % O X O % % X % % $ X O O + O .   ",
". 2 , . O > $ $ > > $ : % > > % > > $ $ O $ : > $ O O : % : % % , & 3 , 3 & , , , : , , , , & : 4 + > 4 , > - > 4 > - 4 7 7 7 > % % , % , > , 5 , , r , , , 6 , 4 4 0 8 8 5 4 4 4 > 4 4 5 5 9 8 9 8 8 k k 9 9 V D V   a.MXY.g PXu.@ 1.HXSXE   S.GX*.  R X   + K D q + k.PXh.    w.[.HXhXhX3X{ q   e zXBXG 1.KXw.!.'.;XhXl.E w XXT.G.6 oXg.  q 0 4.a.!.U.2XHXaXaXcXcXJXVXPXyXwXU 2.U.C c.p.c ~.L.R . UXqX! 4 V 0 e 9 6 9 V k g 9 t * 9 # W VXJX=.  0 g 0 0 t e 9 y 6 e e 6 e y r r 6 6 e 6 y e e V V 9 9 9 9 V e k t k V 9 9 9 9 9 9 9 9 9 9 9 9 6 9 V V 9 9 9 9 k e e e V 9 9 9 V V 9 t e t s e V e t 9 k 9 e 9 9 e 9 9 e 9 s 9 V 9 9 9 9 e 9 9 V V k e 9 9 9 k k 9 9 9 9 9 9 w 9 9 w 9 9 9 9 e V 9 V 9 9 9 9 e V 9 9 9 V 9 . @ >   * 9 9 9 t 6 V V 9 9 9 9 s V 9 9 9 9 e 9 9 9 e e 9 9 t 9 9 k t 9 9 9 9 9 9 9 V k k 9 9 9 9 9 k 9 9 9 V k 9 5 9 9 9 9 9 9 8 9 9 9 9 9 9 s 9 9 9 9 9 9 9 9 8 0 s 6 8 0 8 6 6 0 6 9 7 9 6 9 9 9 9 9 8 6 8 6 8 4 0 4 5 6 0 5 5 5 9 8 0 8 9 s 9 5 9 9 9 6 4 4 6 t 4 0 4 0 5 5 5 4 4 4 4 4 4 4 4 , 5 4 4 4 4 4 4 4 5 , % % 4 5 4 > , & , , : & , , 4 > + * 4 + + 4 % + % X % % + % O O X X $ $ O . @ X @   ",
". , $ O $ : % : $ : O > $ $ $ : $ $ > O % : % > $ $ $ % > $ : O : : & : & 3 & 3 , $ & : $ $ $ , 4 > 1 5 4 > + + 4 > > 4 , 7 , > % , , 4 , & , , , , , , , 6 , , 4 4 4 4 4 4 4 4 4 4 4 4 0 5 8 8 6 8 6 s 8 4 5 5 9   D F.PX2.R tXE @ 4.SXPXR X =.PXL.  % + W 8 9 s 4 + g.PX(.@ w 8XPXhXSXxX;X4.  W ! }.BX1.` SXdXKX{ { 8XI.PX2.4.T.XXY.y #   0 w.Y.4X<XxXPXNXcXJXaXzXBXyXyXJX_.X 2.qX*.~.u.. G.c.  U _.*.+ * S 4 V 9 9 9 9 9 9 9 9 t D   . yXJX<.  6 y 6 6 e 6 6 6 e e e e e 6 e t e e 6 r 6 e e e 9 V 9 9 t 9 e t 9 9 t V 9 9 9 e e k e 9 9 9 9 s 9 9 e e e 9 9 9 w k 9 9 V 9 e 9 e k 9 e e 9 t w k k 9 9 w k 9 s 9 e 9 9 e 9 9 V k 9 6 9 e e 9 t 9 w 9 9 t 9 t e t t 9 9 9 9 9 e 9 k 9 e k 9 9 9 9 9 9 9 e e 9 V 9 k 9 V 9   . 4 . 4 V V 9 k 9 9 9 9 9 9 9 9 s 9 9 9 9 9 9 9 9 9 9 9 9 9 9 9 9 9 9 9 9 9 9 9 k V 9 9 9 9 9 w 9 9 9 e e 9 9 9 9 t s 9 9 9 9 9 9 9 9 9 9 6 9 9 9 9 9 9 9 9 6 6 8 9 0 0 8 8 9 8 0 9 6 9 9 9 9 6 6 9 9 9 9 9 9 8 0 4 0 0 8 5 6 0 9 0 8 6 9 6 5 5 0 9 9 9 9 5 5 6 9 4 4 0 4 0 0 4 4 4 4 4 4 5 4 4 , 4 % , % % % % > 4 4 4 % 4 5 , > , , , : : , & , 4 + + 4 4 4 q + % % % X O % X % X $ O O X $ O . . + .   ",
"O $ O O : $ . $ O $ O $ O O O $ $ $ : > > $ > O $ $ > : > % $ O & $ $ & & & : : & : & 3 , $ : & 4 > > 0 4 - - > > > > > , 7 , > % , , % > , , 5 , , , , , , 6 , 4 4 4 5 5 0 5 4 % 4 4 4 0 5 5 9 4 8 s 8 8 5 0 4 E 4 E uXhX<.      @ w IXSX2.  + XXzX<.. @ 9 5 C 7 9 + k.PXdX0 q !.PXuXmXSX4X1.q 5 pXzXi.!.W.mXn.s.;Xs.Y.tX!.F.x.U.UXJXl.  U l.KXdX.X XT.cXMXBXaXBX5XGXPXGXBXp.. V.I.g.3.<.I...r   a.c.  e t C V 9 9 9 9 9 9 V k 4 y S   . 3XGX=.  6 w 6 9 t 9 6 y r e e e 6 e e t e y 6 e 6 e e 9 e e 9 e 9 9 e 9 V e e 9 9 e 9 e V w e V 9 9 t V 9 9 9 V V V 9 9 9 9 9 e 9 9 9 9 t 9 9 k 9 9 e e k 9 e 9 9 9 9 9 t 9 9 9 9 k t V V 9 9 9 t V V 9 9 9 k 9 t V V s 9 9 e 9 9 9 k 9 e 9 k 9 e 9 e e V 9 e e 9 9 9 V 6 t 9 V 9     4 . 4 w k 9 k 9 6 9 9 9 9 9 9 9 9 9 9 e 9 9 9 9 9 9 e 9 9 9 9 9 9 9 9 9 9 9 9 9 9 9 9 9 6 9 9 9 0 9 k s 9 6 9 e 9 e s 9 9 9 9 9 9 9 0 9 9 9 9 9 9 t e e 9 9 6 9 6 9 0 8 6 8 9 8 9 9 9 6 8 9 8 8 9 9 9 6 9 6 4 0 5 0 4 5 5 0 8 9 0 6 9 9 0 4 0 6 6 8 6 6 6 9 5 4 0 0 4 0 0 5 4 4 4 5 5 5 5 5 , , 4 , % * 4 % & > , 4 % % , 4 , & & 3 & : & , , , % X % 4 0 % + + % % + % % + > % % X % O O X O . O @ .   ",
": $ O O > O . O $ O $ O O $ $ O O $ $ > > > $ $ $ $ > > > : O O : & : & $ : : & 3 & & , , , : , > + > 4 5 4 > > , 4 4 , 7 4 4 4 , , , , , > , r r , , , , , , , 5 4 4 8 8 5 8 4 4 4 4 4 4 5 9 8 , 9 e 9 9 V 9 0 6 w a.IXu.# X q w #   tXIX.X# @ F.JXp.  S 5 8 4 g g @ p.mXKX4.  Z 6XSXhXSXtXW # S (.E.=.I.;XhX7 o s.'.p.!.x.x.4.oXPXHXX @ P.PX8XIXwX1.  U PXBX4XpXBXLXXX!   $ C }.bX.X> , U.C . s 2.!   U 9 4 t 9 e V e 6 6 9 V 6 6 6 % t #XcX=.  0 9 6 w V t w 6 e 6 6 6 e e 6 e t e e 6 t e e 9 9 9 V k V 9 9 V e 9 9 9 e V e 9 9 k 9 9 V 9 9 V e 9 9 9 V 9 9 9 9 9 e 9 e 9 9 9 9 9 9 9 9 9 w e 9 t 9 k t 9 9 9 e 9 V t 9 9 9 t 9 9 9 9 9 k V 9 9 9 9 9 9 k 9 t e e 9 9 9 e 9 9 9 9 t 9 9 w 9 9 9 9 9 9 9 9 V k 6 e 9 V 6     q . 4 e V 9 t 9 8 6 9 9 9 9 8 6 9 9 9 9 9 9 e s 9 9 9 9 9 9 9 9 V 9 9 9 9 9 9 e 9 9 9 9 9 9 9 k 6 6 9 9 6 9 9 s e 9 9 9 9 9 9 9 9 8 9 9 8 6 8 9 e 9 9 9 9 9 9 8 6 8 8 0 6 9 9 9 s 9 9 9 8 0 8 0 9 6 8 8 9 6 5 4 9 5 5 0 4 5 6 9 7 8 9 6 8 4 5 8 6 0 4 7 0 9 5 0 4 * * 4 0 0 4 * 4 4 4 4 5 5 4 5 4 4 , 4 , 4 , 4 % 4 4 , 4 4 > , , : , , , , , , > > % > 4 4 > + % + % + + + % % % % O X O O O X @ .     ",
"1 : O $ , > O > O > $ O $ O $ $ : O > > > $ $ O $ % > > > $ $ O & : & 3 : & : : & & : 3 , $ & , > + > 7 5 , > 7 4 4 7 7 4 7 5 5 , , , , , , , , , , , , r , , , 5 8 8 8 9 8 8 9 4 0 8 8 8 8 9 r 6 9 9 6 t V V 4 @ R rXmXQ   T.hX=.  0 g.PXPX*.  !.JX3.  K k 6 - U q   p.dXKX!.+ @ &XPXhXIXhXz.  X   8 `.h.'.;Xn.k.j.2X).2.hXx.Q VXuXW 4 8XPX;X4.KX!.o 0 <.aXyX3XBXcXG.. . k.c.! V.JXc.  ,.a.7 5 * U V 4 9 5 5 t V V e 9 6 5 9 e V w + * 4 F.OXz.  0 w 6 y t w e e 6 e e e e 6 y e e 6 6 9 6 9 9 9 9 9 k 9 9 9 9 V 9 9 9 9 k 9 V 9 9 9 9 9 9 k 9 9 e e 9 9 9 9 V 9 9 9 t 9 9 9 9 9 9 9 9 9 9 9 9 9 V t 9 9 9 9 9 9 9 9 9 9 e 9 k 6 9 9 9 9 s 9 9 V 9 9 9 9 9 9 9 V 9 9 9 9 9 9 9 k e 9 9 e 9 e k e 9 9 e 9 9 9 e 9 9 9 9 k 6     +   4 9 w 9 9 9 9 9 9 9 9 9 9 6 9 9 9 9 9 9 9 9 9 9 9 9 9 9 9 9 9 9 9 9 9 9 9 9 9 9 9 9 9 9 s e 6 6 8 6 9 9 9 9 9 9 9 6 0 9 8 6 9 6 9 8 6 9 6 9 9 9 9 9 9 0 8 0 8 8 8 8 8 8 9 9 9 9 9 9 0 8 8 0 0 0 8 0 8 8 0 4 e 9 0 5 5 5 0 0 8 0 4 0 6 9 6 6 9 8 4 q 4 5 9 5 0 4 0 4 4 0 4 4 4 4 4 4 4 4 4 4 5 4 % 4 > 4 4 4 % 4 , , , 4 , % : & 3 : > , , , 4 4 > % 4 4 4 * % % % + % % % % O X $ O X O X O O @ .   ",
"O $ O . > : $ > % : : % > > % : % > % : > % : % > : > $ : % : $ 3 & 3 & 3 & 3 & : : & , , : : , , > , 8 5 > - > > 4 , 7 4 , 1 2 , , , , , , & r , , , r , , , 5 8 4 8 9 8 9 9 8 5 5 8 8 9 e 9 e V 9 9 9 k V w 0   l.tXu.  D mXSXz.@     `.HXj.w I.PX<.% + 9 0 K 9 + D `.IXIXtXV q [.HXmXhXmX4Xw 4 5 <.rXB.8XPXwXi.n.{ 2.I.Y.2..XcXY.  l.hXPX6X2XIX@ { !.<XGXJXPXg.U . . a.PXc., s.2X, &.PXa.-   D e 4 S 9 V V t k k e 9 9 9 6 9 0 V 0 w   W l.u.# 6 9 6 g e 0 9 6 e 6 e 6 6 6 6 6 e 6 e 6 6 9 6 9 9 9 9 9 t 9 9 9 V e 9 9 9 e t 9 9 9 9 9 9 9 9 9 e V s 9 9 9 k 9 9 9 9 9 s 9 9 9 9 9 9 9 e 9 9 9 9 9 s 9 9 9 9 V 9 e 9 9 w 9 9 8 6 9 k 9 9 9 9 9 V e 9 9 9 9 9 9 V 9 9 e 9 9 9 9 w 9 e 9 9 9 9 9 e 9 9 V 9 9 9 9 8 s 9 V 6   . +   + 9 s 6 9 9 9 9 V 9 t 9 9 9 6 9 9 9 9 9 t 9 9 9 9 9 9 9 9 9 9 9 9 9 9 9 9 e V 9 s 9 9 9 e 9 V 9 0 8 9 e s 6 6 9 9 9 9 6 0 8 9 9 9 9 9 6 9 9 9 9 9 9 6 9 8 8 0 9 6 6 8 0 9 9 9 9 9 6 9 9 6 8 8 5 4 0 6 6 8 7 e 9 9 5 5 0 5 5 9 5 4 4 9 9 9 5 9 6 4 4 4 0 6 9 0 0 * 4 0 5 0 4 4 * 4 4 4 4 4 % , , 4 % 4 % % , % > 4 4 * % % , , & , & > % % > 4 4 4 % + 4 4 4 % % % % % + % % O X $ % % % $ $ . O     ",
". > > . $ $ O O > $ > % $ : > % : $ $ $ % : : % > $ $ > $ > > > & 3 & 3 & : 3 & & 3 : 3 , : $ > > > 1 8 5 > > > > > 5 5 , , 1 5 , r , r , , , , , , , , , , , , 4 4 5 8 8 6 8 8 5 5 8 8 8 9 9 r s 9 9 9 9 9 9 g *.qXG.  @ Y.PX;Xq # q Q <XIXL.  z.nXu.  4 V 7 V   { E.zXSXPXtX7 q ;XSXhX8XhXtXW %   W c.J h.mX*.q [.<X<.Y.4.T.HXT.    S.IXIXPXKXg - PXHX*.cXaXcX3.. r (.jXXXr K .XyX&.jXDX  k 0 U 4 + w V e 4 6 9 9 9 9 V e 9 6 + D 0 W * @ U 4.* 9 6 6 t w 0 e e 6 e 6 r 6 6 e 6 e 6 e 9 9 9 9 9 9 9 9 9 9 9 9 V 9 t 9 w 9 9 9 9 9 9 9 e 9 9 9 6 9 9 k 9 9 9 9 e 9 9 9 t 9 e 9 k e 9 9 9 e 9 9 e 9 9 9 9 9 9 9 e 9 9 e k 9 t 9 6 9 k 9 9 9 6 9 9 9 9 9 9 9 9 e e 9 V 9 9 9 9 V e 9 e 9 9 e 9 9 9 t 9 e 9 9 V 9 9 6 9 6 V 6 . @ # . + w 9 9 9 6 9 9 9 9 9 9 9 9 9 9 9 9 9 9 V e 9 9 9 9 9 9 9 9 k 9 9 9 9 9 9 9 9 9 9 9 9 9 9 6 e 9 9 9 9 9 9 s 9 9 8 6 9 8 0 9 s 9 9 9 9 9 9 9 9 9 9 9 9 9 6 0 6 9 9 6 0 0 8 9 8 9 9 8 0 8 9 8 6 0 8 8 9 9 9 0 0 9 0 9 0 8 6 9 9 9 5 0 0 0 4 0 8 8 0 4 4 4 0 9 0 0 4 0 0 5 0 0 4 6 4 4 4 4 4 4 4 , , % % 4 % > % 4 5 , 4 * , % , : , > > & & $ > 4 % + + 4 4 * 4 + > + % % % > . O % > % O O X . @ .   ",
"% j r $ $ : $ O $ $ O : % O O $ > > > O $ $ % : > > $ $ $ > > > 3 & 3 & 3 & : & 3 & & , > $ $ % > - > 7 8 4 4 4 , 2 7 5 7 7 5 5 , , r , , , , r , r , , , , , 5 > 4 4 4 5 8 8 4 0 5 5 8 9 8 9 9 9 9 9 V w 6 V W OXPXR   g.IXPXz.q q   <.PXvXOX    2XU.  W 4 q q   L.PXnX3XMX.X  # 3XSXtXhXPXF.e X r W I.P.&XwXG a.P.R B.F.p.yXnXE   D <XKXPXPXmX!.&XSX{ & CXBXUX, . <.BXBX, & L.yX4 2.9X<.. > k , D S + V V 4 V 6 6 9 e V V t 6 9 W X C t * C $.* 0 6 6 e t 9 t 6 e 6 e 6 e r 6 e 6 e 6 9 e t t 9 V 9 9 6 9 9 V 9 t k V k e 9 9 9 e 9 V e t V e 9 6 6 9 e t 6 8 9 V t k V 9 e 9 9 w 9 k e 9 9 k e 9 t 9 9 9 9 9 9 e 9 9 e 9 9 9 s t V 9 9 6 9 V 9 9 9 9 9 9 9 V e e 9 9 9 9 9 9 9 9 k 9 9 k w k 9 9 s 9 t e 9 9 s 0 9 8 V 9 . X * . 4 9 k 9 t 9 s 9 9 9 9 9 9 V 9 8 9 9 9 s 9 e 9 e 9 t 9 s e 9 9 9 9 9 9 9 9 e 9 e 9 8 0 6 8 6 9 V V 9 9 9 9 V 9 9 9 9 9 9 8 6 9 9 9 6 9 9 k 9 9 e s 9 9 9 6 8 8 9 9 6 5 4 0 9 6 0 9 9 9 9 6 9 9 9 9 9 9 9 9 6 4 5 5 6 9 9 9 9 9 9 9 8 > % * 4 4 0 6 9 0 5 9 9 6 6 0 5 5 9 6 6 4 5 4 5 5 4 4 4 4 4 4 4 > 4 4 , & 4 5 5 4 % , 4 % , > , > : $ $ % > > X + 4 > + % % * + % % % % . % 4 4 % O . . . X .   ",
", 4 , > 1 % . > - O O + - + - % + > + > + - + - + + > > + > + + > > : : : & 3 & 3 3 , & 3 , & , , > 4 0 7 2 > > 9 4 , 4 7 , > 4 , , & , , , , , , , , , r , , & , , 5 5 5 5 5 5 8 4 * 4 9 9 5 k 4 D 0 s G q S G.PXqX9 4  XPX[.4 -   q q ;XPX2X+ @ zXSX$.7 o G g o Y.PX3XpXCXpXr   S.fXIX;XKXB.@ 9 6 V :XyX X1X1XbX4.!.DXtX4 =.UX! O k.yXA jXPXp.jXDX3.   XPXPXp.  4 V UX(.X X 5XPX! I.g.. S C 9 4 6 V V 9 6 6 9 9 9 9 9 k t V 9 9 6 9 9 9 V D K 9 9 e 9 9 9 6 9 9 t 9 s 9 9 9 9 V 9 9 e 9 9 9 9 9 9 6 9 9 9 e 9 V k t 9 k 9 9 9 6 6 9 9 9 V e e V V V 9 9 9 e 9 k 9 9 e e 9 V k 9 e 9 V e k e e e 9 9 9 9 V 9 V V 9 e 9 9 9 9 9 e 9 9 9 e e e r 6 e 6 e 6 6 6 e e 6 y 6 t e e 6 e 6 e 6 e e 6 y r e e 9 9 9 9 9 k 9 V 9 s 6 . 4 4   4 D 0 V 8 6 s 9 6 9 9 9 9 9 e V e 9 9 9 s 9 9 e s 9 6 e s 6 9 9 9 9 9 9 9 t t 9 9 k 9 9 e 9 V k s 9 9 9 9 9 9 9 9 9 9 9 9 9 6 9 9 V 9 9 9 0 8 9 9 9 0 8 6 9 9 6 8 9 9 0 9 8 9 9 9 9 8 6 9 9 9 9 9 e r 9 8 0 9 9 9 0 6 6 8 0 4 4 0 8 9 6 5 4 4 0 8 9 r 6 5 6 0 0 4 0 4 4 0 4 0 0 4 4 4 4 4 4 4 4 4 8 8 4 , 5 5 4 , > * % > 4 4 4 , 4 & , , & $ 3 & , & > % % > % % + X + > > > % O % % + .   @ @ +   ",
". O . . = @   O O + = + + % > O > % - % > % > % + + + > 4 > > - > > $ , & & & 3 3 & , 3 , , , , > > > 4 4 > > , - - O > , , 4 7 , , , , , , , , , , , 3 , , , , , , , & 5 5 5 5 r e 5 6 s 6 0 9 V + V S 4 4 { rXvX(.  ` KXnX3.+ - { F.'.wXSXJX    2XzXp.  { 0 - o XXPX5X#XcXCXL.9 *.;XhXwXIXl.    D   z.U._.:X).ZXZXPXLXa.JXyXe   p.0XpXO 4 }.  V (.@ G uX&Xw.# e   % k.T e e F.F.L.yX*.0 e 9 S 6 9 9 s 9 9 9 s e 9 9 9 9 9 V 9 t 9 s 9 9 9 V V 9 9 9 e 9 9 9 s k 9 9 e e 9 9 9 9 9 9 9 9 V 9 e V 9 9 9 s 9 t 9 9 9 e 9 t 9 9 9 9 9 9 9 9 9 9 9 9 t 9 9 V t 9 9 9 9 9 9 9 e 9 V 9 e 9 9 9 9 9 w V 9 V 9 e 9 9 V 9 9 9 V e e 9 9 9 9 9 e 6 e 6 y 6 e e e e 6 e 6 r e r e e 6 6 6 6 e e e 6 e e 6 e e t 9 e 9 9 9 k 9 9 6 s 9 @ 4 %   4 C 4 V 6 9 e 9 9 9 9 9 9 6 9 9 9 9 V 9 9 6 9 V 9 6 6 9 9 9 t 9 s 9 9 9 9 9 9 9 9 9 9 9 9 9 6 6 9 e 9 e V 9 9 t 9 e e e e e 5 8 9 9 9 k 9 6 8 6 9 9 9 8 9 9 8 9 9 9 9 9 9 6 9 9 9 9 6 9 9 9 6 9 9 9 9 0 5 4 4 4 4 4 5 8 0 5 6 9 8 9 8 6 0 5 4 5 6 9 9 0 0 4 4 4 4 4 4 , 4 , 4 4 > 4 > 4 > 0 4 4 , 8 4 , % 4 5 4 4 4 , 4 , 4 5 5 4 , , : : $ : : 3 & , % & % % % % % % + % 4 % % X % % O O X . + + @ ",
"  .   . O O . - + + % + + - + - + - + > + > + - + - > > > % > $ : , , : 3 , & , & 3 & 3 , 3 , , , > - , , > > 7 > - - > 7 7 , 0 , , , , , , , , & , , , , r r , , & , , , 5 5 5 8 9 0 6 e 6 0 9 g + G Z + 9 R vXLXT   (.KXE.D   7 `.SXSXrXvXPXD * j.PX*.@ Z J o 4 8XHXqXyX5XPXGX;.g [.8XmXLXl.X t 4   % L.PX3XI.hX&XF.S.F.u.JX`.. r :X2.  p.  V 4 @ 9   [.IXG   O *..X3X&.6 p.T e c.G.O V % + 9 V k 9 9 9 t V 9 k 9 9 9 9 9 9 9 t k k V 9 9 9 9 9 9 9 9 9 9 9 e t 9 t 9 9 9 9 9 e 9 e V 9 e 9 V V 9 9 9 9 e V V 9 9 9 9 9 9 9 9 9 9 9 9 9 9 9 e 6 9 e k e e 9 e 6 6 9 t V 9 9 9 V 9 e 9 9 e k 9 9 9 e 9 9 e e V 9 9 9 V 9 9 e 9 t 6 9 6 e 6 r y t 6 t 6 e 6 6 e y e e e 6 6 6 6 6 e 6 e e 6 e r 6 e e 9 e 9 9 e V 6 s 9 V 9 @ % 4   4 V 4 V 9 V e 9 9 9 9 9 9 9 6 9 V V e 9 9 6 9 t 9 9 9 9 9 9 9 9 9 9 9 9 9 9 9 9 9 9 w 9 9 9 6 9 6 9 e k V V e 9 k g 9 e e 9 0 7 8 6 9 9 9 V 8 9 9 9 9 6 8 8 9 9 9 9 9 9 9 9 s 9 9 6 8 6 9 9 8 9 9 6 0 6 5 5 4 0 4 5 5 0 8 6 9 6 0 6 0 8 9 9 4 4 0 9 9 0 8 5 4 4 4 4 4 > > 4 4 % % 4 % 4 4 8 5 4 4 8 5 , , 4 , , % > > , 4 4 5 , , , , , 3 3 & & & : > % & $ % % > + % % % % X % $ X O O % + @ + X @ ",
"O . o . > > O , - O O > % O > % > % - % - % > + > + > - - > > > : : , & & 3 3 3 : & 3 & & & , & 4 > > 1 7 , 4 9 0 , , 0 5 4 > , , & , , , , , , 3 , , , , , r , , , , , 5 5 r r 8 r 0 8 9 6 8 V 4 k D s k - <.nX.X@ U wXIX4.  7 7 &XPX6X3XnXGXg.X R GXj.  - g - S SXcX5X5X5XGXJXj.7 H.;XmXHXk.# V * S 4 n.LX6X&XKXu.e.GX_.+   5 X A r $ r.PX`.V.(.+ s n.PXmXW @ X pXPX3XW . 6 *.X X     D t S V 9 9 6 9 9 9 9 9 9 V t 9 9 9 9 9 9 9 9 9 9 9 t V e e e 9 6 9 9 V e V 9 k V 9 e e 9 e 9 9 9 9 9 9 9 9 e V e 9 9 e 9 9 9 9 9 9 k 9 9 9 9 9 9 V V 9 6 9 9 9 V e V 9 9 9 9 9 V 9 9 6 9 9 9 9 9 9 9 9 e 9 9 e 9 9 e e 9 9 9 9 V 9 e 9 6 e 6 e 6 t 6 6 e e e e e e 6 e 6 e 6 6 e e e e y 6 e 6 6 e 6 y e e e 9 9 9 9 9 V 9 6 6 t 9 . % 6 X 0 V 4 9 6 9 k e 9 9 e s 9 9 9 9 e 9 t k 9 9 9 k k 6 8 s 9 9 9 9 9 9 e 9 9 9 e 9 9 9 k 9 9 e 9 9 9 9 9 9 9 s 9 9 9 6 9 9 9 9 9 9 6 6 6 9 9 9 0 9 9 9 9 6 8 0 9 9 9 9 9 9 9 9 9 9 9 9 9 9 0 8 6 9 9 9 9 9 6 0 9 9 9 9 8 9 0 5 6 8 0 4 5 5 0 5 4 4 5 8 9 6 6 0 4 4 4 4 4 * 4 + 4 4 4 % * 4 5 8 r 4 4 r 8 4 * 8 & > > * % * % , , , & : : & & $ : 3 & : $ $ $ . X % % % + O % X O % % $ . . O % @ + @ . ",
"O O   . : O . > % O + > + % > + % > + - % % - % + > > + > - > > & : , & 3 & & & 3 & : & 3 & 3 3 > > 4 5 8 > 7 5 5 1 4 5 5 > > - , , & , , , , , r , , , , , , r , , , , 8 8 r r 9 r 5 5 9 0 9 A q V s Z 0   (.IXR   `.IX X9 @ 7 s !.KX&X#XpXPXXX  0 <XaXG - q q G PXcXtXuX5XcXCX[.J { E.1XSXS.  0 C 4 X Y E.mX|.h.k.B.L.I.+   8 r K e   3X9X  i.DXIX!.bX<X$.  w.yXJXLXz.  4 S S.r.6 4 V 5 6 6 % 6 9 9 e 9 9 9 9 e e V 9 9 9 9 9 9 9 e 9 9 9 V V t e 9 9 6 9 9 V e e e 9 e 9 9 9 e 9 9 9 e 9 9 V 9 9 k 9 9 9 9 s 9 9 9 e e e e e 9 9 9 e 9 e e 9 9 9 9 s V 9 9 9 9 9 V s V 9 5 0 9 9 9 9 9 9 9 9 9 t e 9 e 9 t k 9 9 9 9 e 9 9 e e 6 6 e 6 e e e y 6 e e 6 e e 6 6 6 e e e e e e r e 6 e 6 y e 6 9 t t 9 e 9 9 9 k 6 9 8 V g @ + 6 . 4 V - t 6 9 w e 9 9 s 9 k 9 k 9 9 9 9 9 k 9 9 9 k 6 9 9 9 6 9 9 9 w 9 9 9 9 9 s 9 V 9 t 9 s 9 s 9 9 9 9 9 6 9 9 9 9 9 9 9 9 9 e 9 9 8 6 9 9 6 9 9 9 s 9 6 0 9 9 9 9 9 9 9 8 9 9 9 9 6 6 8 5 6 8 9 9 9 9 8 0 9 9 9 9 r 9 0 9 6 8 0 4 4 5 0 9 4 4 0 4 8 6 5 6 5 4 5 4 4 > 4 + 5 5 0 > , 4 0 8 4 , , 4 5 4 4 4 % % % % % % 4 % , & : , : : $ $ : & & : & : $ & X + % % % $ + + % % % X . . . %   @ @   ",
"= O o . > +   > - + - + > - + > - + > + - - % % > + % - + % > > & $ : : : , 3 : & 3 & 3 & , & , + - , 0 7 > > 4 7 , 1 5 7 7 , 4 , , , , , , , r , r r , , , , , r , r , 8 8 6 r e t 9 5 6 5 6 D 0 s 0 4   Y jXB.  %.PX2X%.  G o G 8XIX3XjX3XPXpX*   (.JXg.  g o g SXGXtX5XaXcXVXhX{ 0 n.|.PXT.  9 V e   @ U.LX&X9.P.h.` <Xi.+   3.*.. % 2XjX+   ;.(.IXPXU.- 0 PXqXt C % *.S &.E E 8 e C 4 E S V 9 V V V t 9 9 k 9 e 9 9 e 9 9 e V V t 9 6 9 e V 9 e t 9 9 9 9 t V e V 9 9 V e 9 9 9 e 9 9 e 9 9 6 e t 9 9 6 9 9 k 9 9 V 9 k e V 9 s 9 e 9 V 9 V 6 9 9 s e 9 9 9 k 9 e t 9 9 6 8 9 e t 9 V 9 9 9 V 9 9 9 9 V 9 t 9 9 e e 9 V 9 e e e e 6 e 6 e e 6 e 6 e y r r y 6 6 6 e e r y t e 6 e e 6 r 6 e e 9 e 9 9 9 e 9 s 0 9 6 e 6 . + 4   4 V * V 9 s k 9 9 9 9 9 9 6 V 9 9 6 9 9 t V 9 t 9 9 6 e s 9 6 9 e 9 V 9 9 9 s 9 e 9 9 s 9 9 9 6 9 9 9 9 9 9 s 9 9 9 9 e 9 9 V g 9 9 9 9 9 9 9 9 9 9 9 9 8 4 8 6 9 9 9 6 9 0 9 6 9 9 9 5 0 0 0 5 8 6 6 8 5 4 6 5 0 0 6 6 9 6 9 6 6 8 5 9 6 9 0 6 5 0 0 0 4 4 5 4 0 4 4 4 4 4 8 0 4 4 4 4 5 8 4 % , 4 , & % % * % % % % 4 % 4 , $ : & , $ & $ & 3 3 & , : , $ + % % % % X % % % & % O O . . .   . .   ",
"> > o   - + . = % + - % % - > - % > % - % > > - + + - + O % > % $ $ & $ , , & & : 3 3 & & & & 3 - > 4 8 , - > 7 4 > 4 8 j 8 8 8 , , & , , , r , r , r , , , , r 5 r r 5 5 5 5 5 9 e e 9 e 5 5 V s s 0 o 0 _.<X  Z 2XSX*.4 @ 0 9 Y dXPXyXzX9XcXPXD + g.JXa.+ g - q wXPX5X5X5XcXCXHX1.; i..XPX`.* @ 6 %.0 o `.ZXkXa.g *.rXPX    $.g.`.$ % } @ . ;.  9 I.S.D   W %.  *.e <.I.I.p.E 4 8 9 5 0 V 9 5 k V 9 9 e k t e 9 k e 9 9 9 V 9 V k k 9 9 9 9 9 9 e t k 9 9 V V 9 k 9 e t w e k e 9 9 V 9 9 9 e 9 9 k V 9 6 6 9 9 V 9 9 9 w 9 9 t 9 k 9 t 9 e e e 9 e 9 9 9 9 9 e w 9 e 9 9 9 9 t 9 9 s e 9 9 9 9 9 9 k w 9 V k 9 9 9 e V 9 9 9 6 e 6 e 6 e e r 6 r e 6 e 6 6 t 6 6 6 e 6 y e 6 6 6 e 6 e e 6 e e 9 9 e e 9 9 9 9 9 k 6 e 6 . X @   + D 4 V 6 V k 9 9 9 9 9 9 9 w k 9 9 9 9 9 V 9 e g 9 6 9 9 6 9 9 9 k k 9 9 6 9 9 9 9 9 9 9 9 8 6 9 9 s 9 9 9 9 9 9 9 9 9 9 9 s 9 9 9 9 0 0 8 9 9 6 6 9 9 0 4 0 8 8 8 6 8 8 0 9 9 9 9 9 8 4 4 4 0 6 9 6 0 5 5 4 4 5 4 0 8 0 9 8 8 6 9 9 8 9 0 9 6 0 8 0 4 4 4 8 4 5 5 4 4 4 0 4 4 4 4 4 0 0 8 4 , % 5 4 % % , 4 > % 4 % > * > & $ : & & : , , 3 , & , , , & $ % % % 4 % % + % % O O O O O O   @ + +   ",
"- .     + O . O O > + + > + > > - + > + > + + > + + O O O - + - $ $ , , , , 3 , 3 & & , 3 , 3 , , , 7 8 > + > 6 , + > 7 8 4 4 2 , , , , & , , , , , , , r , r , r , , , 5 4 , 5 4 9 e e V 9 6 V k 4 + + 1.KXH.+ s.bX'.-   k s 9 V F.IXrX XcXpXJXD * a.VX1.X s @ q ;XPXtX5XpXaXcXSX{ 0 a.}.HXU.4 4 6 .     E.vX3Xi.,.|.3.V V   =.UX:XLX} .   ;.rXg.  p.n.o 9 q - k.$.r F.~.v.!   6 * t W V   e V V 9 0 5 9 V e 9 9 9 9 9 9 e 9 V 6 9 9 k 9 9 9 9 9 k V 9 k 9 9 9 V t V e k 9 e 9 V 9 9 e 9 V 9 9 9 9 V V 9 9 9 9 t 9 9 9 9 9 9 9 9 k 9 t 9 k 9 9 e e 9 9 9 9 9 9 9 k 9 9 e e V V 9 9 e e 9 9 V t 9 e 9 e 9 k 9 t e 9 V e 9 9 9 9 e 6 e 6 e 6 6 y 6 6 6 e 6 e e 6 e e e e r 6 6 6 e e 6 e e 6 e 6 9 t e e 9 9 9 9 6 6 V 9 k 6 . + +   q V 4 V 8 6 9 9 6 9 9 9 9 6 9 9 9 9 9 e e e 9 k 9 6 9 9 s 9 6 9 9 t 9 s 9 6 6 8 9 6 9 6 6 8 6 9 9 9 9 9 9 9 6 9 9 9 9 6 9 9 8 9 6 9 8 9 9 9 k 9 6 8 6 9 8 0 8 0 0 9 6 8 0 8 9 9 9 9 8 0 0 4 0 8 6 9 9 9 0 8 0 9 6 6 5 0 4 4 0 0 6 8 6 0 4 5 5 6 6 4 4 4 * 4 5 8 5 8 8 4 4 0 > > , 4 4 4 8 6 5 5 4 8 5 , 4 4 5 4 4 > 4 * > , , , , , , , , , & 3 3 , , & 3 & % % % > + % % % O O X X + $ O . o X +   ",
"= .   O + = + - - + + = + + > > > > + + - + + + + > + - % - - > & , , , , & > > , & $ $ & $ $ , > 7 > 4 > > 4 - > - > > , , 4 , , , , , 5 & , , r , r , & & r , , r r r 4 , 5 5 8 8 6 8 9 e k k V + g 4 L.ZXV - <XIXG.- 6 @ 9 Z   U U.nX6XtXBXJXz.  R HXu.  V 0 9 G.JXpX#XtXaXcXhXJ 7 1.P.IX!.  @ 6 D % S &XKXD.  ;._.S O . E <.j.T g.PXu.I._.}.vXj.`.p.4     G..X(.g.<.~ K 4 * V 9 6 6 9 k 9 9 e w 9 k 9 t 9 9 9 t V k 9 t 9 9 k 9 9 9 k 9 9 6 s 9 9 9 6 9 9 9 k 9 k 9 9 e 9 k 9 9 9 9 9 9 9 9 9 9 9 9 k V V k 9 e 9 9 9 9 9 9 V V k 9 9 9 V 9 k 9 w 9 e 9 9 e e k k e e e 9 9 9 6 9 9 9 s k 9 V e 9 V e e 9 e 9 9 9 9 9 9 9 9 r 6 e 6 r y e e t e 6 6 6 6 6 r 9 e e e t e 6 e e e e 6 6 e e 6 9 6 9 s k t 9 k 9 6 9 9 e 9 . + 4   4 V 9 4 9 6 9 9 6 6 9 9 9 6 8 9 t V 9 9 6 9 9 9 9 9 9 9 9 9 s 9 9 9 9 9 9 6 6 9 8 9 9 9 9 9 9 9 9 9 9 s 9 s 9 k w 9 9 9 9 9 8 6 8 0 8 8 9 8 9 9 8 0 8 0 5 4 6 8 6 9 6 9 8 8 9 9 8 6 8 0 0 8 8 9 9 9 9 6 9 8 0 5 9 9 9 9 6 0 4 4 0 8 0 0 4 5 * 5 0 4 4 6 0 4 5 4 4 5 5 5 0 > 4 4 4 4 4 % 4 > 4 8 4 4 5 4 8 8 , 4 % 4 4 4 4 4 , , & & , : : & , , 3 $ & , & , + % % > % O % + % % X $ $ O X X X + @ . ",
"O . o . % + + + O O % O + : + + - > 4 + > > - > O O + O + > > , , , % , > , > % , , $ & , $ $ & > 4 7 , > 4 > > 4 , 4 4 4 7 7 , , , , , 5 , r , , r , , r , , , , r , 5 , 4 4 5 8 5 0 8 6 8 0 0 Z V + q 3X.X  ;.zXPXp.  g s 0 V q + p.tX5XqXaXCX}.6 % tX.X  o s   z.cXaXpX5XaXJXhX{ o ` B.PX<XD % E     U qXrX%.o   G Z   p.aXz.U F.L.k.LXPXqX(.:XIXGX`   A H.3XL.`.L.*., . > W V s 9 9 9 k 9 9 9 9 9 9 9 9 9 9 9 9 9 V 9 9 9 e t k t 9 w 9 9 9 e 9 9 9 9 9 t e 9 9 t V 9 9 w 9 9 9 t 9 s 9 9 t V 9 6 9 9 9 t 9 9 9 9 9 9 9 e 9 0 5 6 9 V 9 9 V 9 9 9 e k 9 s 9 9 9 9 e 9 9 9 9 9 9 9 9 9 9 9 9 9 9 9 9 9 e 9 e e 9 9 V e e e 9 e y 6 r e 6 e e 6 e 6 6 6 e 6 6 6 6 6 e 6 e e 6 6 6 e r e 6 e e 9 9 9 9 9 t V 9 9 9 V 9 k 9 . X +   4 V 9 4 w 9 9 9 9 6 9 9 9 9 6 9 e V 9 9 9 9 9 9 9 9 9 9 9 9 9 9 9 9 e 9 9 9 9 9 9 9 9 9 9 9 6 9 9 9 9 9 9 9 9 9 9 k 9 9 9 9 9 6 9 6 9 6 6 9 9 9 6 9 9 9 6 4 6 9 9 8 9 6 9 6 0 9 0 9 9 8 8 6 8 6 6 6 8 8 0 0 8 9 5 0 5 4 4 4 4 0 9 8 8 5 4 0 4 4 4 4 4 0 0 4 5 0 4 5 8 5 4 > 4 4 4 4 4 4 4 * % % > , % , 4 4 4 > , * , 4 4 , : : : 3 , & : $ $ $ & $ & : : 3 $ % * % > X + % O % $ X $ X $ O @ @ . . ",
": .   O O - O > + O + + O O + + > 4 > > > - + + O + + - > 4 4 4 : % , % > , % , & , , , , & 3 $ > 4 4 > 7 > > > 7 5 7 4 7 , 4 , , , , , , 5 , r , r , r , 6 r r , 5 r , 4 & 5 5 9 9 9 6 9 9 6 6 @ D S V i.V   F.LXzX*.  s V 7 9 s - j.cXyX5XqXBXCXz.  L.PXW   q V L.PXaX5XaXpXBXHX!.; q Y.IXOX    V + 9 O 3XKX;.o J . @ S F._.g.I.I.qXg.<XnX<X}.(. X:XU   9XDX{.L.L.W   y C . W V 9 9 9 V t 9 6 9 9 9 9 9 9 9 9 6 9 s 9 9 9 9 9 k w k 9 e 9 9 9 9 9 9 9 9 9 V 9 9 t e 9 e 9 9 V V 9 t 9 9 9 k 9 e 9 9 6 9 9 9 9 9 9 9 9 9 9 9 9 4 5 9 9 V V 9 t 9 e t 9 9 9 e t 9 9 9 9 9 9 9 6 e e 9 9 9 9 9 6 k 9 9 e e 9 e 9 e V V 9 V 9 V s e 6 y e e e y r 6 6 e e 6 e 9 6 6 9 6 e e e 6 e e 6 6 y e 6 6 e 9 9 9 e e 9 9 V k 9 9 9 V e @ + *   4 D e 9 V e 9 9 9 6 9 9 9 9 9 9 s 9 9 9 9 9 9 9 9 9 9 9 9 9 9 9 9 9 9 9 9 k 9 s 9 9 9 9 9 9 6 6 9 9 9 9 9 9 9 e 9 9 9 9 9 9 9 9 6 9 9 8 9 9 8 6 9 9 9 9 8 0 6 8 0 8 8 8 6 6 0 8 0 5 9 6 6 9 8 4 8 0 4 0 4 4 6 6 4 6 4 * 4 4 6 8 6 6 5 0 5 5 4 0 0 4 4 6 6 5 8 4 5 4 5 8 0 > 4 4 4 4 q > > 4 % % % % % 4 % % % , % , , 4 , , , & , $ : & , , : & & & : : : & + * > % % + % % X % + % X $ $ O @ @ o   ",
"O .   O O + + > O + - O - > + - + + - > > > > + + O + + + > > > % $ % > % > % , , , , , , : , & > 7 > 7 > 4 4 - > , 4 > > - > 1 , & % , % , , , r , r , 6 r r & , 5 , 5 , 5 5 5 k 9 4 0 8 9 k k 4 7 S s     D.IXIXs.    @ s S s 6 V I.GXqXaXtXtXJX_.  z.nX=.q @ g.mXJX5X5XaXaX5XIXSX_ @ (.MXI.W t S e e o 6XSX;.  s 0 4 % r   t i.I.2X2X.XdX9X&XnXIXk   L.LXUX}.g.V   O % r D 6 9 9 9 9 k e 9 9 9 9 9 9 9 9 9 9 9 9 t 9 9 9 9 9 e 9 t e 9 9 9 9 9 k 9 9 9 9 9 9 9 9 t k 9 9 9 V 9 e 9 k V V 9 t e s 9 9 9 9 e 9 9 t e 9 9 k 9 e 9 e V t e 9 9 9 e 9 9 s 9 e 9 9 e t k w t e s 9 9 e s 9 9 9 9 9 9 9 9 9 9 9 9 9 9 9 e 9 9 9 9 9 e e 6 e e 6 e e 6 6 6 r e 6 e t r 6 6 6 6 6 e 6 6 e e 6 e 6 e 6 9 e 9 9 9 9 9 9 9 6 V 9 V e @ + >   4 D k 9 t 9 k 9 9 9 s 9 s 9 9 9 9 9 6 9 9 k 9 9 k 9 V 9 9 e 9 9 9 9 9 9 t 9 9 9 9 9 9 9 9 9 0 9 9 9 9 9 6 8 e 9 9 9 9 6 9 9 s 9 9 6 0 9 9 9 5 0 8 6 9 9 8 0 8 0 8 0 0 8 0 8 4 0 8 8 6 8 6 8 0 0 5 5 5 5 4 0 0 4 6 4 4 4 4 0 9 9 8 0 5 5 5 0 4 8 0 4 4 9 9 5 8 5 4 5 4 4 4 4 4 4 4 4 4 4 4 * 4 4 4 * % , , * 4 4 4 4 , 4 % , , , , , , , , & : & , : : & : & $ % % > % $ X O % % + O $ O X X . @     ",
"- .   O O + - % + + - + > > + - + - > > > - + + > > + + + > > > & & % > % 4 % % , 4 % % : > > , 7 > 4 > 4 > > > + + > > > - 4 , : , & , % , , , 6 5 8 4 , 6 6 , 4 5 r , 8 4 8 8 8 5 4 4 6 6 9 9 Z q 0 G + p.mX2XU + 4 %.>   4 D * 6 F.cXpXcXpX#XPXrXr E L.W + + n.IXhXtXaX#XBXpXPXSX;.@ !.&Xk..XX * 0   G dXdXP.7 + Z { e % . * 0 <.PXPXtXGX1XPX.X~.A O K.3XbXV.0   5 U 5 % e 9 9 e 9 e e e e 9 k 9 e 9 9 k 9 e 9 e 9 e V e 9 V 9 9 V 9 9 9 9 9 t 9 9 9 9 e 9 e 9 g e e 9 9 9 9 9 t 9 9 9 9 9 9 9 9 V e 9 9 t t 9 9 e 9 9 e 9 w V V V 9 9 9 9 9 k 9 9 9 9 9 e 9 9 V e V k 9 9 9 9 9 9 9 9 9 9 9 9 9 9 9 9 9 9 9 9 6 6 9 9 6 9 9 6 6 e 6 e 6 e 6 e 6 6 6 6 e e e 6 6 e 6 6 6 6 y 6 6 e 6 9 9 9 e e 9 9 9 9 9 9 9 9 6 k 6 V 9 . @ +   + V 6 0 8 4 e 9 9 9 9 9 k 9 s 9 9 9 9 9 9 k k 9 9 t w 9 k 9 9 k 9 9 9 9 9 9 9 9 9 9 6 8 8 6 8 6 9 9 9 9 9 0 e 9 k 9 9 9 9 9 s 9 9 9 7 9 6 9 8 0 7 4 8 6 9 6 6 6 6 9 0 8 8 6 8 6 6 8 0 8 8 0 0 8 8 0 6 8 8 0 0 4 0 4 5 5 0 9 9 0 0 5 0 0 4 4 4 0 0 6 5 5 9 4 8 0 4 4 4 8 4 4 4 4 4 4 4 % > 4 5 , 4 , 4 , % 4 % 4 4 > * * , % , , , , > > * 4 , , , % , & $ : $ % % 4 X % + % $ % + O O O . .         ",
"+ .   O % + O > - + > > > > > % O O O > + > + + > - % - - + + - $ % % > % 4 % 4 4 4 > % & , & , > > , 4 4 4 > q - > , 4 > 4 4 5 , , , , , 5 5 , 8 8 8 4 , & 6 & 4 r , r 8 5 r 8 4 5 9 9 9 9 6 0 V 7 V V 4 2XPX*.@ q + 7 s s 7 S 5 6 p.zXcXpX5XpXCXPXQ & V 0 6   1.PXxXtXtX4XCXpXKXSXi.o P.;XS.NX3.+ W   Y 6X6Xn.o s   J R 5 W 6 V   E I.'.PXPX XW e   , UXeXc..   S 0 X E S @ V 9 9 9 e 9 e 9 9 9 V e V e V V 9 9 9 V V 9 9 e 9 9 e e e 9 9 9 e 9 V 9 V 9 e V 9 9 9 e 9 9 9 9 t 9 9 9 9 9 9 9 9 9 9 9 9 k 9 V V V 9 9 k e 9 k 9 9 9 9 9 6 9 9 s 9 9 t 9 e e 9 9 9 9 9 9 9 9 9 9 6 9 9 9 9 9 V e t 9 9 V e 9 e 9 6 9 9 9 9 9 6 9 e 6 6 e 6 6 6 6 e e 6 6 6 6 e t 6 6 6 6 e 6 r 6 e 6 6 e 6 9 6 9 e 9 9 9 0 9 9 9 9 9 9 6 k 9 @ + 0 . * V 9 6 9 5 e k 9 9 g t 9 t t 9 8 9 9 9 9 9 9 9 9 9 9 9 9 9 k e 9 9 6 9 9 9 9 9 9 9 0 9 9 6 8 9 9 9 9 6 6 8 9 9 9 9 9 9 9 9 9 9 9 9 6 9 6 6 9 6 5 8 9 9 9 9 9 9 9 9 9 9 9 9 9 6 6 6 0 0 4 0 7 0 6 9 9 6 6 8 4 4 4 0 9 6 9 6 0 4 4 5 6 8 4 % 4 5 5 4 4 9 5 0 8 4 4 4 5 4 4 4 4 4 4 4 4 4 4 4 4 5 4 % 4 % % % 4 4 > , % , % , & : $ $ % + + % , & % , $ 3 $ $ % % % % % + % + + + + $ O X O O   @     ",
"O o   O O - + + + + > > > > + + O + O - + > + - > > + - + > % > % % , % % % * % % 4 , & , 4 , , 4 4 > 7 > 4 > > > , 0 1 , > 4 r , , , , 5 , 8 8 8 8 6 6 5 5 6 , 4 5 r 5 5 5 4 8 5 0 9 9 g k 9 6 V V D O $.KXnXU   Z S > D g 7 s t e &.5XBX5XtXBXcXJX3.  @ V Z   E PXPXtX5XpXxXuXhXIX'.a G.nXtXHX3X  . @ Y mXKX;.- 0 - E e , ! & 0 0 + @ s L.3.9 O k   I._.r . $ r t S e % 9 S 9 9 9 9 9 9 e e e 9 e 9 e e 9 e t 9 9 V 9 9 9 9 e 6 s V 9 9 9 9 V e 9 e 9 9 e e 9 9 9 9 e 9 9 9 9 9 k e 9 9 9 e 9 9 9 V 9 9 9 k V 9 V t 9 9 e e 9 5 6 6 9 9 9 e t 9 t 9 9 9 e 9 e 9 9 9 9 9 9 9 9 9 9 9 9 9 9 9 9 9 w 9 9 9 9 s 9 s 9 9 9 9 9 9 9 6 e e 6 6 e 6 6 e 6 6 e 6 6 e e 9 e r e e e 6 e 6 e 6 e 6 9 9 9 9 9 6 6 8 9 9 9 9 6 e 9 V 9 . X 0 . 4 V e 9 V 9 9 9 9 9 9 9 9 9 9 9 9 6 w 9 9 9 9 9 9 9 9 9 9 9 9 9 9 9 9 9 9 9 6 9 6 9 9 6 9 9 9 9 s 9 9 9 6 9 e 9 9 9 9 6 9 9 9 9 9 0 6 7 8 8 9 8 6 6 9 9 9 8 9 8 6 6 9 6 9 8 8 0 4 5 4 5 0 8 5 5 8 6 9 6 6 9 4 4 5 9 9 0 6 5 5 4 4 5 9 9 0 * 4 0 6 4 4 0 5 0 8 4 4 4 4 5 5 4 4 4 4 4 4 % 4 > 5 5 5 , 4 % % % , * > * , > > % : : $ $ $ X % % 4 > 4 , , & $ $ $ % % 4 % $ % + % % X X O O     . @     ",
"$ o   O % O - > O + + % - > % - > + % % + - > > O + O % + > > > 4 4 % 4 4 > % % % , 4 4 4 4 4 % > > 7 > 4 > > > > 7 8 5 > > , 5 , , , , , , 5 5 5 5 4 6 5 5 6 r % , , 5 4 4 0 8 8 4 4 4 0 9 V V 7 s o 0 ZXPX3.o @ - g - 0 9 Z 6 r & 6 }.CXpXaXaXJXNX4.X D S D q S rXJX5XtXxX5XSXhXPXdX{ 9.<XaXnXPXR > @ V 6XhX` o s g E e & & r R D g q     X % O   8.UX*.  S k e 5 V D 5 0 V e 9 9 e 9 9 9 e k e e 9 9 e 9 9 9 9 9 9 V 9 9 9 9 6 9 V k 9 6 9 V 9 e 9 V V 9 e 9 9 9 9 9 9 9 9 9 V 9 9 9 V k 9 t 9 9 9 9 9 6 9 9 e 9 9 V V 9 e 9 6 9 e V V V k 9 9 e 9 V 9 9 e 9 9 V k w k t 9 9 e 9 V 9 9 9 9 9 k 9 k 9 V 9 g e k V V 9 s V V s y 6 e e e 6 e 6 e e e e e e 6 6 6 6 6 6 y e r e 6 6 6 6 9 9 6 9 9 9 8 6 8 9 s V g 9 k 9 V 9 . + 4   + s 6 6 V 9 e 9 6 9 9 e 9 9 k 9 9 9 9 k 9 9 9 9 9 9 9 9 9 9 9 9 9 6 9 9 s V 9 9 9 9 9 s s 9 e k 9 9 9 9 9 9 k 9 s 9 9 9 9 9 9 9 9 9 8 6 8 0 4 0 6 9 9 6 0 0 0 7 8 8 0 7 8 0 0 4 5 8 8 8 6 6 0 5 8 8 0 9 6 8 4 5 6 9 9 8 4 4 0 4 0 9 e e 0 % * 4 4 4 4 0 5 0 9 8 4 4 4 4 0 , 4 4 4 4 4 4 4 * 5 5 4 4 4 % 4 % > , 4 4 % * % , , , : % % % % 4 % % % & $ $ & $ $ % % % % X + % O % $ O X O O   .       ",
". o   O - - + - $ $ $ O $ $ $ % > > > $ O $ $ > $ > > > $ $ > > , % % % % 4 > % 4 , 4 > % > * 4 % % % > 5 4 % % % 4 % 4 , % 4 % , & , , : , , , & , , * , % % % 4 4 7 7 8 0 7 7 7 9 0 4 q 0 0 q - g A U.3XT &   9 * 5 V % D e t V 6 w XXNXnXtXaXGXMXQ   E g @ @ x.PXcXaX5XJX5XGXIXqXSXg.{ E.hXvXKXB.q + ;.IXeX3.o 0 s * % e C & > D V % 4 D C 9 C 5 =.*.% e 4 9 6 8 8 k k 9 e e 8 9 e e 8 8 9 k V 9 e 9 t e 9 9 e 9 9 9 9 e 9 e V 9 V 9 0 9 V 9 e C 6 % w V 9 V e 9 9 9 k 9 e 9 9 9 k t 9 9 9 9 9 9 9 V 9 9 e 9 9 9 6 9 9 s V V k 9 9 9 e e 9 9 s 9 e 9 9 w 9 e e 9 9 9 e 9 s 9 9 6 9 9 9 9 9 9 s g s s s g s s s 0 s 9 s s g s 6 r e y r 6 6 * r 6 6 6 t e 6 y 9 9 9 9 9 9 e 9 e e 9 e 9 V 9 e 9 9 e 9 9 9 e 9 e 0 5 e 9 V   + 5   4 9 9 9 9 6 k 9 9 9 9 9 9 6 8 6 9 9 V 9 9 6 9 6 8 6 9 k 9 9 8 9 9 8 9 s 9 9 9 9 9 9 9 s 9 s 6 s k 9 9 e 9 4 9 9 6 9 9 9 9 8 9 9 9 8 6 9 6 9 5 9 9 8 6 5 9 9 9 9 9 0 5 6 0 6 5 8 6 5 5 5 5 5 4 8 9 8 5 5 6 9 9 8 5 4 4 4 0 5 4 5 8 9 8 8 0 5 0 8 8 8 4 4 5 8 4 4 4 4 4 4 4 > * 4 % 4 4 4 5 9 5 , , , > , $ % , , $ % $ & , , : : : : & , , , > % $ $ $ $ $ : & . & $ $ % , $ + + * + O . O @ @       ",
"O o o O - + + + O O O $ $ $ $ : % : $ O : % $ > $ $ : > : % : > % % % % * > , * & 4 4 4 4 4 , 4 4 % % % 4 % > % % 4 4 % * 4 4 % , 3 & , , , , , , , , , , , , & 4 4 8 8 8 s 7 9 9 s s s g g 9 0 w   v.PX<.  % 4.k.4 % t w 4 e 6 6 0 w }.xXxXzXcXGXzX<.  w w 0 @ (.PXtXVXyXaXGX5XaXxXIXj.R E.vXKXIX'.  @ @ ;XmXE.8 V A e r y y r 5 s V C V % % D   $.S 6   t D D V s 9 k e 8 8 8 V V k e e e 9 9 9 V V 9 9 9 9 V 9 e V 9 9 9 e 9 s 6 9 9 5 9 V 5 5 S S V V e 8 V 9 e t 9 9 w k 9 t 9 9 9 9 s 9 V 9 9 e 9 9 V t 9 9 6 9 9 9 9 9 e V 9 9 e 9 e 9 6 9 e 9 e k 9 e 9 9 w k 9 t 9 9 t 6 9 9 9 9 9 9 9 9 s s s s s s s s s s s s s s s e e e e e y e e 6 6 r 6 e e e 6 9 9 9 9 9 9 9 9 9 9 e 9 9 e 9 9 9 e 9 V 9 9 9 e 9 0 5 V 9 e   % 0   4 V 9 e 9 9 9 t 9 e 9 9 9 9 6 9 9 s 9 9 9 9 s 6 0 8 9 k t 9 6 9 6 9 6 9 9 9 V 9 k 9 9 9 6 6 6 9 9 9 9 9 6 0 9 9 9 9 9 9 9 9 s 9 9 9 8 0 0 4 6 6 9 6 5 5 5 6 8 8 9 9 9 9 8 0 9 0 9 8 0 6 0 5 4 5 6 8 8 5 9 9 9 8 0 4 4 , , 4 4 0 6 8 4 4 > , 4 8 9 9 8 4 4 5 4 4 * 4 4 4 4 4 > % 4 > % % 4 > 5 , , % , > % % , & , : , % , : & % & , : , , , > % % , , $ & : $ $ $ : % $ $ $ . + + + + X O + . . .   ",
"+ @ o O + - + > O O O : $ : : > $ : O > $ > > > $ > > > % > > > % % 4 % * > > 4 % % 4 8 4 4 % % 5 , % , , 5 4 4 % % % 4 , , * , , , , , , , , , r r r , 4 , > , 5 8 8 8 s 8 8 0 7 9 9 9 g s 9 q 0 <.GXyX.   =.PXY.. + 9 S X A e y X * OXcX2XtXnXuXPX.Xg + Z g - S.GXcXGXaX3XcXJXzXxXSX;Xw.B.6XIXhX6X7 o D hXdX`.<.S G s , r 6 S e 8 4 r S V 5 4 2.<X{ 9 t V D V V e 9 9 9 8 6 9 C V e 9 e k e 9 t V 9 k 9 V 9 9 9 9 k 9 V 9 e e e 6 9 9 9 e V 0 e e 0 5 C D e 6 9 e 9 9 9 t 9 9 e 9 9 9 t e 9 9 9 9 e 9 e 9 9 k 9 9 9 9 9 9 9 9 t s 9 9 e 9 9 9 9 e 9 9 9 e 9 9 9 s 9 s 9 k 9 9 9 9 9 9 9 V k 9 9 9 0 s 9 9 9 s 0 s s s 9 g s 9 6 e e 6 6 e 6 6 6 6 6 6 e 6 6 e 9 9 9 9 9 9 e e e 9 9 9 e 9 9 9 9 e 9 9 9 9 9 k 9 8 0 e e V   @ 0   4 V s V 9 9 9 9 V 9 9 9 9 s 9 V e k V 9 9 6 V 9 9 8 6 9 9 e 9 9 9 9 9 9 9 9 9 k 9 9 9 6 8 6 6 9 9 9 9 9 8 0 9 9 9 9 9 9 9 9 9 9 s 9 9 8 0 4 s 9 9 0 8 0 0 4 5 0 9 9 e 9 5 4 9 0 9 0 9 0 8 0 > 4 8 8 9 8 8 e 8 8 8 5 4 4 4 > 8 8 6 5 4 > 4 4 4 5 9 8 0 4 4 4 > 4 > 4 > 4 4 4 6 9 8 4 5 0 4 4 4 , , % , , , % : , % & , & % , % % , % % , > & % , , % % % : & $ $ & : % & & $ O + 4 + + + + % @ .     ",
"> .   . + + O + O O O O : $ : % $ $ % $ : % : > $ $ % : > O > > % 4 4 4 > % % 4 % , 4 4 , % % 4 5 , 4 * % 4 4 4 , 4 4 % > 4 > 4 , , & , , , , , 5 r , 5 5 , , , 8 8 8 8 7 8 8 7 7 0 9 9 0 0 7 -   `.GXV.  ! BX}.$.  V 6 V 4 D 0 V 0 6 3XcX2XtXhXmXSXPX}.0   @ q V OXJX5X5XJXcXcXHXMXhX6Xs.!.).;.PXSXL.0 o 7XrXW.m.D s 0 5 y & y % A W k 4 + X * F.<X0 X V 4 X 0 9 9 6 9 6 6 9 k 9 9 9 9 e e e 9 k 9 t 9 9 9 9 e e 9 9 9 9 9 9 9 t 9 V k 9 V V 9 D 9 4 4 e V e 5 e 9 9 k 9 9 9 e 9 9 k e 9 9 e 9 9 9 9 V 9 V 9 9 V k e e e e V e 6 6 9 9 9 V t e e 9 e 9 e 9 9 k 9 9 9 9 9 9 9 9 V 9 e s 9 t 9 t 0 s s s 0 9 9 9 9 s 0 s 9 9 9 s 6 6 6 5 6 5 6 6 6 e e e e t 6 r 9 9 e 9 9 s 9 9 9 9 9 9 9 9 e e 9 9 V 9 9 9 9 9 9 9 5 V 9 e   + 6   4 V 9 k 9 9 e 9 9 9 9 V 9 e t 9 9 s 9 9 9 9 V s 9 6 9 9 9 s 9 9 9 9 9 9 9 9 6 6 9 9 9 9 9 9 9 9 t 9 9 s 9 9 8 6 9 9 9 9 9 9 6 6 9 9 9 9 9 8 k 9 9 8 9 9 8 0 5 6 9 9 0 5 5 5 8 6 8 6 9 8 0 8 0 4 0 8 8 8 8 9 8 8 8 9 8 4 0 4 8 8 8 5 8 0 8 6 4 4 4 8 4 4 4 > 4 + 4 4 4 4 4 0 s 9 9 9 8 5 8 4 , , % , , , & % , % , % : % , % , , % : & : $ , , : , & , $ , & $ $ : : $ $ $ $ X % + % + + + + . @ .   ",
"- .   O O + O - O : % $ $ : $ $ > % % > % $ % O $ $ > > % : > > % 4 4 4 , % % 4 % 4 4 % % % > 4 % % > , , & % % & 4 , , 4 % 4 % , , > , & & , , , , , , , , , , 2 8 2 2 2 2 7 4 8 8 8 a 5 5 r r * g.p.  V nXzX}   4 C 5 4 e 6 6 5 e A #XaXaXbXtXnXtXPX8X  ` *.  X W XXGXVXaXpXaXSXuXSXhXi.).P.; ; [.8X{ S ;XfX&XB.q @ 0 k S & e 4 $ . 4 S A 5 5 j.j.  6 W V 0 W V 9 9 9 9 9 9 V 6 9 s 9 9 9 9 V e e V 9 V e 9 9 9 9 w e e 9 9 e e e V V 5 e C e D A D V 4 4 9 t 9 9 9 e k w e 9 k 9 w 9 9 9 9 e 9 9 9 e t 9 e 9 V e e e 9 e e V 9 8 6 9 V V V V 9 e 9 V 9 9 9 9 9 9 9 9 9 9 9 9 e e 9 t 9 k k 9 s 9 s 9 9 9 s 9 s s s 9 9 9 9 9 e e e 6 6 e e e 6 e 6 e 6 e 6 e 9 9 9 w 9 9 9 9 9 9 9 9 9 9 e 9 9 9 s 9 9 6 9 9 e 9 5 V t V   X 8   4 t 6 9 9 9 9 9 9 9 e 9 e e 9 6 9 9 g 9 9 9 9 k e 6 8 6 9 9 9 9 9 9 9 8 9 9 9 6 9 9 9 9 9 9 6 s s 9 9 9 k 6 6 9 6 9 9 9 9 s 9 9 8 6 9 9 9 s 9 6 8 8 6 9 6 5 9 0 5 4 4 0 4 0 5 5 0 8 8 0 8 0 8 5 8 8 5 8 4 5 4 4 8 8 9 8 6 8 5 5 8 5 4 0 8 6 4 4 4 > * 4 4 4 + % 4 4 4 4 4 4 4 4 4 4 4 > 4 4 4 , , > , , , % , % , , , % , % , % > , % , % % $ % : , % $ $ $ $ $ $ & $ O O $ > > % % > + @ . X . . . ",
"- o o . + - + + > > > $ $ O $ O : : > : $ $ : O $ > > > $ % : > % % , 4 % 4 % % > > % , % % 4 4 % , 4 5 4 4 > > 4 , , * 4 , 4 , , , > & , , , , & > , , , , 5 , 5 , , , , 5 2 5 r 8 8 8 5 r C T X > * % IXPXV 6   e 0 5 + C * C *   W 5XaXtXrXnXIXPX3X2.+ hXKXB.*   C oXcXaXJXaXSXtXKXSX1.B.B.g ; q 0 B.h.).8XP.m.; o d C k & , 5 A S V e > @ * R V 4 9 0 9 + 9 V 9 9 9 k 6 6 9 9 t V V 9 9 9 V e e e e 9 9 9 e k 9 e 9 9 9 e 9 9 9 V e 5 0 e 9 9 6 V C 9 6 9 e e k 9 9 9 9 9 e 9 9 9 e k t 9 9 9 9 9 9 9 V k 9 s 9 9 9 9 9 9 e s 9 9 9 9 9 e 9 9 9 9 9 9 V 9 e 8 9 9 9 9 9 9 9 e e V 9 t 9 9 k s g g s g s s g 9 0 9 s 9 9 9 9 6 e e e e e e e 6 6 6 e e 6 e 6 9 k 9 9 9 9 9 9 9 6 0 9 9 9 9 e 6 9 e 9 9 8 9 s e 6 5 e 9 k   @ 0   4 k 9 s 6 6 9 9 9 9 9 9 9 9 6 6 8 9 9 9 9 9 9 9 9 9 6 8 6 9 9 9 9 7 9 9 9 0 9 s 9 9 9 8 0 8 8 9 6 8 6 9 9 6 9 8 9 9 6 9 9 9 9 9 6 8 0 8 6 6 6 6 4 0 0 6 4 0 9 5 4 4 * 4 4 5 0 5 4 0 0 0 5 8 8 8 5 5 5 0 4 4 > 4 4 5 8 5 8 4 8 8 9 5 4 4 4 4 9 8 4 % 4 4 5 5 4 4 * 4 4 4 4 4 % > * > 4 4 * > 5 & > , , > , % % , > & , , , & , , % & , : & $ $ $ & % , & $ $ & $ $ $ $ X O . > > q + + X . . @ @ @   ",
". . o O - + + - > $ % $ : $ $ $ $ % > % > $ $ O $ % : > > $ > > % % > 4 4 > % % > > 4 % * > 4 % * 4 5 5 4 * 4 4 , 4 4 , , % 4 4 , % % , 5 & , , , , 5 & , , , , 2 , , , 2 2 8 r 2 8 , , , e ..2.! 8   g.zXW % 4 0 5 * e % D * D 9 . <.zXrX3X2XPX3Xx.Z   q }.IXSXI.W   g.cXVXaXcXIXSXSX[.J B.).f   Z ` s.l.W.AXW.h.s = k 8 5 A K e C 4 + e U U S 6   D V 0 D V V 9 9 w V V 9 s g g V V g 9 V w V 9 V V 9 e 9 e 9 t 9 9 e e 9 e 9 e 9 e e 9 t 9 % k + * t t V C 4 9 9 9 e 9 9 9 k 9 e 9 e 9 9 9 e 9 9 9 V 9 k 9 w 9 6 6 9 9 9 9 9 9 9 9 9 k 9 t 9 V 9 e 9 V 9 9 e 9 9 9 9 9 9 9 9 t e 9 k 9 w 9 9 V 9 9 9 V 9 9 g 9 9 9 9 9 8 0 9 5 6 6 6 6 e 6 6 e 6 e 6 e 6 6 6 9 9 k 9 9 9 9 9 6 9 9 9 s 9 9 9 9 9 9 9 6 9 9 9 e 6 5 V 9 V   + 5   4 w 9 t 9 9 s 9 9 9 8 9 6 6 9 9 9 9 9 9 9 s 0 9 9 9 9 0 8 6 9 9 9 9 9 9 8 9 9 s 9 9 9 0 8 0 0 9 9 8 6 9 9 6 8 0 6 9 9 9 9 s 9 9 9 9 8 5 6 6 9 6 9 6 0 4 0 5 9 6 6 4 4 0 5 6 0 5 8 6 6 8 9 8 9 5 4 4 8 8 5 4 4 4 0 5 8 4 4 4 0 4 9 8 4 > 4 > 8 8 4 4 4 4 5 4 4 4 4 4 4 4 4 4 , 4 4 4 5 5 4 4 , , % & , , , > , % % , , % : , , : , % $ $ $ , % $ , $ : $ $ $ $ & $ & $ O O O % % X % % + . o O + .   ",
". o   @ > % - + $ $ $ > $ : > : O O $ : > > > > $ $ > > > $ > > % 4 % % 4 4 % X & % 4 4 4 > % % % % % % % % % > 4 4 4 4 4 4 % , , , , , , , , r 5 , 5 , , , , , 2 2 2 , r 2 8 r r r r , r K 3.c.C X $.F.W . e 9 V 4 9 D + t 5 5 6 W L.bX#XrXuXPXI.    E + w.ZXIXPX<X#X3X XPXJXaXhXmXHX[.{ B.8X;Xq   { d.w.i.hX).m.U 1 z > 8 ,.u.g.*.C e >   O W D . U V V V D w 9 6 6 g V t V V 9 6 0 6 9 V V s 9 e 9 V 9 9 V 9 9 9 e 9 9 e 9 9 V 0 9 V V D 9 . S 9 9 V 5 5 e e 9 t w 9 k e 9 9 9 k 9 9 e w s 9 9 9 9 e e 9 e e 9 9 9 9 9 V e V 9 9 9 9 9 V V 9 9 9 9 9 9 9 e 9 9 9 6 9 9 9 9 6 9 s t 9 9 9 9 9 9 t 9 s 9 9 e 9 9 9 s 0 9 9 9 9 5 6 6 e e 6 6 6 6 e 6 e 6 e 6 e t 9 9 9 9 9 9 9 8 6 8 9 9 9 9 s 9 9 9 9 9 6 9 9 e 9 0 V 9 9   X 6   4 V 9 V 9 9 9 9 9 9 9 0 6 8 V e 9 e 9 9 9 9 0 5 9 e 9 8 0 8 9 9 9 9 9 6 9 9 6 6 6 9 6 8 9 9 6 9 9 9 9 s V 9 8 6 9 9 9 9 e 9 0 6 9 9 9 9 9 9 s k V 9 8 4 4 8 6 6 9 6 9 5 9 8 0 8 6 6 8 9 6 6 5 4 4 4 8 9 8 0 6 8 6 8 8 4 4 4 4 5 8 8 9 8 5 8 8 4 4 4 4 0 4 > 4 4 4 > 4 4 4 > 4 4 4 0 5 4 4 4 4 > > > & , , > % , , , , , , > , & $ : , & , , & , , , , > % % $ $ $ $ $ % $ % % + O X + + O . X . . . ",
". o   . + + O O O O O : $ $ $ $ : $ $ % O > $ % O O $ $ $ $ $ $ 4 % % % 4 4 4 % % * , % > % % % % % * > % * > % 4 4 % 4 , 4 4 8 , , , , 6 r , , , , , r , , , , , 2 , , 3 , , 3 r , r x T U r.! O p.qXc.  % S 9 4 t V 8 4 e e 4 t p.cXPX.XyXBXGX(.C 8 V @ + B.IXPXMXPXnXrX5XnXJXcXKXuX`.w.;.fXSX8X  o q 7 ` kXB.:.g J q P V Y } ..A & W a.r.. 5 r 4 e y 4 V E + 9 6 w V 0 0 6 6 D 0 s 0 V 6 D 6 V 4 6 V e e k 6 9 0 S 9 e 4 C k e C 9 W 9 9   3.`.*.4 4 0 S 4 V 9 V 9 t 9 9 9 9 V e 9 V e 6 8 9 V e 6 9 9 V 9 9 V e 9 e 9 V 9 e 9 9 9 e w 9 9 t V 9 e 9 9 9 6 9 V e 9 6 8 6 9 s t e 9 9 9 e 9 9 V t t e 9 9 e 9 e 6 e 9 e 9 e 9 e e e e y 6 e e e 6 6 e y e 6 6 9 9 9 9 9 s 9 9 k 9 9 9 9 9 9 w 9 9 9 9 9 9 9 9 V 5 6 6 V 9   + 0 . q V 9 9 k 9 V 9 V 9 9 9 V 9 9 t 9 9 9 9 6 8 9 9 9 6 8 6 6 9 s 9 9 0 9 9 9 9 8 6 9 9 8 9 9 9 9 9 9 9 9 s 9 s s 9 8 9 9 s 9 6 6 9 6 9 9 9 9 s 9 9 9 9 9 6 5 5 6 9 9 9 9 8 0 0 8 0 8 0 8 6 6 9 8 6 8 8 8 8 8 8 9 8 8 4 4 0 4 8 9 9 8 5 4 4 4 4 8 5 4 4 0 5 4 4 - 4 4 4 5 4 % % % 4 4 4 + X + > & , , & > , , : $ & , , % : , , , % & , % $ & : & $ , % : , $ & & $ 3 & & : $ & X > > + @ % + . @ + .   ",
"O o o O + + - + > % > $ $ $ : : % $ O : % : O : O O $ $ $ $ % > 4 , > * > 4 % , 4 % 4 % % % * > > > > 4 > > % > 4 > % % > * 4 5 , 4 4 , , , % % & , , , , & , 5 , 2 2 2 2 r r 2 , r r c U ..& r P.PX_.4 . 6 4 V * 0 9 5 4 e 9 0 & ~ }.HXyX2XqXtX2.& @ A U   - s.MXPXqXtXMXzXcXzXnXPX6Xk.;.B.vXhXZX[.- o q { KXP.) g J J Y 8 7 s % r , r 2.c.v.k T E e V V @ q W g 0 D G 4     q 0 6 C V 0 0 g V 6 S V 9 6 9 V V V C X > 9 W . 0 S e 5 O 8   e 2XVX$.  t + 9 9 0 k 9 V 9 9 9 9 V V 9 9 e s 6 6 9 V 9 9 9 9 t V 9 e 9 e 9 9 t 9 V 9 e 9 9 e k 9 9 9 9 e 9 9 9 9 6 e V 9 6 9 9 9 9 9 e 9 9 e r 9 9 V 9 t 9 9 9 9 9 e e 6 e 9 9 9 r 6 e 6 e 6 e 6 e 6 e e 6 r e e 6 9 9 6 9 9 9 e 9 9 9 9 9 e 9 9 9 e 9 9 9 9 9 9 e e 5 9 9 V 9   @ 6   + V 9 6 k 6 9 9 9 9 9 t e 9 9 9 9 9 9 9 9 6 9 9 9 6 6 9 9 9 6 9 8 9 6 8 8 0 9 9 9 0 9 6 6 9 9 9 9 9 9 9 9 9 9 6 0 6 9 9 9 8 9 9 8 6 5 0 8 0 8 0 9 6 6 6 6 0 0 9 9 6 0 8 5 7 9 6 6 8 8 0 0 8 6 8 8 8 8 8 6 6 4 4 4 4 4 > 4 4 9 8 8 4 4 4 4 4 8 5 4 4 4 8 4 4 4 4 4 0 4 4 4 4 4 5 8 5 4 4 0 5 , , , , , % , & $ : % , & , , % % , , : % , % % : , % , , & : : $ $ : : : & $ $ O > % + + X X O X @     ",
". O O O - - > + > > O > $ : : $ : O > $ O % $ O O $ : % $ : > > % % 4 , * > % 4 % , > % * > % * , 4 4 % * , 4 % % 4 4 4 % , , * r , , & , , % $ & , , , , , , r 3 , r r r r r j r r C ! U K c f.bX2XR   e V 9 4 8 6 9 e 9 9 e e & X 4..XBXGXGX<XD   8 6 s g s o F.PXuXdXzXzXxXGXhXmXhX;Xw.{ !.SXPXHX X# o G 1X|.B.i.J s z Z 8 8 r r r 6 O X u.k.k.2.9 4 W V 6 V 4 9 W 0 D <.$.w D D 9 D q D V w k D . 4 S C 9 X 6 D 9 V C   V V 0 6 D 5 W   4 BXPX!   C 5 t t 5 9 e 9 e 9 9 9 9 9 9 9 9 e 9 9 s V k 9 9 9 V k t t 9 9 e k 9 e e V 9 k 9 9 9 9 9 9 9 e e s 9 9 9 V 9 9 9 9 9 9 6 k 9 9 9 9 9 9 6 9 r 9 9 e 6 9 9 6 6 6 r 6 6 6 6 6 6 e 6 6 r e 6 e 6 6 e e 6 6 6 9 9 9 9 9 9 e e 9 9 e 9 9 9 9 9 9 9 9 9 9 9 9 9 9 0 9 9 V 6 @ 4 0   4 V s 6 V 6 9 9 9 9 s 9 9 9 9 9 9 9 9 9 9 9 9 9 9 9 9 s s t 0 6 9 9 6 5 0 4 9 9 9 8 9 8 6 8 8 0 0 9 6 6 9 9 9 8 0 8 9 9 6 0 9 9 9 5 8 8 5 6 0 0 0 8 8 9 0 5 8 9 8 9 0 6 8 6 6 9 6 6 0 0 5 5 8 8 5 8 8 8 6 8 4 4 0 8 8 5 4 4 9 6 8 8 4 4 4 4 8 8 0 4 8 8 4 4 0 4 > % % 4 4 0 4 4 5 4 > 4 4 4 4 , , , , % % % $ : > , % : $ % , % , & & , $ $ , , & , & , , $ $ & : & $ $ & $ X > > X . + + O O X     ",
"o o o @ o + + O O $ : O $ $ O O % % : % : $ > > $ O : > % : > > % , 4 4 % % , 4 4 4 4 4 > , 4 % % % 4 4 , 4 % 4 4 % , 4 4 4 % , , , 5 , , , , % , , , , , , , , r r , 3 2 , 8 2 c r A ! c $ g._.(.S   t V 0 D + V 9 9 t t 6 5 e S & & U v..XBXrXU   7 9 s S Z   =.qXmXtXhXJXHXMXIXKXKXhXB.b.:.;.`.U.D   0   PXh.Z 1.J o k 8 8 A C e e e & r X E ! D 6 t w V U 9 g D D   4.xXtXl.  q g W 6 g 9 0 0 D V U V . V E 8 4 C     k.a.X 5 S V 9 V .   eXzX2.  e V V 5 V 9 9 V 9 9 9 9 e e 9 9 e s 9 6 9 9 t 9 k V 9 9 e 9 k 9 9 9 9 9 9 e 9 9 9 9 9 9 9 9 9 9 9 9 9 9 9 9 9 9 V 9 9 9 8 9 9 6 9 9 9 9 6 0 6 9 9 6 9 9 9 6 6 6 6 6 9 6 9 r 6 6 6 6 6 6 6 6 6 6 r 6 e e 6 9 9 9 9 9 s 9 9 9 9 9 9 9 9 9 9 e 9 9 9 9 9 9 V 8 0 V 9 k 6 . > 8   + V 9 9 s 9 9 9 9 k t 9 9 6 9 9 9 9 9 9 9 9 9 9 s 9 9 9 9 s 8 6 8 6 6 8 0 4 9 9 9 9 0 8 8 0 0 8 8 8 6 9 6 8 6 9 8 6 8 9 6 8 5 4 0 0 0 8 6 9 8 8 8 9 6 8 8 8 9 9 6 8 8 8 9 6 8 0 8 5 8 8 6 9 8 6 5 0 8 0 8 8 8 8 8 9 9 e 9 8 8 8 5 4 4 5 5 7 9 5 5 5 8 5 5 4 5 0 4 % % > 4 4 * % 4 4 > + + 4 5 5 , , , , , % & , , % , > , & % , : $ , : % , , % : , , : $ & : : 3 & , $ $ $ + > > + . + + @ @ + .   ",
"  O + @ . = + + $ $ $ $ O $ O O > $ $ $ > $ % $ $ > > > % > > > * 4 4 , & % % 4 4 % , % 4 4 4 , % * 4 , % * * > 4 5 4 5 5 , , % , , , , 5 6 5 , , , 5 , , , 5 , , , r , , 2 8 8 A T ! K A T k.2.C X 9 V 4 * 4 9 9 0 5 9 e 0 4 0 * t W % X   S E 9 R *.k S D s Z q p.;X.X<XxXSXHXmXPXhX!.i.!.;.q *   X y   C LX}.o 1.&.o Y S r r r 4 r C , C . , .     V D 6 D D q # g 6 Y.PXPX(.D 0 g 0 g g D q S 9 4 V 6 5 S 9 V 0 6 e !.BX9X. 4 6 V V t   X tXGXp.  5 0 5 0 V V 9 e 9 9 9 9 9 e 9 9 9 9 9 9 9 9 9 9 e 9 9 9 9 V 9 9 9 9 9 9 V 9 9 9 9 9 s 9 9 9 9 9 9 9 e 9 9 9 9 e 9 t 9 9 6 9 9 6 9 9 9 6 0 6 6 6 6 6 e 6 e 6 6 6 6 6 6 6 6 6 6 6 6 6 6 6 6 6 6 6 r e e 6 6 9 6 9 9 9 e 9 V 9 9 e 9 9 9 9 k 9 9 9 9 9 9 9 s 6 6 V V V 6 . 4 5   + t 9 6 k 6 9 e 9 V k t 9 9 9 9 9 k t 9 9 9 V V 9 e 9 9 9 9 9 9 9 6 8 8 9 9 9 9 9 9 6 6 8 7 8 6 6 8 6 9 9 0 9 9 9 9 9 9 9 0 5 0 4 4 4 0 0 8 6 9 9 9 6 9 0 4 9 9 9 8 0 5 6 6 5 8 0 5 6 8 6 9 8 0 8 7 8 0 4 8 8 8 4 4 5 8 8 8 0 4 4 8 4 0 5 5 8 5 4 4 0 4 4 4 4 4 4 4 4 4 4 4 4 4 4 4 5 * 5 , r r , , , > > % , % % , , , % % & , : , , & > : $ % & : , $ $ $ $ & & , $ , $ $ % % % . . . + + + + @   ",
"  = - O + - > > > > $ % $ : $ $ : > > % : > : > O $ : % % : > 1 , 4 4 4 % > % % % 4 4 4 , 4 , 4 > > % % % , % , 5 5 5 5 5 4 5 4 , , , 5 , r 5 , & , , 4 , , , 5 , , , , 2 r r j c ..! A E r.W A   % W e 9 e % k 9 5 0 9 e 5 6 9 t t C & * * + 8 k L.nXI.} 4 8 G -   <.;.<.w.g.U..X8X).l.{ Q.q.g   . 6 W $.3.VX2XZ %.}   R e.a.a.<.<.c.G.p.u.p.  0 R 5   6 D V S W =.l.a._.mXPX3XQ 6 0 # V 6 D w V t S A t V t   .   r U.GXJXW . 9 . S e V   <.DXPXz.  C 9 5 t 4 9 e V 9 9 9 9 9 V 9 9 s 9 6 6 9 6 9 e 9 9 9 9 9 9 9 9 9 9 s 9 e 6 6 9 9 9 9 9 k 9 9 e 9 s 9 9 9 9 9 9 t 9 s 9 9 t 9 9 9 r 6 9 6 6 6 r 6 e 6 e 6 r 6 e 6 e 6 e e 6 e e 6 e 6 r 6 6 6 6 6 e 6 e 6 9 9 9 9 9 9 9 9 9 9 9 9 9 9 9 9 e 9 9 9 6 9 9 9 9 5 9 9 V 6 . * 4   % t 9 9 k 9 9 9 e V V 9 e 9 9 9 9 9 9 9 9 V k 9 9 V 9 9 6 6 s 9 9 9 9 6 9 9 9 9 9 9 9 6 8 0 8 6 6 9 8 9 9 9 8 6 s 9 6 9 9 9 9 9 9 6 8 6 8 9 9 s 9 9 9 8 7 0 9 6 8 6 8 8 0 9 9 6 8 0 0 0 8 0 8 8 5 5 5 5 8 8 9 4 4 4 4 8 0 4 4 4 5 8 8 8 5 5 5 0 4 4 4 4 4 4 * % 4 4 4 4 4 4 4 4 4 4 5 5 5 5 8 5 5 , , , , , , , , , , , , & $ $ , % : % , , $ $ $ , $ & $ $ $ 3 $ $ & $ $ $ + % 4 @ + + + X + % @   ",
"o - - O @ > > + $ : % : : > : > % > : : % > : $ O $ > > $ $ > > 4 , % > 4 % % % , * , % % > 4 4 4 % 4 , 4 , % % , 4 4 * , 5 5 r , , , , , , , , , , , , , , , , , 2 2 , r r e k r r 4 9 A } % k 4 % * 9 V e 0 e 9 8 0 9 9 e 9 0 t 6 r 6 <.c.K % 5 p.PXPX|.e.g.U.F.g     @ #     @ s   ; { !.b.g *.v.(.UXJX<XzX}.s J g.G @ k T } u.`.pXI.3.G.yX3.j.pXXXW           l.5X4XxXtXqXu.    w W g # w W 4       0 8   +   I.zXPXGXk   S U 4 S X . S #XPXPXg.  e V t V 4 9 9 V e 9 9 9 V 9 6 9 9 s 6 6 9 6 9 s 9 9 9 9 9 9 9 9 9 9 9 9 9 9 9 9 9 9 9 9 9 9 9 9 k 9 9 9 6 9 9 9 e 9 9 9 9 V 9 9 9 6 e e 6 e 6 6 6 6 e 6 e 6 y e y 6 y r 6 e 6 e 6 e 6 e 6 r 6 6 e e e e 6 9 9 9 9 9 9 9 9 9 9 9 9 9 e 9 9 9 9 9 9 9 e 9 e V 5 9 e V 9   q 4   + t 9 9 V 9 9 e 9 9 t 9 9 9 9 9 9 9 V 9 9 9 V 9 e 9 s 9 6 8 9 9 9 9 9 9 9 9 9 0 7 9 9 8 9 9 9 8 9 9 9 9 9 9 6 9 9 9 6 8 8 9 V 9 9 9 9 9 9 9 9 6 9 6 8 9 8 0 9 6 9 6 8 9 8 0 9 9 6 0 8 0 8 8 8 8 5 0 8 5 0 8 9 8 4 4 5 8 4 > 4 4 5 8 8 5 5 5 5 4 4 4 4 4 4 4 > 4 % 4 4 4 4 4 4 4 4 4 * 4 5 4 5 , , > , & , , , & > , , , , $ % , % : > , , & $ $ % & $ : $ $ $ & $ $ . $ & & + > > + O + + . X % O   ",
"  O + @ o = > O O O O $ O $ $ $ > $ % > > $ % > $ $ : $ > $ > > 5 , % 4 > 4 4 % % % % 4 * , 4 > , 4 4 4 4 4 4 4 , % % , % 4 5 5 5 , , , , , & % , , 4 , & , , 5 r r , , , r 8 r C r % % e e R   6 T +   9 . X V 6 9 5 5 0 8 4 % & r S 5 u.cXUXUXF.}.pXeXDXzXtXGXIX!.=.Q W E W E R { Y { { N.B.!.JXJXcXcXPXVX X3X0 q B.s.  7 8 @ $ 5 E $.! F.c.<.p.3XyXF.2.u.l.4.=.}.IXSXPXhXGXF.l.R q D g D 0 0 * 9 C @ X   % <XrXPXJXDXPX. X k % 9 S 9 . j.PXjXPX_.>   5 V 9 V e e e 9 9 9 9 9 6 8 6 9 9 9 9 k 6 s V e 9 9 9 9 t 9 9 9 9 9 9 t 9 9 9 9 9 9 6 6 9 V 9 s 9 9 6 6 9 9 9 s 9 9 9 9 9 k 9 9 e e e e 6 6 r y 6 6 6 6 e 6 e 6 e r y 6 e e e e r y 6 e e 6 6 6 e e e y 9 9 9 9 9 t 9 V 9 e 9 9 9 9 9 9 e 9 9 9 9 9 9 9 V 9 9 9 V g . X 4   + t 6 6 V 9 9 9 9 9 9 9 9 k 9 9 9 V 9 e k 9 6 9 9 V 9 9 9 9 9 9 9 9 9 9 8 0 9 6 9 9 6 9 6 9 8 5 0 0 8 0 9 9 6 7 9 9 6 0 8 9 5 5 0 5 0 8 6 8 0 8 6 8 0 9 6 8 6 7 6 9 9 8 4 0 0 5 8 5 8 8 6 6 8 5 4 4 4 4 4 8 9 8 4 8 6 8 , X , 4 0 8 6 8 8 4 0 4 > 4 4 4 4 % 4 4 4 4 > 4 4 0 4 4 % 4 4 5 5 5 , , , > > % , , , , > , & , , $ % $ , , & % % , % , : , & 3 & $ $ $ $ & $ $ $ . X + > % @ + + . + @ .   ",
"- # +   1 . $ $ O $ O $ O $ % : $ $ : , , , & : $ $ $ $ % : > % , > & $ $ % , : > % & $ % % $ & * % 5 5 5 5 4 % % & 4 , , % , 4 , 7 4 1 , , , > : > : , , 2 , , 1 2 2 8 8 8 5 7 8 8 8 e 8 e 8 r % X * E =.V X V w 4 4 w 6 0 6 V w D g   2.rXzXrX3XqXrXdXnXSXLXPXBX5XXXU.oX}.}.}.2XdXtX7Xn.;.*XmXPX8XIXHXhXtXhX1Xi.@   q 0 o 0 0 #     #   w p.g.k.P.<XzXtXnXPXxXHXJXPXGXVXPXPXHXxX4.  4 w U q X &.yXJXbXyXUXwXnXJXLXPXtX<.9 . e U A , X K }.pXyXIXL.% % k V 6 r k t V 9 9 9 9 9 9 9 9 6 9 9 9 9 V 9 V 9 t 9 9 9 t V e s 9 V k V s e 9 V V 9 k t 9 9 e 9 V V 9 9 9 9 9 9 9 9 t 9 9 9 9 9 w 9 9 9 9 e V e e t 9 9 9 9 t e 9 9 9 e 9 9 9 9 9 9 9 9 9 9 9 9 9 9 t 9 9 9 9 9 9 9 9 9 s 9 e 9 9 V 9 9 9 9 9 9 9 9 9 9 t 0 5 6 V 9   X 4   @ k 9 9 9 5 e e 9 6 9 9 9 9 9 V 9 9 9 9 9 6 s e 9 9 9 9 8 0 8 6 9 9 9 9 9 0 9 0 0 4 0 4 8 9 6 8 9 8 6 8 0 8 0 5 0 4 5 0 8 6 0 7 5 8 6 0 0 4 0 8 6 6 5 5 6 6 8 8 6 6 9 9 9 9 5 0 5 8 5 0 9 6 r 9 6 6 0 5 8 8 4 0 0 5 5 6 0 4 4 5 , 5 5 4 , > 4 4 5 4 , 5 , 4 4 4 4 4 4 % % 4 4 * 4 4 4 > > > 4 4 > 4 , , , , % , , $ , , , & & : , % & , , % , , , $ : $ $ $ , $ & $ $ : & & $ $ & O O O O + X q @ . ",
"@ - -   , O $ $ $ O : O $ : + O $ $ , : : : : : $ $ $ 3 : : $ : % , : % % $ $ , , : $ % , , : % % , , 5 5 4 4 % % , 4 4 4 4 4 8 7 4 7 4 , 1 > , , , , , , , 2 , , 5 7 8 8 7 5 2 j 8 5 , , > > $ V @ S S.U.=.X 0 9 g g 9 4 4 6 t 0 9 S g U z.s.(.zXrX6XtXbXnXzXzXcXcXaX5XBXJXJXPXnXhXhXmXn.9.8XPXmXhXSXmXmXmXuX;Xl.{ k.B.1.4.R w 9 # q D # @ 0 w T.MXGXxXIXxXtXrX<X`..XzXrXU.a.i.$.+ w U V 6   $.yXPXPXLXJXIXLXBXPXnX2.  y + S V C 4   e :X3X3XpX_.V   ! e 8 4 k 9 9 9 e e e 9 9 t s 9 9 9 9 9 9 9 e 9 e 9 9 9 9 9 9 9 9 9 9 9 V 9 9 e 9 9 s 9 9 9 9 9 e 9 9 9 9 9 9 e 9 9 9 9 9 9 t k 9 9 9 9 9 e 9 9 k 9 e 9 e e 9 9 9 9 t 9 9 9 9 9 e 9 e 9 9 9 k 9 9 e 9 9 V 9 9 e 9 9 9 9 9 9 9 9 9 9 9 9 9 9 9 9 9 9 9 9 9 k 4 8 6 k 9   + 0   X V 9 8 e 0 e 9 9 9 9 e 9 6 6 e k 6 9 s 9 6 9 9 9 9 9 9 6 9 0 8 9 9 9 9 8 8 9 8 5 8 5 8 0 9 9 9 9 6 6 8 8 0 0 8 5 0 8 8 6 6 8 6 6 6 9 8 8 0 4 8 8 0 0 8 8 0 0 6 9 9 8 0 8 6 9 9 9 0 6 8 0 6 6 6 6 8 0 9 8 9 > 0 0 4 4 0 8 4 4 5 , 4 5 , * , 4 5 5 5 5 5 , 4 & , 4 4 4 4 4 4 % 4 4 4 0 4 4 4 % 4 % , % , > % & $ $ $ $ : : : % > $ > , : , % , & , > & $ $ . $ & $ 3 $ : $ $ $ $ $ O X & % X + + X   ",
"  - 4 o > . $ O $ $ $ $ > O + > $ 3 3 $ : : : $ $ $ $ $ : : % : , $ : : $ & , & , % : , , , % , , * 4 4 5 , % 4 4 , 4 , 4 4 8 8 , 4 4 , > 7 , > , , , 2 r 2 r 2 , 5 8 8 8 8 8 8 k 8 8 r z A S S t D <.x.g.=.t + 0 w V 9 4 0 9 9 Z q V V s q 0 3.;XIXPXzXrXbXDXcX5XpXpXyXqXpXaXnXmX X2X8Xw.1.8XPXPXPXmXhXPXSXtX Xw.2.;X`.2.x.p.w.G.!..X[.!._.<X(.3XSXmXhXnXmXxXzX`.g.S X +     @   q V 9 D 0 + }.PXzXpXGXBXnXPXJXPXk.X 0 > E e 5 % 8 . g.JXPXpXDX  . % % k C C , 9 9 9 9 9 e e 9 V V t 9 9 9 9 9 9 t 9 9 9 s 9 9 9 9 6 6 9 9 9 t 9 e e 9 9 9 9 9 V 9 e 9 9 9 9 9 9 9 9 9 e 9 9 s 9 t 9 9 9 9 9 9 9 9 9 9 9 9 9 9 9 e 9 9 9 e 9 V e 9 9 9 9 9 9 9 w e e V k 9 9 e 9 e e 9 e 9 9 9 8 9 9 9 9 9 9 9 9 9 9 9 9 9 9 k t 0 9 6 V 6   + 0   > V 9 9 k 9 e e 9 9 9 s 9 6 6 s 9 9 9 9 V 9 6 9 9 9 9 6 9 9 9 6 9 9 9 9 6 9 0 9 6 8 6 9 9 9 9 9 9 9 6 9 0 8 8 8 6 0 0 9 9 9 9 9 9 9 9 9 9 9 5 4 4 4 5 6 0 4 0 6 9 9 4 4 0 5 e e 9 9 6 8 5 5 5 4 8 0 6 6 9 6 4 5 5 4 4 8 6 5 4 5 , , , 4 4 , 5 , 5 5 5 5 5 5 * > 4 4 4 4 4 4 > 4 8 8 4 4 8 9 , % , > , % , % : : : , 3 & & 3 , % , & $ : , , , % & $ $ $ . $ $ & $ & $ & : : $ & $ . O X O O + X +   ",
"  q 7   > . $ O $ $ O $ % : + : : $ $ $ & : $ : $ $ $ : $ > : : , & & % $ : % % , , , & , % , , % , , 4 4 , 4 % 4 4 4 4 , 4 4 5 4 , 7 > , , , , , , 2 r r , , 2 8 8 7 8 2 8 8 r 8 8 e A U $.-.*.3.u.u.<.2.g.4.  @ 4 9 g w 0 0 0 g 4 s 9 9 s 4 S &.k.;XIXPXnXjXVXpXaXpX5XtX5XtXcXrX.X6XtXk.i.!.`.I.1XvXPXPXtX2X[.w.B.tX8X!.tXwXhXIXHXPXPXHXGXLXGXPXMXrXSXMXxXnXyXVXPX3Xp.{ y     q   E S   V L.PXPXnXnXBXtXbXPXzX*.  % 9 V 5 4 E X   % r XXr.:XPXbX4 4 A . S e e 9 9 9 t 9 s 9 e V e k 9 9 9 9 9 9 9 t 9 9 e k 9 6 9 9 9 9 9 9 e k 9 V 9 9 9 6 8 9 V V 9 s 9 9 6 e 9 9 9 9 9 9 9 9 9 9 9 9 9 9 9 6 9 9 9 9 9 9 9 9 s 9 9 9 9 9 9 9 9 9 9 9 9 9 9 k 9 9 9 9 9 9 9 9 V 9 9 9 9 6 9 6 6 6 9 9 e 9 t 9 V 9 e k t 9 9 s 8 9 9 k 6   + 5   + e 9 0 k 9 9 9 9 9 e 9 9 9 6 9 s 6 9 t 9 9 9 9 9 9 9 9 9 9 8 9 9 9 9 9 0 9 9 9 9 9 9 9 9 6 9 8 9 0 6 8 8 9 6 6 9 8 8 8 9 9 6 9 9 6 8 9 9 9 9 0 4 0 9 8 0 4 4 8 k 9 4 4 4 8 9 9 6 0 5 0 0 8 5 0 0 8 8 6 8 8 0 0 5 4 4 0 5 5 4 5 4 5 5 5 4 & 5 5 5 5 5 5 5 5 4 4 5 5 5 4 0 4 > 0 8 8 4 4 5 9 * 4 4 4 4 , , , , , & , 3 3 & , , , : % > & , $ $ % : $ & : $ $ $ : $ & $ & & , $ $ & $ O $ X % + q @   ",
"@ 4 0   +   O O $ $ $ $ O > > $ : : $ $ $ $ : % $ $ $ $ % : % % , , $ $ % & , , % : % , $ , & : > > 4 4 4 4 % 4 4 4 , % % 4 , > 1 4 > 7 , , , 1 , , 2 2 r 2 2 , 8 8 5 7 7 8 a 8 5 7 8 x S P K K U =.a.l.i.a.u.$.s 4 4 w V 0 4 0 q 8 A 9 8 S S z 4 4 R H.pXLXGXJXCXBXzXpXrXrXrXzXtX6X5XtX!.S.*.V + q S k.;XdXSXE.hXPXPXPXnXPXIXPXSXnXMXZXnXnXzXuXxXSXSXIXHXHXPXPXVXIXnXGXPXjXS.1.0 4     X g.IXPXbXaXbXrXpXPXcXc.  V 6 9 W e S   r.tX! e   .   S.zXPXT   > R X V 9 9 9 t 9 V 9 V 9 9 9 9 9 9 k 9 k 9 9 t 9 9 k 9 9 9 9 s 9 9 9 9 9 t 9 9 9 9 6 6 e k V 9 9 9 9 9 9 k 9 9 9 9 9 9 9 9 9 9 9 9 9 9 9 6 9 9 9 9 9 6 9 9 9 9 9 9 9 9 9 9 9 e 9 9 t 9 9 9 9 9 9 9 6 9 9 9 s 9 9 9 9 9 9 9 9 9 s 9 V 9 9 9 9 9 9 9 9 9 e 6 9 9 t 9   % 0   + t 6 0 e 9 k 9 9 9 9 9 9 9 8 9 9 9 9 e s 9 8 9 9 9 9 6 9 9 9 9 9 9 9 9 9 9 9 9 9 9 9 9 9 6 0 8 6 9 9 9 9 9 9 9 9 6 9 9 9 9 9 9 8 8 0 9 6 9 e 8 0 7 9 9 6 4 4 6 e e 0 4 4 9 0 8 5 4 4 0 8 0 8 6 6 9 8 0 0 4 6 9 0 4 * 4 4 4 4 5 , 5 4 4 , 4 , 5 4 , 4 4 4 , 8 5 8 8 5 4 4 4 7 4 8 4 4 4 4 4 , , 4 4 4 > , % & , 3 , , 3 3 , , , , , & % , % , , , , & , , , : $ & $ & . $ $ $ $ $ . O O $ $ q + @   ",
"- 0 7   - O 1 $ $ $ $ $ % : + > & $ : : $ > $ : $ $ $ : : $ > : : % $ & $ % : , & , $ $ , % , $ > * > , > , , % 5 , % 4 4 , & % 4 , , 4 , , , 4 , , 5 2 , r , , 2 5 8 8 8 8 8 8 2 5 8 9 8 7 4 4 V 9 t U =.2.3.~ R V 0 6 t 4 4 9 9 s Z 8 8 C A 8 D Y k , <.{.jXbXBXyX.X}.8XrXzXzXyX XF.l.g.S.W   q w q # @ *.tX}.tXSXIXPXIXmXrXhXuXmXnX6XqXDXnXuXqXmXMX Xp.j.yXtXrXnXnXIXIXcXaXnXVXXXY.i.  4 nXMX3X3XjXVXGXpXj.8 k S 4 E 0 4   8 PXBX5 .   3.X   r XX3.r C O k k 9 9 9 9 e 9 e 9 9 9 9 9 9 9 w k 9 9 9 9 e 9 9 t 9 9 e e e e V 9 9 9 V 9 e 9 9 9 9 w 9 k e 9 9 6 9 9 9 9 9 9 w 9 9 9 9 9 9 9 9 k 6 9 9 e 9 9 9 9 9 9 9 9 9 9 9 9 9 9 9 s 9 9 9 9 9 9 9 9 9 6 9 6 9 9 9 9 9 9 9 9 9 9 9 9 9 k 9 V 9 9 9 9 6 9 9 9 s 6 e 9 V 0   q %   + t 5 0 9 9 9 9 9 6 9 e 9 9 6 9 s 9 9 t 9 9 6 9 k e 6 6 9 9 9 9 9 9 9 9 9 9 9 9 9 9 9 9 9 9 9 6 6 9 9 9 9 9 9 8 0 6 8 6 9 9 6 6 8 0 5 0 8 9 9 9 6 8 9 9 6 0 4 6 9 9 0 4 6 6 5 5 4 6 0 5 5 6 6 9 9 9 9 6 8 0 5 9 6 4 4 0 4 * 4 5 4 5 5 4 4 4 , 5 , 5 , 4 , 4 6 8 8 4 5 4 4 % 5 5 4 4 > > * 4 * % 4 % 4 > , % & 3 & & & & & & , , > % , , % % $ & > % % : $ : & $ 3 & $ & & $ $ $ & $ O & . . + # .   ",
"@ 4 7   > > : $ $ $ $ $ > $ > > % : & , : $ : $ $ $ $ $ $ > $ : , % $ % $ $ & % , $ % % % , & $ 4 % * , % * 4 % 4 , % 4 4 5 , , > 4 > 7 , 2 2 , 5 2 , 2 , 2 , , , 7 2 8 8 8 5 5 5 8 e 8 5 5 8 a t W S 6 4 6 V S T D 6 9 9 9 9 e x 8 5 7 r C A $ C K S c C K <.c.(.F.c.L.2XnXnXnX_.S.R V $.L.$.9 S U g q   G mXnXp.g..XtXmXKXLXPXPXnXGXGXnXtX3XnXtXtXnX X3.l.zXPXtXcXnXrXpXGXJXIXPXJXGXPXqXS.3XrXVXcXJXJXyXp.* 4 4 % R * k 4 2.IXVXr.O r % . , e     a.r % S V 6 e e s e 9 e 9 9 e e e 9 9 t 9 9 9 9 9 k k w 9 k 9 9 9 k e e 9 k k t 9 e 9 9 9 9 e 9 V 9 9 k 9 9 9 9 9 9 e 9 9 9 9 9 9 9 s 9 9 9 9 9 9 9 9 9 6 9 9 9 9 9 9 9 9 9 9 9 9 9 9 e 9 9 6 9 9 9 9 9 9 9 9 9 9 9 9 k t 9 9 9 9 9 9 9 9 9 9 9 9 9 9 9 9 9 k 6 V 9 t 5   + *   + V 6 0 9 9 e 9 9 9 9 s 9 8 6 V k 9 9 9 s 6 9 s 9 9 9 5 6 9 9 9 9 9 9 9 9 9 9 9 9 8 9 8 9 9 9 9 9 9 9 6 9 8 8 6 8 8 0 9 9 9 9 8 4 0 0 5 8 9 9 9 6 9 8 5 5 5 5 6 9 6 4 4 0 0 8 0 0 5 5 4 4 0 9 8 9 9 9 9 6 8 0 5 0 4 0 5 5 4 4 4 5 4 5 , , % 4 5 5 , 5 5 5 , 8 0 8 0 4 4 > * 6 0 > > 4 4 4 % > % 4 4 4 % * % 3 , & 3 3 & 3 & , & , $ , > , , $ % % % $ : $ & & 3 , , $ & $ $ & $ . $ $ . & $ q * X   ",
"  - q   , : , . $ $ $ : $ % - + : : : , , , : : $ $ $ : : $ > > & , % $ $ $ , , % , : & , : , , > > 4 % , 4 % 4 % > & 4 4 8 8 4 7 > , 4 , , , , 8 2 8 , 2 , 2 , 1 2 5 8 8 8 7 1 5 8 j 8 2 5 k C   % 5 V W 9 % 9 t V k 9 e V V e 4 r k j , k P r > c A S K r , r K C S 2.I.'.I.S.g.$.V C 4.I.U   0 Z w G @ + 1XPX9.  7   + 4.g.B.G.(.tXuXzXzXyXrX<XzXcXnX3XI.UXJXbXDXGXzXtXrXjXqXrXzXrXrXPXzXVXVXjXbXeXH.*.4   *.V 6 E K   u.PXjXV 4 % E > W 8 S , S 6 $.  9 8 9 V 9 t 9 9 9 9 9 V V t k 9 k 9 9 9 9 9 9 9 9 t 9 9 9 9 t e V 9 9 9 9 V 9 V e V 9 9 9 9 9 t 9 e 9 9 9 e 9 9 9 9 9 9 9 9 9 9 e t 9 9 9 9 9 s 9 9 9 9 9 6 9 9 9 9 9 e 9 9 9 9 9 9 9 9 9 9 9 9 9 9 s 8 6 9 9 w 9 9 V 9 9 9 9 9 9 9 9 9 9 9 e 9 g 9 9 9 6 e 9 k 6   4 4   4 V 9 8 e 9 V 9 9 9 e 9 9 6 9 9 t 9 9 9 9 6 9 9 V 9 0 7 8 9 k 9 9 9 9 9 9 s 9 9 6 8 0 6 9 9 s k 9 9 9 8 0 0 8 0 0 8 8 6 9 9 9 9 8 4 0 8 6 9 6 9 9 6 5 0 0 5 9 6 0 0 4 4 4 > 9 9 6 6 5 6 6 4 0 8 9 9 s 9 9 9 % 4 4 5 5 9 8 0 , 5 5 5 4 , 4 , 5 5 5 5 5 5 5 5 4 , 4 4 4 4 4 4 6 4 + % 0 6 5 4 4 4 4 4 4 , , , & , , , , , , 3 % , % , > , , , , , , , , & > % & $ , , $ $ $ $ $ $ $ . $ $ $ $ + + .   ",
"@ o o O - O O : $ $ $ $ $ $ % > & $ $ $ $ $ > > O % $ : + > : % $ : : : % $ & $ & , : : , $ % % * , % * > % 4 % % % 4 5 4 4 5 r 8 7 5 5 2 2 4 , , 2 , , > 2 2 r , 5 8 8 8 8 a 8 8 7 2 2 5 5 8 8 V V V 9 9 e e 9 * V S V 0 9 e r k r , r r 8 r j S A c c K C e c z V g U Y Z g ; q w J q 4.S.E 6 G S q U 9 @ 6XIXB.+ @ + @     @ 0 U g..XyXvXBXjXrX#XpXyX(.I._.tXqXqX2XrXMXzXqXyXzXnXrXqXaXPXPXxXL.&.5 t U C V W R + C 9 9 $.v.  % % > 4 9 k r * K R K e V A V r 6 6 9 9 9 9 e e s 6 6 s 9 9 9 V V 9 9 9 k 9 9 9 9 V 9 V t 9 9 9 e 9 9 9 9 e 9 e 9 9 e k 9 9 9 6 9 9 9 9 9 9 9 9 s s 9 9 9 9 9 k 9 9 s 9 9 9 9 9 9 9 9 9 e 9 9 9 9 9 9 9 9 9 s 9 s 9 V 9 9 9 9 9 9 9 9 s 9 e e 9 8 9 9 9 9 9 9 9 9 9 9 9 9 6 9 9 s 4 6 e V 8   4 6   X V V 9 V 9 9 9 k 9 w e 9 e 9 V 9 9 9 6 9 9 e 0 4 4 0 e 9 8 9 9 9 9 9 9 8 8 6 8 9 9 9 k 9 9 6 9 9 9 9 6 8 0 9 9 9 0 8 6 0 0 9 8 6 0 8 6 0 8 0 5 5 8 6 8 6 6 9 8 6 8 6 6 6 9 4 0 4 8 0 4 4 4 4 7 6 6 4 4 0 8 * 6 9 8 4 0 8 5 & 4 8 8 5 5 5 5 4 5 r r r 5 4 5 5 8 9 8 5 4 4 0 4 8 8 5 5 4 4 > 4 4 4 4 4 + > % , , , % > , $ , , , : , % , , > , , , % , : % $ & $ $ $ $ $ $ & $ $ $ $ $ & $ . X + .   ",
"+ o @ o - + O > $ $ $ $ $ : - + $ $ $ $ $ $ $ O : O $ $ O $ % : % $ & % , $ % $ $ , % & % > $ $ 4 > 4 % > % 4 % % % 4 4 4 4 4 4 5 5 2 5 5 2 1 , , 8 2 , > r r 2 8 8 8 8 8 8 8 8 8 8 8 8 8 7 8 9 e V e 9 9 9 9 9 4 e t 9 5 e 9 4 O : r x c 8 2 , , r r r C c c r G D 7 s g 7 D g J g q q z.Y.w.=.w.l.R *      XbXL.0 @ 9 G K Z 0 + 5 $.4.*.v..X}.bXXX:XqX3XS.I ~ a.S.oX(.XXqXnXzXKXIXPXPXIXtXL.2.r r k t V C V e % W V X U X   % S S V e 4 4 8 9 C U S r 8 r r e V k 9 V e 9 9 9 9 9 8 9 9 9 6 V 9 t e e 9 9 9 9 V 9 9 9 9 9 9 9 9 s 9 9 9 9 9 e 6 9 9 9 t 9 9 9 V 9 e 9 9 9 9 9 9 9 9 9 9 9 9 9 9 9 9 9 e 9 9 9 e 9 9 9 9 9 9 9 9 k 9 9 9 9 9 9 t k 9 s 9 V 9 V 9 9 9 9 9 9 9 k 6 9 9 9 9 9 9 9 9 9 9 9 9 9 9 9 k 0 9 9 V 6 @ 8 k . X V 9 9 9 9 9 9 9 9 9 9 9 9 s 9 9 9 9 9 9 9 e 9 0 5 9 9 9 9 9 9 9 9 9 9 9 0 9 9 9 9 s 8 9 6 9 9 9 9 9 9 6 8 8 0 6 6 8 6 8 8 6 8 9 9 8 9 9 9 4 4 0 0 0 8 0 5 4 0 0 0 5 6 9 9 8 0 5 8 5 5 4 6 0 0 9 8 0 0 8 9 0 6 8 0 5 9 9 5 % % 5 8 5 4 4 5 5 6 5 5 5 5 , 5 8 6 8 8 5 4 4 5 8 8 8 0 5 5 0 4 4 4 4 q 4 4 4 > & , > , % , 3 & , & , % , & , , , & $ % $ & , , $ . & $ $ $ $ $ $ $ $ $ & $ . $ + + .   ",
"+ o   + - $ O $ $ $ $ $ : > > > $ $ : > > : $ $ O % O % > $ > % , & , $ , : , $ % $ $ , , % & , 4 , > 4 4 % % 4 % , 4 , , , * 4 7 5 1 5 2 4 5 5 , 2 2 , , 2 r 2 8 8 8 7 8 2 7 8 r 8 8 8 8 a 8 j 8 e 9 8 5 8 5 4 6 5 4 4 e C V 4 r 8 2 r c k e r r c A c C F x C D J s g g 0 J S g J { { w.B.I.[.'.&XV.3.3.D '.PXg.+ - 6 S G D 9 E       & =.g.3.Y.cX#XUXyXL.~ . * w g.3X3X`.XX<X2X2X<X.XF.4.9 @ 6 W K V V W V X U A 9 . } t . e 6 6 r e k V C A 6 W K k 6 r 9 e 9 V s 9 9 e 9 9 9 6 9 9 9 9 9 s V 9 k w k 9 9 e k 9 6 6 6 9 9 s 9 9 9 9 9 9 9 9 6 9 9 9 9 e k 9 9 9 9 9 9 9 9 9 9 6 8 6 6 9 6 9 e 9 9 9 s 9 9 9 9 9 e 9 9 9 9 9 V k 9 9 9 6 6 9 9 9 9 9 9 9 e V 6 9 9 9 9 9 9 9 9 9 9 9 9 9 9 9 9 9 9 e 9 9 9 6 k 0 9 6 9 6 X e V . + g 6 5 9 9 9 9 9 9 9 9 9 9 9 9 9 9 9 9 9 9 e 9 0 6 r e 9 9 9 9 9 9 9 6 6 9 9 9 9 9 9 0 6 6 9 9 9 9 9 9 6 9 0 0 5 8 8 9 9 9 0 9 9 8 9 9 0 8 5 5 0 8 8 8 8 8 5 0 5 8 5 9 9 r 6 8 6 0 5 0 0 5 8 8 6 9 4 5 8 6 8 9 4 4 9 9 9 5 , 4 5 5 5 4 5 , r 5 4 , 5 6 5 , 8 8 6 8 4 4 0 5 8 8 8 8 5 8 5 5 4 4 4 4 4 4 4 * , & , & % , & , % , , & : % , , $ $ $ % & , , > $ & $ $ O & $ $ $ $ . $ $ . . $ + @     ",
"+ @ o @ + O O $ $ $ : $ : % + > $ $ $ % $ > > > : $ > % : % : % $ % : , $ , & % % $ % : $ , , , , * 4 > 4 4 % , 4 , 4 4 , 4 , 4 1 4 4 4 5 2 8 2 , 2 5 , , 2 , , 2 5 2 5 8 8 8 8 8 8 a 8 8 8 k 8 5 9 8 8 9 5 4 4 r 8 % 4 e A k 4 j e r e r e c K k S A e r r c S 9 D V G J g G D { J g 4.p.h.P.P.;XI._. XF.r.tXhX1.+ g s s s Z V V t S W % + R g.r.F.:XwXtX.Xp.S S 4 4 R 2.3.R C w 6 t g 5 + 9 U W y t e C A C e W X S 0 5 V W V A 8 X > e A S E O k W V V e 8 8 9 6 9 9 9 9 9 V 9 8 9 6 9 6 9 9 9 9 9 9 9 9 t 9 k 9 9 9 6 9 9 9 9 9 9 9 6 9 9 9 9 s 9 9 9 9 9 9 e e e 9 k 9 9 9 6 9 9 9 6 9 9 9 9 9 9 9 9 9 9 9 9 9 9 9 9 9 e 9 t 9 9 9 9 9 9 9 6 9 6 8 9 9 6 9 9 6 9 9 9 9 9 9 9 s 9 9 9 9 6 9 9 9 9 V V k 9 9 k 6 k 9 9 5 O 9 9 . + V 6 8 s 6 9 9 9 9 9 9 9 9 8 9 0 9 9 9 9 k 9 9 9 9 e 9 9 0 9 9 6 9 9 8 9 6 0 8 0 6 6 9 9 9 s 9 9 9 8 9 9 9 8 5 8 6 9 6 8 9 9 9 9 9 9 9 9 9 9 9 9 9 9 9 9 9 9 9 9 6 9 6 0 6 9 9 6 5 5 0 8 6 6 6 9 8 6 6 6 9 9 6 0 4 8 6 5 0 4 5 8 8 5 , , 4 r 5 4 , 5 5 5 , 7 5 5 0 4 4 > 5 4 4 4 4 4 4 0 4 4 * 4 4 > * > 4 , : , % % : , , , % : % $ > $ & % , $ % : , % $ $ $ & $ $ O $ X $ & $ $ $ & $ & O O     ",
"@   o O + O O : $ $ $ : > > + > O @ O + % + > + - % > % % - > % $ $ & % % $ $ % % $ % & % , , , 4 4 4 4 , , % 4 5 4 , 4 > 4 > 4 > , 1 4 , 2 5 , , 2 2 , , 2 2 , > 4 2 7 8 8 j 8 8 8 8 7 8 8 8 8 8 8 8 r 9 8 5 4 e 8 4 4 4 9 4 > r W ! T e > > 5 C C r z y r r A s V 0 g g g G G J 1.B.[.n.w.'.wXU.E.S.U   D jXPX$.  s D k V D s C C 8 e W 5 9 *.! a.L.cXyX3XaXR + D D 4 * 4 6 S D g w V D S S D V t V S C V C W 5 5 W 8 e S e , t t C T ! R K W . 8 k e k k 8 5 6 6 6 9 9 9 e 9 9 9 9 9 9 9 9 9 t 9 9 9 9 9 9 k 9 9 s 9 9 e 9 9 9 9 9 9 8 9 9 9 e V 9 9 9 6 9 9 9 e e 9 e 9 9 9 9 9 9 9 9 9 9 9 9 9 9 9 e 9 9 e e 9 9 s 9 9 9 9 9 9 9 6 9 9 V 9 9 6 9 6 6 8 6 9 9 9 9 9 9 9 V 9 V 9 9 t 9 9 9 9 9 9 9 V e 9 9 9 e 9 V 9 e 5 . 4 0   + V 9 9 V 8 9 9 9 9 9 9 9 9 0 8 9 8 6 9 9 9 9 9 9 9 9 9 9 0 9 9 6 8 6 9 9 9 8 8 6 9 9 9 s 9 6 9 9 9 9 9 9 9 9 9 9 9 9 9 8 9 9 9 9 9 9 9 9 9 9 9 9 0 0 6 6 9 9 8 5 0 5 5 5 0 9 6 6 0 4 8 0 8 9 8 8 6 0 9 8 6 5 9 9 5 0 4 * 4 8 8 8 8 5 5 5 5 * 4 8 8 5 4 4 4 4 4 5 4 4 > > 4 % * > 4 > 4 4 4 q * > q 4 q % 4 % 4 4 % & > > , : $ % $ $ , % > , , $ % : , $ $ & $ % + % X O $ & $ $ & $ . & $ O X .   ",
"@ o   o O O O $ $ $ $ $ O O > - > > > - > % > - + % + - > > + > % , : $ % , : % > $ , % > , % , 4 % , 4 % * 4 % 4 4 , & 4 4 4 > 7 4 4 7 2 4 2 , , 8 8 2 , 2 , , 1 , , 5 7 8 8 r 8 7 8 8 8 8 8 r 9 8 9 e 9 8 5 8 4 8 4 4 4 8 9 8 e c K U T T K K j 5 , 8 K c r t V V 0 0 g D U D J w.B.;XB.s.E.'.U.(.9.O   $.GXnXA   Z G Z s s V * S t 8 D 9   4 W 4 e $.=.U C 5 @ V D g S W D D D E U D W E D g E U S C A W S V W V C e C y r 5 x ! 2.u.<.} T K 4 e 8 5 e k 9 e k V k V V 9 e 9 9 e e 6 9 9 9 9 9 9 e 9 w e k 9 6 9 9 s V 9 e 9 e 9 9 9 9 9 9 9 e 9 V 9 9 9 9 6 e 9 9 V 9 e 9 e 9 s e e e e 9 9 9 9 9 9 9 9 9 9 9 9 9 9 9 9 9 9 6 9 9 9 9 e e t V k 9 9 9 9 9 9 9 9 s 9 t e 9 k 9 9 s 9 9 9 9 9 9 9 k 9 V 9 9 9 e 9 V 9 k 6   @ +   + V 9 9 V 6 9 9 9 e 9 9 9 9 9 9 6 9 9 9 9 9 9 9 9 9 9 9 5 5 6 8 6 5 0 8 9 9 9 6 8 6 9 9 9 9 0 8 8 9 9 9 6 8 e 9 9 9 6 6 8 0 8 9 6 9 8 9 0 9 0 5 4 4 4 4 0 0 0 4 4 4 4 0 6 4 0 9 8 5 0 5 4 0 9 0 0 8 8 9 6 5 0 0 9 5 4 + + 4 8 4 4 8 5 r 5 5 & > 8 r , 4 , 4 > 4 4 4 4 4 4 4 % % * % > * 4 > * 4 4 * > * * > 4 4 % 4 , , > & , & , $ $ : & : , % & % & $ & O % % + % % % $ $ $ $ $ $ $ $ $ . O X .   ",
"+ o   O O O O $ $ $ $ O $ O + - 4 , , > > 4 > > > - % - + 4 > - & : % , $ , & , > , , > , % & % , % 4 % % > % % 8 4 > > 4 4 , 4 4 7 , > , , 4 , , 2 r 2 , 2 2 , 7 4 5 7 5 5 8 7 8 8 8 8 8 a 8 e e 8 9 e e r 8 9 8 4 5 8 8 8 k C > + O 8 R 2.p.e.K C , & C I c & 6 V 0 D W S J g { i.m.B.B.M.i._ 2.u.L.V.    ZXjX%.  V U D s V S e A S S W S r 4 X $.    4   % S Y.`._.2.q 6 R W W E E D g D W W S C 9 4 9 S C 9 C e C S .   C e <.z.3.! K K W W k C e 4 e e e V V 9 t 9 k 9 9 9 9 V V 6 6 s k 6 9 9 9 V e 9 9 t 9 9 6 9 6 9 k 9 9 e 9 9 9 e e 9 6 9 9 e e 9 9 9 e V 9 V V 9 9 9 9 9 9 V e 9 9 9 9 9 9 9 9 9 e 9 9 t 9 9 e 9 9 e 9 9 9 9 9 9 9 s 9 9 s 9 9 9 9 9 9 9 9 9 9 9 t 9 9 9 9 e V 9 9 9 9 9 9 9 9 9 9 9 e 6 s 8 V 9   @ X   q t 9 9 V 9 9 9 9 9 9 9 9 9 9 9 9 9 6 8 9 8 9 6 9 9 8 5 4 0 9 6 0 8 8 6 9 s 9 9 6 8 0 8 6 8 4 0 6 9 9 9 8 4 6 9 8 8 9 6 6 7 9 9 6 9 9 6 9 5 0 5 4 4 4 4 4 0 4 8 0 0 4 5 0 8 8 0 5 0 5 5 0 4 6 5 4 0 9 6 0 6 5 4 0 9 0 4 4 4 4 , , 5 5 r 8 5 % , 4 4 4 , 4 5 4 4 4 5 4 4 4 4 4 > 4 > 4 4 4 > 4 4 4 4 4 * % 4 4 * % % * > , , % % , : % , & , : , , : , % & $ X + % + + + $ $ $ $ $ & & $ & $ O $ .   ",
"@ o   O O O O O O O O $ O $ + - O O + + + % - > + > + > % - > > , , % , , , & : & , % > > , , , % 4 > % 4 > * % 5 4 % % , 5 0 4 7 , 4 , , , , > , 5 2 , , r 2 : 8 5 5 5 2 4 2 5 k 9 a 8 8 r r e e 8 8 r e 8 4 9 j e 8 4 4 4 , 5 e V k r 5 C ! &.u.8.U r U 3...y 0 t 0 w g g W J _ :.w.d.m.B.-.> T `.3XwX'.3.9XbXg.O . > V z 9 > k   O e 8 t U S r & T U.XXI..XIXPXrXPXnXz.  # + q q w D S U W y t W E U V * 4 9 S D * e V D C . & c W W ! 4.} W V C k 9 9 9 8 9 9 6 9 9 9 9 9 V 9 V k 9 9 t V 9 9 9 9 9 9 9 V 9 9 6 8 0 8 9 9 9 k 9 9 9 9 9 9 s 0 6 9 9 t s s 9 e 9 V 9 e 9 9 V 9 9 9 e g k 9 9 9 k 9 9 9 9 9 9 9 9 9 9 9 9 9 9 9 9 9 9 9 9 9 9 9 9 6 9 9 9 9 s 9 6 9 9 9 9 9 9 9 9 9 9 9 9 e V 9 9 6 9 6 9 9 9 e 6 6 0 9 e . . >   * 9 6 9 V 9 e 9 9 9 k 9 9 e 9 9 9 8 6 9 6 6 8 9 9 5 4 0 4 7 9 8 0 7 0 8 9 9 s 9 9 0 4 4 4 0 > 4 9 9 9 9 0 4 0 4 0 4 0 8 0 9 6 8 6 6 5 9 9 6 e e 6 0 8 6 8 9 9 9 9 8 0 5 5 0 4 0 5 8 5 0 4 4 6 5 4 4 6 0 5 4 5 4 4 9 e 0 4 4 4 % & % 4 4 8 4 5 4 % % , 5 5 4 0 4 8 8 4 4 0 4 0 4 0 4 4 4 4 0 0 0 0 4 4 4 4 > 4 > 4 > > > & , , $ , & $ % $ , > & $ % % : $ $ O + + + % % % % & $ & $ $ & $ . O + .   ",
"  . O O O O = $ > O : + > - O > O : $ $ $ % $ O > : % $ $ > $ > , , % , , , $ $ $ , , & : $ , , > > 4 > 4 > > 4 > 7 4 7 7 > > > 5 , > 4 > > > , , 1 , 8 2 2 r , 5 r , r 5 5 8 5 r 5 r 6 9 t e V V e 9 e e 5 5 e 6 8 9 9 9 8 k k - 6 V 9 0 4 e K $.3.2.,.2.a.2.! ` T W S S g 7 - J G G i.m.b.9.1.L.`.vX3XfXPX|.wXhXH.%.V o Z %.;.A K <.S - 0 q S S   1.GXSXPXMXPXxXSXSXSX8XXX!.;XB.{ w w D w @ @ + & X . 6 D W W t e 0 W !.}.`.Q V q   + =.R .X(.Q S   D =.V 9 w s V g 0 D 0 9 V e e 6 e 6 6 e e e e e e e 9 9 9 9 k e 9 9 9 9 w 9 9 9 9 9 9 9 9 9 9 9 9 8 6 9 V e 9 s t V e 6 0 9 9 s V e 9 9 9 6 9 9 9 e 9 9 9 9 9 9 9 9 9 9 9 s t 9 9 9 k t t 6 9 6 9 6 9 s 9 9 6 6 9 9 9 9 6 9 9 k 9 9 9 9 9 e 9 w 9 9 9 e 9 s 6 9 9 k 8   @ 0   + t V 9 t e s 9 9 9 s 9 9 9 9 9 9 9 9 9 9 6 9 9 9 9 9 6 9 0 8 9 9 6 9 5 0 5 9 9 9 9 9 7 8 0 9 9 6 0 8 0 5 6 9 8 8 6 9 9 9 9 9 8 4 4 6 9 k 9 9 9 6 8 9 g 9 4 8 9 6 8 0 0 9 6 9 9 6 8 6 4 0 5 0 4 0 9 8 0 4 9 r 9 9 0 5 4 * > % 4 r 8 4 > 5 r 5 5 , 5 5 r 8 5 8 8 8 5 5 4 4 4 8 % , 4 4 4 4 r 4 r 8 8 & % 4 , & % > > > % > % > > & : > , % & , > % & % $ & $ + > > > % O + % % $ % $ $ % O + % + + . ",
"o o O O @ O O - % - + + + + + + O $ > > : > > $ > $ : $ O > : % % , % % & , $ $ $ , , , , % % , 4 - - 4 > 4 , 7 4 > 7 > , 7 4 > 7 , 4 > > , 1 , , 2 2 8 r 2 2 , , , , 5 5 r 8 r t 6 9 C t & 0 S e k e 5 e t e e 8 9 9 9 9 9 9 9 0 9 g w 6 5 e A e V K K ! ..! I R T U G G G J Z s k a e.H.m.` ; i.9.H.dXeXqXbX&X3X6Xu.Z q u.;XdX_.tXrXa.g G D S D Y G.zXhXSXhXxXNXhXxXNXSXNXSXHXSXuX;XiX8X;XoXY.v.2.E 4.`.aXCXVXz.+ V @ I.PXnXIXnX(.W q q   g.l.+ 4 V z.3XY.U D S s V s V 0 A V t e e 9 6 e 6 6 9 9 e V e e e 9 9 9 k t 9 9 t k 9 9 9 9 9 9 9 9 9 9 w 9 6 9 9 V V V 9 9 e e 9 8 9 9 e 9 k 9 9 9 9 9 9 k e k 9 s 9 s 9 9 9 k 9 t 9 k 9 s 9 s 9 k 9 9 9 9 9 9 9 9 9 9 9 9 9 k 9 9 e 9 9 9 9 9 9 9 9 9 9 9 9 9 9 9 9 6 k 9 e 6   X 0 . + e t 9 9 9 9 9 9 9 9 9 9 9 9 9 8 9 9 s 9 6 9 s 9 9 9 9 9 6 0 6 8 8 5 0 5 0 9 9 9 9 9 9 6 8 9 6 0 8 8 6 6 6 9 6 9 8 9 9 9 6 9 0 0 4 9 9 6 5 0 9 9 6 8 9 9 6 6 6 6 0 8 9 8 8 9 9 6 6 5 0 5 5 8 4 0 9 9 8 4 9 9 9 0 5 4 4 5 4 > 4 8 4 , & 4 4 5 5 5 5 5 r 8 8 r r r 8 5 4 4 > % % % % % & , 5 5 5 r 5 , , , , , , > , , > , , , & , , , % , % , : , , , : , : + % * % % X + * % % % % X O O + + X @   ",
"o . o O O + + > O + + > + > > > $ % : > > > $ > > $ % $ > $ $ > $ & $ $ % % $ & % , > % > : % , > > > 4 4 7 7 4 4 > , > 4 > 4 > 7 4 > 4 , > , 2 4 2 8 2 2 r , , , , , 5 5 5 8 5 4 V 4 9 r r U K e D k 5 t e 4 e 0 6 9 9 9 6 9 V 0 9 9 6 9 9 9 8 , : & c A C c C V Z V V s g Z G F Z 1 9.K.V.' - o ;.9.H.AXzX3XvXG.P.J.j.- R V.B. XnXzX1.  4 g V g 9.!.tXxXhXtX8XxXuXiXhXNXxXuXiXSXSXIXIXIXPXPXNXJXJXCXGXPXJXJXPX`.  * # 9 w.rXPXGXGXPXOX=.@   # q 4 0 =.PXxXp.U Z 9 S k s s S 6 e e e 9 e 6 e 6 9 e g 9 k 9 e 9 9 k 9 t 9 9 9 t 9 9 9 9 9 9 k 9 9 k 9 e 9 9 9 s e 9 9 9 9 9 e 9 9 9 s 9 9 9 6 6 6 9 9 9 9 9 9 9 k 9 9 9 9 9 9 9 9 9 9 9 9 9 9 9 k 9 9 9 9 9 9 9 9 9 9 9 9 s 9 9 9 k 9 9 9 9 9 9 9 9 9 9 9 9 9 9 V 6 s 6 e 6   + > . + e s 9 9 9 9 9 6 9 9 9 9 9 9 9 9 9 s 9 9 9 9 9 9 9 9 6 9 9 9 5 8 0 0 5 0 5 9 9 9 6 6 9 8 6 9 8 8 8 9 9 9 6 8 8 6 0 0 9 9 9 6 6 8 6 9 9 6 0 4 9 s 6 0 8 9 s 8 0 5 8 8 8 9 9 8 6 6 5 0 8 5 0 6 0 8 9 5 0 5 6 9 6 4 4 4 0 9 9 9 8 8 8 5 4 4 4 5 5 4 4 5 r 5 8 6 8 6 5 , % & % 8 4 % 4 4 , 4 8 5 , , , , , , , , , > , , , & , , , , , , , & , , , : , , & % , % % % % + + + % X % % O O O O . + # @ . ",
". o @ O O O + 4 O + = + - + - > > O $ > > > > $ : > > O O : % % $ $ $ $ > % : $ & , > , , , & , > 4 > > > > > > > 4 > 4 , 4 > , > > 4 1 , , 4 5 2 5 2 8 2 , 2 , , 5 r , , 4 5 , 4 9 + E 2.2.2.S 9 C t V S 0 % e 5 6 9 9 6 6 9 9 9 9 9 6 9 s 9 5 e r , t r r r r a g Z G S G Z A J Z i 1.m.s.>.1.1.6 ` i.S. XvXwX'.G.2X;XG <.1.2.V. XqXS.Y S s 8 V <.k..XIXtX8XtXhXxXxXxXxXuX8X4XuXuXuX8XiXhXxXhXaXsXBXJXVXxXcXPX_.* U w @ 0 =.GXPXuXPXKXPXJXa.  g w   q tXPX.X4.9 0 S s V 9 V 9 t e e e 6 6 e y 9 9 9 V w e 9 9 9 9 9 9 9 k 9 9 6 9 9 9 V 9 9 V 9 9 V 9 9 9 9 9 9 6 6 8 9 9 9 9 9 6 9 9 9 9 9 9 9 9 6 9 9 9 9 6 9 9 9 9 6 6 9 9 9 9 9 9 6 9 9 9 9 V V 9 9 9 9 9 k e 9 9 9 t 9 9 9 w 9 9 9 9 9 9 9 9 9 9 9 k 9 9 k 9 9 6 V 9 X % * . q 9 9 6 6 8 9 0 9 9 9 9 e 9 9 6 6 9 9 9 9 9 9 9 9 9 9 9 9 8 0 9 6 0 9 5 5 5 9 9 9 9 8 0 0 6 s 9 0 6 e t e 9 0 9 9 9 9 9 8 9 9 9 9 9 9 k 9 8 0 8 9 6 6 8 6 9 7 0 7 0 6 6 9 9 6 8 0 5 5 6 8 9 6 9 8 9 5 4 0 8 6 0 0 5 0 6 9 r 9 8 5 5 8 r 8 4 4 , & , 4 4 , % 4 % % 4 % , , , 8 4 4 8 8 4 8 r , > $ & , , % % & $ % % $ > $ > % % $ $ $ % : , $ % % $ % % $ $ + % % % % % % % X % X % O % + X + X @   ",
"O .   O O O - > O O > + % + > > O $ $ % : % : > % : > O : % > : % $ $ % % , , : > > > > % & , , 7 4 , > > > + > > 7 4 > 7 > , 7 > 4 , , 1 4 , 1 , , 2 r 2 2 , 3 r 5 5 , 5 5 4 4 U k 5 j.pXrX_.4.X V S C C t 0 e 6 6 9 9 9 0 9 9 9 e t V t V e e r r r r r e k C s g Z G Y Y Y J s z a i.V.d.e.E.dXP.U s 1.n.rXbX&X'.3XW.R 1.` 9.(.9X3Xr.r t V 0 D { 4.F.mX8XtXhXuXhXMXhXuXhXNXHXNXxXNXMXxXxXhXxXPXHXVXCXGXcXBXPX(.D @ D D 0   !.nXmXtXtXPXHXSXS.4 # g   j.PXSXF.7 0 G s S g 4 Z e e t e y e e e 9 9 9 9 k 9 w 9 w 9 9 e 9 e 9 e 6 6 9 9 9 9 V e 9 9 k t e 9 9 9 0 9 9 9 9 9 9 9 6 6 8 9 9 9 9 9 9 9 9 9 9 9 9 9 9 9 9 9 9 9 9 9 9 9 6 6 9 9 9 9 9 9 9 9 9 9 V t V 9 9 9 9 9 e 9 9 9 9 9 9 9 9 9 9 9 9 9 9 k 9 9 k 9 9 6 e 9 . q + . > e 9 6 6 0 8 6 9 9 9 9 s 9 8 9 8 9 9 9 9 9 9 9 9 9 9 9 9 6 8 6 9 5 6 0 8 8 9 9 6 9 9 7 6 8 6 6 0 8 9 e 9 9 8 0 8 9 9 9 9 9 k 9 9 5 8 6 9 9 6 8 4 0 8 6 6 9 0 5 5 5 5 6 6 9 8 0 0 7 5 6 6 0 5 9 6 0 5 0 5 5 0 0 6 8 9 0 5 0 5 % % % 4 5 5 , 4 , % 4 , 4 4 % % 4 % 4 , , % 4 , 4 % 4 4 > 4 4 , > & $ > , > $ , : % $ % % & : % % & : % $ % $ % & $ % $ % $ % % % + % + % % + > % % % % + % + @ @     ",
": . o O > O + , - + O O + > % - $ O : $ % % $ O > % % $ $ : $ % , & $ % % , & , % $ > > , , , > 7 4 4 , 4 > > - > > > 4 > 7 7 2 , 7 5 2 4 2 , , , 2 2 , , , , , , 5 , r 8 8 8 8 8 5 @ *.2XPXzXp.+ K $.W e C C 4 9 9 9 9 8 9 8 9 5 5 9 9 e 9 9 r , y k r r e t r s s s s S Y ` ` Y J 1 1.J.f.d.'.PXmXE.Y g 1.eXIX1XqXwX2Xw.s U ;.).GXzX8.4 W E @ 4 Y z.F.hXhXhXhXuXuXhXuXuXuXuXhXNXhXxXSXSXSXHXIXtXcXBXVXcXpXtXnXHXY.0 W E 0 w p.PXPXPXKXSXrXPXMX4.  Q   V tXPXqXg s G s G g - G e C t e e e e e 8 9 9 s 9 e e 9 9 k 9 9 9 e e 9 9 9 9 e 9 9 9 9 V t 9 9 9 V 9 9 9 9 V V k e 9 9 6 9 9 6 9 9 V k k s e w 9 s w e t 9 e g 9 k V 9 9 9 9 9 6 9 9 9 9 9 9 9 9 k V 9 V 9 9 9 9 e 9 9 9 9 9 9 9 9 t 9 e 9 9 9 9 9 9 9 9 6 s 9 e 9 . + + @ 4 w 9 6 9 7 9 0 9 8 9 6 9 9 0 6 6 9 9 k 9 9 9 9 9 9 9 0 9 8 9 5 9 0 6 5 0 4 8 9 9 8 6 9 9 9 4 0 8 0 0 5 5 5 6 9 6 9 8 9 9 9 9 6 8 0 0 0 8 6 k 0 4 0 6 9 6 8 4 4 5 0 0 8 6 9 6 9 8 5 6 5 5 9 5 9 9 6 0 5 9 0 4 5 9 9 6 5 4 * 5 , > & , 5 5 4 5 5 5 4 5 5 5 , 8 8 5 5 5 5 4 5 % % & 4 > & % 4 , , , , , , , > > & , , , % , , : , , , , > , , , , % , : & % $ % + X + % % % % % % % % % % % % .       ",
"> . o O + O O > + > - % O > + - O > $ O > : $ % $ > O : % $ > : , > : $ % > > > , > > > , , , > 4 4 > 4 > - > > 4 > > - 4 4 4 5 > 4 5 7 5 2 , , , , , 2 , , , , 2 2 2 8 r 8 k j 5 S V s u.2XZX2Xu.a.c.u.E t C 4 8 9 9 9 9 9 9 9 5 5 4 8 8 9 8 8 r y C r 5 r r 5 z V g V U { 8.i.1._   _ m.f.>.f.{.wXIXD.Z R <XvX6X1XwXAXL.V %.9.E.jXeXa.> 4 K A + Z a.I.wXSXmXtX5XuXhXNXMXMXmXxXSXNXxXNXNXxXNXNXJXCXpXrXaXcXaXpXPXaXg.  D W   g.PXuXKXnXxXIXGXPXU.  W @   u.xXPX*.- S Z Z Z g D k t C e y e 6 e 6 9 9 9 t 9 9 k V 9 9 9 V 9 9 9 9 9 9 9 9 e 9 9 k 9 9 9 e V e 9 9 e V s 9 6 6 9 9 e 9 9 9 9 9 t V k 9 9 9 9 k 9 k 9 9 9 s 9 t 9 9 9 9 9 9 9 9 9 9 9 9 9 9 9 9 9 e 9 6 6 9 9 e 9 9 9 9 9 9 e 9 9 9 9 e 9 9 w 9 9 k 6 9 9 e 9   @ X @ 4 9 9 9 9 8 9 9 8 9 9 9 9 6 9 0 9 9 9 9 9 9 9 9 9 6 9 8 9 9 5 9 5 0 5 0 0 7 9 6 0 9 8 9 8 9 4 8 6 9 5 4 4 0 8 9 0 8 7 9 9 9 8 0 4 0 4 4 5 8 9 6 8 8 8 0 4 9 0 5 5 0 4 8 5 0 9 9 6 8 8 0 6 0 0 0 9 4 4 8 9 5 4 5 0 5 5 0 4 4 9 8 5 4 4 5 8 8 r 4 5 4 5 5 5 4 5 4 5 5 5 4 5 4 4 > , 5 5 , , 4 5 5 , , , > > , % , , % , & % , & , , % % & > > : & , : , : $ : % % % % % 4 % % % % % % % + + % @ .     ",
"7 .   O - . O > > + + % - + % + $ $ > > > > > : > $ > O O > $ > , : $ > : , > > , $ $ % , , , , - > > > 4 4 7 7 > 4 > 4 > 7 7 5 7 7 5 5 2 4 , > , , , , , , 2 , 8 r 8 r 8 e 8 r 4 8 k .   K L.GXyX_.}.}.2.e r t 9 9 s 9 9 9 9 9 k e 8 9 e k e 6 4 r k e 5 , 4 8 s Z Z G U { 9.s.h.1.7 -.W.J.&.` H.dXdXdXG.>  XAX<X9XrXqXbXL.;.4.I.yXDX2Xu.% % E 9 q ;.F.;XmXmXzXxXhXhXxXxXxXNXSXxXSXSXSXSXSXSXNXcXcXcXaXNXBXaXpXMXPX;Xw w * 4 $.HXIXMXPXxXIXPXHXU.# g U q   5XPXi.o g G 9 Z S 0 k V t e e e y e 6 6 9 e 9 k 9 9 e 9 9 9 9 V 9 9 s 9 9 9 9 9 9 9 V 9 6 9 9 e V V 9 9 9 8 0 4 8 6 V V 9 9 9 9 9 9 9 9 6 9 8 6 6 6 9 9 6 9 6 9 6 9 e 9 9 9 9 9 9 s 9 9 9 9 9 6 9 6 s 8 0 8 9 9 9 s 9 9 9 9 e 9 9 k s 9 9 9 9 9 9 9 9 9 9 9 e 8   . X . 4 k 9 9 s 6 9 9 9 9 6 8 6 6 8 8 6 6 V e e 9 s 9 9 9 9 9 9 6 6 6 8 9 8 8 4 0 9 9 8 9 9 6 9 9 4 9 k 9 5 4 0 0 8 0 9 6 9 9 9 6 0 8 8 9 6 8 0 8 9 9 6 9 0 > 4 6 6 0 5 5 0 4 8 0 9 9 6 6 0 4 5 4 4 9 9 4 4 0 9 9 4 4 0 4 4 4 5 5 8 8 4 4 , , 5 5 5 4 , , 4 5 4 4 % % & , , 4 5 8 4 , 4 5 8 4 % 4 , , r , & $ % > $ $ $ $ $ % $ $ % $ $ $ , : $ & $ % $ $ $ & $ & > % X O % > > % X + % + % + % > . .     ",
"1 O   o O + % + > - > > - % > > % % : $ : % $ > > O $ > > $ : > > - > = $ > % $ $ > , , > > : > 4 > > - > 4 4 > , 7 1 4 > 4 4 7 8 8 8 4 , 2 4 2 , 2 , 2 2 2 , 2 2 8 8 2 4 4 5 7 a 4 Z Y 0 + R zXBXXX}.}.z.r r y D 8 k C 6 6 V 9 r 6 r r e r e e 8 9 9 e e 8 8 8 7 g S G ` 4.4.-.i.f.T :.n.V.:.Z w.H.&XeX&X2.|.ZX).3XPXDXDXfXyXXX:XyXeX9Xc.8 4 C V o G j. XGXGXdXmXxXMXMXMXxXxXMXxXnXMXMXCXMXNXcXaXcXcXcXaXcXVXGXaXIXuXE + U g   (.PXmXtXHXhXtXKXOXq q 0 0 6 G.PX[.0 ; U Z V V g k e s 9 9 9 V t 9 9 9 9 9 V 9 V 9 9 9 9 9 V 9 V 9 9 9 9 9 9 9 9 9 9 s 9 V 9 9 9 9 9 8 6 6 6 9 9 6 9 9 9 9 9 9 9 6 6 6 6 9 6 9 9 6 9 9 9 9 9 9 k 9 9 9 9 9 9 9 9 9 s k 9 9 9 9 V 9 9 s t e 9 6 6 9 k e 9 9 9 9 9 9 9 9 9 9 9 e 9 9 6 k 9 V 6   @ 4   q 9 5 6 V e 9 e e e 9 9 9 9 0 0 8 6 9 9 9 s 6 6 6 9 9 9 9 8 9 6 9 0 8 8 6 9 4 0 8 9 9 9 9 9 9 9 9 9 8 5 4 0 9 0 5 6 9 0 0 8 4 6 s 9 9 9 9 9 6 8 9 6 6 6 4 0 8 0 6 6 8 6 8 6 0 5 0 6 0 8 0 5 5 5 0 4 5 0 4 4 % 4 0 4 4 0 4 % % % 4 * % % % , % 4 4 4 4 , % % > > % % % % & % % & % % % % 4 4 % , > , : , % , % % % % & , $ % % % % $ % & % , % $ , : $ $ % $ + + X % $ + % + % + + > $ X X X @ X X   ",
"4 O   O - > > - > + + > % - - + : $ + > > $ % : $ $ $ O O > % $ , , , , , > > 1 > > > > > > > > , 4 4 > - > > 4 7 5 4 7 4 , > > > , > > > > , , r 2 r 8 r , , r 8 8 j r 8 8 8 s g 4 6 Z 4 @ Y wXpX}._.(.e.W C e 9 6 e 9 8 9 9 > r 5 8 8 6 r r 6 8 8 8 e k e 9 9 g s Z ` &.;.;.;.s.m.` -.V.J.-.o %.h.}.6X|.9.}.KXk.u.F.dXPX9XbXbXpXbXpX:Xp.8 k P 9 q V j.rXIXZXSXGXnXMXGXGXMXMXVXMXMXMXVXSXGXVXVXBXCXVXVXHXVXGXVXGXJX8XX 0 E D   p.PXPXMXIXzXKXPXIXw 0 W D   <.SXIXY - Z Z g Z s V V g 9 9 9 9 9 9 9 9 9 9 9 9 e V 9 k 9 9 9 9 V V 9 k 9 9 k V 9 6 6 9 9 9 e e 9 e e k 9 9 k V s 6 9 9 9 V 9 9 9 9 s k e s t V k e 9 9 k t V 9 e 9 9 9 9 9 9 9 9 9 9 9 9 9 9 9 9 9 t 9 e 9 9 9 9 9 9 9 9 9 9 9 9 6 9 9 9 e 9 9 9 9 9 k 6 k 6 . + +   X 9 4 4 9 0 0 9 9 9 9 9 9 s 8 8 9 6 8 9 9 9 9 9 9 8 9 9 0 8 9 8 6 8 0 8 8 9 8 0 8 6 9 6 8 5 8 9 9 6 6 0 8 8 9 8 8 9 9 6 8 9 0 8 9 9 6 8 0 9 0 0 8 6 8 6 5 8 6 8 5 8 6 8 8 0 5 6 8 4 6 4 5 5 0 8 6 5 4 0 5 4 0 9 9 4 5 6 6 5 4 8 r 8 5 5 8 8 8 8 5 5 8 8 8 8 , 4 , 4 5 4 4 > , 4 4 4 4 4 5 5 , > , , , & , > , , , , , , , , , , , , , , , , & , $ & % , % % O % % + % + O % O X O X $ O O O + + + @ ",
"+ .   . + > O + + > + + - + + % $ > > O O % $ > $ = $ > > : % > - > > 1 > > = - $ > , 1 > > > > 4 > 4 > 4 > 4 > , 4 4 > > 4 > > 4 > > > > > , , , , 2 , , 2 , , 2 5 i 8 8 7 a 9 Z 7 q g 7 - G 1XBXUX(._.F.4.S r V 9 8 s V 6 4 0 5 , , 5 4 5 8 5 8 9 9 e e k k w V 7 V ` -.*.4.,.e.e.%.e.K.m.P 1 G <.W.<X[.a.'.IXn.G s.(.eXPXjX:XpXbXpXUXr.8 r e S D > ;.1XIXGXIXHXGXVXGXHXHXGXVXHXGXVXMXVXGXVXVXcXVXVXVXVXHXVXMXJXPXrX*.@ g D 4 0 rXPXxXnXrXHXGXPXg.@ $.4 w g SXPX{ o G Y Z J 7 A Z V s 9 9 e k e 9 V 9 9 e 9 9 t 9 t 9 9 9 9 9 9 t 9 9 9 9 9 9 6 9 9 9 9 e 9 9 e s 9 9 s 9 9 k 6 9 9 s 9 9 9 9 9 s 9 s s 9 9 9 e e 9 V 9 s 9 9 8 6 6 9 9 9 9 9 k 9 9 9 9 9 9 9 9 9 9 9 6 9 9 s 9 9 9 9 e e g e 0 9 e k k 9 9 9 9 9 e 6 9 9 @ + 4   % t 5 9 e 0 4 5 5 9 8 6 9 9 9 9 6 9 9 9 6 9 9 9 9 0 6 6 8 0 6 8 6 8 8 0 6 9 8 6 9 8 9 9 0 0 6 9 9 9 6 8 5 5 9 8 8 9 6 8 8 9 4 0 9 6 6 8 6 9 8 0 4 8 6 9 9 9 9 0 9 0 0 9 6 6 8 4 5 0 0 6 8 0 0 4 4 0 0 5 5 0 0 9 0 4 4 0 9 0 4 8 8 4 4 4 4 4 4 , 5 , , 4 4 4 % , 4 4 5 4 4 4 4 4 , , 4 4 , % % , , , > , , , & , , , , , , & : , , % : : , : , , , % & , % % % % % % % O % % > % % % % X O X @ X @   ",
"O     . O + + O O + O - O + > + % : $ > > : > O $ % $ % : % > : O = = > : = = = $ > 1 : - : > : > 4 - > > 4 > 7 > - > > > 7 4 4 5 0 8 4 2 , , 8 , , , 2 , 2 , 2 1 2 5 2 a 7 8 a s 8 s Z V 7 V '.LXUXoXUX}.g.W e V V 6 0 V 9 4 9 4 , r , 8 8 5 r 8 8 9 9 e 9 s g s 7 D ` %.;.1.1.e.9.;.a.J.m. .G z E S.[..XD..XLX3.0 p.V.H.tXwXyXjXbXjX}.e.S C r G A 4 q G.PXPXnXGXGXMXVXGXVXVXMXGXVXMXnXnXMXVXVXcXcXcXaXcXVXVXcXVXJXIX<XQ @ D D   `.PXzXSXSXIXzXHXrX{   D g @ k.ZX1.  R Y J V g S Z s 9 s s 9 t e 9 9 e 9 9 9 9 t k 9 9 9 9 9 9 9 9 9 9 9 9 9 s 9 9 9 9 e 9 9 9 6 6 6 6 6 6 6 9 6 9 9 9 V 9 9 9 6 6 8 6 6 9 6 9 9 9 9 9 9 9 9 6 8 6 9 9 9 9 9 9 9 9 6 6 9 9 s 6 k 9 9 9 9 9 9 9 9 9 9 9 9 9 9 s 5 9 e e 9 6 9 V 9 9 9 0 9 6 o 4 0 . 4 V 9 9 t 9 4 5 9 0 8 0 6 s 9 9 9 8 6 9 8 8 9 9 9 9 8 8 0 6 9 6 9 0 0 9 8 6 9 9 6 9 8 6 0 5 0 9 9 9 8 0 0 0 6 0 0 8 9 0 8 6 6 8 9 9 9 9 9 9 8 5 5 0 7 0 6 9 5 9 5 9 8 6 8 9 0 5 6 5 8 4 6 5 4 6 4 4 8 6 6 5 4 5 4 * 4 4 4 4 * % , 4 > & , , > % % & % % & , 4 4 % 4 , 4 % > % , 4 5 , % % % , & & , , % > , , $ $ $ $ % : > $ $ & $ & $ & $ , : $ , % : : > % X O % % % % X * % % % + O O O - - @   ",
"O O o = > > - > O - + O + O > + > : $ % O > > $ $ + $ > % > % % = > > 1 1 , > - - - > , > - > > > 4 - 4 4 4 > , + - > > > 7 7 7 5 7 7 7 2 , 5 2 2 r , r r r 2 , 8 i 8 8 9 s a s s k s Z Z 7 s `.BX<X`.XXUXL.<.E + D t + 9 D k > r , r 5 8 r 8 8 9 8 9 e w 9 0 0 s s G ` R ;.9.*.d.d.1.-.n.K.r.s s V 9.W..X).6XPXh.k - g.k.k.yXbXyX9XpX^.8.K C U z 0 G + *.DXPXbXMXGXGXVXVXnXVXVXVXMXnXVXBXBXBXcXVXVXcXcXcXVXVXcXVXzXPXHX3X@ Z G   l.PXmXnXIXzXxXHXPXS.  E D 0 4 KXB.o ) g J g G Z Z g s 9 g g V 9 e 9 9 9 9 6 6 9 9 9 9 9 9 t 9 9 9 9 9 9 9 9 9 V V t 9 9 9 9 9 s 9 9 9 e 9 9 9 8 9 9 s 9 9 9 9 9 9 9 9 9 9 V 9 9 9 9 9 9 9 6 6 9 9 9 9 9 V e e 9 9 6 8 9 9 9 9 9 9 9 9 V 9 9 9 9 9 9 6 6 9 8 6 9 9 9 r 6 9 9 V 9 9 9 5 9 6 . 4 4   + V 0 4 9 5 0 9 9 6 5 5 9 9 9 9 9 6 9 0 8 0 9 9 9 8 0 4 8 6 0 9 9 8 8 6 9 9 8 0 8 0 6 8 9 6 8 6 9 9 6 8 0 9 8 0 0 6 6 7 4 6 6 6 9 8 8 9 9 9 9 9 8 0 0 4 8 8 9 6 6 6 9 8 6 6 0 8 4 8 6 4 6 5 4 0 0 5 0 8 9 8 4 4 4 5 5 4 4 > 4 4 , 4 4 5 , 4 8 4 4 , % 4 4 8 , 4 > , % % % % 8 8 5 5 5 4 , % , % , , % , & , , , & % % , , , > , $ % % $ : & $ & : , $ > $ $ % X % + + + % X % % X % O O . . q * + @ ",
"O . . + - > + + O O O + % - + > O > % : > $ $ % $ : O $ : % : > > 1 1 1 1 1 1 > > > 1 1 1 : - 1 > > > 4 > > 7 4 , 4 , 4 4 > > > > > , 2 , , > > , , , , 2 , 2 2 a 8 8 a a a s s s Z s s s > 0 ).bXpXUX(.}..XU.g.W 9 % 9 S e 4 9 r , r r r r e e 9 9 9 9 6 9 9 9 7 s ` %.Y ;.8.%.&.;.9.9.C.K.1.1 V Z ` k.E.).6XKX|.9.+ Y ,.k.~.}.W.{.pXUXk._ , r S > } 8 6 }.LXIXMXGXGXVXcXnXVXVXMXnXVXVXHXGXVXVXVXCXGXVXBXVXcXzXzXHXmXIXPXQ   D # { PXHXxXSXtXZXIXPX}.w q q g 0 SX*Xq Z g ` g g V g z s s s s 9 9 9 9 9 9 9 9 9 9 9 9 9 9 k k t e 9 9 9 9 9 9 9 V V V k k 9 9 9 e e 9 9 e 9 9 k 6 9 9 9 9 V 9 9 9 9 e 9 k 9 9 V 9 9 s 9 9 9 9 9 9 9 s 9 9 V e V s 9 9 6 9 9 9 9 6 9 9 s 9 9 9 9 9 9 9 9 9 6 6 8 t 9 9 0 6 9 9 k g 9 9 5 9 6 . * +   X V 0 4 0 5 e 9 9 5 6 6 6 9 9 9 9 9 9 8 0 9 8 9 9 6 0 4 6 9 8 6 8 0 8 6 8 0 9 6 8 6 0 8 9 9 0 8 9 9 8 8 8 6 8 4 4 6 6 0 0 8 5 5 0 4 0 0 9 8 9 6 8 8 8 0 0 5 0 8 8 6 0 8 8 0 5 0 6 0 6 6 5 6 6 8 5 8 8 0 6 6 0 4 0 9 9 0 0 5 5 5 4 4 5 5 5 4 5 5 4 4 5 4 4 8 4 4 4 , 4 , * % 4 8 5 4 , * % , > , , , , % , , , , , , , & > , & , , $ & , , , % % % $ > % $ & $ % + + % + % $ > * > > % % O X O @ @   ",
". o o . O . . O + O O - + % > > $ $ : > : % > : $ % > : > : : > > : > - < > 1 - 1 1 1 1 > 1 1 1 + > > > 7 4 4 > 7 7 4 4 , > > > > > > , > > > > > , , : 3 2 , : 7 7 2 7 7 s a q a Z 8 s k 0 4 ~.GXbXyXXX}.UX X`.j.S . V W 4 % V r r r r r r e r 9 9 9 9 9 9 9 9 s s { 2.%.&.9.&.` P 8.s.W.n. .i J U S 2.j.H.wXZX(.H.g.G C u.3.c.f.c.UXbX:Xc.S > R k K k + k.nXPXnXGXBXcXcXnXnXcXMXnXVXVXCXHXGXVXBXCXVXVXcXNXnXcXuXIXzXIXMX(.  0 6 D SXPXnXSXMXHXHXmXnX@ 0 0 q @ wXdX` 7 U _ Z s V g g k s s 9 9 9 e 9 9 s e e e 9 9 9 9 9 e 9 V 9 9 9 6 6 9 9 9 k t 9 9 9 t 9 9 9 9 9 9 9 9 9 9 8 9 9 9 9 9 9 9 9 9 9 9 9 9 9 9 9 9 9 9 s 9 9 9 9 g 9 9 9 9 9 9 9 9 9 9 9 9 9 V 6 9 9 9 e 9 9 9 e 9 9 9 9 9 9 9 e 9 0 8 9 s 9 9 9 9 9 8 9 8   * 4   @ V e 5 9 9 e 9 4 0 9 9 9 9 9 9 6 8 8 9 9 6 0 9 9 6 4 4 0 9 9 6 8 6 6 8 9 9 9 6 6 8 8 0 6 9 0 8 9 9 9 0 9 6 6 0 4 8 8 4 4 8 8 0 4 4 8 6 6 0 8 8 6 6 6 8 5 0 0 5 5 5 5 8 0 5 0 5 5 0 4 6 6 5 6 6 6 6 6 0 5 5 6 5 5 8 9 5 5 8 5 , , 4 , 5 4 , , 4 > , , 4 , > , % 4 4 5 5 5 4 , % 4 % % % & % > , % , % , , , > > $ % $ , > , , : $ > , : $ % , % & , > $ % % % + % % X % % + % > % > > % % + . X .   ",
"= . O O O O . - O + + + > - + > > $ % O > $ O > $ : O % O > > : - - : - - - > > 1 > 7 1 1 > 1 , - - 4 , 4 1 > , , 4 4 1 4 4 4 , 7 4 7 8 8 , r , 2 , , r , , , , s a a 8 a s s 7 a V 7 s G s 4 L.PXpXyXUX}.oX_.}.(.3.9 . @ 9 V 4 5 5 5 8 5 5 8 8 8 8 9 9 9 w g g 7 q *.s.4.*.9.,.i.;.8.,.J.J.,.7 s Y 7 =.u.V.dXPX3X1X!.G.u.! c u.! ! Z.pXGX.X*.8 z C k D Z j.PXIXxXmXzXuXzXxXzXuXBXMXnXVXGXGXGXCXBXVXVXaXzXcXGXJXGXtXPXMXMXPX*.q 0 4 8XPXvXnXIXhXdXPXhX4 ;.[.q q 6XIXi.q Y G G J Z V V g s 9 7 0 e e V t k V V V V e t s 9 9 9 9 9 9 9 9 9 9 9 9 9 9 9 9 9 9 V V 9 9 9 9 9 9 9 9 9 6 9 s V 9 9 9 9 9 9 9 9 9 e 9 8 6 6 9 9 9 9 9 e 9 9 9 t 9 9 9 9 k V s 6 6 9 V 9 9 9 9 9 9 9 t 9 e 9 s e e e V e 6 5 0 V V k 6 k 6 V 9 9 0   q 4   + V e 5 9 9 9 5 * 4 6 s k 6 0 8 9 9 9 6 7 9 0 8 8 8 4 4 8 9 9 8 9 0 8 6 0 8 s 9 6 8 5 0 5 5 0 8 9 9 6 6 8 8 9 4 0 9 6 0 8 6 9 5 0 0 8 9 9 6 4 0 8 6 9 6 6 8 5 7 4 0 0 5 4 7 5 5 5 5 5 4 5 5 8 8 8 5 8 5 5 0 6 4 * 0 4 * 4 0 8 5 4 4 5 r 5 5 % % 4 4 4 % & % % & % , 5 5 8 8 4 4 4 % % , , , > & , , , > > & , , , $ > & % , & , , % % , , , % > , : % > % > O % O % % % O % . . O . . . . o + q @ . ",
"O . o O > > O - + > - + . O > > > > > > > % > $ O $ $ $ > > , , 4 4 0 8 7 7 > - > 4 > 4 7 4 1 4 - > > 4 4 5 7 , 7 , > 4 > 7 7 7 , 5 5 5 2 2 5 5 j 8 r r r 5 8 8 2 8 r r k a 8 5 z V s V g 0 7 F.PXzX<XXX`.XXXXI.}.XX&.& 4 6 D 0 6 0 4 8 s k 8 7 8 0 7 9 s 0 7 Z 7   %.p.*.9.i.1.&.&.-.9.J.m.d.P 7 A G G $.j.SXjX}. X1X<X(.W l.OXg.Z ;.G.vXbX4.z 0 G Z g Z g.wXhXrXhXtXhXwXzXhXnXvXnXMXnXVXGXGXBXcXVXVXVXnXaXrXrXzXzXPXyXJXnXOX% t   G.KXPXvXZXZXSXIXZXD h.PX*.7 pXPXu.S *.U V S V V V V w g 9 6 9 9 9 t k V 9 6 V e 9 k 9 9 9 9 8 0 9 9 9 9 9 9 6 9 9 9 9 9 9 9 9 9 9 9 9 e s 9 6 9 e k 9 9 9 e 9 9 9 9 e V e V 8 0 6 6 9 s t k 9 9 e 9 9 e 9 9 k 9 9 9 9 9 9 9 9 9 9 9 9 9 9 9 9 9 9 9 9 9 9 9 9 9 9 9 9 9 9 9 9 9 k 9 V 9 . + 4   X 9 4 4 0 4 9 6 6 9 9 9 9 s 9 0 9 9 9 9 0 9 0 8 9 9 6 8 8 9 0 8 9 9 9 9 9 9 9 0 0 8 6 9 6 0 6 8 0 8 0 5 0 8 9 6 9 9 6 9 9 9 0 8 6 9 s 9 9 s 6 6 0 8 0 4 8 8 9 0 5 0 4 4 5 r r , r , , r 6 r 5 5 r 5 5 9 r 8 8 4 0 4 * 4 5 e 5 , , r , , , , r > > , , , , 5 4 4 4 4 4 4 4 4 , r , , , , & $ , & , , 4 4 , 4 , % % 4 , % 4 % 4 , % % & % 4 4 > % 4 % 4 % > > 4 % % * > > % > > > 4 % % % X O + q 4 @ ",
"O .   . O + + O O > > > + - + > > > > : : > : > > % $ > $ > > > % > > , , > - + - % - > > > - > - > - 4 4 7 4 > 4 7 > > 4 7 4 , 1 , , , , , 2 2 8 5 2 r 8 8 , r 2 5 2 r k k 8 5 k k s V s 7 9 E.PXaX2X X_.`._._.(.(.c.C 0 S 4 4 0 7 s s 8 0 9 s 0 7 7 s s 7 7 V s o Y g.s.s.i.8.;.-.T _ m.W.~.h.1 7 R G V u.tXGX!._.2XtX;Xu.`.HX|.2XH.;.I.'.%.g k s G R 7 ` '.wXhXwXhXhXSXhXrXtXxXSXGXVXVXVXGXVXVXVXIXJXGXcXcXcXcXcXVXuXPXPXxXD 0 - p.PXKXmXmXmXKXhXPX%.9 KXk.g cXVX&.*.p.R V 0 V V g V V V w 9 9 9 9 9 9 9 9 6 e t e 9 e w e 9 9 9 9 9 9 9 9 9 9 9 9 9 9 e 9 9 e 9 9 9 9 9 9 9 6 9 9 9 9 9 9 9 9 9 9 e 9 9 9 9 6 9 9 9 9 9 9 e 9 w k 9 9 k 9 t 9 t V 9 e 9 9 9 k 9 9 6 9 s e 9 e 9 9 e 9 9 9 9 9 9 9 9 9 9 9 9 9 6 V 9 V 9 X + 4   % e 0 4 9 5 9 9 9 9 9 9 9 9 9 9 9 9 9 9 9 9 8 0 9 9 6 8 0 6 8 6 0 9 9 9 9 8 9 9 8 6 9 9 8 5 8 0 8 0 8 6 6 9 8 9 9 7 8 9 9 8 0 8 6 9 9 9 9 9 6 9 9 9 8 0 6 6 6 0 0 5 5 8 r r , , , r r , , , , r 5 , 4 6 r 5 4 , 0 8 0 4 5 6 4 , , , % , , , , , 5 5 , % , 5 4 4 4 4 > * > > , , , r , & , , , , , , 4 4 4 , , 4 4 % * , 4 4 4 4 4 , > 4 % , 4 , % 4 % 4 * > 4 % % % % X % % % > % % % % + + . @ .   ",
"o     O O O O > @ > > > > + + + O $ O > > % > > 1 > > $ $ $ $ $ + - 4 - - + - + - > > > > > > > 4 > + 4 4 7 , > 4 > > 4 7 2 4 4 > 1 > , > > , , , , , 2 2 2 , 2 8 2 8 8 r 8 8 8 s s 9 s 9 4 D  XLXrXyX2X.X`.}.3XU.=.W 9 + 0 0 S 7 9 s 9 9 0 9 s 0 s 7 9 g 9 0 V 0 o s w.J.h.i.8.;._ T } V.J.V.U.4.k a s q &.rXKX<X X3XtXuXL.;XNXvXLXzX).3.Y ` k Y R Z G G 7 9.wXIXdXrXrXnXtXuXdXzXMXIXVXnXnXVXJXVXVXHXJXHXnXcXcXcXVXzXcXVXJXPXp.-   U SXbXGXnXvXvXmXPXg.E LX!.E .XLXk.oXj.9 S R D V V V V g g 9 V 9 9 9 9 9 9 9 V 9 9 e 9 k 9 e 9 9 9 9 9 9 9 8 V 9 e 9 9 9 9 9 9 9 9 9 9 9 9 9 9 9 e 9 9 9 e e 9 V 9 9 9 9 9 9 9 9 9 9 9 9 9 k 9 t 9 9 9 9 s 9 s t 9 e 9 9 9 e 9 9 6 9 9 9 e 9 e w k 9 9 9 9 9 e 9 k t t 9 e 9 9 6 V 9 V 9 . q 4   > V 9 4 s 8 8 6 9 9 9 9 9 6 9 9 9 8 9 8 9 9 0 8 9 6 9 0 0 8 8 9 9 9 9 9 9 9 9 9 9 9 6 8 0 8 8 6 6 8 6 9 9 9 9 9 9 6 6 9 8 8 7 0 8 9 0 9 9 6 8 9 9 9 6 8 6 9 0 9 0 9 8 r 8 r , , , r r , , , , r 5 , 4 r r 5 > 4 6 6 8 5 4 4 & 5 , 5 4 , , , r , r r , & , r 5 4 4 4 * % % % , , , , , , , , & 4 5 , 4 , > 4 * , , , 4 , , * % 4 4 , 4 % 4 > 4 * 4 4 % % 4 % 4 % % % % + X % X % % X % % > * . @ @ . ",
"      O . . . - + + - - > + = + : $ O $ $ : $ % > > > $ $ $ O O > > + > > > > > > > 4 4 4 7 4 > + > > > > 4 > > 4 > > 4 5 7 , > % > , > , > , , , 1 , 8 8 2 4 8 8 8 2 2 8 a 8 8 k 8 0 k s 7 U 6XIXrXtXtXUXXXUX5X2Xp.    6 - w s k 7 q 0 s V s q 9 s 0 7 s 6 7 k s s q ,.`.P.B.s.-.T T &.J.V.8.d.U.e.4 K V %.PXnX_.XX X3XuX3XSXSXvX2XZXPXI.3.F.i.{ %.s G ;.0 S }.SXZXwXtX6XhXrXnXzXnXVXVXMXMXHXHXVXGXGXGXVXnXcXzXaXVXzXcXaXxXPX3X{   + .XGXPXSXnXvXmXGX|.}.SX.X0 XXJXk. Xv.k R S D D V D V V V y V V V e V V s 9 9 9 9 9 e 9 V t 9 9 9 9 9 6 6 9 9 k 9 V 9 9 9 9 9 9 t 9 9 9 9 9 9 9 9 9 9 9 9 e 9 9 9 9 9 9 9 9 9 9 e 9 k 9 e 9 9 9 9 9 9 9 9 9 9 9 9 9 9 9 9 9 s 9 9 9 9 e 9 9 9 9 9 9 9 9 9 9 9 9 9 V k V 9 9 9 0 V 9 k 9 X > 0   * t 9 0 9 6 0 9 9 9 s 9 9 6 9 8 9 9 6 9 9 6 8 6 9 9 8 8 8 0 9 9 9 9 9 9 9 9 9 9 k 9 8 0 8 9 9 9 9 6 6 9 8 9 9 9 9 9 6 5 0 0 4 8 0 6 9 8 6 6 6 9 8 9 8 7 0 9 0 5 9 6 8 r 5 r , , , r r r , & , , 4 , , 5 5 5 + 4 8 6 6 0 4 4 , , 5 , 4 , , r , > , 5 , > 5 r 8 9 5 5 4 4 > 4 & , & , , , , , 5 , 4 , 4 4 % & 4 4 4 4 4 4 , 4 , , 4 4 4 , % * , % , % 4 % % 4 % % % % % O X > % O O O X + % % X + + . ",
"    o . O . O - + + O O O + + + % : $ O $ $ $ $ > > > : $ O $ > 4 - > > - 4 - 4 4 > 4 4 1 4 7 , 4 > - > > > 4 > - > 4 4 7 , 4 > > , , , > > 1 5 , , , 2 8 2 2 8 r , , 2 8 8 s 8 k s 0 Z s 7 E wXIXnXrXqXUX.X#X3X5XpXz.. 6 V 0 . V 0 q 7 s Z 9 4 7 s 9 9 s 9 0 V s V   J E.!.J.s.8.&.T x V.~.r.! s.r.C U + S PX2Xj.[.8X6X8X6XhXhXdXwX9XvXGXdX&XU.9.R D ` <.G G n.;XmXSXSXtXmXhXuXzXMXGXGXBXGXGXGXHXHXHXGXVXVXnXcXcXVXcXxXaXzXaXPX_.0 @ s.PXPXbXzXGXqXzXnXZXKX!.  qXGX2.`.x.S Y 6 D D V V V V V V V V t V e V e 9 9 9 s 9 9 V 9 t 9 6 9 9 6 9 9 9 9 9 9 9 9 9 9 9 9 9 9 9 9 9 9 e 9 9 6 9 9 9 9 9 6 9 9 6 9 e e 9 V 9 9 t 9 k 9 9 9 9 9 9 9 9 9 9 9 9 9 9 e 9 9 9 9 9 9 6 9 e 9 9 6 9 9 9 9 s s e 9 9 s s 9 s 9 9 9 9 k 9 g 6 . * 4   q t 9 0 9 6 8 9 9 9 s 9 6 8 9 6 9 9 7 9 6 9 0 6 9 6 8 8 6 9 6 9 9 9 9 9 6 9 0 8 9 9 6 6 9 s e 9 9 9 6 8 6 8 9 9 6 8 0 0 8 4 5 8 8 0 6 8 8 8 4 0 0 8 0 4 5 6 4 6 6 8 6 r , , , , , , , , , , , 5 , > 4 4 8 5 0 4 5 0 5 0 5 5 5 5 5 5 5 4 5 5 , % % 4 8 4 4 4 5 4 4 4 4 4 > 4 , & , , , , , , , % 4 * > % % % 4 4 > 4 , 4 , 4 > 4 4 4 , 4 > * % > 4 % 4 % % % % O O % % X > > % + X O O X + - @ + X @ ",
". . o O = O O + > + O O O = + - % > > O : O O O $ $ $ O : $ O > > > + + + + > > > - > 4 > > 4 > > 4 > - > 4 4 > 4 > > > > 7 4 > > , 5 1 , , 2 5 8 , , 8 r 8 , 8 8 8 , 8 8 8 8 8 V s 9 V V 9 U 3XnXzXrXyXUX3XyX<X<XqX5X3.  6 S 6 9 s 9 9 0 7 0 s 9 s s 0 s 9 7 s 7 V @ + G.U.D.p.p.-.I K C.I.r.I <.;.;.Y o *.LXdXS k._. XhXmXSXmXqXKXdX2XZXDX&X'.H.p.{ G ` Z S s.`.dXPXmXzXzXZXrXnXGXHXHXHXHXCXVXVXVXGXGXGXHXVXMXBXnXVXzXHXHXtXPXKX=.@ D DXPXzXvXZXrXvXnXGXPXu.s nXIXj._.S.E W S S D V V w V V V V k 9 9 e 9 9 9 9 9 9 9 9 9 9 s 9 8 9 9 9 9 s 9 6 6 6 9 9 e 9 k 9 e 9 9 9 e 9 9 s 9 6 6 9 e e e 8 8 9 9 9 e 9 V 9 9 s 9 9 9 9 9 9 9 9 9 9 9 9 9 9 9 9 9 9 9 9 9 V 9 9 6 9 9 e 9 8 9 6 9 e 9 9 V 6 9 9 9 9 t 9 6 9 6 9 9 9 6 . + 4   % e 8 4 8 8 9 9 9 9 9 9 9 8 0 8 0 8 9 6 9 8 8 8 9 9 8 0 8 6 8 9 9 9 9 8 6 8 4 0 8 6 6 8 9 9 9 9 9 6 0 8 0 8 8 0 9 6 8 5 5 0 0 5 8 9 6 6 8 0 4 0 8 6 4 0 8 8 * 5 4 0 , , , , , , , , , , 6 , , 4 , , , 8 8 5 4 4 4 4 5 6 0 8 4 5 5 r 4 4 5 5 r & % 4 8 4 > % * 4 % 4 4 4 > 4 , , , , & 3 & , 4 % % % > > % % % % 4 4 % 4 % % 4 % % 4 % 4 > % > * % > % % > % O X O % % + X > % % % + % O O O . + +   ",
": . . = > + + + > + O + > > + + $ : % > > O : $ O $ % $ $ % > > - % - + > > > > 4 > > > 4 > > > 4 4 4 > > > 1 4 , > > > > 7 7 , , 1 1 4 , , 2 5 8 2 2 8 8 , , 2 r 2 r 2 k 8 8 8 k k s V V s S '.bXaXrX9X<X2XqX3XrX.XcX XS @ k D 7 s k s 7 4 0 s 9 g s 9 s 0 9 s g G s + F.(.G.k.a...T z.I.V.3.I C Y $.D   <.KXdXS s.H.`.hXAX;X&X6X1XqXdX6X&X2XwX`.F.&.s Y G s w.!.1XmXqXtXwXxXtXpXnXHXJXGXVXGXVXBXGXVXVXGXGXVXnXzXaXBXcXBXVXMXcXPXD.    <XPXzXVXbXnXIXzXPXHXD R 3XVX`.`.L.u.R V S D V V g V V D 9 e 9 e e e e 9 t 9 9 9 9 9 9 9 9 9 9 9 9 9 9 9 9 9 9 9 9 9 9 9 9 9 9 s 9 9 9 9 k 9 8 6 9 9 e e 9 6 9 9 9 9 9 9 9 9 9 9 9 9 9 e 9 9 9 9 9 9 9 9 6 9 9 9 9 9 V 9 9 9 6 9 9 e e 9 9 9 9 9 9 9 9 9 9 9 9 9 9 9 9 9 s 6 s 8 V 6 . q 4   # V 6 0 9 6 9 9 9 9 9 0 8 9 0 9 6 8 9 8 6 6 0 6 9 9 9 0 0 9 0 9 9 9 6 5 8 8 5 0 4 8 8 6 6 9 8 8 8 8 8 6 6 6 6 8 8 6 8 0 8 0 0 6 6 8 9 9 0 8 4 0 8 8 0 7 6 6 6 6 6 6 , , , , , , , , r 6 , 6 , , 5 , , 5 8 5 0 4 4 * 4 6 0 4 4 5 5 , 4 % % > 8 % % 4 8 , * % > 4 % 4 4 , 4 4 , , , : 3 & , , % & > , 4 4 , , % % % % * % % % % 4 > * % % % > % > * % % % % * > % X > % X $ % % % + % % O O X @ q # @ ",
"> O . . > > - O > + - > 4 > > + O > $ $ $ > > > O $ O : O $ $ : + % > > 4 > > > > 4 4 4 7 7 0 , 0 > - > 4 7 4 > 4 4 - - > 4 > 4 > , , , , , 2 5 8 2 8 8 2 , , , 2 8 8 r r k j 8 s V 9 V Z 9 s I.GXnXaX5X<X<X3X<X3X3X XyXI.0   6 g 9 0 7 0 s 9 7 0 s s 0 9 s 6 g 0 s 9 . D.E.V.n.a.,.T r.(.Z.f.C   K } $.9 ;.PXeXs 2.n.).vXhX[.wXeX`.P.&X_.U.|.}.P.1.%.Y G E G R G.'. X3X.X2X<X;XyXzXGXHXVXBXVXHXJXJXHXGXVXGXMXcXrXtXcXzXtXaXPXqXPX#X    (.PXcXIXGXrXPXPXPX_.0   z.rXpX(.G.g.Q 6 W D V w w V V V e 9 9 V V V e 9 9 k 9 9 6 9 9 9 9 9 9 9 9 9 9 6 9 k 9 s 9 9 9 9 9 e 9 9 9 9 9 9 9 s 0 8 9 e 9 e 9 9 6 9 9 9 9 9 9 6 9 9 9 9 9 9 9 9 9 9 9 6 9 9 8 9 6 9 9 9 9 9 s 9 9 9 9 9 9 9 k 9 V 9 9 9 6 6 9 6 6 8 9 6 6 9 9 6 9 9 9 6 . > 0 . % t 8 0 s 6 s 9 9 9 9 9 6 9 8 8 6 9 8 0 9 8 8 8 9 9 6 8 8 6 8 6 0 8 0 0 0 4 6 5 4 0 0 8 0 4 0 4 0 0 7 6 9 9 0 8 0 8 6 8 6 9 9 5 9 6 8 6 0 8 4 5 6 8 4 0 6 9 r , r , r 6 , , , r , , , , 6 , 4 r 5 , 5 8 8 4 4 4 4 4 8 6 0 4 4 4 4 , % % % & 4 , 4 8 5 4 4 5 4 4 4 4 4 4 4 4 , , , , & 3 : $ 4 , 4 4 4 4 4 4 % % % % % % % % 4 4 % % % % % > 4 % , % 4 % % % 4 % % > % O O + % X % % % % % O . + @ o ",
">   o O O - > > + % % > + > + > > > > % > % $ > > > O O $ O > > O + > > 4 - > 4 > 4 > 4 > > > > > > 7 7 2 7 4 2 4 , 4 , > 7 , , , , , 4 , 4 2 2 r 2 , , 2 8 , , r 8 8 8 8 r 8 9 k a V s s s 1.<XIXVXtXzXyX.XtXqX'.pXoXL.cXV.* + 7 9 V g 9 7 0 7 s 9 g g 7 s V 9 V @ V   3.U.F.g.8.2.K <.{.K.a.A 8 } R D 9 F.KXvX` ` D.E.dXFXE.'.'.~.}..X}._.(.'.n.s.3.` ` $.J V 1.l.B.I.}._.3X[.OXrXGXPXHXnXcXGXBXHXVXnXMXVXVXxXrXpXuXrXrXaXaXzXIXtXe * |.GXGXnXnXrXGXPXqX<.9 0 3.JX<X#X_.I.E t S S D V D V g V t V V e 9 k t V V e 9 9 9 k 9 9 s 9 9 9 9 6 6 6 9 9 9 9 w 9 9 9 9 9 9 9 9 9 9 9 9 k V k 9 0 5 0 9 9 s 9 s 9 9 9 9 9 9 9 9 9 9 9 9 9 9 9 9 9 6 9 s 9 9 6 6 9 s 9 e 9 9 9 9 V V 9 9 9 9 9 9 9 9 t 9 9 9 9 9 9 9 9 9 k 9 6 V 9   * 5   > V 9 0 9 9 9 9 9 6 9 9 8 6 9 8 6 9 6 8 6 8 8 9 0 9 8 6 0 8 6 6 8 6 0 6 0 6 k 6 0 4 4 4 8 9 4 0 8 9 9 9 9 8 6 0 8 6 4 0 4 0 9 6 8 0 5 8 6 8 5 0 8 0 8 0 6 8 & 5 r 6 r r , r r , , 5 5 5 5 > r , 5 , 5 5 5 6 + 4 9 9 8 4 4 0 5 8 8 4 4 0 4 > + * 4 4 > 4 4 4 0 5 5 5 4 4 > 4 % & $ % $ & 3 & * , 4 4 , 4 4 4 4 % , 4 4 4 % % 4 > 4 > 4 > % * 4 , 4 > 4 % > > % % 4 % > + % % + % % + % % X X % q + @ ",
"O   . - O O + O - - % - > % - + $ % : : : : > $ : > > $ $ : $ > + + > > > + - > 4 4 > > 4 , 7 4 > > , 4 5 7 5 5 7 , 7 > , 4 4 7 , 1 4 1 , 2 8 , 8 8 , , , 8 8 , 2 r 2 2 8 8 8 a S 9 k D s D s.SXPXzXqXzXqX}.2XrXPX3X#X}.S.cXl.    G q - D 9 s A Z 4 - 0 s D s - Z - A @ $.V.V.s.r.$.F &.(.V..., K D D A   S.PXwX%.i.J.W.].'.W.|.:X|.;X X.X&X}.{.|.'.L.1.R Y Y %.2.h.!.!..X}.8XOX<XqXnXHXGXMXVXCXGXGXGXcXnXGXVXcXaXaXaXzXzXzXcXnXIXaXg.j.zXGXzXcXnXzXnXGXrXR 0 V F.PXqXtXpX9Xu.4 V D w 9 D V 0 9 9 e e e e e V V e 9 e 9 t 9 t 9 9 9 9 9 9 9 9 8 9 9 9 k e 9 9 9 9 9 9 9 9 9 9 9 9 9 e 9 9 9 8 9 9 9 9 9 9 9 9 9 9 6 9 9 9 9 9 9 V 9 k 9 9 9 9 9 9 9 9 9 9 9 e 9 9 9 9 e 9 9 9 e 9 9 9 9 9 k 9 9 9 6 8 9 9 9 9 9 9 s g 8 k 9   % 0   * V 9 5 e 0 9 9 9 9 s 9 9 9 9 9 9 9 9 0 0 9 0 9 8 6 0 9 9 8 0 8 0 8 8 8 8 8 9 9 8 0 0 4 6 9 9 9 6 8 0 0 0 6 0 4 4 4 4 4 4 4 6 6 5 8 0 0 8 0 8 6 0 8 6 8 8 6 , 6 5 r r 5 r r , , > 4 5 8 0 4 r , , , , 5 5 r 4 5 6 6 4 4 4 0 4 5 5 4 4 5 5 5 % 4 0 4 4 > 4 4 > 5 4 0 4 4 > % , , > > , 3 , , , 4 , % % 4 % , 4 % * > > > % 4 % % % * % 4 , % % * % 4 4 % 4 * 4 % % % % % % % + % % % O % $ + + + X   ",
"O   . > + O O @ + > + > > - - + > $ > > % > > > > > $ $ : % > > > 4 > 4 - + + % + - > - - > 4 4 > 4 , > 4 4 5 7 4 , > 4 > 7 > 4 4 , 2 5 , 8 2 8 8 2 , , , 2 , 5 8 r r 8 8 a 8 9 k 7 s V V V g.LXnXzXzX9XcXVXIXyXrXDXrXI._.oXIXg.o + s S g s 4   - 7 s g - q 9 s V + V + r z.c.k.r. .T S G.~...r Y V s D O n.DX X;.m.K.|.].W.).W.1X X<X&X:XqX6X3X X<X'.g.{ G S { *.l.}.}..X<XtXtX2XrXcXGXVXVXVXVXGXJXGXcXcXVXVXnXxXcXzXzXzXcXnXVXnXIXnXBXPXVXcXPXVXzXcXzXcXR X t .XPXzXqXzXGXE.4 V D V V D V 6 9 9 9 e e t e e V V 9 9 9 e k V w 9 9 s 9 9 9 6 0 9 9 9 9 9 9 9 9 t 9 9 9 9 9 e 9 0 8 9 9 9 9 9 9 6 9 9 9 9 9 9 8 9 9 9 9 9 e 9 9 9 9 9 9 9 9 9 9 w 9 9 9 9 9 9 9 s 9 9 9 e 9 e e 9 9 9 e 9 9 e 9 8 0 9 9 9 9 9 9 9 s 9 6 V 6   * 5 . % V 9 5 e 5 s 9 9 9 9 9 9 6 s 9 s 9 9 8 8 8 6 8 8 0 8 8 6 6 8 8 8 0 6 8 0 8 9 9 6 8 8 6 6 9 9 9 9 8 7 5 8 9 8 9 6 6 5 6 6 6 9 8 8 6 5 0 4 4 0 5 0 6 5 9 0 8 6 , 6 r 5 , r , , , , 4 8 9 0 4 6 , 5 , 5 5 r 6 6 8 4 4 4 4 0 4 5 4 4 * 4 9 9 9 4 6 5 0 4 4 4 4 4 4 4 4 4 * 4 > , , > > , & , , % 4 4 4 4 4 4 4 % % > > > * 4 4 % 4 % % % 4 % 4 % % % % % > 4 > % + % % % % + O % % + % X % + O + + X   ",
"-   O > O O > O + - + > + > % > > $ O > $ $ % : % > : % % > % : % - 4 > > + - + + + + + - > > > 7 > 4 > > , 7 7 > 7 4 > 4 > 7 4 2 2 4 2 8 2 8 2 r 7 5 5 8 8 2 2 8 2 8 8 8 8 r 9 9 7 k V V 9 $.`.PXBXzXtXUX*.R 0   S `.zXU..X.XPX!.    9 g V 0 G D 9 6 V g V V 9 V 4 k 4   ! c.F.<.} T K K.~.*.r E $.G U D H.ZXdX' h.P.&X=X].].J.*X`.'..X3XdXjXdX1XqX6XL.1.R Z Y Y w.;X;X1XwXuXMXaXxXMXVXVXVXVXBXGXHXGXVXVXGXVXMXBXVXnXnXcXcXMXVXpXBXPXJXzXVXBXGXVXcXGXnXJXl.  4 I.zXPXaXrXPXcX=.6 D D D S V 9 V 6 9 9 e k 9 9 e 9 9 9 9 9 e e 9 9 9 w k s 9 9 8 9 9 9 9 e 9 9 9 9 9 9 e e 9 V 9 0 8 9 9 9 9 9 e 9 9 s 9 9 9 9 9 9 9 9 9 9 9 e e 9 9 s 9 9 9 9 9 9 9 k 9 9 9 9 9 9 9 9 9 9 9 9 9 9 9 w 9 9 9 9 9 9 9 9 9 9 9 9 9 9 9 k 6 V 0   + 0 . * V 9 5 e 9 9 9 8 6 9 9 9 6 6 9 9 6 6 9 6 0 9 8 6 9 9 0 8 9 9 6 8 0 9 6 8 9 9 9 9 9 9 9 6 8 9 6 8 6 9 9 9 9 9 s V 9 e 9 9 9 0 9 9 6 9 8 5 0 9 8 6 8 0 0 5 5 r , r , r , , , , , 4 5 0 5 0 0 5 r , r 5 5 5 r 6 4 4 4 4 4 4 q * * 4 4 4 5 9 0 5 5 0 5 4 4 0 * 4 4 4 > 4 4 % % % > > , , , , , * > > > & , % , 4 % * % % % % , * % % % % % 4 4 % % % > * % % > % % % % X % % % + X % + % % O + X q @   ",
"> . . > . O % O - % > - % > % + $ > % $ $ > $ $ $ $ O > $ $ $ $ + > > > > + - > > > - > > - > - > > - > - > > 4 7 , > 4 - 4 > 7 , 4 , 1 5 5 5 5 2 8 8 2 8 2 2 5 r r 8 8 j 9 k j Z k D g g 6 s <.yXcXGXIX<X@   X .   0 j.2XL.U.yXPX).U     9 q 4 s 4 q 0 7 0 0 - V 0 t V   S V.F.u.4.! 3.{.Z...r D R W V 0 n.LXPXG q.B.W.!.^.W.W.'.F.U.'.3XdXdXvXdXZXhXE.9.Y V Y U 9.3XtXdXhXrXGXnXSXVXVXHXGXVXBXGXGXHXGXBXGXVXnXVXVXVXMXnXcXnXVXVXrXIXcXaXPXJXzXBXcXPXBXPXUXw 4 E j.IXPXnXPXPXk.@ s S S A V 6 w 9 k 9 t 9 9 9 9 9 9 9 9 9 k 9 k 9 9 9 e k 9 9 9 9 9 9 k s 9 9 9 8 9 9 9 9 9 9 9 6 9 9 9 9 9 9 9 V 9 9 9 9 9 9 9 9 9 9 9 9 9 9 k t 9 e 9 9 9 9 9 9 9 9 9 k 9 9 9 9 s 9 9 9 9 9 9 9 9 9 9 9 9 s 9 9 9 9 9 9 9 9 8 t 9 9 9 V 6   4 0   * V 6 5 e 6 9 9 9 9 9 9 9 6 4 0 8 8 0 6 9 9 9 8 6 8 6 8 0 9 0 6 9 8 8 9 8 0 8 8 6 8 9 6 8 0 7 5 8 6 9 9 6 6 6 6 0 0 0 4 0 0 0 0 8 6 9 9 6 8 6 8 9 6 8 0 8 5 r , 6 r , , , , , r r , 0 4 4 # 5 5 , , 5 5 5 5 5 0 4 0 5 0 * q * 4 4 * * 0 0 4 5 0 5 0 4 0 4 4 4 4 4 4 % * , % % , : , : , & , , % 4 % % 4 % % 5 4 , % % % % % , % % % % 4 > 4 4 > % > % % % % * % % % % % % X O % % % O + X O X + @   ",
">   o O o O - + + > + > > + - + O : $ $ $ > O > O $ $ $ : % $ O O - - > > > > 4 7 , 4 > > 4 4 4 - 4 > > % 4 > 4 4 > 4 > 4 > 7 > , , , , , 2 1 7 2 8 r 2 8 2 , 5 8 2 r 2 8 8 8 k V Z V s A S D %.F.rXGXDXtXE + 0 4 t   * }.MX4X X3XPX6Xp.4   G - g V W G s 7 g S 9 6 C S X 6 g.c.r.a.<...K.L.3.r k V W K   s.PXkXJ { M.s.m.W.m.D.).n.D.).&X2X6XdXwXZXnX).3.G g R { l.hXmXmXmXhXnXSXnXcXVXVXGXVXCXVXGXHXIXHXVXVXcXMXVXGXVXVXVXGXGXPXaXPXPXHXJXGXGXVXzXJXzXVXJX3.y X U 3XPXIXcXHXI.  9 W S D y 9 g 9 V V 9 9 6 9 9 V 9 6 9 9 9 V 9 9 9 9 V 9 9 9 9 9 9 e 9 9 9 9 9 9 6 6 9 9 9 9 V V 9 9 6 9 9 9 9 9 V t 9 k 9 9 9 9 9 6 8 8 9 9 9 9 s e 9 9 9 6 9 9 9 9 9 9 9 9 9 9 9 9 9 9 9 9 9 9 9 e 9 9 9 9 9 9 9 9 9 9 9 0 9 k 9 9 6 V 8   4 5 . % V 9 0 s 6 s 9 6 9 9 9 9 8 4 4 0 0 8 8 9 8 6 8 9 0 9 9 8 6 9 8 6 9 0 9 9 6 0 0 8 0 0 8 6 8 0 0 6 9 8 0 4 4 4 4 4 > 4 4 > % , 4 4 0 8 6 9 0 6 9 6 5 6 5 5 5 r 6 , , , , , , , , 5 r 5 0 * 4 , & 4 , , 5 5 5 4 > 4 5 0 4 4 + 4 4 0 % % 4 4 * 5 4 5 5 0 4 0 4 4 4 4 % > 4 4 4 % % & $ : & : , > 4 4 4 , * 4 4 4 4 > & 4 % 4 % % 4 % % % % % , 4 4 , * % % % X > % % % % % % % $ X + $ % O O X q - @   ",
"O   o O . . > O + > + % - + - > $ $ O > : O : $ : % $ > : $ > O O + - > 4 - > 4 , 4 > 4 4 > > 4 4 > 4 , 4 , > > 4 7 > > > > 1 4 , , > , , , 1 , 2 8 r r 8 , 2 2 2 8 8 8 a e 9 k k k s 9 S K Y w.G.#XtXnXPXg.  4 9 V D     S.rXnXvXGXPXPXD.    7 s @ + 7 0 7 4 + t 8 t C 4 % p.s.2.u.o., p.~.3.r G W E R q G.PX6XJ %.b.i.m.H.b.f.P.h.k.L.`.:X3X9X6XvXbX'.s.` Z Y *.G.SXSXmXSXnXzXnXnXcXnXVXHXVXVXVXVXHXHXBXBXnXVXnXVXVXGXGXVXVXVXVXVXJXJXBXzXaXBXVXcXBXaXVXPXU.D C R 2XPXIXzXPX3X+ V S D D V t t V t 9 9 6 9 9 V e 9 9 9 9 k 9 9 9 e e 9 9 e 9 9 9 9 9 w 9 9 9 9 8 9 6 9 9 9 9 e k 9 9 9 e V 9 9 V 9 9 9 6 9 9 9 9 9 0 5 6 6 9 s t 9 9 9 9 9 9 9 9 9 V 9 e 9 9 9 9 9 9 9 9 6 6 9 e 9 9 9 9 9 9 9 9 9 9 9 9 9 8 9 w 9 6 9 A 6   4 0 . q V 9 6 e 6 9 9 9 9 9 s 9 6 5 0 0 8 0 8 0 9 9 0 8 8 0 8 9 8 8 9 9 8 9 6 6 9 5 8 0 8 8 0 9 9 8 6 6 8 8 0 0 4 6 6 8 6 6 6 5 5 0 8 0 4 0 8 8 9 9 9 0 8 6 0 4 5 r , , r , , , r > , 5 r 5 4 0 5 , , , , 5 5 r 5 * 4 4 0 5 5 4 % 4 0 0 * 4 5 0 4 0 4 4 4 6 6 5 4 4 4 4 4 4 4 > 4 , % , % , : , , , , , % % 4 4 4 , % 4 4 , 4 4 > , % % 4 % % % * , 4 4 > 4 % % % % % % > + % + % O X $ X X O X . + q X   ",
"O   O > : - > O - % > - % > % + : + : $ % $ + $ O > > > > > > $ + % + > > + > > - + % - - > 4 4 > 7 7 4 4 7 4 > > > > 4 > 4 4 > 1 > > , , , , , 5 r r 8 8 2 5 8 r 2 8 j 8 9 k k z 8 s 9 V V S u.i.<XIXqXIX X    D 9 q 6 9 @ ;..XL.u.U.jXPX`.    s 4 s S s 4 s S S e e e e O g.k.k.&.<.! K._...K D R V 6 g W.IXfXg i.B.b.N.N.e.m.D.p.s.n.U.&X2X6XqXdX9XI.i.{ s V ` L.KXmXhXSXIXhXMXnXnXMXVXVXHXVXVXGXHXVXBXBXnXVXnXVXGXVXVXMXcXxXPXPXcXpXBXJXBXpXHXcXzXaXJXJX#XC D 4.qXIXnXBXPX6X0 D D V V D t e V e k 9 9 9 s V t 9 9 9 9 9 9 6 V 9 9 9 9 9 9 V 9 9 9 9 s 9 9 6 9 9 9 9 V e 9 V V 9 6 9 9 t V V 9 V 9 9 6 9 6 9 9 6 0 7 8 0 9 9 9 9 e 9 9 9 9 9 9 9 9 9 e 9 9 9 9 9 9 9 9 9 9 9 9 9 k 9 9 9 9 9 9 9 9 9 9 6 9 6 k 9 9 9 V 6   4 5   > V 9 5 s 6 9 9 9 6 9 9 6 6 8 8 6 8 9 6 6 8 8 6 9 0 9 6 6 8 9 9 0 9 8 9 9 9 6 6 9 6 8 9 9 9 9 9 6 6 8 9 9 V s k 9 9 9 9 9 9 8 6 6 8 8 0 6 9 6 8 9 6 5 4 0 5 , r , , , , , r $ & 5 6 5 0 0 8 * , 5 5 5 5 r 5 4 4 4 * 4 4 4 0 4 4 4 4 4 0 5 5 4 4 * 0 5 6 0 * 4 4 > 4 4 4 4 8 , % % , & , , , * 4 4 4 , 4 , 5 % % , 4 4 8 5 4 4 4 4 4 % 4 % % % 4 4 % % 4 4 % + + + X + X + O + % + $ $ O $ O q + @   ",
". . O O + O O > - + O > - % + - + $ > $ % % : > O : O > : % > > $ $ $ : $ : $ : > % % + + 4 - 4 @ > > 7 5 7 7 > 4 > 7 4 4 , > > > , 4 1 , , 2 5 > 4 , 4 8 a a 8 8 8 8 8 s k k s D D G g V D S $.w. XPXqXdXPX2.+   V S q 0 9 q     o   D.KXPXPXw.q 7 s g s a 7 1 r C r , , $ ! ~.c.,...&.K.P.3.W T G R s 0 E.PXdX_ ;.P.P.w.0.B.Q.[.i.B.B.Y.*X8XwXrXqX}.V.%.%.G V &.c.9XBXVXpXGXBXBXBXcXcXBXNXBXCXGXBXBXBXBXBXBXBXGXBXnXnXIXIXnXPX}.k.C   p.PXzXzXGXBXnXrXIXPX(.D 0 ;.zXGXKXKXPXzXR @ U W E E e 6 9 9 9 9 e 9 r 9 e 9 9 9 V 9 t 9 9 9 9 V k 9 9 9 6 9 9 e e V 9 9 9 9 k V e 9 9 9 6 9 s 9 9 9 s t 9 9 9 s 9 9 9 9 9 9 9 9 9 9 e 9 9 9 9 9 9 s e e 9 t s 9 k w e 9 V e 9 9 9 9 s 9 9 9 9 9 9 9 9 9 9 9 9 9 9 9 8 8 k 0 9 k V 9   q 5 . X k k 8 6 9 9 9 9 0 9 9 0 0 9 0 8 7 6 9 9 0 8 9 8 6 9 9 8 0 0 0 0 5 6 8 6 0 0 6 9 8 9 9 9 6 0 8 8 9 6 8 9 6 0 5 8 9 6 8 4 4 9 8 0 5 9 9 9 8 9 9 0 0 4 8 0 9 6 8 4 4 5 5 , , r 5 8 r 6 6 6 0 % 4 8 8 8 4 4 % 9 5 4 4 4 4 4 > 4 0 * 0 0 5 8 6 5 0 6 8 0 4 4 4 & , , % , , % , % 4 > 4 > 4 > 0 4 4 4 4 4 4 4 * > 4 * > 4 4 4 + % 4 % * > % % 4 % % % 4 4 > 4 4 % + + + + % % O $ & $ & . & & . X % +   ",
"O o . O - O + > $ % - + + O > O $ > O > : > % O > > $ > % : $ O $ O O $ $ > > > % > > > - - 4 - > - > 7 7 4 > - > > , 7 1 4 7 4 4 4 , 4 4 7 4 2 7 , > 1 8 8 8 8 8 8 a 8 8 8 9 s 9 s D s V G G $.S.(.GXrX2XPXSX. @ Z q G - 8 0 7 Z J   o ` L.{.&.7 7 s g g V s s r t r r , & ! V.c.,.z.I V.UX,.c K E *.Y s D.KXeX%.w.Q.W.B.B.B.Q.*XB.B.!.!.;XuXzXnXzX<XS.W G Y G T g.3XBXBXcXBXaXBXcXpXaXCXBXBXGXBXBXBXBXBXBXGXBXzXGXnXGXbXHXPXwX* + X   l.cXPXtXnXnXnXnXIXIXS.0 7 *.hXSXIXSXPXnX=.0 S C D e y e t e V e e t t e V 9 e 9 9 V 9 9 9 9 9 9 9 t t 9 9 9 9 9 e 9 9 9 9 9 9 9 V 9 9 9 6 9 9 9 9 9 9 9 6 9 6 9 9 6 9 7 9 9 9 9 9 9 k 9 9 9 9 9 9 9 9 9 9 9 9 9 9 9 9 9 9 V 9 9 9 9 9 9 9 6 8 9 9 9 9 9 9 9 9 9 9 9 9 0 e 6 9 9 V 6   4 4   + e k 8 6 9 9 8 9 0 0 9 0 8 8 6 6 9 9 6 6 8 8 0 8 6 6 6 6 8 8 8 8 8 6 9 8 5 5 0 5 0 6 8 8 9 0 8 0 9 9 9 0 9 0 8 6 6 6 8 0 4 4 0 4 4 8 6 8 0 9 8 4 4 4 0 5 5 0 5 0 4 4 5 5 , % , 5 5 6 6 0 0 4 4 5 4 4 4 4 > 5 5 4 4 8 4 4 4 4 4 4 4 5 0 0 6 4 4 0 5 4 4 4 4 , , , , & % , % 4 % 4 + > * > 4 4 > 4 4 4 % % 4 4 > 4 % + % * + % 4 , % > 4 % , % 4 % 4 % 4 4 % % q + + % + % X $ . $ $ $ $ $ & X + +   ",
": . . O + O + + + > > + % + + > O : > : % $ > $ > > > $ $ $ O $ $ $ $ $ % > 1 > + > 4 4 - 4 4 - > > > 4 , , 4 > > > 4 > 4 4 , > > 4 > 4 7 7 8 7 7 4 4 5 8 8 8 8 2 8 e 8 7 , 9 s 7 0 V g S G G 4.S.(.dXnX3XzXPXS.-   9 0 g 0 S @ 0 q 0 o   s s   a 0 s s s s s s r e r t c , A r.Z.u.-.r r.{.3.I V Y ` Y 7 u.KXdXY ;.m.B.B.n.w.N.).P.P.&X;X6XxXnXcXVXnX}.R z K J A g.UXBXBXGXGXzXBXaXaXBXGXGXcXcXBXDXBXBXDXGXDXZXbXHXhXGXzXbXSX3.4 D   W rXPXVXnXIXzXzXnXIXPXu.% s %.wXIXIXGXPXGXR * S D W * S 6 V V V e t V V V V 9 9 9 9 9 9 9 9 9 e e 9 9 9 e s 9 e V e V 9 9 9 6 9 9 9 9 9 9 9 9 k 9 9 9 9 9 9 9 9 9 9 9 9 9 9 9 9 9 9 9 9 k 9 t 9 9 9 9 6 9 9 9 6 9 8 9 9 9 9 9 9 9 9 9 9 9 6 9 6 9 9 9 9 9 9 9 9 9 9 9 9 0 9 8 9 9 t 9 . + > . + e s 5 9 6 6 8 6 9 8 0 6 0 8 9 9 6 0 9 0 9 0 0 9 0 4 4 8 6 9 9 0 4 0 6 9 8 0 5 0 5 5 6 6 6 8 6 6 8 9 6 9 8 0 8 0 9 9 8 0 4 5 0 4 0 0 6 8 5 8 6 0 4 4 4 0 0 4 4 0 4 4 , , 5 , , 5 8 9 9 0 4 4 5 4 5 4 4 4 4 5 5 5 0 4 0 5 5 4 4 4 4 4 0 8 5 4 * 4 4 4 * 4 4 , , , , , % % , 4 4 + 4 * > + % 4 > % 4 > 4 > * + % * q * + - % % % % 4 4 % 4 * 4 % % 4 4 % % > * + + + + % $ O $ $ $ $ $ $ $ $ @ + + @ ",
"> O   . - + O - + + + - O > % - % % $ > > : $ $ $ $ $ $ > % : > $ $ : > > > > > - - 4 - 4 4 4 > , 4 > 4 > > > 4 q > > > , 7 7 4 > > , 4 2 5 8 8 1 4 2 8 8 8 8 8 , 5 9 s 7 0 s V s s S V V D S 4.j.).nXSX&XqXrXPX$.  g S 7 g 4 s g - G G s -   q s s s s s s s s r r r c y r r ! c.c.*.&.V.{.a.K G =.R R s i.PXvX%.i.H.E.B.!.b.w.).OX[.8XhXuXmXhXzXnXPXzX9.g G Z c u.{.pXeXDXGXnXBXVXBXVXLXCXBXnXDXBXDXDXDXDXZXbXBXGXhXIXKXPXPXl.  6 q g.jXGXtXzXBXnXnXnXBXJXz.C S $.8XPXLXKXIXPX4.+ U y E 5 D 6 V V e e e e V V V V 9 9 9 e 9 9 9 9 e 9 k 9 e 9 9 V e 9 9 9 9 9 9 9 9 9 9 9 6 9 9 9 9 V 9 9 6 9 8 9 9 9 9 9 9 6 6 9 6 9 9 9 9 9 9 9 k 9 9 9 9 9 6 9 9 8 6 9 9 6 9 9 9 9 6 9 6 9 9 8 9 9 9 9 9 9 9 9 9 9 9 9 9 9 9 6 9 6 e 9 . % > . % 8 9 8 9 6 9 0 0 8 0 8 0 0 6 8 0 8 8 8 8 6 4 9 9 8 0 4 0 9 9 6 5 0 0 8 9 6 5 5 5 0 0 5 8 6 6 8 9 9 9 9 8 9 8 9 8 9 9 0 8 0 6 6 8 6 8 9 6 6 9 6 8 0 0 5 5 5 4 4 * 0 4 5 r , 8 8 r r 9 8 4 4 6 6 4 4 4 4 4 4 5 5 0 5 4 5 5 5 * 0 4 4 4 0 4 6 * 4 4 0 6 4 4 4 > , , > , > , % 4 4 4 4 4 4 4 4 4 * 4 % * > 4 % + q % > > > 4 0 , 4 4 % 4 , 4 , 4 , * , % 4 % % * + + + + 4 % % $ $ & $ $ $ $ $ X + X . ",
"> . o . + + O O - > + + - + % + : % > $ > O > O O : $ $ : > > > , : , : > , , , 4 > > 4 - 4 4 7 4 4 > 4 > > 4 > > > 4 4 , 7 4 , 4 - 4 4 2 5 8 8 4 5 7 8 8 8 8 8 8 8 s 9 s a s s s g G g V g V %.L.(.GXbX.XvXrXZXrXU   @ U - g 9 s s g s s s G S a s 7 g s g V D e r r C c r , y r.G.r.,.G.`.r.C J ;.R R S h.IX|.Y w.!.!.B.[.B.N.2XhXwXZXDXaXcXaXIXnXVXBXp.k A G c a._.pXdXDXZXnXBXJXGXVXKXnXnXGXGXDXFXDXKXZXmXmXbXKXbXbXmXZXIXhXE D   D `.PXGXPXeXGXIXGXnXnXu.*.S ` ;XPXLXDXIXPXL.9 R * V t t y V e e 9 e e V C V t e 9 9 9 9 e e 9 9 e 9 e 9 9 9 9 9 9 6 9 6 9 9 9 9 9 9 9 9 6 9 e V 9 9 6 9 9 9 9 6 9 9 9 9 9 9 9 9 9 6 9 9 9 9 9 9 9 9 9 9 e 9 9 9 9 9 9 9 9 9 e 9 9 9 9 8 0 9 0 8 9 9 9 9 9 8 6 s 9 9 6 9 9 9 8 9 6 k 9 . + 4 . > 9 9 9 9 6 8 0 8 0 8 0 0 5 8 6 9 9 9 8 6 8 5 8 9 8 0 4 6 s 9 9 8 0 8 8 6 9 4 5 5 5 0 8 8 8 9 6 9 9 9 8 9 6 9 9 9 9 0 9 9 6 0 9 9 8 9 8 8 6 9 8 6 9 6 6 6 6 6 0 6 8 8 5 5 , r 5 r r 9 6 0 0 9 5 5 4 4 4 5 8 5 5 5 5 5 8 5 8 4 4 4 0 6 4 5 5 4 4 5 0 5 5 5 8 , , & , , % , , 4 > 4 4 4 4 4 4 4 % 4 > 4 4 4 4 % % 4 % 4 4 0 4 5 4 4 4 > 4 , * , % % , % % % % > + + + * % % X . $ . $ $ & $ $ + X . + ",
"- o . O % + O + $ + $ - + > O > O > $ $ > > % : O O O $ % > > > , , , , , > : > 4 4 q + - 4 > 0 > > > > > 4 > 7 > > 4 > 4 4 , 7 4 1 , 7 8 7 8 8 5 5 8 8 8 7 8 a 8 s 9 s k V D S 0 7 g g S D S *.G.I.zXdXrXvXGXqXPX XX D   0 0 0 7 s - q 7 s Z - g g g 7 s s s 7 e r r r t r r , &.c.p.K e.].r.T G %.G G g n.IX`.{ b.*X*X].7XB.B.hXSXvXhXnXnXBXGXVXzXpXbXk.V Z S U r._.bXZXKXZXzXbXDXGXBXnXnXnXHXDXDXFXBXFXZXZXZXbXjXhXwXdXdXwXPXzX=.V 6   $.nXKXrXIXBXnXPXnX2.$.g Y [.PXIXGXIXPX Xt Q 4 y W e y e e e e e e V V V V e 9 e 9 k 9 9 e 9 V V 9 w 9 9 9 9 9 6 9 9 8 9 9 9 9 9 9 9 9 9 9 9 k 9 9 9 9 9 9 9 9 9 9 9 8 9 s e 9 V k k w 9 9 9 9 9 s 9 t k 9 t 9 s 9 e s 9 9 9 e 9 9 9 9 9 8 0 9 9 9 s 9 0 9 k 9 9 8 9 9 6 9 s 6 t 9 . @ * O > s 9 9 9 8 9 9 6 0 0 8 8 0 0 9 0 8 8 0 9 0 9 6 9 6 0 4 6 s s 9 8 8 8 6 8 0 7 0 0 5 5 0 6 6 9 9 9 9 9 0 9 8 9 9 9 9 9 9 9 9 8 8 0 0 0 4 0 0 0 8 6 8 8 0 8 5 9 9 9 8 8 8 r 5 > , 4 5 8 8 6 6 9 5 5 4 4 4 4 5 0 5 8 8 8 5 5 5 4 4 * 4 * 4 * 4 4 4 0 5 0 5 0 5 , , , : % , , % % % % % + 4 4 4 4 4 * 4 4 4 4 4 4 4 4 4 4 4 4 > 4 5 4 , * > % % 4 4 4 > * % % % 4 + % q % % % % & $ $ . $ . . $ + O @ X ",
". . O = - O O O > + + > % O > + $ $ : > : % $ $ $ $ $ $ > > > > > , > > > > > > > > > - 4 4 - 4 > 4 > 4 4 > > , > > > 7 4 1 > 7 4 1 7 4 5 7 8 7 2 8 8 8 5 5 8 a a 8 k s z G R *.%.G Z g D S G ;.k.(.9XrXGXtXvXnXqXZX[.V.*.q - 9 S Z 9 s g 0 0 9 Z g 0 s 9 7 7 4 e r r e t r r & A f.c.&.F.:Xp.T R ;.$.` G D.PX2X{ Y.*X*X*X;XB.).AXmXmXzXzXMXBXGXaXcXpXzXV.S A Z A ..C.yXKXAXvXrXvXIXKXBXZXnXZXKXDXDXBXbXZXZXZXAXhXdXhXhXKXSXhXPXPXu.0 t . E GXPXVXHXzXnXPX2X=.$.V E }.PXIXIXGXPX3XS E t D R C t 9 e e V e V V V V e e 9 9 V t 9 9 V 9 9 9 9 9 9 9 9 9 6 9 9 9 9 9 9 9 9 9 9 9 V 6 9 s e 9 9 9 9 0 9 9 9 9 9 9 9 9 9 9 9 s 9 9 s 9 9 9 9 9 9 9 9 9 9 9 e e 9 9 9 9 9 9 9 9 9 9 6 9 6 9 9 9 9 9 9 0 9 9 e 6 9 9 9 9 6 s 5 k 9 . @ % . 4 6 9 k e 5 9 6 0 9 0 9 6 0 6 8 0 9 6 9 8 9 9 9 6 6 8 8 9 9 9 9 9 0 9 9 8 0 5 8 6 8 6 6 8 9 9 9 9 9 9 9 9 0 9 9 9 6 8 6 9 8 4 6 9 8 4 4 4 8 0 8 6 8 8 0 5 5 6 6 6 8 5 r , 5 , > 4 , 6 6 6 9 5 8 5 5 4 5 5 4 r 8 8 8 8 5 5 5 4 4 4 * 4 4 4 4 4 4 5 5 4 4 4 4 & , , , , % > > % + % * + > + 4 % 4 > 4 > 4 4 4 5 4 4 4 4 % % > % % , * > > , % % 4 % > % % > * * % + % % % & $ . $ $ & & $ $ . + . . + ",
"  o . > > - O + + % - O - + + + $ > % > % : > O % $ % : $ $ % : > : : > : > > > - > 4 4 4 - 4 - - - - > > 4 7 7 4 7 > 4 7 > 4 > 5 5 5 7 5 2 5 5 5 8 8 a 5 8 8 8 7 s k z C T <.i.H.u.{ g g Z g ` S.`.tXzX<XwXtXbXhX2XIXzXPXS.  o o 0 Z V V s 7 s s 0 7 0 s g V V e r e e r c r & ! c.a.,.E.I.f.` U %.;.<.Y k.AX<X{ !.;X;XwXfXB.8XSXmXIXzXrXGXcXaXrXGXpXrXj.S K G P T k.UXLXLXLXZXAXKXLXDXKXSXmXmXKXFXAXAXmXAXmXAXZXSXPXIXSXSXKXPXnX(.D S   U xXnXGXPXGXJXPXF.W 4.G ` .XPXHXKXMXPXrX$.S y e S S y e 9 t k V V V V 9 e e e t V k e 9 9 9 e 9 e k 9 9 9 6 6 9 9 s s V s 9 9 9 9 9 t 6 9 9 9 9 9 k 9 9 9 9 9 9 9 9 6 9 9 6 9 6 9 9 9 9 V 9 9 9 9 9 9 9 9 9 9 9 e 9 9 9 9 V V 9 s 9 9 9 8 9 9 9 9 9 9 5 9 9 e 9 6 9 k 8 6 9 0 9 9 . + % . > 6 8 9 9 4 9 9 9 9 9 0 9 6 9 8 8 6 8 0 6 8 s 9 9 8 6 9 9 9 9 9 6 9 9 6 8 4 0 0 9 6 8 9 6 9 9 9 9 9 9 9 9 8 9 6 8 8 7 0 6 8 6 9 9 8 0 0 8 6 9 9 9 9 9 6 6 0 4 0 4 5 4 5 , r 8 4 7 , 0 9 9 e 5 8 8 4 5 4 5 , r 8 8 8 8 5 4 4 4 > 4 4 4 4 4 4 4 4 0 4 4 % 4 % , , , : , % , > 4 4 4 % * + 4 + 4 % % 4 4 > % 4 % 4 % 4 > 4 % 4 % % % % > 4 4 4 > % % * % % % % 4 % q + & % $ $ $ $ . $ $ & $ $ + . @ + ",
".     . > - O O O > O > + > - > $ : $ > > $ > O $ = O O $ $ % > : > > > > , , > - + + - , 7 4 > 4 4 4 , > 4 > > > > 4 4 7 , 4 > 1 , , 7 4 4 4 8 8 8 j e 8 8 8 r z q s g Z ` ;.B.|.P.,.g U W J R g.(.8XnXzXzXnXrXwXzX<X2X2X3XS.V   0 9 g - Z 0 0 9 s 0 9 s s V V 5 r e C C C e 5 S ;.n.! S.).s.&.R 1.%.3.$.H.KX9XW.;XeXvXwXSX&X6XSXPXmXmXmXhXcXaXpXCXtX2X).S C Y } P 9.*XZXKXKXPXPXLXSXPXKXZXPXIXPXAXIXKXAXPXKXKXSXIXKXfX8X8XxXSXPXS.9 3.. ! PXGXIXnX}.g.4.X S &.Y Z !.PXSXGXnXLXbXU.E y W e y y V e C V 9 9 C V e e 9 9 e 9 9 e 9 e 9 e V V 9 9 s 9 9 9 9 9 9 9 9 9 9 9 9 9 9 k s 9 6 9 9 e w s s 9 9 9 9 9 9 9 8 6 9 9 0 8 9 9 9 s 9 9 9 9 9 s 9 9 9 9 6 9 9 9 k V 9 e 9 9 8 9 9 9 9 e 9 9 9 9 6 6 0 8 9 9 8 9 9 9 9 0 9 9 . . . . > k + k 4 9 s 6 0 8 9 9 9 0 9 0 8 6 9 9 9 9 s 9 9 6 0 9 9 9 9 9 6 6 8 6 8 8 9 6 8 0 8 0 5 8 9 9 9 9 9 9 9 9 6 0 8 6 9 6 6 6 5 5 5 6 6 6 6 8 0 8 9 9 9 6 5 5 0 8 0 4 4 5 r r 5 5 5 5 0 9 0 5 , , & , , , , , 8 5 , , 4 & , > 4 4 4 , 4 4 4 4 & 5 5 5 4 % , 4 , , , , : , : & % * > % + 4 > 4 , & , , , , , 3 % , > > > > % , > * > 4 % 4 > % % % * > % % 4 % X > * > + + X $ $ $ : : & $ $ & @ X + . ",
"O . o O > - + > + + - + + + % > % $ > $ % > : $ % > $ $ : > > > $ > > > , > > > 4 4 4 4 0 9 8 7 , 4 7 > 4 > > 7 - 4 4 1 7 4 4 > 4 > 1 7 2 , 5 8 j k e 8 a 8 e k 7 7 J J Z J 1.B.[.E.w.G U J g D ` p.(.rXdXrXnXvX2XnX2X}. XeXrX`.Y @ 4 9 V 4 4 s 9 9 s 9 9 s s V W C e 8 8 k S K   J s.-.K._.f. .<.9.1.p.r.H.vX1X'.wXdXmXdXbX2XqXSXIXhXmXMXaXzXpXBXcXyXqX_.E G S ..;.9.d.W.8XhX7X2XwX8X1X1X;X.X3X'.|.E.E.`.`.).Y.g.w.` 0 @ @     q   *   Y.tX2X<.0 4     * @ D *.G g B.KXDXSXnXIXCX5Xg.E D C W C V e V V 9 t C V e e V e 9 9 9 e V 9 e V 9 9 e e 9 9 9 9 9 9 9 9 9 9 9 9 9 9 9 e V 9 9 9 9 e k 9 9 9 9 9 e 9 9 9 9 0 8 6 9 9 9 9 9 9 9 9 9 9 9 9 6 6 9 9 9 6 9 9 9 s 9 9 9 9 9 9 9 9 9 9 9 9 e 9 9 9 9 9 9 6 8 9 9 8 9 8 e e . . .   % 9 % e 0 9 9 9 8 0 6 9 0 0 9 9 9 8 9 9 8 0 9 9 9 8 8 9 9 9 9 9 9 6 0 8 0 6 9 s 9 8 8 0 0 4 9 9 9 7 9 9 9 s 0 8 9 6 9 9 6 8 5 0 6 6 8 8 9 0 7 8 9 6 0 4 5 0 6 0 8 4 4 5 > , , , , , 5 5 4 4 & , , , , , , , , 4 , , , 4 , , % , 5 5 4 , 5 , , 5 5 5 5 , 4 , , , , , & , : , % > 4 4 4 + * > , : , , , , & & > % % > > > % $ % 4 > % % % * % 4 > > % % 4 % % + + + 4 4 q % > & $ : & $ $ $ $ + + + @ ",
"O     O - O . O - + % O - + O + % > $ > > : > $ > > : > > > > 1 : > : > > , > > > > - 4 7 7 7 7 4 , > 7 4 > 4 > 4 > , 4 , , > , 4 > 4 5 5 4 7 a 8 8 8 8 8 5 j V V i s d Z { i.P.'.`.k.` J D g g D 4.G.8XdXtXzXnXzXqX<X.X2X(.<XbX9.. S * V 8 V 0 9 9 9 9 9 s e t r e 9 6 6 9 z V D V *.` F.{.V.;.9.s.s.G.F.I.rX2X4XvXmXvXbXvXrXrXSXHXxXxXGXcXaXpXcXpXaXBX_.U A K Y -.` Z 9.*XeX&X;X&X[.F.B.9.U 2.1.U J w.P.B.i.J q # q 6 E 4.p.l.v.H.9.a.XXGXW @ @ } =..XzX(.u.0 S W 2.8XGXmXrXzXBXBXL.U e y C C D e k V t V C V e V V t e 9 9 V e 9 9 e 9 9 e 9 9 9 9 9 9 9 9 V 9 9 9 t s 9 t 9 k 9 9 9 e 9 s 9 9 9 s 9 9 9 6 9 6 9 9 9 9 9 9 9 9 9 9 9 9 9 9 9 0 6 9 9 6 9 8 9 9 9 6 9 6 9 6 9 s 9 9 9 9 9 9 9 8 9 9 6 9 6 9 0 9 9 9 0 9 9 X O O   X 9 > k 0 9 9 9 0 4 0 9 6 0 9 8 8 0 9 9 0 9 9 9 9 6 9 9 9 9 9 9 9 8 8 6 9 6 9 9 6 9 9 0 6 8 6 8 6 8 6 9 9 9 0 6 8 6 9 5 0 9 8 0 8 6 6 0 5 5 8 6 6 0 5 4 5 6 9 9 8 5 4 4 , , 5 , , 4 5 6 0 4 , , & , & , , , , , , 4 , , , 5 4 4 , 5 5 4 , , , % 4 , 4 4 & 5 & 3 , , : , & : * > 4 > q > 4 4 & , : & , , , , % % % & & % , % % % % > 4 % % , * > 4 % 4 4 4 > X + % % > > > % . $ $ $ $ $ $ $ + + + . ",
"O o   O O O O . > + > > O > - O > : > > > > % > : % > % > $ > > $ $ > > : > > : > - + - > > 4 > > 7 4 > > 7 > 4 > > 4 1 4 7 7 4 7 , 4 5 5 1 5 9 8 8 8 e k 8 8 z V s Z Z J 1.m.W.`.'.D.%.D Z Z J Y <.S.2XzXwXdXrXqXqX3X X2X_. XzXp.  S % 9 9 D 8 9 9 9 e g 9 9 9 6 t D S A V V V U s } *.P.|.v.&.p.n.H.E.}.(.qX2XdXmXvXhXnXpXnXtXnXKXmXnXVXcXaXaXaXpXBXLX#X&.j Y T &.P s h.1XvXdXAXeX9XtXrX XE.6XH._ E.vXfXvXtX[.3X2XtXaXhXxXsXxXIXPXnXPX3Xk.G.nXPXzXIXGXGXIXR * G R {  XLXmXtXrXpXjXF.W t V e y S e V C V V V V V V e k V e V e V V e 9 9 9 9 9 k 9 9 9 9 9 9 9 9 9 9 9 9 9 9 9 V 9 9 9 t 9 9 9 9 9 9 9 9 9 9 9 8 9 8 6 9 9 9 6 9 9 9 9 9 9 6 9 7 8 9 9 9 8 9 6 8 0 9 8 9 9 9 9 e 9 9 9 9 e 9 9 9 6 8 9 9 8 9 9 9 9 9 6 k 9 . @ %   + 9 4 e 4 9 9 8 0 0 7 0 0 8 9 9 6 9 9 9 8 6 6 6 9 9 9 9 9 8 9 8 9 6 0 9 8 6 8 0 8 9 9 9 9 9 8 8 0 0 8 8 9 9 8 8 0 8 9 6 8 5 9 9 6 8 8 6 5 7 9 9 9 8 5 0 5 9 9 6 6 8 5 5 r , , 5 5 4 6 8 0 0 % , , , , , , , , , , , , , , , & 4 5 , , 4 4 5 4 4 , 4 4 , , , 3 & : & & & : , % % > * % * > 4 : , , , , & : , , , , , , , % , 4 % 4 % % 4 4 % 4 > % 4 % % % > - + + + + + X X $ $ . $ $ & . & O @ @ . ",
", O O O > > + + > - % + > O + O O > $ > > : % : $ $ % : $ > $ > % : > > > > % > > > > q q > 4 7 4 4 4 4 7 > 7 , 4 > 4 4 , 7 5 2 4 4 2 7 5 4 5 j k 8 9 V C k k V a Z ' %.{ 1.m.!.].[.B.;.J Z J G G *.h. XrXzXvXqXtXqX X&X X}..XBXE.  X 5 9 6 8 V 9 9 s V 9 V 9 9 e V V t 9 V D G s 9 %.1.D.E.n.u.s.P.'..X X(.3X3XpXzXcXpXVXpXHXpXbXSXGXcXcXcXaXVXBXBXBXCXBXc.8 S ` -.Y G P.fXAXhXvXtX9XGXPXnXIXGXSXE.hXKX;X;X;X].6X4X5XtX5X3X#X4X XyXcXnX2X=.rXVXqX<XGXzXpXPX$.0 D Y E [.PXnXaXbXpXnX(.R C W y W C V C W V V V C C V 9 9 V V V 9 e V 9 9 9 9 9 9 9 9 9 9 9 9 9 9 9 9 9 9 9 9 9 9 9 9 9 9 9 6 9 6 8 9 9 9 9 9 9 9 6 9 9 9 s 9 9 9 9 9 9 9 9 9 9 9 6 9 9 V s 9 9 9 9 6 9 9 9 9 e 9 9 9 9 9 9 9 9 9 9 9 8 9 6 9 9 6 9 9 9 9 t 9 . + 4 . % V 4 k 4 9 9 8 0 0 0 0 4 6 9 8 0 6 8 9 9 6 7 8 9 9 9 9 6 8 9 0 9 0 8 9 9 9 0 0 5 6 9 6 6 6 0 8 0 5 0 0 6 6 8 8 0 8 0 5 0 6 9 8 9 5 0 5 5 0 0 8 9 9 8 6 0 0 0 4 4 4 0 5 r 5 , , 4 , 4 4 4 4 , , , , , , , , , , , , , , , , , , 4 5 , 4 , , , , , % , , , , , & , : , $ % & % 4 4 4 4 % 4 4 , , , , & : , & , $ , $ : : & , > % 4 , % > > % % 4 % % % % % > % + + + X + @ O $ : & $ $ O O O   . .   ",
"> O . = - + O + + > + - + % - + $ > % : > % % $ O $ O $ : % $ $ $ : : > : > > > > 4 > 4 > 4 4 0 > > 1 > > 4 4 4 , , 7 > 4 2 5 8 5 2 5 8 7 2 5 9 z 8 r z j 8 z U ` Y %.;.1.M.B.;X).*X[.w.Y Z J D D { p.[.rXvXbXqXdX2X.X2X.X`.`.IXBXR X 9 9 S 6 4 6 9 9 9 t 9 k 9 e e e 9 9 9 V S Z D ` 4.G.!.D.k.k.E.&X6X X~.:XqXzXpXbXpXnXzXHXpXxXnXHXnXcXcXcXJXaXCXBXBXJX(.4 k R ,.&.T |.bXZXrXIXLXjXzXrXtXzX}.dXfX8X7X;XhXhX;X X`.oXXX#X#X5XuXqXrX<XqXzXyXPX2X2XcX2XzXIXIXg.  Z U E |.IXvXrXpXpXPX5X4.t W S D C V S U C e V C V t 9 9 V V k 6 9 9 9 9 9 9 V 9 V 9 9 9 9 9 9 e 9 k 9 9 9 9 9 9 6 9 9 9 9 8 8 9 9 9 0 9 6 9 9 8 8 9 9 s 9 9 9 9 6 9 9 6 9 6 8 9 9 V e 9 9 6 9 9 0 9 9 9 9 9 9 s 9 9 e 9 9 9 9 s 0 9 6 9 9 7 9 9 9 8 V 9 e 0   % 8 O % V 5 e * 6 8 6 9 9 5 0 0 8 9 9 9 8 9 9 9 8 6 9 9 9 9 9 9 0 9 9 8 9 6 9 9 9 5 8 9 9 8 0 4 4 8 0 5 5 5 8 6 5 6 0 8 8 0 5 5 0 6 6 5 0 6 6 5 0 0 8 9 6 7 0 4 5 4 q 4 4 4 4 8 2 , , & 4 6 9 9 0 , , , r , , , r r , r , & , , $ % , , , , , , 5 4 , & , & , , > , : , & : , , : % 4 % 4 % 4 & 4 , , , & , 3 : , , , , , , , , , > * % * 4 > * 4 % % % % % + + X # + % + > + > > , , : & $ O O $   . .   ",
"- o   . + O O + O % + > + - - % % : $ $ O : O $ O $ O > $ > $ $ $ $ : % > > > > - 4 4 - + - - 7 > 4 > 7 > 4 1 4 , 7 7 4 , 7 5 7 5 1 5 7 5 2 5 j 9 8 8 8 5 e R e.f.1.1.e.B.W.[.;X*X;X&XB.{ J J g G $.p.&XzXzXzXtX<X9XrX<X XwXtXzXPXi.0 4 9 A V @ 9 9 9 9 9 e e t e e D S S D S D S G Y 2.`.&XD.i.P.'.6XvX.XI.|.pXcXpXcXpXpXcXBXaXnXnXJXcXcXVXcXJXaXBXVXVXJX<XW e } e.e.2.zXPXLXKXnXLXGXzXvXnXmXrX|.hXmX8X;X3X8X3XtXUX X3X5X5XcXJXIXJXJXtXnXqXGXzXnXqXrXyXnXPX2.* S G ;.<XvXrXtXrXpXPXrXu.e D y D C e S U D V V t k e e e 9 9 9 V 6 9 9 9 9 9 9 9 9 9 9 9 9 9 9 9 9 9 k 9 9 9 9 6 8 6 9 e 6 9 6 9 0 8 8 9 8 9 9 9 6 9 9 w k 9 9 9 9 9 9 9 8 9 9 6 V V k 9 8 0 8 9 9 8 9 9 9 9 9 9 e 9 9 9 9 9 s 9 8 9 0 8 6 8 8 9 e 6 9 e V 5   > 8 . % V 8 k 4 8 0 6 9 w 9 0 0 8 9 6 6 8 9 9 9 0 0 8 0 9 6 7 9 6 8 9 9 9 9 9 9 s 9 9 9 9 9 8 0 4 0 5 0 5 0 6 9 9 9 9 0 5 5 0 5 5 0 5 8 8 8 8 6 0 5 6 8 8 4 4 0 8 0 0 4 , 4 5 5 8 r 5 5 r 9 e e 9 & , r , , , , , , , , , , & , , , , , , , , , , , , > > , , , & , , , : , & , $ > > 4 > 4 * , , , , , : 3 & & , & 3 , $ & , , : % > 4 % % 4 % % * % % % % % + + % % q + % > 4 > : & $ $ $ $ $ $ . X .   ",
"> . o . > + - > - O + + O > % > O O O $ : $ $ $ O O $ $ > $ $ $ $ : % > : > > % > > 4 - + - 4 7 4 > > , 4 4 1 4 7 4 , > , 4 5 7 5 , 5 8 7 5 5 9 j 8 k s 5 z 8.P.P.n.J.E.].[.).=X;X;X;XB.{ _ Q D U R g.2XZXrXrXrXzX<XqX<X3X3X3X2XzX$.  % e @ 9 k 9 9 9 9 9 9 e V 9 9 9 z C Z D k U R G %.L.|.K.D.<X1XdXPX:XL.(.wXBXwXbXpXyXcXzXzXcXcXHXcXBXJXcXJXJXBXBXGXPXVX,.4 K ;.2.f.GXLXbXVXnXBXGXcXVXzX4XPXhXfXPXhX6XtX;X8X5X5XiXaXpX5X5XVXzXzXIXDXnX2XzXGXzXaXIXnXGXzX*.9 W S i.wXnXzXzXzXnXcX5Xg.W S V W V 9 V K W V k 6 9 t V e 9 0 9 V 8 6 9 9 e 9 V e 9 9 9 9 9 9 9 e e 9 9 9 9 9 9 9 0 9 9 V s 9 9 s 9 6 6 9 6 9 9 9 6 9 9 9 k e 9 9 0 8 9 6 9 9 6 6 V k 9 8 0 4 0 9 9 6 8 6 6 9 6 6 9 9 9 9 9 9 9 9 6 9 9 9 9 9 9 0 e 8 e 9 V 5   > 8 . X k 5 k 4 9 0 9 9 g 9 6 5 0 9 9 8 0 9 9 9 8 9 6 6 8 9 6 8 8 9 6 0 8 9 9 9 9 5 6 9 9 9 9 8 0 5 8 5 0 5 6 5 9 6 8 0 4 4 4 0 5 7 0 8 0 6 6 9 9 9 9 6 0 4 0 8 9 0 6 6 0 5 8 8 8 , , 5 5 0 6 6 8 , , , , & , , r , , , , , , , , & , , , , 4 , 5 5 , % % , , , : , , , > , , % , * % 4 4 4 > , & r , , , & , : 3 & , , , , 3 , & 4 % % 4 % % 4 > > 4 % 4 % % % + 4 * % + + X % % . $ . $ & $ $ > O X @   ",
"% O O O + O + + - O + > > + + > > > > > > > % $ $ $ % > > > $ $ > : $ $ > , , , + > 0 8 8 0 4 + - + > > - 4 4 7 , > 7 4 5 7 8 8 , 2 , 8 2 8 2 a 7 k d s s g 8.].6X;X).P.`.;X*X[.|.3X1X[.h.U G U g =.p.<XbXnXtXrXrXaXtX#X XyX9XzX8XV @ Z S 0 7 9 0 7 9 0 s 9 g V e e 9 6 9 V V C R R G ` I.W.L.}.7XwXSXSX;XU.L.zXzXSXIXvXzXzXzXaXnXbXcXcXBXBXcXcXcXHXBXDXPXDX).7 J ,.w.j.nXPXbXKXxXGXIXcXcXHXJXHXPXVXzXzXcXnXaXqXtXpXaXaXaXcXVXGXBXVXJXGXGXBXcXpXpXGXrXaXPXaXu.r w * z.nXrX;X8XxXqXzXzXS.D D D D V g S D S Z V Z 9 s s D D s 0 s s e 9 9 9 6 9 6 9 9 9 9 9 9 V w 9 9 6 8 6 9 9 9 s 9 6 6 s V 9 9 9 8 9 9 s 9 9 6 0 0 9 6 9 9 9 9 9 9 9 9 9 9 9 9 9 9 9 9 9 9 9 9 8 9 9 9 9 0 8 8 9 9 9 9 6 9 8 9 s k 9 6 8 6 9 8 9 8 9 4 r r   . $   > 8 5 r 8 9 6 8 6 9 6 6 8 0 8 6 8 9 0 8 9 6 6 6 6 8 8 6 6 9 8 8 8 9 8 9 9 9 9 9 9 8 9 9 8 9 5 5 5 8 8 4 4 0 4 0 0 8 9 6 0 0 0 0 0 5 0 0 8 0 9 9 6 6 8 4 0 4 9 9 9 9 6 4 0 5 0 5 5 4 4 0 0 5 r , , , & , , , , , , , & * 5 5 5 5 r 6 & % 4 4 % 4 8 4 4 q * 0 4 > 4 4 4 * , % , , & , , r r 5 & % 4 5 4 > % , % % , , , , > > % % > % 4 4 4 % 4 % 4 4 * % + % + % 4 + X + % > $ . . $ & . . $ & $ O X ",
"+ . O O - + O - + O + > - + + > > > $ : > > > $ $ : $ $ $ % > > 1 > $ $ > , 1 > + % > 4 7 > - - 4 > 4 - 4 > > 4 > 4 4 7 1 5 2 8 5 , 2 8 2 8 8 a 7 k k s s U i.).;X;X%X!.!.[.[.*X.X2X8X2XU.;.G D U R 2. XaXvXrXjXyXtXrX2XUX<XyXGX X9 + s s 0 9 s s s 9 s 9 9 s V V t e e V V D S $.*.` <.(.(.E.3XwXdXwXdXwX!.!..XzXzXzXnXzXrXzXzXnXzXzXcXcXBXcXcXVXJXGXJXIXPX8X3.w.s.u.s.rXLXnXHXnXIXCXVXcXVXNXcXHXnXcXcXnXnXnXzXzXzXcXzXcXBXGXJXcXGXHXGXBXnXnXnXrXaXyXtXGXzXg.W S t p.uXmX4X<XzXzXcXPX[.R D E D S S S G S S V g 9 9 s g g 9 s k V 9 V 9 9 9 9 9 9 9 9 9 9 9 9 k 9 9 9 9 9 9 9 9 9 9 9 9 9 9 9 9 9 9 6 9 s 9 9 8 8 8 9 8 9 9 9 9 9 9 e 9 9 9 9 9 0 9 8 9 9 8 9 9 6 9 8 9 9 9 6 6 8 6 0 8 6 8 0 9 9 9 9 6 6 8 8 s 8 4 r 5 e r   O O   4 6 5 9 0 9 9 9 6 6 7 0 9 0 8 9 0 9 8 6 9 8 5 5 0 7 6 6 9 s 9 9 8 8 8 9 8 9 8 8 8 9 8 8 8 8 6 5 9 5 8 4 0 8 4 4 0 8 0 8 0 0 8 6 6 6 5 8 0 0 0 9 0 8 0 0 0 0 9 8 9 0 4 * > 4 9 9 6 0 5 4 4 4 , , r , r , , , , , , & 5 5 * 5 5 r r 5 4 4 % 4 4 4 6 4 * q 4 4 4 4 % , , % 4 > , , , & % % 4 r % % 4 4 4 > > * > , , , , > & $ % * % % % 4 4 4 , % % 4 4 % % % + % 4 + + @ + % $ & $ $ $ . . $ . & %   ",
"= . o O + O O + > + O + > + + > $ O $ % > > > > > % O O O : > > , > : > > > > : - - + - - - 4 > 4 > + > > 4 4 > 7 > 4 > , 4 4 2 2 , , 5 5 5 8 8 > d z s a ' g.W.].;X;X`.!.[.[.&X&X6XqXrX Xn.*.V R D =.XXpXaXzXzXqXyXrX2X<XOX2XGXI.+ o 0 0 7 g 9 w s s 9 9 s s w V t t V V V S G } <.;.9._.).`.rXhXdX8XvXSXH.E.8XvXrXrXzXnXrXrXnXzXzXzXcXcXcXcXcXBXVXIXIXvXPXIXW.p.i.%.9.3XGXnXSXnXBXVXVXCXBXBXcXVXVXnXBXBXGXVXBXBXVXGXGXVXGXGXHXcXBXIXBXnXcXVXGXcXpX5XaXVXcXk.E V D 2.3XzXqX;XmXnXmXPXtX4.w { D G S D S G S Z s s 9 s s s 9 s D e 9 9 9 k 9 s 9 9 6 9 9 9 9 9 9 e 9 9 9 9 9 9 e 6 9 s t 9 6 8 0 9 6 8 9 9 t 9 6 9 6 8 0 6 9 9 9 9 9 9 9 9 9 9 9 8 6 6 9 0 8 6 9 9 0 9 9 9 9 9 0 8 0 8 8 0 6 0 6 9 9 6 9 6 9 8 e 4 , 8 8 r r O . X   4 9 0 e 5 0 9 9 0 0 4 0 6 9 6 0 8 6 9 8 0 8 0 6 8 6 9 9 9 9 8 9 9 8 9 8 6 8 8 9 8 6 8 8 0 4 9 8 8 8 8 8 6 9 4 0 0 0 0 8 0 0 0 8 0 0 0 8 0 6 0 0 6 0 8 0 0 8 8 6 9 8 8 0 5 5 9 8 0 5 4 6 4 4 r , , , , , 6 , , 6 , 6 4 4 4 * , , r , 4 , % 4 4 8 6 8 4 + * > > % 4 % , 4 , , & : & & % : , , % % 4 4 4 * % % , , % > 3 & : : % % 4 % % 4 , % % % % 4 > % % 4 + X % + O X O X . $ $ & $ . . $ . X X   ",
"O   o O + O O O > O O - + O - > $ $ $ : > > : $ > : $ $ $ $ > > > > > : > > > > 4 > 4 + - > 4 4 > > 4 > - > - 4 4 , 7 , 4 > , , , , 2 2 2 r r 2 7 7 k s q _ f.L.).*X;X=X&X*X[.[.<XqX8XeXtX.Xj.W U U $.(.zXzXrXpXtX9XqX<X2X3X3XzXJ.    s k 8 s 9 s s s s s g k s t e e e V g Z Z U ;.2.i.`.E.`.vXdXdXwXhXvXF.G.dXnXrXrXcXnXpXaXnXzXzXzXcXcXBXcXBXBXaXGXnXdXPXPXE.1.;.U 9.:XZXGXnXzXzXaXVXcXcXBXCXVXVXnXnXVXVXVXGXVXBXGXHXGXGXBXGXBXIXJXGXBXBXHXPXDXnXnXBXHXGXc.t w D D !.nXzXtXnXSXxXKXcXj.D E S S Z s Z S S D s V V g s s 9 s V 9 t e 9 9 9 e V 9 9 9 9 9 9 9 9 9 s 9 9 e 9 9 9 6 9 k 9 9 5 0 5 9 9 9 9 9 9 9 6 9 9 6 8 6 9 s k s 9 e 9 e 9 e 9 6 8 6 9 9 9 9 9 9 9 9 9 9 8 8 0 6 8 0 0 8 8 8 8 6 8 8 0 8 9 k 9 5 5 e 8 k r . . O   4 9 8 e 5 5 9 9 8 0 0 0 9 6 9 9 9 8 0 6 9 9 k 9 s 9 9 8 9 0 9 8 8 9 8 8 5 5 9 8 8 6 5 5 5 5 9 9 4 0 5 5 8 9 0 5 8 0 0 0 0 0 0 0 5 0 5 0 8 5 0 8 0 8 0 6 0 9 0 8 6 6 6 8 9 9 0 4 4 6 4 4 5 5 , , , , , , , , 6 , , , 4 4 4 4 r , , , 5 5 4 * % 4 8 0 4 4 4 * % , , , , % , , , , 3 , & , % % % 4 4 4 > * 4 , , , , & : : & : % % 4 % % 4 4 % % % % , 4 % % % + q % % > + O % $ $ . $ $ & & $ . O X   ",
". . . O = O O O > O + + - O - > % $ $ % > : $ $ O $ : % > : > $ $ > : > > > , , > > - 4 - 4 - 4 4 - 4 + > > > > , 7 , 7 > 4 , , 4 , 2 8 8 2 8 i s 7 s Z a Z i.W.!.&X*X[.;X;X&X[.&X8X6X8XzXvX`.%.S ~ =.F.VXBXqXrXyX9XtX#X3XqX5XjX_.+   V Z 0 8 0 9 9 s s s g V s e e e e V V V V G ;.a.n.'.I._.vXdXhX8X3XqX3XG..XzXzXzXzXzXcXzXzXzXzXzXcXcXNXBXBXGXpXVXGXhXPXAXB.9.;.Y h.;XZXIXnXnXzXaXcXcXaXcXcXGXnXcXcXBXGXVXcXBXBXGXGXVXGXBXGXJXJXGXHXJXIXHXIXnXBXHXBXHXPXv.w W D @ Y.PXPXHXmXGXKXxXHX.X$.w E S G 9 D W D G s V V V V s s g s e 9 9 e 9 t k V 9 9 e 9 9 9 9 9 9 9 9 9 9 9 9 e 9 e 9 9 5 0 0 8 9 9 9 9 9 9 9 8 9 9 9 6 9 9 9 9 9 k 9 e 9 k 9 9 9 9 9 9 9 e 9 9 8 9 9 9 9 9 6 0 6 9 8 6 0 9 8 9 0 8 8 9 6 9 9 s 6 r r , r r . . O   4 8 5 9 0 6 6 9 0 9 0 9 8 0 6 9 8 9 9 8 9 6 9 9 9 9 9 9 8 8 5 8 8 0 8 5 4 4 8 8 9 8 5 6 8 8 8 8 8 4 4 0 4 8 5 6 9 0 0 0 8 9 0 0 0 4 0 4 0 0 0 8 0 6 8 6 0 0 4 4 0 4 4 4 0 0 4 4 4 4 4 6 6 9 , , , , , , , , 4 4 , * * 4 4 4 , , , , , , , , * 4 4 5 5 4 4 % , , $ , % , , , , , , 3 3 & $ $ 4 4 4 4 % * , 4 , , , $ & : , : % 4 4 % % , 4 > * % % % 4 % % > % % 4 + % + + + $ & . $ $ . . & O X X . ",
"O . . O > + + O > + O - % + + > > > > : > > $ O O $ % > > % $ $ $ : > > , > , , + + 4 - 4 - 4 - 4 > > > - 4 > 4 > 4 , 7 7 7 7 , 2 , 5 2 2 8 a 8 F 7 s G f g 9.W.*X&X[.].*X;X&X[.}.qX6XqXnXIX2Xk.V R E p.aXVXpXrX<XtXbXyX X<X3XpXwXV @ s D 7 7 9 7 0 9 s g s g V e e t z V V Z V U *.k.P.{.W.}.zXdX6XwX1X2XqXj.).rXvXvXaXzXzXzXrXzXzXcXBXcXcXcXcXHXpXBXVXmXPX;X1.w.,._ n..XhXIXZXBXnXcXzXaXcXcXcXGXcXzXzXnXGXVXnXnXBXVXGXGXGXGXGXPXIXBXHXJXIXGXBXnXBXHXzXVXPXg.6 W W V }.IXGXPXGXMXIXnXPXMXp.4 D W Y g S G Z G 0 s V D V V V s 9 V V 9 9 e 9 9 9 9 V e 9 k s 9 9 9 9 9 9 9 9 9 9 9 s 9 6 8 6 8 9 9 9 6 6 9 9 9 9 9 9 9 9 9 9 9 9 9 9 9 9 9 9 9 9 9 e 9 9 9 9 e r 6 9 9 9 9 8 8 8 9 9 9 9 8 6 9 9 5 0 0 6 8 9 8 9 e r e r r r . . %   4 8 5 9 4 8 6 8 9 9 9 0 0 0 9 9 9 0 9 9 9 9 4 0 8 6 6 6 6 9 4 8 4 8 8 8 4 4 8 9 9 8 8 9 8 9 8 8 8 4 4 5 5 5 6 6 6 8 6 6 0 8 4 5 5 0 0 0 0 4 8 0 8 0 6 6 6 8 6 9 6 8 4 % * * 4 * 4 4 4 4 9 8 , , 6 , 6 , , 6 % > % % 4 4 4 4 , , & , , 6 , & 4 > 4 4 0 4 4 4 & $ , & , > , & , 3 , & , , , , % 4 4 4 4 > 4 4 $ $ & , , , , & % % % % % 4 > * % % % 4 % % % % 4 q + > > 4 % % $ . $ $ $ & . $ + % + . ",
"O o . - > + + O + O O > > + + > > : : > > > > O $ $ $ $ $ > : > $ : 1 > > > > , - > > q - 4 - 4 - - > - > > 4 > 4 > 4 4 , 4 4 1 2 , 5 2 8 8 a 8 z 8 s J G V ;.K.[.*X[.!.&X7X;X|.|.qX6XtXvXGXzX X<.R S 2.:XzXGXtX#X3XtX<X.X XUXtXwXS - 0 s 7 0 7 9 s 9 s 9 g s s e e V D V D Z V A R j.).[.E.:XdX1X[.3X1X&X!.j.}.qXdXzXrXrXzXpXtXpXzXpXcXcXcXcXcXGXaXSXMXZXKX|.;.i.,.Y n.'.wXIXbXcXnXcXcXcXVXCXcXMXcXcXcXnXVXBXnXnXBXVXGXVXGXHXJXJXDXVXGXHXVXVXHXHXGXGXaXJXIXz.5 D D z.pXVXcXMXPXzXJXHXJXJXU.w 6 G R g G U V U 9 0 g V g s g s 9 9 e s 9 9 9 9 9 9 9 9 V 9 9 9 6 e 9 9 9 9 9 9 9 9 9 9 9 9 9 9 9 s 9 6 8 9 9 9 9 8 9 9 9 s 9 9 9 9 9 9 9 9 9 w 9 t 9 9 9 9 9 9 9 9 9 8 9 9 0 6 6 6 8 0 9 9 8 8 6 8 8 5 9 9 0 8 9 e r r 6 r r . . >   4 8 4 8 0 8 9 9 0 6 0 0 8 0 9 9 9 9 8 9 9 9 0 5 6 9 9 9 9 9 5 4 8 9 8 8 4 0 4 8 8 8 9 8 9 8 8 8 8 8 5 5 8 5 8 7 9 9 6 6 0 0 6 8 6 6 6 8 8 0 9 8 6 9 5 0 4 0 9 9 9 9 4 4 4 4 4 4 4 4 4 4 4 4 , , , , , , r , 4 4 , , % 4 4 4 , & , , , & & r 4 4 4 4 4 4 > 4 , 3 3 , , & : , , & , : , & , , 4 4 4 4 4 4 4 4 , : , & 3 & , $ % 4 4 > % 4 % % > % % % * % X % 4 + * + + 4 % + $ $ $ & $ . & $ X % + . ",
". o . : > - + > + O + - > + + > > % $ > > > > > > : $ O O $ > > $ > , , > $ : > 4 > 4 4 - 4 4 4 % > % 4 4 > 4 4 - > - > > , 4 , , , , 2 8 2 8 a 9 a a g G J &.D.).;X*X*X;X;X&X[.;X6X2XwXrXzXGXIX(.4.U z.`.tXJX3X|._.}.}. X XUXrX Xs @ 7 9 9 V 7 s 0 s 0 s 9 9 9 e e V V V V V k 0 s s.).'.E.1XdX;X1XwX&X&X!.`.<XqXrXzXzXrXrXrXrXzXzXcXcXpXaXaXcXHXmXIXhXvXKX|.0.n.9.` F.'.wXKXhXzXnXnXzXcXVXNXpXnXVXnXBXcXnXnXGXMXVXGXVXVXVXGXGXJXVXVXGXGXBXVXPXHXBXVXnXPXVX4.0 E 0 x.IXPXPXcXJXxXPXPXJXPX.XE V S U 6 S G s G s 7 s s 9 s s V s V 9 9 9 9 6 9 6 9 9 9 9 9 9 9 6 V 9 e 9 9 e V 9 9 9 9 9 V t 9 5 9 9 9 6 6 9 9 9 0 9 s k t 9 9 6 9 9 9 9 9 9 9 9 9 t 9 9 9 9 6 0 0 9 9 9 9 9 9 8 0 8 8 6 8 0 8 0 0 8 6 6 9 9 8 8 e r r , r r . $ >   4 5 4 8 0 9 9 9 8 0 7 0 8 6 9 9 9 9 9 9 9 9 9 9 9 9 k s 9 9 4 8 8 9 9 e 8 8 4 4 4 4 5 5 8 9 8 r 5 r 8 8 5 8 8 0 9 9 9 8 5 0 9 9 9 9 9 9 9 9 9 9 8 0 0 5 5 4 4 4 4 7 4 4 4 5 0 4 4 4 4 4 4 , , , , , , , , 6 5 5 5 4 4 4 > , & , , , , , , r 5 4 4 > * 4 4 % , , , , , : , : 3 & , , , 3 $ , 4 4 4 4 % 4 > 4 , & , , , , , $ % 4 > * % % 4 % 4 % % 4 > % O % * + + + + > % X . $ . $ $ & . $ O + q X ",
". o o . + > > + + - > > + - + O $ > $ > $ $ > $ $ $ $ > > > , , > , , 3 , , > > , 4 4 , 4 4 4 4 5 7 7 4 4 7 > 4 4 7 2 5 5 5 7 8 5 2 8 2 r r 7 8 a Z s a Z Z ` b.P.;X;X[.;X;X=X;X;XhX8X8X8XyXdXzXVXOX2.E F.vXBX5XyXUX#X2X_.pX2XIX{.  q 0 s > V 7 9 s g s 9 s 9 g 9 s Z g g s g J J - { !.;XH.[.vXwX;X1X!.;X1X`.2XtXrXrXjXnXpXrXpXpXaXcXbXcXcXcXcXcXcXBXBXvXKX8X1.i.0.{ J.1X8XPXmXvXnXzXuXqXGXVXaXcXBXBXnXVXVXVXVXVXVXGXGXGXGXJXGXVXVXGXGXGXGXCXGXVXVXVXcXPXPXa.6 W 5 L.HXJXJXnXPXnXPXVXJXHX3X4.t 9 Y s V Y S V s V s V s s s s s 9 e 9 e 9 e 9 9 9 9 9 9 9 9 k 9 s 9 9 9 9 9 9 9 9 e k 9 9 9 9 6 9 9 5 9 t V e 9 9 9 9 9 e 9 9 t V 9 9 6 9 9 9 9 9 0 5 0 9 9 9 r s 9 9 9 9 6 9 8 0 6 0 8 0 8 9 9 8 4 9 9 9 8 8 6 r 6 5 , 5 r   . % . % 9 8 0 9 9 9 0 9 6 0 0 7 9 0 8 9 9 9 9 9 9 s 9 8 6 9 9 9 7 e 9 8 8 5 4 0 > 4 8 9 5 0 4 8 5 4 r r , 5 r 5 , 8 8 8 8 0 6 5 5 0 8 8 8 6 0 8 0 6 6 9 8 4 4 0 4 4 , > 4 4 4 , , 8 5 , , 4 4 5 5 , , 4 4 5 r 4 4 4 , > , % , , r , , , , , , r r 4 4 % , 4 4 4 4 , 3 , & , , : 3 , , & 3 & , , , % 4 4 0 * 4 % 4 , , & : : $ , , % % 4 % % % % % 4 % 4 % % + + X @ O X + + + X X : $ $ O & . $ $   % X . ",
": O . O - > + O O + + - > + - + $ > > $ > > % : > > 1 > > % > : > , > > , , > > , > 4 > - 4 - 4 , 4 , 1 , > 4 > 4 7 5 5 1 5 5 2 2 8 2 8 , , , 1 s s s s J 7 J i.B.).%X*X8X;X;X[.;XkX8X8XrXeXrXrXPXBX`.c.(.qXpXzXyXBXyXUXeX XnXzXn.@ V 9 G 0 8 0 s 9 9 s g s g s 0 s g g g g g Z G 7 _ H.0X*X*XfX'.).[.L.!.W.I.rXeXeXtXtXpXrXtXzXpXpXpXcXcXcXcXcXBXcXBXVXhXhX;Xd.w.1.` B.;XwXPXhXzXnXhXzXaXnXcXcXVXcXMXBXBXVXVXVXGXJXJXGXGXGXVXVXGXGXGXVXHXGXGXSXMXnXMXxXHXPXl.w W e XXPXJXJXVXJXJXPXHXPXJXUXz.t w Y V V E S V V S D Z g s s 0 s 9 9 9 9 e 9 9 k 9 9 9 9 9 9 9 t 6 8 9 9 9 9 9 9 9 9 9 9 9 6 6 8 5 0 9 9 9 9 9 e 9 9 9 9 9 9 9 9 9 9 8 6 9 9 e e 9 5 0 8 0 9 8 0 8 6 6 9 9 8 9 0 8 8 8 9 9 6 9 6 6 7 0 9 9 6 4 5 r r r 4 r r O & % . % 6 4 4 8 9 8 9 9 0 0 0 6 0 0 8 9 9 6 6 0 9 8 0 4 0 8 6 0 0 8 8 8 8 5 5 5 5 4 8 8 5 4 8 8 5 , , r 5 5 5 5 4 4 4 8 5 6 8 6 9 6 8 5 0 8 6 6 8 8 0 5 0 6 6 6 6 8 8 5 4 5 5 4 % 5 5 5 5 5 4 5 , 5 5 5 , 4 5 4 , 4 % % > % % % , r , , & , , , , 4 , 4 4 4 4 4 > & : & 3 , : , & $ $ $ & $ $ $ $ % > > > > % 4 > : : , $ : & $ $ % 4 % 4 4 4 4 % 4 4 > % % > % % + + + + + % > + $ % $ $ $ $ $ . . q + . ",
"O . . O + + O O - + + > - > % O > : > $ $ : % > , , > > : $ $ O > > > > > > > > > 4 > q - 4 4 > , > 7 4 4 1 , , 5 8 5 2 4 4 , , 2 , 2 2 8 , 2 7 a s s J J 7 Z i.B.!.[.;XwX;X*X).;X6X1X8XrXrXdXwXrXnXzXqXrX5XyXqX3X X#X XrX XVXL.    9 - g 7 0 S 9 s g 9 9 s g s s s g g g g Z Z G s g i.;X*X'.|.[.'.;X[.;X`.(.vXtXrXrXrXzXrXrXzXzXbXcXBXBXcXcXcXBXaXcXLXZXhX8XW.9.{ _ B.7XfXPXvXzXnXzXuXVXcXzXMXVXBXVXBXVXGXVXGXGXGXGXGXJXGXJXGXGXVXHXVXHXMXHXSXNXnXMXxXHXPXF.D y y 5XJXGXHXVXVXMXnXcXPXJX.Xj.E 0 G s V G D Z D D D V g 9 9 0 0 9 V e 9 9 w e 9 9 9 6 9 9 9 9 e 9 6 0 8 6 9 8 6 9 9 9 9 9 6 8 0 4 0 e e 9 8 9 9 0 8 6 6 9 6 9 r s 6 6 8 9 9 9 9 9 r 6 9 5 9 9 9 0 8 0 8 9 9 6 9 8 0 6 9 7 9 6 9 6 8 6 9 9 6 4 8 6 r e 8 r r . O > . > 9 8 4 6 8 9 9 9 9 8 0 0 9 9 9 9 9 8 8 6 8 8 9 9 8 6 8 8 9 8 8 5 4 0 8 8 6 4 5 5 5 4 8 9 8 , , r , , r , & , 4 4 4 5 9 8 8 9 8 8 0 8 8 8 9 4 4 4 8 5 5 8 5 8 5 5 4 5 5 5 4 , 4 5 5 5 , 5 5 8 5 4 4 4 5 4 , , % , , , : & r , , , , , , , 3 > > , 4 8 5 4 & , & 3 & , : > > $ & $ & $ $ : $ * > 4 * % % % 4 & : , , $ & $ , , > 4 % % 4 * , % 4 % 4 > % % > 4 + > > + + + % O $ % X $ & & $ . * + @ ",
"o .   . O - - O + > > O + + + > O $ O $ O $ O $ $ $ $ % : % % : $ : > : > > : $ > > - > 4 - + q 4 > > > 4 4 7 4 7 8 5 7 5 7 1 , , , 5 8 r r a r a s s Z Z Z %.m.[.[.%X;X;X;XOX).*X1X;XwXzXhXzXrXyXrXrXrXvXpXwX5X2X<XeX}..XGX(.X o V D g V 9 7 s 0 9 9 s 9 s 9 s g s d g g z Z g G g s ` ).*X!.!.].!.[.*X8X{.(.8X6XrXaXzXzXrXrXzXzXcXnXcXcXBXBXcXBXcXcXBXZXhXvX&Xb.{ ` W.wXdXIXSXvXZXSXrXHXxXzXMXBXGXGXVXGXVXGXGXGXGXJXLXJXGXGXGXHXHXHXHXHXHXMXSXMXMXMXnXHXPXoXE t U BXJXBXHXVXBXPXCXcXPXJXT.l.C 9 Z V g S g s V s s 9 s s 9 s 9 9 9 9 e k 9 9 9 9 9 9 9 9 9 9 s 9 9 9 9 9 9 9 9 9 9 9 6 9 9 6 8 4 5 9 9 9 0 6 9 8 9 8 6 8 6 0 9 V s 9 6 5 9 0 5 6 0 8 8 9 9 9 0 5 0 6 8 6 8 9 6 6 9 8 6 9 9 9 9 9 6 6 s 9 9 5 5 5 8 e 5 r , . $ % . > 9 8 8 6 6 9 9 9 6 8 0 9 0 9 9 9 9 8 0 9 9 0 9 e 9 9 6 9 s 9 8 8 0 5 5 8 8 4 9 9 5 4 8 5 8 5 r 5 , , 5 5 4 4 , 4 5 5 5 8 6 9 8 8 8 0 8 8 9 8 6 8 4 4 4 4 > > > > 4 5 8 5 5 5 4 , , 5 5 5 5 4 4 4 5 8 5 4 4 , , , 4 , , , , , , , , , , , & , , 4 , 5 5 4 % , 3 , , & , , , , , , 3 , , , , % 4 > 4 > * % , : & , & $ $ $ $ * % % 4 % > % > > % 4 % 4 % > * 4 4 4 % > X O O $ $ $ $ $ . $ . . - + @ ",
". . . O + - > + + > - + + + > O $ : % $ % $ : $ O $ $ > % > > > $ : : > $ > $ % + > q > - 4 > > - > 4 - 4 7 , 7 8 8 7 7 7 8 8 j , , 2 r 8 r s a s V Z s J *.h.E.*X).[.*X;X;X;X[.;XwXqXdXvXrXzXzXrXtXqXrXzXzXqX3X3XyX<X}.yX_.4   @ >   1 9 g s q s s s 0 s s 0 s z s s s f g Z Z g J Z J !.;X%X!.P.Y.P.Y.}.E.(.yX2XrXrXrXrXtXtXpXzXzXzXcXBXcXcXcXBXCXBXcXbXvXhX%Xb.' { !.dXdXKXSXdXGXnX8XGXnXMXnXGXVXGXGXGXGXGXGXGXGXJXLXJXLXGXGXGXHXHXGXHXSXSXCXGXGXHXMXHXPXOXQ # =.JXHXBXCXJXGXPXCXBXJXBXI.u.S W G G D D s 0 s 7 9 s s V s 9 9 9 e 9 e 9 e V 9 s 9 9 9 9 9 9 9 9 9 s 9 9 s 9 9 9 9 9 9 9 9 9 6 8 0 5 8 9 9 8 0 0 8 6 0 6 9 9 9 6 9 6 6 9 9 9 0 4 4 4 0 6 9 5 5 9 8 9 6 8 9 8 0 9 0 9 9 8 9 9 9 9 9 9 k e 6 8 9 5 5 r 5 r r   O O . % 9 9 8 9 9 9 9 9 0 0 0 6 9 0 8 9 9 8 8 9 9 5 6 9 9 0 4 0 9 9 8 6 5 5 4 4 8 9 r e 9 5 6 6 5 , r r , , r 5 , , 4 5 5 5 8 5 5 5 8 8 9 8 8 6 8 8 8 8 4 8 4 4 4 , % , & , , r , r , $ % 5 5 r 4 * 4 4 6 6 8 5 , , , , , , , , , : , , , r , , , , & , , , 4 4 % , , , , , , , 4 , , , , , , 5 5 4 4 4 + > * 4 4 & , , , , , & : % * > % % % % % % % % % % % % % * - > + X + X + & $ $ $ O $ . $ . + + @ ",
": + - = O + O + > O % > O > + > % > > > > > > > > > > > > > > > : $ > : : % $ > - 4 > + * - q - > > > 4 > 4 7 , 5 5 2 5 8 8 8 8 8 2 8 2 8 5 2 7 a V Z z _ s.W.[.*X[.*X;X;X*X*X[..X6X8XtXdXqXdXzXzXrXrXzXnXaX3X}.<X|.XX3X2XV   D G S V D 0 7 9 4 9 0 0 s 0 s g 9 g s a 0 g g g g g J Z g Q.wX].B.W.!.!.E.[.I._.rXeXrXtX2XyXqXtXpXpXpXaXaXaXaXaXzXzXGXBXBXbXnXdX[.b.{ { ).8X0XvXZXwXmXzX2XzXGXHXVXVXGXJXBXGXBXJXGXJXGXGXJXGXJXGXJXHXHXHXHXHXHXHXMXGXGXSXMXGXPXuX*.X z.JXVXBXGXJXGXGXaXaXCXJX#Xv.2.W V S V k V 9 g s V g V V g s 9 9 9 s 9 9 9 9 9 e e 9 9 9 9 9 9 9 9 9 9 9 9 9 9 w 9 9 s s 9 9 9 9 8 0 0 9 9 6 7 6 8 6 8 8 6 8 9 8 0 8 6 9 s s 9 0 0 0 r e e 9 6 9 9 9 6 8 0 8 0 9 8 8 0 9 9 9 9 s 9 9 t e 6 8 9 5 4 r 4 , 5 . . O   % e s 6 e 9 9 9 9 9 9 8 9 9 0 8 9 6 9 6 9 9 6 9 9 9 6 8 9 6 8 9 8 8 5 0 4 4 8 e 9 8 5 5 5 , r r r , 5 r r 5 r 8 8 8 8 5 5 5 5 8 8 8 8 8 8 5 8 8 6 8 6 8 8 6 r r 5 , r 5 5 , r , & $ 5 r r , 4 4 5 9 r 5 4 & & & 3 , , & 3 , & , , 3 , , r r , , , % , 4 4 , , , , , , , , 4 , , % , % , > 4 4 4 4 4 % & , 4 3 , & , , : , : % 4 , % 4 4 4 % * > 4 % % + % + % @ + . + + % % $ $ $ & . $ $ &   + +   ",
"O = O % - O + O - + + O + O - > : > > > : % : > > > > > > : : > % $ : > > : % $ > > q 4 > > q 4 > - > 4 > 7 , 4 2 5 4 5 5 7 8 2 r 2 r 8 8 2 7 1 s s Z J ,.m.].|.;X;X;X8X[.[.*X[.[.7X2XrXhXqXrXvXVXjXqXqXrXrXyX X3X5XtXqX`.  w 4   q s q - - 7 S 9 7 9 s s 7 s 0 s s 0 s d g g f g J J q B.7X!.m.H.!.'..X3XP.(.rXrXjXqX3X3X4XyXtXtXrXrXtXpXaXaXzXpXBXBXbXZXSXZX1Xm.{ N.[.&X6XmXhXdXhXwXtXhXIXHXSXVXGXGXBXBXGXVXGXGXJXGXJXGXGXGXHXHXGXHXHXHXHXCXHXCXHXMXSXHXIXMX2.& F.JXCXBXCXJXBXJXaXcXBXCXpXg.z.W 9 D s s D s Z Z V V V g s s 9 V 9 e t t k 9 9 9 e 9 9 9 9 9 9 6 9 6 9 6 9 9 9 9 9 9 9 9 9 9 9 9 6 6 8 6 9 9 6 9 8 9 0 0 6 9 9 6 6 6 9 9 V 9 9 e e e e e k e 9 6 8 6 8 0 0 8 8 9 6 9 9 9 9 9 9 9 9 9 9 e 6 4 4 r 4 5 % r r . $ O . > e 9 8 g 9 9 9 s 9 9 0 0 9 8 6 9 9 6 8 9 9 V e 9 9 9 9 9 6 8 6 5 5 5 8 8 8 4 8 r 4 4 8 r 5 & r r , , r r r 8 8 8 8 6 6 8 8 5 5 4 5 5 5 4 5 5 5 5 5 8 8 8 8 r 5 , r , r , , , & , , r , 5 5 5 5 4 5 r 5 , & : , , , , & , , & 3 & , , , , , , , , , , 5 4 % & : & , , , & 4 , : & % & & % % 4 4 % 4 % , & , , , , , & 3 & 3 4 % , 4 % 4 4 , 4 % % % % % % % + @ O + + + > > $ & $ O $ $ & $   q + @ ",
"o . O . . O O . > > + - O + + > $ $ O O $ $ $ O $ $ $ O $ $ O O $ > > : > % > $ 4 > > > - 4 > > 4 4 > > 4 > > , 5 1 7 4 , > , , 8 2 8 8 r j a a s a V ` 9.V.E.).*X;X8X7X[.[.;X%X6XtXhXmXSXzXzXnXzX5XqXpXcXcX3XE.UX}._.qXOX@ . w 9 V g   G S 7 7 0 9 0 7 0 s 0 a 0 s 0 7 g g g g g J J ; b.;X[.B.H.L.I.*X8XI.`.jXqXwX2X#X3X2X3X3XtXeXrXpXpXaXcXcXcXJXaXpXzXmXZXdXi.q.B.[.|.7XSXvXAXhXqXxXzXHXGXSXGXVXGXJXVXGXGXGXGXGXLXJXJXLXJXGXHXHXHXHXHXMXSXSXSXSXMXCXHXIXPXz.y }.PXJXJXCXVXJXCXaXNXcXBXaXp.z.` k G V s D s s D V s 9 9 9 s k 9 9 9 9 9 9 9 t t 9 9 9 6 9 9 9 9 9 9 6 9 9 0 9 6 6 9 6 9 9 6 8 9 9 9 8 4 0 9 9 9 6 6 8 6 6 9 9 k s 9 s 9 9 6 8 e e 9 6 9 6 4 * 0 4 0 8 8 8 6 6 8 9 9 9 9 6 9 9 9 9 6 9 e 6 4 5 r 5 , & r r . O X . > k e 8 9 6 9 9 s 0 0 0 9 9 9 9 9 9 9 0 0 8 k 9 6 9 9 9 8 4 8 5 0 5 8 8 8 9 * 4 4 4 4 6 r r , , , % , r r r 8 8 8 9 8 9 9 e 8 5 4 > , 4 5 8 r 5 5 4 4 , , & , , 4 , , , , , O % r r r , 4 8 5 4 * 4 & , r r , , , r 2 , , , 3 , $ , : , $ > > & , , 8 4 4 % , , , & & , % > & , , , , , , 4 - > * + $ $ , , , & , : $ & & , % % % % % % % % 4 4 4 4 * % % % > 4 % X . O X $ O $ $ O $ . $ .   * + . ",
"O     O $ O $ : $ $ > % O : : % $ $ O $ $ $ $ $ $ O > O > $ O > > $ $ $ : > > > > , , , , > > > 4 7 , 4 4 , , , > > 7 2 4 , , > 5 8 a k s 8 a 7 s s s ` d.n.E.1X8XwXtX2X.X.X;X3X8X6XtXhXhXhXhXdXzXvXrXwXjXbXrX2XqX:X XrXPXj.  + 0 s s s q   g + d g g 0 s Z g q 0 8 e 8 s 8 8 a s s J q m.fXJ.9.n.W.(.|.<XD.(.vXrXqX}.OX&X.X8XqXpXrX5XtXzXzXzXzXcXaXVXVXrXnXVX2Xs.s.B.*XwX2X6XbXqXrXxXuXKXMXGXSXBXVXGXGXCXVXGXGXJXJXGXJXHXJXGXIXGXHXHXHXHXGXHXGXGXVXMXnXVXJXGXv.y XXJXJXCXVXCXCXCXNXNXBXCXpXY.~ e W C t e 8 e e V V e V e 9 9 9 9 6 9 9 9 t 9 V 9 9 9 6 6 9 9 V 9 w w 9 9 6 6 6 w 6 6 6 w y 6 * * 5 6 6 6 6 r 6 6 * 6 6 6 6 6 9 9 9 9 k e 6 8 6 e * & e V & & C V 0 0 w 9 6 0 6 6 5 6 e r 6 6 r 9 9 9 8 9 8 8 8 4 9 9 e 9 > . + 4   4 0 5 9 9 9 9 6 8 6 6 6 6 9 5 9 e e 9 9 0 5 r 9 8 0 6 0 4 4 0 4 4 8 0 8 8 8 0 4 0 8 8 0 0 1 5 r 6 r r 5 r 5 5 5 5 6 9 5 5 8 5 8 r , , 4 , r r , & % > , , , 5 5 , 4 , 5 5 4 5 5 5 5 5 , , % 4 4 4 4 4 8 8 8 6 , , , , , 3 , , , , r , , , & 4 4 5 5 5 5 4 4 4 4 4 % 4 4 4 + 4 4 4 > + 4 4 4 4 % % % % > > $ $ , $ , $ : & : % % % % % * % > 4 % 4 % % % 4 % % % $ $ $ $ $ . . . & $ & $ & &   % + @ ",
"O . . O $ O O $ + : O : $ % O > > > > : > $ > > $ % : % > $ $ $ $ % $ $ > : > , , > , > , , , 1 > 4 4 > 1 5 7 4 4 7 5 1 5 7 , 4 7 4 8 8 8 e 8 7 V s Z  .w.m.H.'.1X4X;X;X.XXX.X1X4X8XtXhXtXhXSXmXeXrXzXjXrXdXrXeX9XqX9X_.3XnX_.+ o Z q g 1.0 q Z q g Z g 0 0 g g 4 8 8 k e 8 s s Z Z s ; J.1XW.B.B.!..X'.wXP.}.GXrXtX<X2XqXyXtXtX5XwXtXrXpXaXaXaXrXMXGXcXzXVXnXtXB.d.B.;X6X'.<XvX<X2XrXtXKXMXGXSXVXGXGXGXVXGXGXJXJXHXLXJXLXJXJXJXGXGXGXHXGXGXVXVXVXVXVXVXJXPXGXS.*  XPXCXaXJXJXCXCXcXcXCXCXaXT.p.W K C W C C C t e V V e V t e e 9 9 9 9 9 k 9 9 9 6 9 9 9 9 9 9 9 6 w 9 w 9 6 6 w 6 6 6 w 6 6 6 * 5 * e 6 e 6 6 6 6 6 6 6 6 6 r 9 9 9 e r 0 6 9 5 r y , 4 y C X 0 6 w w g w 9 6 y e e e 6 6 6 e 8 8 8 9 8 9 9 8 0 8 8 6 8 , . + 4   4 0 0 9 5 9 6 6 0 8 5 8 8 9 0 9 9 9 9 5 6 8 9 0 5 0 5 4 0 4 4 0 5 5 8 0 6 0 5 8 8 0 6 6 8 4 5 5 r , 5 r 5 5 5 5 6 6 6 0 0 4 8 5 r 5 , , , 5 r , , & , , , , 5 4 4 , 5 5 r 5 5 5 5 5 5 , , & > , 4 4 4 4 4 4 & 6 , , , , r , & , , , , , , , % 4 4 4 4 4 4 4 % > * 4 4 4 + 4 % 4 4 * 4 4 4 > 4 4 , 4 , > , , : , , $ , : & , , > 4 % % > > * % 4 , 4 4 % % % > % & & & . $ $ $ $ $ & $ . $ $ . 4 > + ",
"O . . $ $ O O : $ $ > O $ : $ O > > > > > > > > > : % : : > $ > % : $ % : > > > > , , , , > , , > - > 7 4 5 7 8 7 1 5 5 4 2 7 4 5 7 4 7 8 s a s s s Z ` d.n.J.).1X;X3X6X;X[.&XwX6X6XwXhXhXhXmXvXjXzXzXzXwX3X X X2X1XqX2X.X2XKX~.  q @ 9.6Xw.o q q s g s 7 7 g g 0 5 9 9 s 9 s k s Z ; J %X;X~.W.Q.|.rX6XbXH.}.IX2X<X<X<X4XqX4X2X5XrXaXpXrXtXrXaXrXVXVXzXcXnXzXnX!.1.n.;XwX}.2XnX<X3XqXqXGXGXHXSXGXGXGXGXHXGXHXGXGXJXHXHXJXJXGXHXGXVXGXVXCXGXGXVXMXnXMXVXGXJXHXL.V :XnXJXaXJXsXPXaXCXCXBXJXPXpXI.&.e e W V V S e e 9 9 V e V e e 6 9 9 9 9 9 6 9 0 8 9 9 9 9 9 8 6 9 9 9 w 9 9 9 w 6 6 9 6 9 6 6 4 5 8 8 e r 6 6 , 6 6 6 r 6 8 e 8 8 9 s 9 5 9 e * , C e X , t e 6 9 4 q 4 6 6 0 y r & r y y e * 8 8 9 9 8 8 8 8 5 8 4 5 9 , @ + 4   4 6 6 9 5 9 5 0 0 4 4 4 8 0 9 9 9 5 0 4 0 9 0 4 4 4 0 8 5 0 8 0 0 5 8 6 8 0 6 9 6 8 6 6 5 5 5 , , r 5 5 5 5 5 8 4 6 5 5 0 5 , r 5 , , , , , 5 , , , , r 5 r , 4 4 4 r 6 r 8 5 , 5 5 5 5 5 , 4 , , , 4 4 4 6 , , , & , , , , 3 , , , , , , & > 4 4 4 4 4 > > 4 4 4 q 4 4 + + 4 + + q + + * 4 4 4 > 4 > > , , & , , , , 3 3 & 4 , 4 > 4 % > % % 4 % % % % > * % % & $ $ $ $ & , $ $ . . . $ $ X 4 * X ",
"O . . O $ $ O $ $ O $ % $ + > $ > : % > > > $ > $ > $ > % > > $ % $ $ $ > > > > > > > > > 1 > , + > - > 2 5 8 5 4 5 5 5 5 5 7 7 8 5 7 7 8 8 8 7 s s z %.s.D.P.).;X1X3X6X;X&X&XwXwX3X6XdXvXvXmXdXnXrXrXvXvXqX<X X3XqX3X<X<X.XnXpXG o o k.SXY.g ; s s 0 0 s g f 0 8 9 e e 8 9 8 a d s @ J ;X;XJ.J.D.E.6XdXwXi.F.vXtX2X6XOX<XzXtXtXpXzXcXaXaXrXaXzXMXnXzXxXcXaXzXGX|.i.d.[.eX2XrXIX2X8XqX2XMXSXHXGXGXGXJXGXGXGXGXJXGXJXGXGXGXGXJXJXVXGXVXGXGXSXVXVXGXMXcXnXBXGXCXL.V #XGXPXPXPXaXJXaXJXBXtXaXLXqXS.u.e r S 0 9 C 9 9 9 9 9 9 9 9 9 9 9 9 9 9 9 9 9 9 6 9 9 k 9 9 6 6 6 9 9 9 e 9 e t 6 w 6 w 9 w 6 4 5 8 8 6 6 r 6 r 6 r 6 9 r 8 9 s 9 8 9 9 5 r e C 5 . & e e 4 & w D D D 6 0 t W 6 6 r r y r 5 * 8 9 8 8 8 5 0 5 e 8 > 4 9 0 . O +   4 9 9 9 0 5 6 8 8 5 0 0 8 6 5 5 6 0 5 4 5 9 0 4 5 5 6 6 5 5 0 8 6 6 0 8 6 8 9 6 9 9 9 5 5 0 5 , , , , 5 , 5 8 6 6 9 9 9 9 8 5 5 , r , , r 5 , r 5 r r , r 5 5 5 5 5 6 r 5 5 , 5 5 5 5 5 5 5 4 , 4 4 4 4 4 4 , , , , & , , , , , , , r , , , 4 > 4 > , * 4 4 4 4 > 4 > * 4 + > * 4 + + 4 % % , 4 % % % % & % , , , , , 3 & 3 % 4 % > % 4 4 , 4 > , * 4 > % % > % $ $ $ . $ $ & , $ & $ $ $ $ O 4 + @ ",
": . . $ $ $ O $ : $ O : $ > $ $ $ $ > > : > > $ $ $ $ > % : $ % $ $ > $ > > > > , > 1 1 , > > , > 4 - 4 > 4 7 7 2 5 7 7 5 5 5 5 8 8 0 5 8 8 8 a s d z { s.D.W.E.;X7X6X&X X&X:X1X0X3X8XfXvXvXAXvXeX2XqXdXzXrX3X:X3XzX<X.X8X.XeXqXs o q h.AX!._ @ g s s 0 g g g 0 9 9 9 9 9 8 9 a Z s o s %X;Xm.w.H.J.}.ZXqXg.F.bXrX6XtX3X6XnXhXhXzXaXaXaXaXaXzXzXHXzXVXVXzXcXnX5X[.B.h.G.8X8XdXIX2X6XtXqXSXGXIXSXGXJXJXJXGXGXJXCXJXGXLXCXLXGXJXGXHXGXGXGXVXGXVXVXHXGXVXVXGXVXnXj.. .XPXjXaXJXJXGXJXJXcXPXPXnXqX}.g.t V U 8 9 V 9 k 9 t 9 9 9 9 9 s e 9 9 9 9 k 9 k 9 9 9 9 e e 9 0 6 9 9 s e s e s 9 s 8 0 9 9 8 7 , 5 4 8 8 8 8 r 6 r 9 8 e k 8 8 8 s s r 8 r V . S A r C r , C w q # 0 t 6 * w + 6 y e 5 % * 9 9 8 8 8 8 8 5 5 9 9 , 4 9 8 O X *   4 6 9 9 4 0 6 6 6 0 8 8 9 8 4 5 9 9 0 5 5 0 6 6 4 0 8 9 9 9 8 0 8 6 0 8 8 6 9 6 9 6 6 6 0 5 , , , , 4 5 , 5 5 9 0 9 8 6 5 5 5 5 8 5 4 4 , 5 5 8 r 5 4 8 4 5 5 r 5 r r 8 5 4 , , , 4 5 5 5 , 5 5 8 8 6 5 5 4 6 & r , , , , , , , , , , r , , > 4 4 * > 4 > 4 4 4 > * > 4 4 4 4 + 4 + + 4 4 q % 4 * > % > % % , 3 & , & & : & $ % % % % 4 , 4 % 4 4 % > % % % % * % % $ $ $ : $ & $ $ $ $ & &   * % O ",
"O O . O $ O O $ O $ $ $ $ $ > > > > > > > > > > O O $ O $ $ > : $ $ $ > : > > > > > > > > > > > 4 > 4 > > 4 > 4 7 5 4 4 1 5 5 1 7 0 1 7 8 s s s s g Z ` s.V.P.E.7X7X7X*X*X7X0X1XfXwXfXvXfXfXbXFXbXvXnXnXpX1X.X_.&X3X9XrXqX}.dXZXq @ - w.dX[.{ @ q s s s 7 q a s 4 8 8 8 8 8 s s Z s ; s *XhXp.) `.'.'.KXZX_.`.PX8X6XqXyXtXhXrXuXaXpXtXeXaXzXcXnXnXcXPXHXaXHXGX Xw.h.n.B.eXrXrXvX3X8XrXuXPXIXIXHXGXCXGXGXGXGXDXGXHXGXGXCXCXGXGXGXHXGXHXCXGXGXVXGXnXVXGXVXGXGXqX*.  I.GXLXJXGXPXLXbXVXjXGXIXjXeX X2.X r S 6 C C e V V V 9 9 V 9 9 s 9 9 9 9 9 9 V V s 9 6 9 e e 9 8 9 9 9 9 a 9 j k s 8 8 9 8 8 9 5 2 7 5 7 7 8 8 r r 8 r r 8 r 8 k a 9 a e 8 8 z 5 t , 5 S r   & @ X # # X @ * W D t 0 4 4 6 6 4 8 8 0 9 6 8 0 8 k 9 4 5 k 5 O + *   > 0 0 9 5 9 9 9 8 8 6 6 9 6 4 0 9 9 9 9 6 8 9 8 8 6 9 9 9 6 5 9 6 8 6 8 0 8 0 8 8 6 9 8 8 8 r 5 , 4 , 5 5 5 4 4 4 0 5 5 0 4 5 5 r 5 5 5 5 5 8 8 6 r , & , 4 r 5 5 5 5 8 4 % , * , 5 5 5 5 5 r r 8 8 4 4 4 0 & , & , , , , , , & r r r , , , , 4 > 4 4 4 4 4 0 > > 4 * 4 4 + 4 4 4 4 4 > > 4 4 4 % 4 % 4 , , & & 3 & & 3 3 : & % % % % > % 4 4 % > * 4 % 4 % % % % % $ & : & $ $ : : $ $ . .   q + @ ",
": O . $ : O O $ $ O $ O $ : > $ $ > > , > > $ $ O $ O $ > $ > > $ $ $ > > > > > > > > > > > > > > > 4 > 4 > 4 > 5 1 4 , , 4 5 5 , > 4 1 8 s s s s s z Y 8.s.h.m.~.].E.E.].*X7X1X7X1XgXAXlXkXkXAXIXKXLXKXAXzX2X&X X&X6X1X6X9XZXhXH.s o 2.|.!.s.` @ 1 7 0 7 q 7 9 4 8 8 8 8 9 s s s Z ; J *XvXm.; s.*X'.&XLX2X`.nXwXrXrXxXxXzXmXxXzXaXpXaXxXcXnXVXVXVXJXGXnXGXVXyX;.,.h.P.ZXAXZXxXtXjXmXhXPXHXIXHXGXGXHXGXGXVXVXGXGXGXHXGXGXGXGXGXGXGXGXGXVXGXVXVXzXMXVXcXVXCX2XU . 3.`.GXPXGXDXJXLXPXjXjXbXbXvX`.2.% 9 V 9 S V V V V k 9 e 9 e e s 9 9 9 9 9 e t V s 6 9 9 V 9 8 9 8 k a k j 9 k k 8 8 8 8 j s 8 8 5 2 5 7 8 8 8 , r 8 6 8 s 8 e a a a s 9 5 5 r t r e 6     r <.U.}.#XL.*.* @ X y t * * e t e * 8 8 6 8 8 8 0 4 8 8 4 8 k 0 . + 4   4 8 5 e 5 e 8 6 8 5 0 8 6 6 0 8 9 6 9 5 9 9 9 5 5 6 9 9 9 6 9 9 8 9 6 0 5 6 4 0 0 8 9 8 6 8 5 , 5 , & 5 5 5 4 4 5 5 0 5 5 5 5 5 r 8 , , 4 5 5 r 5 5 5 4 4 5 5 5 5 5 5 8 5 , 4 4 5 5 5 5 5 5 r 5 8 8 4 4 4 4 , , , , , , 3 , , , , , , , , & 4 4 4 4 4 4 4 4 0 4 4 + 4 4 4 4 4 q + 4 4 * 4 4 4 4 4 4 4 4 , 4 : , , 3 3 & & 3 , % % % % * % * % % * > % % % % % % % % & : : $ & & & $ $ & . &   X X . ",
"$ O . $ : O O $ O O $ > O % > : O $ : % > : $ O $ $ > : > > > > O % : > > > > : > > > > : > > > - > > 4 > 7 7 , 5 4 7 > > 1 5 1 7 4 4 7 7 0 7 7 d g s Z _ { ` -.d.0.y.d.V.R.].%X^.W.*XlXLXLXFXfX{..X&X8XnXLXGXeX3X:X1X<X2X'.&XKXIXs V E.'.h.h.9.7 - q a s g s s e r k 9 9 8 8 s s J o g *XwXP.7 1 |.`.L.PXwXE.zXrXzXtXnXnXuXMXMXcXnXcXnXnXVXVXGXIXGXcXVXPXzXaXJXE.d.k.U.ZXSXPXKXIXIXKXxXIXSXHXHXGXGXGXGXCXVXVXGXGXGXGXGXGXGXGXJXVXVXVXVXGXVXVXVXnXGXnXaXVXPXtXT + - O *.f.:XAXLXkXyXP.{.vXbXjX_.F.R U C e W e e 9 9 6 9 6 9 9 9 9 6 8 6 6 9 9 k e 9 9 9 e V 9 4 8 8 8 k 8 k e 8 k k 8 8 8 8 k 8 8 7 8 8 7 8 7 8 5 5 8 8 8 8 8 a 6 8 8 8 r 4 4 5 r , e & . 2.yXGXJXHXVXCXJXaXl.@   9 S V 0 * 9 V 8 6 8 8 8 8 8 4 8 8 4 5 9 4 . . 5   4 6 0 9 5 e 0 8 0 0 7 5 0 8 8 6 9 6 0 8 9 e 6 6 8 0 0 9 5 0 9 6 6 6 9 0 8 8 4 4 4 8 0 0 9 8 5 r , 5 5 5 5 r 8 9 9 9 9 6 9 0 5 8 8 5 5 4 5 5 4 5 r 5 5 5 5 r , 4 4 5 r 5 5 & 4 4 5 5 5 5 , 5 r , 0 5 4 4 4 * , , , , , , r 3 & , : , , , , & 4 4 4 > * 4 4 4 4 4 4 4 % 4 4 4 % 4 4 % + 4 % 4 % 4 % % % % % % , , & , , , 3 & 5 4 4 4 > > % % 4 , , % 4 % 4 % % % % % : & : $ $ $ $ & $ & $ $   > % @ ",
"  . $ : $ O O $ $ O : $ % O O O $ $ $ $ $ $ > % $ > : % O $ : > $ > $ > > > > : , , , > , > 1 > > - > 4 7 7 > - , 7 5 2 , , 7 5 8 1 > 7 a 9 8 7 s Z g a _ g Z Y  .:._  .6.r.b.0.C.*X0X%X{.~.d.0.,.G g J l.E.dX8XdXfX|.hX8X).1XZXdX7 7 `.:XG.p.k.&.  0 Z o s Z 0 e 5 6 r 4 8 Z 0 - V 1 o K.fX;X;.z s.'.D.1XqX}.zXrXIXxXrXzXuXzXPXnXMXnXcXcXnXVXHXIXVXnXHXJXVXxXrXU.i.;.h.vXIXSXGXGXLXGXHXPXKXGXMXGXGXCXGXGXGXGXVXJXGXGXGXGXGXGXGXBXVXVXVXMXnXVXVXVXcXVXnXzXPXVX<X).vX7X&X2.3.Z.}.Z.p.&.K.dXeXdX|.}.a.S e C t r t 6 5 0 5 9 9 k t 9 t 9 9 9 9 9 9 0 9 6 9 e e e e 9 r r e e r 6 r k 8 8 8 r r e 8 0 7 0 8 6 8 9 9 0 8 9 r 9 6 6 6 9 s 9 9 9 s t e e C X   L.JXCXJXJXCXJXJXNXJXCXT.y   D w + D V 9 9 8 9 8 8 9 5 8 9 9 8 9 k , . + 5   % 9 6 9 k 0 4 5 6 0 8 0 4 0 4 0 r 6 0 4 9 V 9 9 5 0 4 5 6 4 8 0 8 0 8 4 0 4 9 6 9 9 6 0 8 8 5 r 5 , 5 5 5 5 5 0 5 8 8 9 4 0 9 5 4 4 4 5 8 8 5 4 4 8 8 6 5 4 % 4 , 4 4 , , 4 5 5 5 5 5 , 5 4 r , & , 5 5 5 > 4 4 % > , , , & , 3 , , , , , , & , & , 0 4 4 4 4 4 4 4 4 4 4 4 4 + 4 4 4 + q % 4 > 4 4 4 > > 4 & $ > , $ % , : 4 * , 4 4 , 4 , % > * % % > % % 4 % % O % > % % $ $ & $ & $ $ & + + + @ ",
"  O $ $ $ O $ O $ $ $ $ : O $ O $ O $ O % O : > O > > $ > O % > $ $ $ > $ > > > , , > 1 > > > > 4 > > 4 , 4 4 > > , 5 5 7 4 , 7 8 7 6 9 9 s s 7 g J Z a g a a z ) n J H b F J P 0.d.d.>.) d ; ; V s s s ; ` B.'.8XdXeX|.1XdX&XPX6X` o E.bXp.9.g.3.A o 8 V o s g 8 5 9 9 4 0 a 8 z s o K 6X0XW.' o $.I.'. X<X{.GXwXdXrXzXHXSXhXxXzXcXcXnXnXMXVXGXJXGXVXGXIXVXaXqX).n.a.U.ZXLXZXnXSXPXnXSXIXSXHXSXVXGXVXGXVXGXGXGXGXGXGXGXJXJXHXGXVXVXGXVXnXMXVXnXPXJXaXaXcXrX5XVXzXIXPXDXr.x ! o.&.3.2.{.bXzXvX.X Xc.$.C S S V V e 9 9 e t 9 9 9 9 9 9 9 9 9 9 9 9 9 9 9 9 9 9 e 5 5 8 5 8 8 8 6 8 8 8 5 8 8 8 5 g w k k s 9 0 4 4 0 6 0 9 9 w w 8 0 6 6 9 6 6 0 e y   u.aXBXJXJXNXJXCXNXJXJXCXPXS.  @ y 0 9 * 4 4 4 4 8 8 8 9 8 8 9 8 8 e > . + 0   * 9 8 6 e 4 6 9 e 9 6 5 5 8 4 8 6 0 4 * 5 e 6 6 5 5 4 4 4 6 6 5 6 0 5 0 4 0 9 9 9 6 8 9 6 8 5 r , r 5 5 5 5 4 4 4 4 5 4 0 0 4 5 8 4 5 5 5 4 4 4 4 4 8 4 4 4 , 4 4 4 4 , 5 5 5 5 5 4 4 5 5 4 5 , % , 5 6 0 * 4 4 4 4 , , , , , & , , , , , , , , , , 4 4 4 4 4 > * 4 4 4 4 > + 4 4 + * 4 > + 4 * q * 4 * 4 % , , > , % % & , % > > 4 4 % % % % + > 4 % % % % % + + + % % $ $ $ & $ $ : $ $ $ + X X . ",
". . O : $ O O O > $ $ O : % $ O > O $ $ > : > $ + : > : $ $ $ > > $ $ % $ > > % > > > % > > > , 4 - > - > 4 , 4 + > 0 7 7 4 , > > 0 8 8 8 8 8 s a Z Z g a J &.,.a < ' P d J H H x z P ' b v ' ..o - s q q ` { 0 n._.&X1XdX1X;XfXLXZ - G k.].,.s.n.i.o   J 9 7 8 8 e r 9 9 8 0 a s Z o Z 7X0X).,.o 7 9.}.)..X.XnXnXvXhXnXKXMXmXxXxXcXnXVXMXVXVXVXHXJXVXVXVXGXzXyX}.H.s.~.eXPXPXPXZXIXvXMXKXnXHXSXBXGXGXGXGXVXGXCXJXGXGXJXGXJXJXGXGXGXVXVXVXcXnXVXnXMXnXJXHXGXtXl.+ W $.U K T ..f.f.A.I.yXZXvXIXzX<XY.=.W S S D t e e t V V e 9 8 9 9 9 9 9 9 9 9 9 e 9 9 9 9 9 9 t e r 6 9 r r r z t V e 6 5 5 4 # 4 0 0 9 6 9 6 0 0 0 0 4 0 0 w 9 9 6 w 9 6 6 6 e & 6 aXJXaXJXcXNXJXNXcXJXCXaXJXcXW   y 0 6 4 0 5 5 5 8 6 9 9 9 4 9 e e 9 + . + 0 . 4 9 8 0 9 0 5 6 0 5 0 4 0 7 0 0 8 5 4 4 0 9 0 8 6 6 0 5 4 4 9 0 5 5 5 5 8 8 8 6 9 8 8 8 0 8 , , , r 5 , 5 , 0 4 0 8 9 9 6 8 4 5 9 9 0 5 0 4 5 6 4 0 8 6 4 4 5 5 4 4 4 5 5 5 , , , , 5 , 4 4 5 5 4 , 5 5 5 * 8 5 4 , , , 3 , & 3 , , , , , , , , & & % 4 4 4 4 + 4 4 > 4 - 4 * > * q > 4 - * 4 4 4 4 4 4 4 4 & & , & , & , , % > 4 % % 4 % % % * % % % % % X + + X % $ $ $ O $ $ $ $ : & & & X + O @ ",
". O O $ O $ $ $ : : $ $ O O $ $ $ : $ $ O $ $ > $ $ > % > O : > $ > > : > > : > > > : $ > > , , 4 > > - > , 4 1 > > , 7 , 7 > 4 7 7 8 7 7 7 8 a s s Z ` J w.K.~.&.d a f F H P z ' H n x = P J.J.s Y 9.s ; s ` Y *._ B.KXPX*X6XvXPXk.    O g.g.a.V.L.f.7   s 1 k 8 t 6 5 k 8 > s 7 Z o ) ].;X*X9.a 7 R H.H.(.}.qXIXzXxXnXxXzXnXSXcXnXVXVXVXGXGXJXVXGXGXnXGXJXnXqX1XI.k.`..XZXSXGXmXGXzXnXGXSXHXHXJXGXGXGXGXGXGXGXJXHXGXGXJXGXGXHXVXGXGXGXVXnXMXVXMXVXnXVXcXPXcXS q     > r , ,.K._.>XyXBXPXGXPXMX2XS.! V V C t e V V V e V V 9 9 9 9 6 9 9 9 9 s e 9 9 9 9 9 9 9 6 8 6 5 6 5 * 6 6 r e r 6 5 4 6 D w w u w w w 0 9 0 6 0 0 0 0 * D y g w 6 y 6 6 y . z.CXJXCXCXJXJXCXCXCXNXJXPXJXPXv.q 0 4 6 D 6 9 9 9 8 9 8 8 9 4 9 8 9 9 4 O @ 0 . + t 0 5 9 8 4 4 4 4 4 4 6 6 9 5 5 0 9 9 e e 8 6 0 9 9 0 0 4 9 9 0 4 4 0 0 9 8 0 0 8 0 0 8 8 r 5 , , 5 5 5 5 8 5 6 6 9 9 6 5 4 5 9 9 0 4 0 5 6 4 4 6 6 0 5 4 8 5 , * 4 , 5 r 5 4 5 5 4 4 , 4 r , 4 4 5 5 0 4 9 8 4 , , , , : 3 & , & & , 3 , 4 4 % * 4 4 5 5 % 4 4 4 4 4 > * > 4 > 4 4 4 4 4 4 4 4 4 > 4 4 4 , : , r : $ , , > * % > 4 % % 4 % > % % 4 % % % % + % % % & $ $ $ & $ & & : $ $ O O @ . ",
". O O O $ $ O O % % O $ $ % $ > > > $ $ $ : : > O > : > : $ O > $ $ $ > % > > > , > > > > > 2 5 4 4 - + > 4 7 4 1 4 4 > > 4 7 , 8 8 8 8 8 9 s 9 J a Z ;.-.n.'.1X0Xd.a I  .i L z P x z 7 j J.LXPX8X1XhX).d.J o _ o ; l.m.!.SXvX;XdXAX2.5 O - u.L.H.S.L.,.O 4 8 8 8 e 4 4 V 9 - s Z q 7 m.8X*XW.1.- q J 9.B.(.<XvXdXrXzXGXmXzXxXmXMXVXVXVXVXVXHXJXBXVXGXBXVXPXGXzX XV.h.|.{.nXZXbXzXZXzXMXIXSXHXSXGXGXGXGXGXGXGXGXHXGXGXJXJXJXGXGXGXGXHXGXVXVXVXVXcXPXzXcXHXPXnXY.l.4XXX3.=.,.UXFXBXAXkXLXLXBXHXMXqXc.W C A y r t V V 9 9 9 e e 9 0 9 8 9 9 9 9 9 9 9 9 r 6 9 e 6 6 6 e e y e 6 y 6 6 t t e 6 y y w w 0 # * 0 0 w * * 0 * * w w w w * 0 # * # # # 6 X oXJXCXCXCXCXsXCXJXCXCXCXJXJXCX5X*   0 # D 4 6 8 6 8 9 8 8 5 9 9 8 0 k 8 + . 4   + t 6 8 s 8 0 0 8 5 5 8 9 V 9 6 0 8 9 e e 9 6 4 0 9 r 6 & , r 9 5 5 4 5 8 6 8 8 8 0 6 6 8 0 5 r , 5 5 5 5 5 8 8 8 0 5 0 4 * 0 6 9 5 4 4 5 9 6 0 4 0 0 8 0 4 6 5 5 , , 4 5 5 r 8 8 5 5 4 , 4 , , 4 5 5 5 8 4 8 8 4 , , , , $ , , , , , , , & 4 % > 4 4 0 5 5 > 4 4 4 4 4 > 4 % 4 4 > 4 4 4 4 4 4 4 4 4 4 4 4 4 % 4 4 , , > , > 4 , , * > 4 > > 4 % 4 % > % % > & $ & $ & $ > $ & $ $ $ & $ . . . O @ ",
"O O O O O $ $ $ : O : O $ % > % : > > % % % O > O $ > > > % $ $ > > $ % : > % : , , 1 > > , , 4 , > > > > , > 4 8 4 - > > 4 5 7 7 0 7 5 7 9 a a Z q Z 1.3.j.).*X0X:Xf.r.,.; F > Z j n d o.%XFXLXPXKXZXPXPXdXZ g s.%.J h.vXhX8XAXrXbXKX} = Z r._.D.u.p.K.;.. 8 4 t r 5 r k 9 9 k J o ; i.=X8X].i.- - 7 G n..X_..XzXzXxXzXnXnXxXxXnXcXnXnXnXnXMXGXVXHXHXVXHXPXJXnX'.s.s..X(.vXPXPXhXSXmXGXIXHXGXSXHXGXGXCXGXGXJXGXJXGXGXGXGXJXGXIXGXGXHXGXGXVXGXGXcXVXMXPXHXHXPXtXPXaXPXPXc._ gXLXBXlXpXBXJXBXJXJXcXG.E A T C r t C e 9 9 9 9 e V 9 6 9 9 9 6 9 9 5 9 0 9 e e e y t t y 6 6 6 * & * 6 & & & & * * # # # # # # # # # @ # # @ # # # @ @ @ @ # @ # # . . v.CXCXNXCXCXCXJXNXsXJXNXaXJXJXVX@   S q w 4 0 , 4 0 5 5 8 9 9 k 8 4 e 8 + . X   q 9 8 6 e 6 5 6 6 6 0 8 5 6 9 6 8 6 5 0 5 5 5 4 4 4 6 6 6 , 6 9 0 0 0 0 8 6 6 0 6 8 6 8 6 8 5 5 r , r 5 5 5 9 8 5 9 9 5 5 4 0 5 0 4 0 5 0 6 9 0 5 5 8 6 8 8 5 5 5 , , 4 4 5 6 r 8 5 4 , , > , , 5 5 5 5 0 4 9 5 * , , , , 3 , , , , , , , & , 4 > 4 0 5 8 4 4 * > 4 * 4 4 q 4 4 4 4 * 4 + > # 4 4 4 4 4 % 4 % 4 4 % , & % , 4 4 % * , 4 > 4 4 % 4 > 4 4 * > 4 , O . $ $ > , , $ $ $ $ $ $ & . . X @ ",
"O O . O $ $ $ O O % O : > > % : > > % : : > $ % $ $ > > $ > $ $ $ % > : % > > > , , , > 1 > , > - 4 > 4 , 4 4 > 7 4 > > 2 5 5 5 4 7 7 0 0 7 7 8 g 7 G %.r.j.].|.].lXkX|.^.-.` a ..j K F e.{.{.7XAXPXdXhXvXPXJ g 6X'.Y W.KX;X;X6XvXwX{.K o ` E.J.2.r.p._.V.8 O z t 6 e V r 5 k A p s o 1 D.dX*XD.' Z 7 Z 1.`.s.4.2XdXuXrXhXuXuXxXaXzXcXcXcXnXnXVXGXGXGXHXGXHXIXIX6Xn.S.:XP.&XIXPXzXnXxXnXHXGXHXSXJXGXJXGXGXCXGXHXJXGXJXGXGXJXLXJXGXGXHXGXGXGXHXHXPXnXVXGXpXVXPXVXCXCXPXcXF.! f.K.Z./.yXBXPXJXJXJXBXL.! W W C t C V e 9 9 9 e e e s 9 8 6 6 8 9 9 9 6 9 9 9 e e 6 6 & & & & X X # & & X X X X X X # # # @ # @ @ @ @ @ # # # # * * 0 6 y y u D u u Q u Q ~ u y y & u E ~ v.iXJXJXJXPXNX# @ S 0 4 9 4 7 5 5 8 8 8 9 9 k 8 4 6 8 % . +   % e 0 0 e 8 8 9 9 6 0 4 4 0 6 9 9 9 6 5 5 0 4 6 * 5 & 6 & r 9 6 6 8 9 8 8 8 0 8 6 6 6 8 9 8 8 r r r 5 5 8 5 r 8 9 9 e 9 9 5 0 6 4 4 6 9 8 4 9 5 5 4 5 9 6 8 5 5 5 5 4 4 , , 5 4 5 5 4 5 4 , , , 5 5 5 5 6 6 5 4 > , , , , , , , , , , , & , & % > 4 4 8 4 4 - 4 4 4 4 4 % 4 * > 4 4 > + > + 4 q # 4 4 * > 4 * > , , , % % 4 4 > 4 > % 4 * , > > % 4 > % % % , % O O & % > > , $ $ . & $ . $ . @ + + ",
"O O . O $ $ O O $ $ > > > : : % > > > $ % $ : % O $ > > > $ $ $ % : $ $ > : > > > > > 1 > > > + > > > > 7 4 > > 7 , > 4 8 7 5 1 4 8 a 8 4 1 s z Z s _ ` e.V.{.3X|.:XfXjXbXe.z 1 x : I >.F.K...-.J.fXFXKXKXhXo d PX0Xn.|.dXdXfX7XAX6X4 : O ` V.n.r.e.e.j.UXV..   8 % r V % X e A @ Y s o h.fXW.F.R s s U R !.1.{ k.}.qX2XqX6X3XqXtXrXxXcXVXnXnXVXVXBXVXGXHXVXIXPX3Xk.U.qXU.'.mXZXzXZXhXnXKXSXSXCXGXGXGXGXJXGXGXGXJXJXGXJXJXJXHXCXVXGXHXHXHXGXGXJXVXHXJXGXJXVXaXPXPXPX5Xj.&.A T c.V.UXbXGXIXGXJXJXcXU.=.C A S C C V t e e e e 9 9 9 9 9 0 9 9 6 8 9 e 9 9 e 6 y 6 6 6 * * 6 y W W y 6 6 y S E Q ~ ~ 4.z.l.x.v.Y.v.Y.T.oXoXXX#X#X4X$X$X5XuXaXNXCXCXCXsXiX#X#X#Xv.v.~ y & * Q oXJXCXPX5X0   0 w * V 9 9 9 8 9 8 9 8 8 k 8 4 4 4 + + +   4 V 5 4 9 0 0 9 9 s 9 9 6 9 8 8 9 9 9 9 9 9 6 r 5 5 5 r 6 r 5 9 9 9 6 6 0 0 8 9 8 9 9 9 9 s r , r , r r 8 8 4 4 4 4 8 9 9 9 6 4 4 4 9 9 5 * 9 5 4 0 5 5 9 5 5 r 5 5 r 5 5 4 4 , , 4 , 5 5 5 , , 5 5 5 5 8 8 5 4 % > > , , , , , , , , , , , % % * 4 4 8 4 4 % q > * - > * + 4 4 4 > 4 % % @ * > * q * 4 % > * % > > % $ & , , * % % % % 4 4 % > * % * % % % % % O O $ $ $ $ $ $ & $ & $ $ $ . @ + + ",
"O . . : > $ O $ $ : $ % > > > $ $ O : O % : $ $ O > $ $ $ > $ > $ $ $ % > > > > $ % , , > : % > 4 4 , > - 4 > 4 > 7 8 7 8 8 j 5 7 > 7 4 8 s s 8 Z V G _ ;.n.{.7X|.H.J.E.wX*Xs p d d J  .|.t.3 x J :.f.W.].>X,.m.fXhXIXIXkX;X;XhXeXLXn.o s g s.H.9.d.,.a.{..Xe.  & K & K , r r A r 8 , K m.1X_.J   Z g g - L.n.` ! 2.(.rX}.2XtXyXtXaXcXnXnXMXVXGXGXVXBXBXGXJXJXDX:XJ.n.L.L.!.wXIXvXZXnXzXVXVXGXHXVXHXGXVXGXGXGXGXGXCXJXIXJXGXHXGXVXGXGXJXGXJXBXGXIXJXBXGXGXGXHXaXcXu.D V S } r.P.{.rXPXPXGXVXJXPXVX.Xz.! V C W V e e t V t V e e 9 9 8 9 w V 9 9 V 9 9 9 9 9 9 9 # t 6 u <.2.*.z.z.c.L._.3XhXIXPXJXJXHXCXHXJXGXJXJXJXJXJXJXJXJXJXHXPXJXPXPXPXJXGXNXCXCXJXiXCXCXiX#Xv.p.W @ 4.CXJXJXCX0 # w w 6 y 6 8 4 8 6 9 8 8 9 8 k 8 9 8   O 4 . 4 9 4 8 e 8 5 8 8 6 8 8 9 9 9 6 6 8 8 9 r r 4 5 8 8 r r & r 9 8 8 8 5 4 4 4 8 5 8 8 5 8 8 8 5 2 r , r , , r , , 3 , r , , , 4 5 0 9 6 8 4 4 8 4 4 , & 5 8 4 5 , , , > , , , , , % , , , , & , , , 5 5 5 , 5 , > % > , r , , , 4 4 4 , 4 , 4 % 4 4 % % > > 4 + % % 4 q > 4 > , $ $ , & , , $ , , $ , & 3 & & & 3 & 3 & & : & $ % % $ % & % , $ , : , % % $ & $ $ $ $ % $ $ $ $ & . & . $ . $ O X + > ",
"O . . O > % : $ $ O O : $ > $ $ > > % > > O > $ $ O $ > % % : $ % : % : : > > > $ > , > > > : > , , > > > > 7 8 > 4 5 4 5 7 8 5 5 7 7 8 8 9 9 a J Z G T ;.n.'.&X[.'.&X!.|.fXb.s b J d 8.0Xr.O 3 ' ' b o ; f.0X'.K.0X1XP.vXSXfX*X:XPXE.q 7 g m.W.,.,.k.V.8.E._.>   , r , y r & y r W O   a.dX&X` o s S - 9 ).u.D ! <.L.<XyX2XyXpXaXzXcXBXMXVXVXGXVXGXHXDXVXJXJXLXpXH.i.i.s.H.hXPXbXSXMXcXVXVXCXHXGXGXGXHXVXHXGXGXJXGXHXGXGXJXGXJXVXVXGXBXGXGXVXJXBXHXGXHXJXPXVX X2.V D S U ..3.P.{.fXLXLXVXGXPXIXPX:Xg.&.9 k C e V e V V e V 9 e 9 9 9 9 9 k 9 9 k 9 6 9 9 9 9 9 0 4 # W p.l.g.F.#XpXGXCXSXIXPXIXPXJXJXJXJXIXJXGXJXPXPXJXPXJXJXPXPXPXPXIXIXHXIXIXPXHXJXPXCXJXiX#X+Xc.z.4.@ # #XJXJXVX# @ * 0 0 # 8 4 8 8 9 8 8 5 8 9 k 5 9 6 . + , . 4 9 4 8 k 4 5 8 6 5 4 4 4 7 4 5 4 8 8 4 4 8 5 4 5 5 r , , , 4 4 4 4 0 4 > 4 4 4 0 4 5 5 8 8 , , , , , , , , , r r , , , , , 5 5 5 6 6 5 4 0 8 4 4 > , , 5 r 5 , , , , , , , 5 , % > , & , & & > > , % , % % , > , & & , , , % % , % % 4 % 4 % % % 4 4 , * % 4 * + 4 % * 4 % & : & : : , , , $ , $ & 3 , , 3 3 & 3 & : 3 & 3 > : , $ : , % , $ & , % , $ $ $ $ $ : & & : . $ $ $ $ $ . $ $ & X @ q * ",
"O . . $ : % $ > O O O $ : % % O $ : % $ O > O > $ : $ O $ : $ > > % > > , > > > : > , > > > > : > 4 4 > , 4 7 7 > 7 5 , 1 5 8 7 8 7 8 8 s 8 s 9 J z Z Y &.m.].&X[.E..X'.-XgX).' ; J d >.{.o.3 I d p J i b d.kXK.f 9.Y { 0.*XhXhXdXqX1.o f ` b.w.,.8.k.V.2.V._.k.r . W & y C y e e W O , D.jX&XJ.g ; Y + _ [.` 6 ! _ z.U.pXUX2XbXzXnXVXVXBXVXVXVXnXHXJXIXDXGXJXJXdXD.e.9.u.D.SXPXSXIXGXnXVXHXMXGXHXGXGXHXHXHXGXHXJXGXGXJXJXGXJXGXGXDXGXJXBXJXGXGXGXPXVXVXPXPXBX_.S y R E S Y &.D.:XjXPXLXGXIXPXHXPX Xj.<.9 V C t V V k e 9 9 9 9 9 9 9 9 9 6 9 9 9 9 9 6 9 9 9 9 6 * w w.T.L.G._.qXDXPXPXIXIXIXPXPXPXLXLXLXPXLXIXLXLXJXFXLXGXDXDXKXKXDXAXAXvXAXZXnX3XyXOXXX#XoX+XoXx.z.<.#   XXVXHXNX* @ 0 0 0 * 8 0 4 0 8 8 0 4 9 8 9 0 5 8 . + > . > 9 4 8 e 5 5 5 9 5 8 4 8 8 & 4 , , 5 5 4 , , , , , , , , , 4 4 , 4 4 4 4 4 4 4 4 0 5 4 5 8 , , , , , , , , r r , , r , , , 5 0 5 0 0 5 5 8 4 4 > 4 , , , , , , , & , , 5 5 r , , , , , , , , , , & , , , , & , , 4 , , , , 4 4 , , 4 4 , % 4 , % % 4 , , 4 4 4 4 4 4 > % % : & $ & , , : , 3 & 3 , , & , & & 3 & & 3 & 3 & , , % , , , & , $ , % , : , & $ . $ $ $ & & $ $ $ $ & $ $ $ $ $ O + q * ",
"O . . O > $ % : $ $ O O $ > : O % > : % > : > % : % % : % > % : > 1 > > : > > > > > , , , > > , 7 4 > > > , 4 7 4 5 5 1 , 2 8 8 8 7 8 8 9 s k d Z s V Y &.n.{.7X7XI.[.;X;X;X;Xn.) P F P ,.x r x ) z z z ) 1.W.{.o 7 J _ ) { !.fXPX1X` o g Y h.i.{ 8.} 3.G.G.~.pX<.  r C r & C , 5 & . S E.qX{.P.J   Y - 2._.D 6 ! T &.g.UXqXpXcXzXcXBXMXnXnXnXBXBXGXIXGXGXJXLXLX7Xn.k.k.s.D.PXKXSXIXGXnXVXGXCXHXVXGXVXGXVXGXVXGXGXHXGXGXGXGXGXJXVXGXGXGXVXJXGXGXJXPXBXVXJXPXJX3XQ E T V S ! &.V.'.jXPXPXIXIXPXJXVXXXc.2.V W C e V e V 9 9 e e e 9 9 t s 8 8 9 9 9 9 6 9 9 9 6 8 4 @ s p.(.L.v.I.2XjXnXnXhXwXdXhX9X7X2X:X&X*X&X|.|.{.{._.`.(.~.~.~.W.K.J.J.D.V.V.f.s.c.F.x.T.l.z.~ Q u 6 @ y 5XJXJXNX* # u w * u 8 5 5 8 8 9 5 5 8 4 9 > 4 0 . + 4 . 4 s 4 4 e 4 4 5 5 5 4 5 9 e 5 5 5 6 r 8 r , , , , , , , , , 4 4 5 5 5 0 8 5 5 5 4 5 0 4 4 4 , r , , , , 5 , , , , , , , , r 5 0 6 4 4 5 8 6 5 5 4 5 r 5 , , r , 5 r 5 , , r 5 5 , & , , , , , r , r , r , 5 , , , , , % % r , 4 4 4 4 % * 4 4 4 , 4 4 4 4 4 4 4 4 % 4 * > 4 : , $ 3 , , , & : , 3 & , & , , 3 & 3 3 & , 3 : & , , % % % : , % : & % , & : $ $ $ & $ : $ $ $ $ $ $ $ $ & . $ . @ + > ",
"O . . : > $ $ > $ $ O > $ > : $ > > : % > > $ : > > > % > > > > , > > > > , > > > > , , > > > , 0 , > 4 > 7 > > 5 a 5 2 , 5 8 8 5 5 7 8 a k s k Z s Z Y ;.m.{.1X;X;X;X=X!.*XfX%Xd.d J x c F j r s K Z 1 J T J.0X; g _ q J J ;.[.PXwX,.> 7 Z d.b.i.n.9.9.f.g.F.~.E.K   C W & r r e r , 5 B.FX;Xw.9 o G + 1.I.A - E $.2.G.}.BXLXpXcXcXnXcXnXnXVXVXBXGXGXGXIXJXHXGX1Xm.B.m.w.h.PXPXnXGXVXnXHXHXVXJXGXVXGXVXGXGXGXGXGXGXCXGXJXGXGXGXBXJXGXGXDXGXJXGXJXLXBXIXHXHXPXnX4.W W t K T J 9.K.:XLXPXKXKXJXPXPX Xc.2.S W V 9 e e 9 9 9 e t e 6 9 9 9 0 4 0 6 9 9 9 9 9 9 0 4 g - q { l.m.n.H.).`.`.!.P.B.B.B.V.V.n.m.b.h.d.d.d.i.d.0.r.8.6.,.5.O.@.| X.X./ L ..I ; o   @ 0 # Q u Q & * v.cXJXJXNX# @ * w 0 0 8 5 5 8 9 8 9 6 9 8 8 4 5 8 . + 4   % 9 4 5 e , 4 4 4 4 4 4 8 9 , , r r r r r r , , , , , , , , 8 6 6 6 8 5 8 0 8 9 8 5 8 4 4 4 r , 8 5 r 5 5 r , , 6 , r , 6 r 6 5 5 5 4 0 8 6 r 8 5 8 r 5 , , 6 5 , r , r , , , , r r 5 5 , , > , , & , & % > > , 5 , , % , , , 4 4 4 , % 4 % , 4 4 4 4 , , 4 > 4 % 4 * 4 4 > & $ , & , , , , , & & 3 , & , , & 3 & 3 3 3 , & , & , , % $ % % , $ % % & : $ % & $ $ $ $ $ $ & $ $ . $ . $ O &   . X + ",
"O . . O > : O % > O $ : > > % $ $ $ > $ % : $ > > > : > : > $ > : > > > > > > > > > , > > > > , 7 , > 4 , 7 > > 5 8 8 8 4 7 8 7 7 5 7 7 9 k s s z s V P %.s.E.|.^.;X;XB.B.W.;XwXD.a '  .c I F T J _ Z - x O ).kXY f Z Z g N.B.SXLXbXr.@ q _ d.9.%.0.i.d.g.k.K.L.UX_.k   5 S C y y k e + s.SX6Xb.7 q G o *.~.R @ R S <.#XtXjXrXBXnXcXnXnXVXnXBXVXVXVXnXVXGXPXIXSXwXn.H.n.1.h.mXPXnXIXGXnXVXHXGXCXGXSXVXGXVXVXVXVXGXHXGXGXGXGXGXGXGXGXVXVXGXGXJXGXGXIXHXPXGXnXJXVXa.R U S S A 9 } V.}.bXPXLXGXIXJXPX2Xg.<.S t k e 9 9 e 9 9 9 9 e 8 6 9 9 5 0 8 6 9 9 9 6 6 8 4 4 g a q s J { ;.;.' ` { ) ' ' _ J f d d d d d p p 7 p p p < 1 1 < p < < < p p < ; p n %.k.2.1.z.Q y 6 u u l.iXPXsXJXNX# @ 0 w 6 w 9 8 6 9 e k 9 9 9 8 e 4 8 9 . > >   4 9 > 0 e 4 9 9 r 8 8 8 8 8 6 , 6 r , r , , , , , , : , 3 , 8 8 8 8 5 5 8 4 9 9 8 8 8 4 4 0 , r 5 8 5 5 8 8 , , , , , r 6 6 6 5 0 5 5 5 5 5 9 r 8 8 5 , , , , , , , 6 , , , , , , , , , , & , , , , , , > : , , , , > , , , 5 5 , 4 * , 4 , & > > % * % % % + > * q > 4 4 4 , : & 3 , , , : , , , , , 3 , , : & , , , & 3 & $ , $ $ % $ , $ , & , $ $ , % % $ $ % $ , $ : , $ & $ . $ . O O   . @ % ",
"$ O O : $ O O $ $ $ O % > > > O $ > $ > > $ : % > > % $ $ $ $ $ $ % > : > : : , > > , > : > > > > > + > 7 8 5 , , 5 8 7 2 7 8 5 8 7 7 8 8 a a 8 s s x K ` i.H.~.[.;X|.;X[.[.;XAXE.-.1.-.k c j S A K A A } o 0.s.J o ' b { J b.[.DXIXf.- q :.B.m.1.i.i.n.V.s.k.L.(.qXS.r X S C 6 9 V 4   d.wX*XP.Y a Z   %._.} 4 R 5 K `.BXtXyXGXBXcXBXnXBXBXnXnXGXGXVXGXGXJXIXHX6Xm.L.F.i.F.fXPXGXIXKXMXGXGXVXCXGXCXGXVXVXGXGXVXGXJXGXGXGXCXGXVXJXVXGXVXBXGXJXDXVXJXHXPXVXBXPXBXu.E W C A K P &.f.L.1XDXPXIXBXGXPXpXl.<.R e V C t 9 t e 9 9 9 0 9 9 6 6 9 9 6 9 9 8 8 8 8 9 0 4 q ; q ; ; q q ; q ; ; ; ; ; o ; o ; ; ; ; ; ; o ; ; ; ; ; ; ; ; ; ; ; ; < < < ; o p H.PXSXhXuX;Xv.z.z.x.#XsXCXsXJXsX@ @ * 6 w 6 8 8 9 8 8 8 5 5 5 5 9 4 9 8 . + % . % r > 4 e 4 e e e r 8 5 8 8 , , , , , r , r r & , 3 , , , , 5 5 5 5 5 5 8 8 5 5 4 4 5 5 5 5 r 5 5 8 5 5 5 5 6 5 6 , , r , 6 0 8 5 8 0 5 5 5 5 5 4 4 , 5 , , , , , , r , , , , r r , > % , r 5 , r , r & , , , > % & , 5 5 , 5 5 , 5 , 4 4 % , 4 4 , , % , % 4 q % 4 * 4 > 4 & , & , & 3 , , , 3 , & , & , , 3 & 3 & & 3 & : $ % , & & : , > > > $ , $ & : $ $ $ $ $ % , , & $ $ & $ . $ . $   . + > ",
"$ O . $ : $ O $ O O O $ $ > $ O O $ $ O $ % O : O $ $ $ $ O $ O $ $ $ $ > > > > > : > > % : : , > - + > 5 8 7 5 1 7 8 5 4 5 5 1 8 8 5 8 8 8 7 2 Z Z G Y -.d.K.).[.].=X8XgXlX7XfXQ.r.} c r A c r T R x r R Y o q s ` ) Z J J J B.LXbX1.  s 0.K.J.9.0.d.n.f.a.G.D.I.}.BX.X$.e 6 t W $.C X B.vX).B.1.- s @ *.}.U e k k e *.qXLXcXpXbXcXcXzXcXcXcXcXVXHXJXGXVXGXIXPXwXf.D.H.s.E.8XPXKXPXIXBXCXGXNXGXMXGXVXVXGXVXGXMXGXGXVXGXGXGXGXJXGXGXGXBXGXGXGXJXVXPXGXVXBXJXPXnXu.S S Z x T K _ r.s.~.fXLXLXGXBXPXJXc.g.<.k D V V k V e r 0 4 4 s 6 8 9 s k s 9 4 0 0 0 9 9 8 0 d q 7 ; o o ; o o ; o ; q ; ; ; ; < ; < ; ; ; ; ; ; ; ; ; < ; < < 3 p p p < p a =   G.SX3XOX+X;X@Xv.l.l.v.T.iXJXJXcX# @ 0 y 6 w e e 9 8 9 8 4 > 4 > 9 4 8 5   . >   4 9 4 4 e , , , 4 4 4 > 4 5 , r , r , , , r , r , r 3 , r , 4 7 5 5 5 8 9 9 > 4 4 0 5 8 8 8 & 5 5 4 5 4 5 4 6 6 6 , 6 , & , 4 5 0 0 9 6 4 4 , % % % , , r 5 , & , , , 5 5 & r r & $ $ % , r r r r 5 , , , , , , > > , , 5 , 5 5 , 5 4 4 , 4 5 5 5 4 5 4 4 4 4 % 4 > + % % % 3 : & , , , , & , , , , , , , , & : : & 3 & 3 & , > : % , , , & , $ & : % % : , $ & & $ $ $ $ , $ $ $ $ . $ $ & . X + 4 ",
". O O O O O $ $ % O > : % $ % : O : O $ > > $ $ O $ $ $ : > > , > > , , , , > > > > % > > > , > 4 4 > > > 1 > 7 5 5 5 5 5 1 7 , 8 2 8 r 5 2 2 k F j c F ..g.L.J.].;XW.].=X[.8X8XQ.d.{ { J 8 } e , W y & r C ..A J J J ` f J :.m.fXvXf.4 a 9.W.s.1.w.i.9.9.f.V.g.U.H.F.zXPXaXu.8 =.*.U V 9.vXwXm.{ g W q 1.|.=.g V $.R % p.VXpXyXqXBXbXyXLXBXcXBXBXVXVXGXHXHXHXPX8Xh.H.n.9.F.3XPXPXPXKXVXVXGXVXGXGXVXGXGXGXGXGXGXGXGXGXJXJXGXGXGXGXBXGXGXGXVXGXHXPXBXBXPXVXJXPX5X=.K S G z S P F -.3.d.~.bXPXKXDXLXPXY.u.3.t W C 9 e V V 9 9 9 e 9 9 9 9 9 9 9 9 8 6 9 0 4 4 0 8 r 2 1 ; ; ; ; ; ; ; 7 ; 1 ; 1 ; 2 , > : : 1 2 8 ; 1 , , : 1 1 : $ $ 3 3 3 1 1 7 0 q B.sX4XOXiX4XY.v.v.T.T.oXaXCXJXsX@   y * 0 e 9 8 5 9 9 e 8 0 > 4 9 4 5 4     $ . , , , , , & , , 5 5 > > r r 8 5 5 , 5 r , r r , , , , r , , 4 4 4 8 9 9 8 8 0 4 4 8 5 8 8 5 5 9 9 8 6 6 0 6 5 6 5 5 6 0 5 0 5 5 0 5 4 4 4 4 4 , & , & , , , r r , , , r 5 r > % , , > , > % , , % % , % , r % , r , % , , 5 4 5 r 5 5 & % , & % % > 4 5 4 8 4 * > % > 4 4 4 % % , > , , , , , > , , , , , % 3 , , , $ , $ , , , : , $ , , , , , , , % $ & $ $ $ $ $ $ & $ . $ $ & $ $ $ $ $ . @ q 4 ",
". . O $ : : > > $ : $ O : $ : O > > : % > $ > $ O $ $ > > > > > > > , > , > > : : % : > > > : > 4 4 - - 4 4 4 > 5 5 5 7 1 5 5 4 8 2 2 r r 5 8 k x 8 e z P r.C.G.[.gX;X=X[.Q.Q.!.Q.h.B.M.@ 8 (.L.c.a.,.3.p.I & c g J q J g q q 4.(.PXqX-.q 8.|.].d.d.0.i.s.g.k.c.V.U.U   tXDX}.S 9 U l.Y o [.SX{ a - J q { W.Y 0 } 9 ! R V F.BX<XyXGXBXBXcXLXcXBXBXBXVXVXSXCXHXIXdXB.b.s.%.w.&XIXIXIXGXVXVXCXGXCXGXVXCXGXGXVXCXGXGXCXGXGXGXGXVXVXGXBXBXGXGXBXBXGXPXGXVXVXzXJXPX}.$.E K A A J I Z ..r.e.F.1XLXPXDXGXPXS.3.*.r S t 9 e e e 9 9 9 9 9 9 6 6 8 6 9 6 8 9 9 8 0 4 0 8 r , 1 - - - q ; q ; ; ; 1 7 ; < 2 > > > > > 1 4 : > > > : : $ $ $ $ $ : > > > 4 @ # B.NXiX$X;X+Xx.oX+X$X+XT.iXJXJXcX#   t * 5 6 8 6 9 8 8 8 8 8 4 4 9 4 8 5   O & & & r r r r r 8 8 r r 5 , , r 8 8 5 , 5 , 5 r , , r , r , , r 4 4 4 8 8 9 8 8 5 8 8 5 5 8 0 4 0 0 5 0 5 4 5 4 5 6 9 6 9 5 5 4 9 9 5 0 4 0 5 8 r 5 4 5 r , , % , 5 , , 5 5 , 5 , r r r 5 r r r r 5 r , , , , , , , 5 r , , , , 4 , 5 5 4 , * > % , > 4 , 4 , 4 4 4 + 4 4 4 % 4 % > , > 3 & , , , , > > & % , % , & , $ , & , $ & , % % % % % , & % $ , & , : : $ $ . $ $ $ $ $ . $ $ $ $ . & $ . + > 4 ",
". O O O > > > : $ + $ + + > O $ , > O : $ > $ O $ > > > > > > > : > > > > > > $ > : > > > > > > 4 > - > > 4 4 - 1 > 4 4 , 4 1 4 8 , 2 8 2 , 8 j k a j k S ,.V.J.[.8X;X=XQ.B.Q.!.Q.:.].8X- G PXnXpX5XyXpXGX}.K r J H.i.g { d.;.b.E.LXDXa.o _ J.).d.9.0.i.9.2.s.H.U.UXj.4   v.2.=.R D ;.;.Y '.wXB.G g G s ;.(.%.4 R S U ! 9 $.XXqXUXBXBXGXcXGXBXGXVXVXHXVXSXSXHXIXvX].9.w.%.;.&XPXIXHXGXMXVXMXCXSXGXGXVXGXVXGXGXGXVXGXGXGXGXGXGXGXHXVXVXJXHXVXGXIXcXGXPXJXVXPXcXg.T R Y A S P H F  .s.e.k.~.GXPXGXJXKXc.*.$.6 A t V e k w e e t e 9 9 9 9 9 6 9 8 0 6 9 9 6 8 4 7 , , , 3 ; ; 1 1 ; 7 1 1 p ; 1 : > $ % $ $ % > > > % % % $ & $ $ > , % > , 4 * * @ @ B.NXiX$X$X@X$X@X+X+X$X+XuXCXCXzX#   9 * 6 5 4 8 9 8 4 4 8 8 5 5 r 4 8 8   . $ . , r 6 , r r 5 r r r r 6 r r 8 4 4 4 4 5 5 r r , , r , , 5 , 5 5 8 8 9 8 8 4 6 5 5 8 8 8 8 5 8 8 5 5 5 5 4 5 8 6 6 9 8 6 5 5 9 6 6 4 0 8 8 6 8 8 r 5 5 , , % , , , , , % % , , > & , 5 5 5 r , 5 , , % , , & , , & r r r , , & 4 4 4 % 4 , 4 4 4 * , % 4 % * 4 4 4 * > 4 > * > > % % 3 , , , 5 , > & % > , , , & 3 , , & : & , % , : & & , , : % & : : > : & $ $ & $ & $ . $ $ & $ $ . $ $ $ @ @ + + ",
"  . O : $ % $ O : O % : $ $ > $ , > $ O O : > > > > : > > % : > > $ > $ > % : > > > > > > : , > 7 > > > 4 > 4 > , > > 7 4 1 5 5 5 , 2 8 8 , 8 j 7 k k j A -.V.R.B.|.=X;X!.B.[.;X!.J [.8X@ 3.PXSXpXpXpXpXLXPX&.  1.KX!.; b.SXAXwXeXvXwXp.; Z d.P.s.i.s.h.f.s.n.).F.F.dX(.. . C u.w.l.;.4.J.hX%Xm.;.` ` g $.(.1.X C ! S W =.T u.qXUXyXbXbXBXjXGXBXGXGXHXHXHXSXHXIXvX[.9.w.,.,.[.PXLXIXKXVXVXGXGXCXVXVXGXGXGXVXVXVXVXVXGXGXCXGXCXGXVXBXBXGXHXGXGXJXVXVXBXzXpXLXpXz.D } } K K J F P o.d.r.f.G.bXLXKXPXPXS.*.$.r C C D V e 9 k V V V 9 9 9 t s s 9 9 8 6 9 9 6 5 4 4 r , , , > > > 1 1 ; ; ; 1 q > > > $ > $ % % > > > % > % > , % % 5 4 * 4 4 4 * % @ @ B.SXiXiXiX$X@X$X#X$XiX+XiXNXJXsX0   6 6 r 4 4 5 5 0 4 4 8 9 8 0 e 8 6 8     $ . & r , , , , , , r 8 , , r r 4 4 8 4 5 5 8 5 , r r , , r 5 r 9 8 5 8 8 8 4 4 4 4 5 5 8 8 9 9 8 9 9 8 5 9 8 8 8 5 8 8 6 8 5 5 5 5 0 5 5 0 4 4 r 8 5 5 r r , > & , , 4 , , , , $ > % , , , , , , % % % % , , , , , > > & , & $ , % % 4 * > > 4 4 4 , 4 4 % , % 4 4 4 > * 4 > > % > % , & , $ & , , , > > > , 4 , , , & , : $ , $ , % & : : : $ $ $ $ % $ $ % % $ & $ $ $ $ $ $ . $ $ . . . $ , . O X + ",
". . O $ : $ O O : O $ $ $ % $ % > $ O O $ % > > % > > $ $ > : $ % : : & $ : % > > : : > > , > , > 4 4 > > > 4 > 4 - 4 > , 4 7 5 2 , , 8 2 , 5 j 2 j z j n } d.P.].^.-XhX=X[.=X=XQ.w.8X!.q B.PXhXGXyX:X3XyXLXr.e [.PX!.7 B.IXZXKXdXrX&X;.@ ) B.).i.,.1.9.f.c.c.S.[.`.&XhX2XT ! W n.h.1.;.B.wX`.m.i.u.9.K G H.s.s C A E U ~ &.<._.yXUXpXcXBXpXGXGXVXHXGXHXHXSXHXIXAX].9.1.=.i.!.KXIXGXGXGXHXHXCXGXGXVXGXVXVXGXVXGXGXVXVXGXGXGXGXGXBXBXBXVXVXBXnXGXGXnXzXaXzXGX3X*.k } %.Y I Z x ) -.r.-.a.V.jXGXKXPXJXG.<.$.e e k V V t k V V V V 9 9 s s k w 9 9 9 9 6 0 0 8 0 4 r , & & : $ $ 3 ; 1 - - 3 $ 3 : % % % % > > > > 4 4 > - > > > 4 0 > - > > 4 q # # @ x.CXsXiXsX$X+X$X$XiXsX+XiXNXJXsXt @ 4 6 6 % 5 0 > 4 8 8 8 5 9 8 r 5 9 6     $ . : , , , , , , , , , , r r r 4 7 0 0 0 8 0 5 6 r 6 , 8 5 8 5 8 8 8 5 5 6 0 4 4 4 4 0 8 8 9 9 8 8 8 5 4 , 5 5 5 5 5 5 5 4 4 , 4 4 0 0 8 0 4 4 4 4 5 5 5 r , , 5 5 , , , , & , , , , , 5 , , & > , & , r r , r , & , > , , % $ 4 % % % , , 4 * 4 4 4 4 4 % , % 4 4 + 4 + 4 % % > > % % , : : : , , 4 , , * > > 4 4 % , & $ > & : , > $ & $ & $ $ $ $ & % & : $ $ $ $ $ $ $ & $ $ $ . . & . . & % q + * ",
"O O $ $ % $ $ O $ O $ $ $ $ > : $ $ O O $ > > : : $ O > $ $ % $ > > > $ $ > : % > > , > > > > , > > 4 7 4 - > 4 - > > > > 7 4 2 , > , 2 5 , 2 j j x A C K } e.U.=XB.!.hX[.[.[.=X!.B.hXB.J ;XSXSXcXyXUX.X}.yX3.T hXAX{.i.[.fX;X8XrXhXW.d o ,.E.W.f.d.m.s.k.L.V.K.E..XP.rXDXdX}.!.P.n.B.!.=X;X!.W.P.H.S.3.{ L.j.D S C } U U &.! c.UX3XUXBXBXBXcXGXVXVXGXSXSXCXHXIXIX*Xs.4.` h.E.hXDXGXVXVXGXHXJXJXVXVXVXVXVXVXVXVXVXVXVXVXVXGXGXGXJXHXGXIXGXBXBXVXaXpXzXVXBXJX#X} V Y } T F z Z ) o.,.;.d.D.jXLXPXDXVXL.2.~ e r t k k 9 9 9 V k w 8 6 9 6 9 6 9 9 e 9 5 5 0 5 8 5 , , , , & $ $ & - - : : $ $ $ $ > 1 > > q - 7 - - - - - % > > > - > + + + - + + @ @ Y.CXNXsXsXiXsXiX$X$XiX+XiXHXCX5X6   5 e r 4 8 4 > 4 8 9 6 5 8 4 9 4 r 8     . . & r , r r , r r , , & , , , 0 0 8 6 6 0 9 5 6 , 5 r 5 8 5 8 9 9 5 5 8 8 8 4 0 4 8 5 5 5 8 4 4 4 4 , , , & 4 , 5 , 5 5 4 4 , % * 4 0 6 4 4 % 4 4 , , , r , 5 , r 5 r r , , , , , , , r , , , > > > , % , , , 5 , 5 , 5 5 , , % % 4 > > 4 , > % , , % * , 4 4 4 + 4 % + 4 4 % , % , % , & , & & , 4 4 4 4 > % , % 4 4 , , , , & % , % , , : % & $ $ $ $ : , $ $ $ & $ $ $ $ . $ & $ $ . $ $ $ X + * 4 ",
"$ O $ $ $ : $ $ O $ $ $ : % % > : $ O % $ > $ $ $ > $ % > > > % > > : $ > > : > > > , > , > , > - > 7 , > 4 > > 4 > 4 , 4 4 , 1 , 1 , 5 2 1 2 8 j A c x P  .e.W.=XW.!.=XQ.=X=X[.=XQ.;X8XB.hXvXmXyXjX2X.X2X1X2.2.wX;XfX[.7XhXwXdXAXqX9.o d s.).J.s.i.V.p.r.g.h.K.P.!.6X&X#XnXnXPXhX;X!.B.B.[.W.!.|.W.H.S.i.L.n.V ! } ~ W ! } E 2.K.{.UXpXBXLXbXVXMXMXVXCXSXHXHXIXIX7XB.9.K n._.vXIXGXGXGXHXHXHXHXVXSXGXVXGXMXVXVXVXVXVXVXVXGXGXHXPXHXHXJXIXGXVXGXnXcXaXaXpXJXrXl.D Z Y _ J l b L &.>.,.e.V.9XPXPXBXGXoXa.<.C 6 t 9 9 9 e 9 9 9 V 9 9 9 6 0 8 6 8 9 9 5 5 0 8 5 4 & , , , , & & , , > > $ $ $ : : - - q 7 7 1 q 1 q - - - - - q 1 > > > - - - > > @ @ F.CXNXsXNXiX$XiXsXsXsX@X$XJXsX X&   * r 8 8 4 4 0 8 6 8 8 5 8 4 5 4 r 6     & . $ r , , r , r r r , , , , r 0 9 0 6 9 9 6 9 6 5 5 6 6 8 6 5 8 8 4 5 0 8 8 8 4 4 5 4 4 4 , 4 5 , , , , , > > , 5 , 5 4 , , 4 4 4 4 4 4 4 4 8 5 4 % * & 5 5 , , r , 5 , , , , & , % , & , , , % , > , > > & & , r r , , , 4 , 4 % & > 4 4 > % , % 4 % , % 4 4 - > + - 4 4 > > % > , > , : , , , 4 % 4 , % 4 > % & 4 % % , , % % , , > : & $ $ $ $ $ $ : & % $ % % $ $ $ . $ $ . $ $ $ $ . $ $ . . @ + ",
". . O O O O $ $ O $ O $ O > : > > > : > > > $ O $ > > : > > > > > > > > $ > > , > > > > > , > , % , 1 4 4 > > 4 > 4 1 4 , 2 5 4 , > 1 , , > 2 a 8 j 8 8 K ..d.E.[.B.-X7XB.=X[.B.;X8X8XhX[.hXhX8X3X0X~.(.bX<X4.n.ZX;XvX;X!.[.wXdXdXL.@ o _ e.P.P.m.8.s.2.9.f.a.G.P.P.(.*X2X2XyXrXIXSXHXSXgXhX1X`.'.U.(..XG.I.H.;.<.&.! ! ! =.*.W a.L.XX{.BXBXJXBXBXGXGXGXHXHXHXIXSXgXB.9.W n.&XvXPXLXIXJXJXHXGXVXVXVXVXnXGXVXGXVXVXVXVXVXVXGXGXHXBXnXBXBXVXVXBXGXrXzXzXzXcXPXGXS.K k S ` F x Z J o.:.6.,.s.:XLXLXDXPX}.k.9.W 9 k 6 9 V e e 9 9 V V V 9 9 8 8 0 6 6 5 0 8 9 9 5 * 3 & & & , , , , , > % % $ , & , q 7 - 7 q 7 7 q 7 4 q - q q 7 7 1 1 7 7 > > 7 8 @ @ Y.HXNXsXCXsXsX$X+X$XsX#XiXCXNX#X* X * r , 4 > 4 8 9 8 8 8 9 4 4 4 * 8 r   . $ . , , , , , , , , & r , , , % 0 0 9 w 9 6 9 6 6 6 6 5 5 8 5 6 9 8 5 4 4 8 8 6 , 4 4 4 4 0 4 4 5 5 r 5 5 , r r , 5 r 2 8 4 , 4 5 0 4 4 * 4 8 6 r 5 4 , , , , , 5 5 r 5 5 , , & , > , , 5 , , , r , , , , , > $ 4 , , r , % % , 4 > , 4 8 4 4 % 4 4 4 , 4 4 % , * + + * * 4 4 4 & , % , , , , , 5 4 > & * % > 4 % % % % 4 4 5 4 , > , , , , % % % % $ $ & : % $ $ % % $ & $ . $ $ $ $ & $ $ $ &   @ X + ",
"O . O : O O $ O $ $ > $ $ : % O $ > > > % > > > O $ % > % > % : % : : % : , > > O > , , , : > , 4 > % % : , , & > , , , & % , , , , , 1 8 5 0 1 a 9 a 7 P ` ..J.].W.-X;XQ.;XW.M.].fX7X.XK..XpXpXyXXXoXUX3X5Xj.I.vX2X8XwX&X1X1XIXmX9.o a Y W.&X~.H.i.f.f.i.s.n.U.I.I.I.`.&X3X2XrXzXPXIXLXIXPXhXwXDXzX<X2X}._.F.p.a.~ $.R E $.$.4.%.H.I..XeXpXGXGXVXVXcXPXcXBXVXBXSX|.D.;.P i._.dXGXPXPXVXPXHXnXGXVXVXBXcXGXCXGXcXcXVXCXVXVXcXVXJXGXBXnXnXnXnXnXzXrXbXnXGXIXGXHXG.$.k D } J a s q ) ' :.{ q.:XZXPXBXJX}.g.*.S S V V s s s s 9 6 s V s 8 0 9 k V 9 6 8 9 8 0 8 5 5 4 5 & , , : & , : , , & , , , & 8 7 4 4 4 7 > 4 > 4 4 4 4 - > 4 > > 8 2 8 4 1 4 @ @ Y.JXHXuXJXsXiXsXiX$XiXiX$XCXNXCXW X X 6 > , e r 6 9 9 9 8 5 5 6 8 r e 4 . . $ . & 2 r , r r , r , & , , , , r r 6 4 6 6 0 9 8 r 6 8 4 4 , 5 r 8 5 5 6 r 5 % , , 5 5 r 8 5 5 r 5 5 5 4 5 r r 4 8 5 , 5 r 5 5 4 5 4 5 5 5 5 5 5 4 4 4 , , , 4 5 5 4 8 4 4 4 , , r , , , , r , % & 5 , , , % 4 4 , > 4 4 4 , * 4 4 , 4 , % > % 4 , , % 4 % 4 4 4 4 4 % + 4 > * 4 4 4 + * > 4 4 5 5 5 , 4 4 4 4 4 4 4 , % % 4 % , : > % % % $ & : $ % % % % $ , 3 & $ $ $ $ & $ $ $ $ $ $ $ $ &   O + , ",
"O . O > O O $ O $ $ $ $ > O $ $ > % O : $ $ % : O : % : : > : % > % > > > > > > $ > 2 , > > : > 4 > > > > , % , , , , , > , , 5 5 5 7 5 a 8 a 8 s a 9 a T ` } V.Q.B.=X,XB.].W.Q.0XdX{.).(.yXpXUX.X`.U.(..XnX X3XrX X'.8XrXvXdXLXAX` + Y g.3X}.G.n.n.S.s.i.p.e.g.B.(.}..X X3XqXzXIXvXvXSXKXzXdXrXnXIXzXaX X_.I.oXG.p.2.$.U ! =.2.*.p.`.'.<XIXDXBXLXnXGXPXNXJXBXGXLX7XW.9.} s.~.6XZXIXKXAXKXGXZXIXcXVXVXcXBXGXVXcXVXVXVXGXBXVXGXHXIXIXIXIXGXMXDXGXVXnXBXnXnXJXPX(.$.V Z E J g J s ' { ' { i.0XLXPXGXCXoX<.&.C V V k s s s s 9 9 9 e 9 6 8 6 9 9 6 9 8 8 0 0 5 0 8 r , , , , , , , : & & 3 , r , : 7 4 > 4 4 4 4 > * 4 > 4 4 4 4 4 > > , 8 5 , 4 q @   Y.JXCXsXCXNXsXiXiXiXiXiXiXCXJXNXy @ X 0 $ 8 9 9 0 0 8 6 8 5 r 6 8 8 r , O O , . & , , , r r r r r r , , , r r e 6 6 6 4 4 5 5 8 r 8 5 5 , , r r 5 5 r r 5 4 4 4 5 5 5 5 r 8 5 5 , , , , 5 5 5 5 5 4 4 5 5 4 0 5 6 6 5 0 5 5 5 5 5 4 , , , , 4 5 6 0 5 4 4 , : : & , , , , r , , 4 4 4 5 4 4 , 4 4 , 4 , > , > 4 * , 4 4 * % 4 4 * 4 % 4 4 % q > * 4 4 + 4 4 4 4 > 4 > % 4 4 5 4 4 , > 4 , % , % 4 > % % % 4 & $ , $ & % % $ , $ & $ $ $ & : $ $ $ & & $ $ $ $ $ $ $ $ $ $ $   . + > ",
". . $ : O $ : $ $ $ $ % > $ $ O $ : $ > $ O : O O $ $ > : % > $ > $ > > : > : , $ > , , > % > > , > > > & , , % , r & , , , , 5 4 1 2 7 8 8 a 8 z s 8 s _ } ..h.m.m.Q.^.b.).).B.1X0X'.).}.3XyXUX.XoXU.I.(.VXeXqXvX<X_.rXvXhXdXhX&Xo - ;.|.vX).f.f.s.s.9.e.a.u.V.s.!. X&X<X6XtXdXbXzXIXvXSXZXSX<XzXIXnXzX<X!.F. XXXF.g.<.$.*.*.4.;.*.G.!..XDXPXGXJXzXJXGXcXPXcXLXKXfX].s.;.s.E.wXZXKXZXmXZXGXGXIXnXnXBXBXBXBXVXBXBXBXBXBXBXVXVXGXzXBXIXBXzXzXzXGXzXaXnXrXpXnXtXk.R V s D g Z J d ' { ) ' e.7XLXDXGXBXY.W T C r j s 0 s s s 9 9 9 9 9 9 6 7 0 8 6 9 9 0 4 4 0 5 9 , , , , , , , , , , , , , , , , 4 4 4 , 4 4 4 q % 4 4 > 4 - 4 % > , , 4 4 4 4 0   @ U.PXJXaXCXsXNXiXsXCX5X$XsXCXJXiX# @ * e > k 5 5 5 5 6 6 9 5 e r 5 5 r & $ , , . $ r r , r , , , r , , , , r 6 6 5 5 4 5 4 5 4 5 8 8 r 5 , r 6 8 5 5 6 r r & 4 4 5 , 5 5 r 5 5 5 4 4 5 5 5 8 4 5 5 , 4 5 5 4 4 0 5 0 0 6 8 8 5 r 5 5 & 5 , 5 5 5 6 5 4 4 , * , , : , , , , r , 4 , 4 4 4 4 4 4 , * * * , 4 4 4 , 4 > > 4 % , 4 5 , 4 , % 4 % > * q % * > - 4 * > + 4 4 > 4 > 4 4 , % 4 , % , % * > * % % % % : , , $ , $ & $ $ % : , : , : % $ $ $ $ $ $ . $ $ & $ . . & . $ . . @ > ",
".   O $ O O > $ O $ $ : O $ % : % : O O $ > % > $ $ $ > > % : > $ > : > > > > > > > , , > % > : % % > , , , > > r , > , 5 r , , 5 2 5 5 8 e 8 a s s 7 z `  .,.G.W.B.B.B.w.^.).t.E.*X.X{.}.UX#XyXUXU.U.XX_.rXqXyXyX2X|.ZXZXdXhXKX0XV - ` &X7XE.).H.f.k.D.g.e.s.G.g.L._..X2XeXrXrXzXxXIXbXvXIXIX XBXIXzXnXcX<XU.yXUX_.(.v.z.z.4.*.4.w.k.).I.I.tXHXIXvXVXGXaXJXcXGXAXAX1Xf.1.i.E.dXIXKXGXZXGXGXGXnXnXnXnXzXaXbXBXVXBXcXcXBXnXVXGXGXmXGXIXIXBXzXnXDXnXdXIXzXzXIX4X2.e 9 V Z g Z Z 7 J { ) { r.%XLXGXJXCXoX, y C k e s s 9 s 9 s 9 9 9 9 9 9 9 9 9 9 9 6 8 0 0 5 5 8 , , , , , , , r , r r & , , , , 5 4 4 4 4 4 4 4 4 4 4 4 4 4 4 4 , , , > > - 7 0 @   T.PXJXsXCXNXsX$XiXNX#X#XsXCXCXXX@ + e e 4 8 4 5 4 0 6 9 5 5 r r 4 5 r , $ % , . $ , , , , 3 , & , , , , , , 5 6 5 5 0 5 8 9 5 5 5 5 , , r r 5 4 4 4 8 6 5 5 5 , 5 4 5 5 8 8 r r 5 5 5 5 5 8 , 4 5 , & , 4 , 0 4 5 5 5 0 8 9 5 5 5 5 , r 5 5 4 4 4 4 8 4 4 , r r r r , , , , , & , , % , , 4 , * , , , 4 , 4 > * > 4 4 % 4 % % % % , 4 4 % > 4 > > 4 + 4 4 > 4 4 4 > * 4 * 4 % 4 % 4 % , * 4 % % , % % % > * , & % > : $ : , & % $ $ & : & % $ & $ . $ . $ $ $ $ & $ $ . $ .   . + > ",
"    O : O O > $ O $ + : > O : O $ > $ $ > $ > > O : $ > > $ > O > > : > > > > > > > , > , : $ > % , , & , , > % 5 , > > , , , & 8 8 2 8 8 r k a a 7 5 x _ } d.~.Q.B.Q.B.0.B.-XB.P.).*X;X3X3X3XyX(.c.Y.}..XqXpXqX6XtX7XSXvXwXvXSXPXg.V 1.vX&XE.'.H.g.L.'.V.i.h.s.F.U.(..XqXrXrXdXIXzXzXZXrXbXnXqXZXGXzXnXJXrX(.rX:X3XtX}.v.s.z.r.3.9.4.B.(.U.}.yXHXIXBXJXcXGXHXGXKXKXwXf.1.1.L.dXKXKXGXGXZXZXnXnXnXcXcXpXrXzXnXVXBXcXnXnXnXVXVXGXzXnXGXVXcXzXnXnXIXzXnXqXzXPXyX<.% V S S g V z a J ;.P ` 8.{.PXPXGXJXUX6 6 S Z 0 s s s a 0 g s 9 9 9 5 5 9 e 9 6 8 8 6 9 9 6 0 4 , , , , , , , r , r r , , 5 5 , 5 5 4 4 4 4 4 > 4 4 4 4 4 > 4 4 , 4 1 , > q 0 7 .   T.JXCXNXCXCXiX5X$XaXiXiXsXJXxXY.@ # g 7 ; a 0 4 4 8 9 6 0 7 5 r 4 5 r & . $ , & & r r , , , , r r r 5 5 r 8 4 4 4 0 0 6 9 8 5 5 , % , 5 r r , % 4 4 , 5 5 , 5 5 5 , 4 5 5 r % 4 % % 4 % % 4 , 5 4 & 4 5 5 , 4 0 4 0 4 4 4 4 5 5 5 4 , 5 , , 4 4 5 5 4 4 4 4 , r , , $ & : & % 4 , 4 , % , % , * , 4 > 4 , 4 > > 4 , % , 4 % % % * > 4 4 > 4 4 4 % 4 > 4 % * + * > 4 4 % 4 % , % % 4 * , 4 % % % 4 % > % 4 4 $ > & % & $ : & : , $ $ % % $ $ $ $ & $ . $ & . $ $ $ $ & $ $ .   . + 4 ",
". . O > O $ $ $ : $ $ $ : % $ % $ > $ > > > > > O % % : : > > $ : % > % : > , > > , > > > > > > , % % > , , > % > , > : > , , , 5 2 , , 5 2 5 2 a a 2 z F J 8.D.m.b.M.B.w.s.).Q.Q.W.;X;X3X2X2XUXoXL.~.}.}.5XzXyXtXtX2XdX8XwXfXhXZXh.s m.PX1X).J.V.D.~.).g.i.S.a.L.I.)..X2X8XtXbXZXnXvXIXrXnXzXqXGXIXzXzXnXrX!.8XqX3XyXUX(.U.S.g.p.a.s.g.XX3X(._.zXBXzXPXzXnXJXGXKXKX7Xa.9.1.D.dXKXmXAXGXZXZXnXzXnXcXaXtX5XaXcXnXVXBXVXnXBXnXBXnXzXvXzXzXzXzXjXuXIXzXrX3XrXGX2X! + V G V s s Z s ) ' P T r.:XLXLXbXJXpXC - G Z s s s s s 0 0 9 8 e 0 4 0 9 e 9 8 7 5 6 9 9 8 4 4 6 , 6 , , r , r % r , , , , , , 8 5 4 4 4 0 4 4 4 4 4 4 4 4 4 4 4 , 4 > 4 > 7 0 @   (.JXCXsXNXNXiXsXcXsXJXCXNXJXCXY.@ # a q 0 s 7 4 0 0 9 8 7 , 4 5 , r r , . . $ . , r , , r , 5 , , , , , , r 9 9 5 5 5 4 5 4 8 5 % , & , 5 r 4 , , 4 4 4 5 5 5 5 5 5 , 5 5 5 & , , , 4 4 4 * 4 4 8 , 4 5 4 , 4 4 4 * 4 4 4 4 5 , 4 4 , r r 5 4 4 4 4 , 4 & , , & , & , > , , 4 4 4 5 4 4 5 4 4 , 4 4 4 4 * , > * % * * 4 % 4 % % % % % > , 4 4 + 4 + * 4 4 4 > q 4 % * % % 4 * % % 4 > > % , % , 4 4 4 % % 4 , : , : : $ , $ $ $ , : & $ , : $ $ $ . $ . $ $ $ & $ . $ . $ $ . . + % ",
". . O : O O $ O + $ $ > > $ $ O $ $ $ : $ > > > : O > % % $ > % : > $ > > > > > > > : > > > , > , > > , > , > > $ > , > > , , 5 5 , , > 1 , 1 1 a s 1 C Z z &.d.W.M.Q.Q.d.m.].J.H.Q.fX8X3X3X0X#X}.UXUX|..XyXcX3X7X3X;X1X1XhXhXZXbX9.o n.LX0X1Xn.U.}.}.~.k.i.k.f.G.I.`..X2XdXzXGXzXIXIXnXzXZXdX<XIXPXLXnXDXnX(. X5X}.}.|.UX#X_.~.L.}.hX3X}.UX_..X3XtXcXGXzXVXnXGXKXLXfXh.s.%.n.dXGXdXvXSXvXnXnXzXzXzXrXtXeXpXvXzXzXzXBXVXnXnXnXnXDXGXGXnXnXnXnXnXBXnXzXpXnXPXqXR @ e V V s s s g _ _ K P r.7XLXLXBXJXGX*.X U s s 0 s s 7 s s 9 0 t 9 0 5 8 9 6 6 0 0 6 6 6 8 4 4 , 6 , , 6 , , , , 5 r , > , 8 , 5 0 4 4 4 5 4 4 4 5 4 4 4 4 4 4 > 4 , , 4 > , 7 @   XXJXCXCXCXCXCXCXCXCXJXCXNXNXPXF.@ q 0 0 s s 0 4 8 6 6 9 4 4 4 5 r r r , . . $ . , r r & , r 5 r , , > > > 5 9 9 9 9 8 0 4 4 4 4 & 4 r r r , 5 5 4 4 4 , 5 5 , 5 5 r 5 5 5 4 4 4 4 5 r 8 r r 4 5 r , 4 5 5 5 5 5 0 4 0 * > 4 , 4 4 , , , 5 , 4 4 4 4 4 4 , & , , , , , r 5 5 5 4 5 4 4 4 4 4 > 4 4 > 4 , , 4 % % 4 % , > 4 % 5 , % % % % 4 4 4 4 4 + 4 % % 4 % > > * , , , % , > , > 4 > 4 4 % * 4 > * % 4 4 & , & $ , $ $ % % & : & : $ % & : : $ $ $ $ $ $ $ & & . $ $ $ $ @ + + + ",
"O . $ : O O $ O O : O > $ $ % : O O O $ $ $ : > $ % : > > > $ : % $ > > > > > > > > : > > , > , , > : % : , , , $ > , , > > , r r r 2 2 8 8 8 5 2 5 1 P P F ;.e.m.B.P.J.b.Q.;XE.Q.B.0X8XyXpXbX3XUXUXUX#X3XpXbXqXhXtXdX3X&XvXdXZXLX1.a W.GXeX7Xa.s.~.W.P.G.r.i.V.B.U.(..XrXPXPXPXGXbXnXhXbX6XqXtXhXbXGXnXIXIX`.(._.(..XUX:X3X2XwX2XzXGXPXbXtXVXtX}. XnXDXpXPXvXIXAXPXZXV.i.P u.dXIXvXzXnXzXvXbXhXzXpXeXqXtXzXzXaXtXpXzXnXnXcXnXGXnXGXnXnXzXzXzXnXnXGXcXzXGXPXnX3.% t D A J Z f J J J _ P 3.7XFXPXBXJXCXu.@ S s V s s g s 0 s 6 0 C V V 9 8 0 8 s 6 9 8 8 8 0 8 0 , r , r , , , , % , , > > , 5 8 8 4 4 4 5 4 4 4 4 4 4 4 4 4 4 4 > 4 7 7 4 > 4 7     _.PXHXCXNXNXsXCXCXCXCXCXCXaXPXB.o q s q 7 q 8 8 6 9 9 6 5 > 5 r 5 r r , . O & . , r , & , r r r 5 , , , 5 r 8 5 6 9 9 6 5 5 4 , , , r 5 , % r 8 8 5 5 5 5 r 5 5 5 5 r 5 5 4 % 4 4 5 5 8 5 8 5 8 5 4 5 r 5 5 8 6 0 0 4 4 4 4 4 , , 4 > , , r 4 4 4 4 , , , , , & , , > > > , , % , % 4 , , & , 4 , * , 4 4 > % % % , > * % , 6 4 > % % % % * % % 4 > % > 4 4 % % 4 > & , % > > * % 4 * , 4 4 % % % > % % % , > : , , % % $ $ % : & : , $ % $ & & $ $ & $ $ $ . . . $ & . $ $ + + % > ",
"  O : > > $ O : % % % $ : $ > O : % > $ > $ $ $ $ $ $ > > > % $ $ > $ > > > > : > > > : , > > > > > > , , 1 , , $ > > , > > , 2 2 , , , 2 2 2 2 2 7 j k F ..' _ ' b.J.J.d.P.-XW.^.W.8XfX;X8XbXyXqX3X2XrXnXbXzXhXvX2X8X8X3XtXhXvXIX%.  _.LX|.s.o o Y 8.L.P.h.D.~.G.I.`. X2Xp.1.`.LXPXdXPXPXGXbX8XmXKXnXzXmXPXI.`.6XOX_.E.E.;XhXvXnXrXzXGXBXzXzXrXrX.X XBXnXqXmXGXAXPXeXK.L.` 4.[.vXvXvXmXnXvXbXnXrXrXrXtXrXzXnXIXGXnXGXIXIXGXnXzXzXIXzXjXGXnXrXnXGXjXzXIXPXIX5X! + D s 7 s 7 s f Z J _ { { *XKXPXGXBXBXoX. e s V Z 7 s V 8 0 9 e e s e e k 9 t s s 9 9 6 8 6 6 8 , , 6 r 8 5 4 4 > , 4 4 > 4 8 e 8 5 4 4 4 4 4 8 4 > 4 4 5 5 0 4 4 4 4 8 8 , 4 8   . _.JXCXxXHXNXiXv.v.sXCXJXCXPXPXB.+ q s s q g 6 6 6 7 0 0 5 8 8 8 5 5 r , .   . . % r 9 8 8 8 9 8 8 8 , 4 4 5 4 4 4 4 4 5 5 9 > 8 r e 5 , , , 8 8 5 5 5 5 , , , 5 5 5 , 4 5 r 5 , & % 5 r 8 & , , % 4 4 5 r r r 6 0 5 5 5 4 4 5 5 5 5 , r , , , , , , , & , , % 4 5 4 , % , > > & % 4 4 , % 4 4 4 4 4 4 * 4 4 , * 4 5 4 , % % , 4 4 4 * , , % 4 > , & $ > , , , , $ & , , , & % % > % > % * % % % % % % % 4 4 , % , & : $ $ & $ % , : % $ : , , $ : % $ $ $ $ $ $ & $ . . . $ . . X + ",
"  . $ : > $ $ O O : : O + $ + : O > $ > % : > $ $ $ $ : : > $ $ $ $ % : $ > > > > > > , , > > : 1 , > > , > , , > > , > > > , , , , , , , 8 j 2 2 2 2 j x F Z j ) f.J.W.B.-X;X!.B.W.8X7X8XIX9X#XpX:X#XzXnXtX9XdXzX;X1X6XwXdXdXfXAXh.s &XFXE.  o 1 0 7 Y h.).'.P.k.I.}.mX'.0 o V  XIXbXGX8X2XzXGXPXKXPXSXGXKX'.&XrX<X'.I.(.<XvXKXPXVXnXDXnXGXIXnXPX<X2.Y.nXaXmXPXGXLXkXV.E.i.P n.eXvXnXvXzXzXdXtXzXzXzXzXpXzXnXZXzXnXnXnXnXnXbXnXnXGXnXnXIXBXzXnXnXBXzXcXPXzX!.S + V 0 g J g g g J _ J ` :.W.ZXIXGXJXJXyXC e 8 s s s V V 8 6 9 0 6 6 6 9 6 9 6 6 9 9 9 6 6 6 9 9 6 6 6 , 8 5 4 4 4 5 5 4 , 4 5 8 4 4 5 5 4 4 4 4 4 4 4 4 5 5 4 4 > 4 5 8 2 5 8 8 . . _.PXCXCXCXiX@X~ y v.#XCXPXCXPXw.o q s g 0 s 9 7 6 9 9 8 8 8 5 5 > , r % .   . . , r 8 5 r 5 8 8 8 8 4 4 4 5 0 5 0 4 0 5 9 5 4 8 e r r , r r r 5 5 5 r , 4 & 5 5 , 4 , , 5 8 r 5 4 , 5 5 4 , , * 4 , 4 5 8 8 0 0 6 5 5 0 4 4 , 5 5 5 , , , , , , , , , , , 4 4 4 4 , 4 4 5 4 4 % , 4 4 & , 5 4 , , 4 , , , , 4 % , 4 5 5 4 4 % % % , 4 4 4 4 % , % % > > , > , $ $ : , , , : 4 4 4 , 4 4 , 4 % > 4 > 4 % % > , $ % % $ , % $ $ % > , & $ % & : & & : $ & . O $ : , $ $ . & . . + + % ",
"O . O O $ $ % O > % $ % O > $ $ % $ $ $ > : % $ $ $ % > > $ > $ > % % % % > > % > > > > > > > > > 1 > 1 > 1 7 1 > 1 , 1 > > , , > , , , 2 , 8 j 8 2 2 a z A z 7 P s.B.W.B.%XfX=XJ.m.8XSXfXKX8XqXtXqX5XrXzXcXnXzXzX3XwXdXwXrXdXAXAXp.J dXLX6X` a   s K a > K %.1.P..XOXLXG.  @ 0 R KXPXL.k.F.(.3XwX6XKXAXKXPX3X.XzXeXwXrXrXSXIXIXGXVXVXGXnXnXnXrXnX<Xg.g.<XnXvXbXLXAX|.9.'.h.G h.6XvXnXzXdXnXKXGXdXzXzXzXzXdXzXMXnXZXSXnXbXnXnXGXzXvXzXaXzXzXaXdXtXBXeXtXIXrXz.9 4 V 7 g J g f 7 f :.) ) | a.fXPXGXGXJXGX<.5 e Z 7 s J g 0 s s 4 0 5 8 0 8 5 0 0 6 9 6 9 9 5 0 8 6 5 r , 5 5 5 5 8 9 r 8 0 4 5 8 4 0 8 8 5 0 4 > 4 4 4 4 5 8 0 4 4 1 8 5 8 2 2 r O   XXJXCXCXsX@X$Xz.& v.v.iXJXJXIX{ o q s 7 0 7 9 8 9 0 6 6 6 8 4 8 4 > r , .   .   & r 8 5 8 4 5 6 8 8 4 4 4 4 0 0 4 6 0 5 5 8 5 8 8 8 5 5 , r 5 5 5 5 5 5 4 , , 5 5 5 * , 4 5 5 4 4 4 , 4 4 4 4 , 4 4 5 5 8 6 4 6 8 0 0 5 5 4 5 5 & 5 & , , , > , , , , , , , 4 4 % 4 8 8 4 4 8 5 , 5 4 , 4 5 , 4 4 4 , 4 4 , , % 4 4 , 4 4 5 % % % 4 , 4 4 , , , % , % , > , $ & & $ & : , , , % 4 * % 4 4 > % > > > % % % % % , & $ % , $ , & : : & : $ $ , , & : : $ $ $ . : & $ $ $ . & $ . + + % ",
"O . . O O > $ $ O : $ $ : O % : : O > > > O > O $ $ $ % $ > $ > $ : : > : > : > : > > , > > , : 1 > 7 > > 1 > 1 > , 1 > 1 1 > > , , 2 , , > 2 8 8 a 8 8 x F z i ) n.m.Q.B.).8X=X^.B.6XmXhXhXqXrX2XtXrXqXrXKXIXmXrX2XwXqX6X3X8XKX8XK - {.KXLXPXk.f o a 7 7 s - >   @ - G.g.S W   D IXvXzX2.j.}.3X;XB.F.[.6XrX!.L.1X.X&X3X6XzXSXZXVXVXJXJXGXGXGXrXnXzXIX.XI.ZXPXvXPXFXD.;.*Xr.Y n.dXvXZXmXzXvXnXnXhXzXvXzXzXzXbXIXDXGXKXZXnXnXSXZXGXcXzXrXqXeXaXrXqXzXtXqXzX3XK 4 g D 0 s g a s a g { ` ` A P ~.LXJXBXJXLXc., E ! q s V s 7 9 V 9 5 0 5 8 6 5 4 5 8 8 9 9 9 9 5 4 r 5 5 5 5 5 5 5 9 8 6 8 6 5 8 8 4 5 5 8 5 4 4 4 4 4 4 4 5 5 4 4 4 0 8 5 , 5 r 2 O   XXJXHXCXuXx.@X@Xz.v.x.#XCXPXPXZ o s s a 0 7 0 0 8 8 6 8 8 8 r e 8 8 r , . . . . % 6 5 5 8 4 4 5 r 6 8 4 4 4 8 5 0 4 0 5 5 5 4 4 8 5 , & , r 8 5 5 5 5 5 4 4 5 5 5 5 4 , 4 4 % 4 4 4 , % 4 8 , * 4 , 5 5 8 8 4 4 5 6 6 6 5 4 5 , r , , , , & % , % , , , > & 4 % % 4 4 8 5 * r 5 5 5 5 4 4 4 % 4 , & % 4 4 % 4 4 % % % % % % 4 4 , 4 4 % , % , % , % , % > % , $ , $ , , & : * % > % % % % % % * * % + + % % > : , , & : % $ % , , & : % $ & $ % : & $ $ $ $ $ $ & $ $ $ $ . . . @ + ",
"O O . . $ : $ O % : O : % $ $ % > : % > > $ > O $ $ $ % $ $ > $ > $ % % > > : , > > > > 1 > 1 : > 1 - 1 > 1 > 1 1 > > 1 1 1 > > , 2 , 3 , , 2 2 j 2 2 2 j j a - J m.Q.W.M.B.=X!.~.;X=X].PXcXyX<XyX3X2XrXuXjXzXnXmX8X3X3X8XdXdXSX`.K o Y n.H.1Xn.g - Z s   o - ` n.4.  o     + q + S.IXPXIXrX;X).&X(.U.D.i.!.L.B.`.!.[.7XeXvXKXPXJXGXBXBXcXVXIXcXzXmXPXqXF.|.PXdXLXKXK.1.&X1.S s.wXrXzXSXGXbXzXdXnXnXbXzXhXzXnXZXnXnXbXmXvXmXzXdXzXtXtX5X3X3X2X3XrX5XrXtXtX}.V q V V s V s 7 f s d ' Y  .d z 2.eXJXBXBXJX_.q %.;.Z a s s 0 7 9 k 5 0 9 6 6 6 5 5 0 8 9 9 9 0 5 0 6 5 4 4 8 6 8 9 4 4 5 5 5 6 5 8 8 8 4 4 4 4 4 4 4 4 4 5 8 8 5 4 % 0 9 5 5 8 8 8 $   `.JXCXJXsXv.u v.@Xu z.$XJXJXHXg   0 s 0 9 0 0 4 4 4 5 5 7 4 4 r 5 5 r , . . .   > 6 0 4 8 0 4 5 6 6 8 7 4 0 5 4 4 4 4 0 4 4 5 5 5 5 , , , 5 8 5 4 4 , 5 5 , 4 5 5 5 4 , , , , 4 8 4 , , 4 8 , 4 , 5 5 5 5 5 4 4 6 0 0 5 4 * 5 5 5 5 , , , , , , , , > , % , 4 % % % 5 5 5 * 4 5 5 5 , 4 4 , & , 4 % 4 % 4 , 4 , & % % & % % 4 4 4 4 , & 4 & $ , , $ & , , : , , , , % , , > > % % % % % * % % , 4 , % % % * , % , : & $ $ $ , & : , % $ % $ $ : & : & , , : $ $ . $ $ $ O O . O + + ",
"O . . O $ $ O $ $ O > % $ $ $ = O $ : % > $ > $ % $ $ $ $ > > > $ % : : % > > $ : > > , > > > > > > > > 1 - 1 > 1 1 - > > 1 1 1 > : , , 3 , 2 j < , 1 1 i a 2 1 J N.B.B.b.Q.=X].).'.!.*XPXwX5XyX<X3XyXrXzXnXbXZXhXwXwX6XwXhXvXPXU.J s o - - o s 7 q z s 1 %.H.&XAXHXtXU.2.` U *.    w.G._.LXIXnX;XdX8X[.n.[.W.h.h.k.Y.|.1XqXvXSXBXcXcXcXzXVXGXzXGXPXdXPXdXU.vXPXKXZX*X%.`.e.s s.dXzXbXGXIXIXvXtX8XwX6X3X2XdXzXhXvXnXvXhXdXzXrX2X3X3X<X<X<X#X.X|.qX<XqXrXrX`.S s w k g S g s J g J J Z  .Z I T I.GXBXCXJXtX9 ` ;.Y g 7 g 7 4 0 9 5 5 5 6 6 8 0 8 0 8 9 9 9 8 5 4 6 5 8 8 5 8 9 8 4 4 4 5 8 8 4 0 5 5 4 4 4 4 0 8 4 4 4 4 5 8 5 5 4 0 9 4 , j r 2 > . `.PXCXCXHX+Xu @X@Xz.@XsXCXJXSXE   q s 9 6 6 0 5 0 0 5 0 4 4 4 9 8 4 8 & .   X . % 8 4 4 8 5 5 5 8 8 8 4 4 5 4 0 4 5 0 4 5 5 5 5 8 5 r 5 , r r 4 , 4 4 4 5 4 4 4 r 5 4 4 4 4 8 r r 6 5 4 4 r , , 5 5 5 5 5 , 4 4 0 4 5 5 4 4 , 4 5 , , , , , , , , , , 5 , , 4 > 4 % 0 9 5 4 4 4 5 , 4 5 4 , 4 4 4 , 4 4 , 4 4 4 > > > 4 8 8 % , % , , , 4 , , $ & , , : , & , , , , , : , , 4 , 4 4 % , 4 , 4 4 5 4 4 4 4 4 , , % & $ $ $ $ $ % $ $ $ : $ $ $ $ $ & : & , & $ . $ & . . O O @ . . + ",
". . O O O O $ O $ $ + $ + : $ % $ > $ > $ $ : $ $ $ : O $ $ > > : % $ > $ > > > > > > > > > > > - 1 1 ; 1 1 1 1 1 > > 1 1 7 1 > > , : , , , 2 8 : 2 2 1 i k s d f { m.m.N.[.;X=X;Xb.H.IXbX9XzXpX<XtXaXrXzXnXGXzXqXwX8X;X;X6XrXIXG.o P g ; - o 1 s s s a o V d.n.s.H.3XdXHXPXPXSXSXa.  -   q zXLXPX3X[.wX8X;XB.s.B.h.h.G.L.'.zXPXHXBXHXPXPXJXGXnXdXPXhXPXPXL.!.LXZXAX*X_ W.9.V i.eXZXLXKXGXIXtX'.`.[.[.`.&XrXvXwXhXvXmXhXrXrXqX3XUX2X<X3XtXyX<XyX3X<X2XtXcXL.D D g 9 9 S Z g J z Y J z %.T K T r.pXJXBXJXrXC g *.{ G g s 7 9 9 0 0 5 0 8 9 8 0 0 8 0 8 9 6 7 6 0 5 8 4 8 9 9 8 6 8 4 4 5 6 8 4 4 0 4 4 4 4 5 5 5 4 4 4 5 9 8 5 5 q 6 9 5 2 8 j 8 $ . oXJXJXCXJXsX@X@X$X@XsXsXsXCXSXw.  q 0 9 4 5 8 6 8 8 5 8 8 8 4 r r 8 r > O . O . > 9 4 4 8 5 5 5 5 5 4 4 5 8 6 0 8 5 0 0 9 6 r r 8 8 r 5 r , 5 4 4 % , 5 5 , , 4 r 5 5 5 5 5 8 8 8 8 5 5 5 8 * 4 4 5 r 5 5 5 5 5 4 0 5 4 4 4 > 4 , , , , , , , , 2 , , , , , 4 4 4 4 4 5 4 4 % 4 5 5 4 8 5 % , 4 , 4 4 , * , , % % 4 4 4 8 8 & , 4 4 , , & , $ , , , , & : & & , , , $ : % > , 4 4 , 4 4 4 4 , * 4 4 4 % 4 4 , % $ , $ $ $ & , $ & $ $ $ $ $ & $ $ $ $ $ $ $ $ $ & $ O . O $   o . + ",
"  . $ $ O O O : O % : $ $ % : O O > $ % : > > O > > % $ $ $ > > : % % : > > > $ > > > , > > > > > > > > > 1 > > 1 - : > 1 1 7 1 2 , : > , 2 2 2 2 j 8 2 7 d d d 7 ) s.m.b.=X].W.lXn.J.LXbXLXeXyXpXtXrXnXvXqX2XqXnXhX1X'.&XwXdXKXs.o s a g 7 Z K s 7 - g - = V @ 6     q R S.dXZXPXPXl.+   V   8XPXPXLX&XP.P.L.D.F.h.g.n.D.U.6XIXJXcXcXVXnXnXVXDXmXPXPXIXKX;XD.rXbXAXE.%.).` V ;.D.;XZXGXPXPXwXU.(.|.|.'.;XvXvXwXrXvXvXrXwXqX9X3X X2XUX.XqXqXyXaX2XwXqXyXGXS.4 s G 9 4 V s g P s Z ' x } ..j ..T yXJXaXPX9XW - =.` K g s 8 D V 4 9 9 9 9 9 9 8 9 6 6 6 8 8 6 0 7 4 8 6 9 9 8 8 8 9 8 5 8 8 8 4 % > 4 4 5 5 8 6 8 4 4 4 8 8 8 8 5 % 0 r 4 , 8 r 2 . . (.JXJXsXCXCX@X@X@X@XsXsXCXCXHXB.@ + s 9 - 0 8 8 6 9 6 9 6 9 5 e 8 8 r % . O O . 4 9 8 4 9 8 5 5 5 0 4 4 8 9 6 8 6 6 6 r r e 4 5 5 r 5 r 4 , 5 4 % , % 5 5 5 & , 5 5 5 5 5 5 4 , 4 4 , 5 5 4 , 4 , 5 5 5 5 , 0 6 0 4 4 4 4 4 % % % & , , , , & , & , , > , & 4 > 4 4 4 * 4 4 % , 8 5 8 r 8 % 4 4 4 , 4 4 4 4 5 4 4 , 4 > % % 4 , 4 4 & : , $ , $ , , , : 3 , : 3 & , : & & , % 4 4 % 4 % , > $ % % % % % % , , : & % > % , % % $ $ $ $ & $ $ & $ $ $ . $ . $ & : : : . $ $ $     @ + ",
"    . O = . O > > + + > > + > + O % > $ > : % $ > : > : $ $ $ $ > > $ $ $ > > , > > : > > > : $ % % > > > > 7 7 ; 7 p q p q > 1 > > , , , 2 2 1 1 a a 1 2 z j O & / / N.Z.Z.f.V.0X].|.:X*X6XhXdXwXtXjXxXdXzXqXnXmXhXhXmXdX1XnXbX4.7 Z 7 0 7 1 Z g g s 7 g s q o 4 0 0 +     4 D tXSXPX[.@ @ q @ n.KXLXPXAXUXV.G.U.f.g.p.c.~.U..XVXGXPXVXVXaX3XIXIXGXGXLXPX2Xp._.:XU.&.  `.eXU U U S.PXPXnXPXwXB.L.2X;X&X&XvXPXmXPXKXtXmXmX6X3X;X&XOX}.}.}.<XjXqX6X6X2X1X9X(.8 9 S s a g s k F U Z C &.;.r T r ,.yXJXzXPX<XU D V U $.k 7 z k z s 8 8 e 8 9 8 8 8 5 8 9 8 8 4 4 7 4 0 8 8 8 9 8 8 6 8 0 8 0 4 4 4 4 4 4 5 5 4 , , 6 , , , r , r , & 6 r y r r , r , . I.JXJXNXJXCX@Xx.v.v.iXCXCXCXJX}.  @ 4 a 7 5 4 5 8 8 5 4 4 % 8 , 4 , 8 ,   . 4 O 4 8 5 5 e 9 8 5 4 4 > 4 5 8 8 0 6 5 5 0 8 5 9 9 9 8 5 4 4 4 5 5 & , 4 8 r 8 5 , 5 , , 5 5 , , 4 4 4 5 , 5 5 5 5 5 , 4 4 , & 4 0 4 4 4 * % 4 4 4 4 4 , % % % , % , % % % 4 4 % , , , 4 4 4 5 4 5 r 5 * % , 4 4 , > 4 > 4 , 4 4 4 , 4 4 , 4 , 4 4 4 , 4 % % % , & % > > % , & , , % : , > , , > % , % > * , % % % % % % % % * , % % 4 % % % % % % % * % % % % % % % $ & $ $ % $ $ $ $ $ & & $     $ 5 ",
"    . O + O O - % > - + - > % - O : $ $ $ > O > $ $ O > % > : > > > > $ % > > , : % $ > > , > % > % 4 % 4 > 1 1 ; 7 q 7 1 q 7 > > % > , 2 2 1 2 1 i i 1 2 j 2 : >.r.c / f.a.N N ^.%X>XfX7X*XfX0XfXqXqXzXnXSXtXSXSXtXdXtXrX8XnX<XT > J 0 s s - 7 0 7 q 7 s s 7 q s 7 > 0 g s q     hXMXPX0 @ D @   G L.AXPXwXH.L.{.g.V.p.&.a.a...c.(.E..X6X<X;X'.qXnXnXZXPXzXs.g.<.} C   F.eXk.} R H.PXPXMXKX<Xj.E.&X[.|..XdXmXrXZXZXfX8XdX8X&X`.&X;X.X.X}.}.2X3XdX3X1X0XkX:XT z Z 7 7 s s z K U x z ,.-.r I ..K.bXPXnXPX<XS V S E %.G s k s k s 8 8 8 8 9 9 9 8 5 8 8 9 8 4 8 8 4 8 8 6 8 6 8 8 8 8 8 8 5 5 5 4 8 5 8 8 5 4 , , , , , r , , , 6 r & , 6 , , 5 r & . oXJXCXCXCXCX@Xv.@X@XiXCXCXCXJX.XX % 4 8 z k 5 5 8 8 8 8 8 4 r 8 8 5 r 5   X % @ % 8 4 4 8 8 5 8 4 4 4 0 5 5 5 8 8 8 8 8 5 8 5 5 8 8 5 4 4 > 5 5 , 4 8 8 8 5 5 5 5 5 5 , 5 5 5 r 5 5 5 5 5 5 5 5 5 , , 5 4 5 0 4 6 4 4 5 4 4 4 , , 4 , , , % , , % & , 4 4 4 5 4 4 4 5 5 5 r 4 5 r 5 4 % 4 4 4 4 4 , 4 4 , 4 > , % 4 4 % 4 > 4 , , * 4 % 4 % > > % , > , , , , % % & $ , , & & , % 4 4 % > 4 % 4 4 , > % % , & , % % > * 4 % % % % % & , % % & $ $ % $ $ % $ & $ $ $ $ . . $ O O % 5 ",
".   O - - O O > - + % - > - + + O O O > $ $ $ $ O O $ $ $ > > > > : % : > > > , % $ % > , , , > 4 4 , * - 1 1 q ; 7 p q 7 7 q 1 : , , , 2 2 1 2 1 1 2 2 2 2 2 3 o.y.3 j N.r.3 : C.kX0XfX0X&XAXdXdXwXwXbXmXZXtXSXSXtXrXqX8XdXbXP.g - D s s s q 7 7 q 7 7 s s s 0 0 0 6 s s g 0 4 + E wXSXSX- 0 s s   @ 2.yXyXK.k.U._.DXDXUX(.k.k.a.p.<.u.a.<.9.4.g.E.L.S.F.H.j.I.T j C 8 z C } $.R ).IXPXLXIX.XF.(.[.).|.&XdXvXhX8XhXdX&X;XwX|.). X XXX|.}.'.3X6X.X X1X&X6XdXe.- Z 0 8 s 9 s J K k r o.} c ! f.0XPXPXzXIXqXS 9 A U $.K Z k 7 s a 9 9 9 e r 9 9 8 5 6 9 8 9 8 8 9 8 9 8 5 0 8 8 6 6 8 8 6 8 8 8 8 4 5 5 5 5 5 4 4 r , , , & r , , , 6 6 , , , 5 r .   XXCXBXCXCXCX@Xv.$XT.$XCXCXNXcXv.  - 4 4 9 4 5 5 8 8 r 6 6 r 4 4 6 5 8 4   O 4 . * 8 4 4 8 4 5 5 4 4 4 5 5 5 8 5 8 5 8 5 8 5 4 4 4 4 5 5 4 4 5 5 , 4 5 5 5 5 5 5 5 5 5 5 5 5 r r r r 5 5 4 4 , 5 5 5 5 5 8 8 4 6 4 0 0 5 5 0 * , 4 5 , r , 5 & , 4 , 4 , 5 5 4 4 5 8 8 8 8 5 , 4 5 4 , % , 5 , * , * % , % 4 , * % 4 4 > 4 , % 4 > 4 % 4 % 4 , , , % , , > , > , , % , & , , 4 % 4 , , > 4 % 4 4 8 4 4 % 4 > , % , : % % % % * % % > % % & % $ $ % $ $ $ $ > $ . . $ $ & $ $ . . O > ",
"o . . : + . + > > > + + % > > + : O $ $ $ > $ $ O % : % $ > > > % : > > > > > : > : $ > > , , > % % % % 1 q 1 ; ; 1 7 1 1 ; 1 1 , : , , 2 1 2 1 1 < 1 i 8 2 , r ..6.c N r.>.h 3 >.fX>X*X7XfXvX0XdXrXeXpXhXmXtXSXmXhXmXtX2XzXjXa.s 7 V 7 q s s s s s s s 7 7 a s - 8 k 8 - + 9 G 0   w..XIXL.  4 G S   ` yXg.u.r.9.(.DXDXBXFXjXbX3X~.L.p.1.p.p.S..X3XL.p.2.=.k.2XDXk.5 V } W 3.4.} &XIXIXPXPX.XL.(.[.'.<X1XhXvXZXdXdXdX.X;XdX&X!.yX2X|.}._.(.&X6X}.'.6X7X6XvXf.4 P V s z s s Z F x : T K I 3.~.bXPXIXBXIXnX$.0 9 D T ` G z 8 s s s 8 8 9 9 8 9 8 8 8 8 9 9 8 8 9 9 8 8 8 7 8 8 8 8 8 8 5 8 8 5 5 5 6 5 5 5 5 5 4 r , , , , , , , y & 6 , , 6 r r &   .XJXcXCXNXCX@X~ ~ v.CXJXCXCXcXg.  9 9 7 t 4 5 5 8 r 6 r r r 5 4 r 5 8 %   $ > @ > 8 4 4 4 4 4 0 4 4 4 0 4 8 4 0 5 0 5 5 8 5 4 4 4 0 5 4 4 0 r 5 4 , 5 5 4 5 5 5 5 5 5 5 5 5 5 5 5 4 4 4 , 4 5 , 5 5 5 8 5 8 4 6 4 4 4 0 4 5 , , 5 5 5 , , , 5 4 , 4 , 4 , 5 , * , 4 , 4 4 , & 4 , 4 4 % , 5 4 , % , * , 4 4 4 % 4 4 , & > * % % 4 % , 4 4 % , , % , % % > > $ , & , , % > : > , * % * % , 4 % > * % % % % 4 > , & & % % % 4 % % % % % > > % $ $ $ % $ & $ $ $ $ & $ . . . $ O @ . + ",
".   . + > O + > > + - + - > > + % : % > > : : % % : % : $ > $ : : % > > > > > : > > > > , , > % % % % % 7 7 1 7 1 q p 1 7 - 1 > , & , , , , 1 2 i 1 1 a i : 2 k | I c | >.L f f d.>Xe.' n.*X&XdXbXbXrXeXdXIXhXhXSXSXKXrXqXnXyXU s 7 s s + s s s 7 s s s 7 7 7 7 8 8 8 j s 8 , + 7 s     9 G 7 9 $ e e G.DX .*.p.G ` {.PXLXDXPXPXPXVXGX3X:XnXLXPXPXPXrX3X<X(.}.bXDX9X<., U U 1.<.$.zXPXnXIXKX_.H.[.&X;XwX6XdXdXSXSXdX8X&X6XhX'.L.<X<X'._.[._.&XeX1XP.{.dXdX0X1.a _ D k Z k k A K A r _ x &.c.:XLXIXKXGXPXPXp.S V D G } T Z k k z 8 9 8 9 9 9 8 9 6 8 9 9 8 8 6 9 9 9 8 8 0 5 5 8 4 4 5 5 4 5 8 0 5 5 5 5 5 5 8 8 r r , & , 5 , r r y , , 5 r r 5 ,   }.JXJXJXCXCXsX@XT.$XCXCXiXNXJXc.& r 5 * e r r r 5 5 5 5 r 8 8 5 r r 8 4   % > X , 8 4 4 4 4 4 4 5 4 5 4 8 4 5 8 5 5 5 5 5 4 8 8 5 8 5 5 4 4 5 5 5 5 5 4 , * 5 5 5 5 5 5 5 5 4 & , , 4 , , , , * , , 5 5 5 5 4 4 4 4 4 4 4 * 4 5 5 , , , , > , 4 , 4 4 4 4 4 % % 4 % 4 % % * , * , 4 % 4 4 4 , * > 4 , , 4 > & > 4 % % 4 4 % % 4 4 % 4 4 4 , > , , & % , : > : > , , , , & > % 4 4 , % * 4 % % X % % % % * , , & $ $ $ & $ $ > % $ > $ % % $ $ $ $ % > & $ $ & $ $ $ $ . . $ O O O > ",
"o o O > + O + - > + + > > > + - $ > > : > > > > > $ > % > O % $ % : > > > > > > , , > > > , > $ * % + % > 7 7 1 ; q 7 7 1 1 4 , , , , , , 3 1 1 a p 1 a 8 1 2 j 2 . 3 P >.J s d m.{.' d f.J.a.D.eXDXIXnXhXSXhXmXMXzXhX2XjXLX:X2 7 7 s V q a 7 7 0 7 7 7 7 0 0 a k r 2 r k k 4 . g ` @ k 4   q W e   K U.BXg.g.,.    2.qXPXKXDXIXPXPXzXIXIXzXGXIXzXDXGXnXPXIXnXPXKXPXK., S } $.R <.GXPXbXHXKX_.I.'.&X6X8X3XhXhXZX6X8X8X;X;X X!.W.`.}.(.(.[.'.&X6X`.n.K.&XdX7X&.7 G s 7 s s s A J c A &.T -.V.eXPXZXBXVXGXPXS.E { D D _ U k s a k s 8 8 8 8 8 9 8 8 9 9 8 8 7 8 6 8 8 8 5 5 8 5 8 0 4 4 4 4 4 4 4 5 5 5 0 5 6 8 8 6 6 , r , , , r r & , & , 5 r r %   _.JXJXJXCXNXiXCXCXCXiXCXCXBXCXz.  & * X r 4 5 5 5 5 5 5 5 5 5 4 r 5 r 5   & % @ > 6 4 0 5 4 4 4 4 8 4 4 4 4 4 5 0 4 4 5 5 0 8 5 8 5 5 8 4 > 4 5 r 5 , , , , , 4 5 , 5 , 5 5 4 4 4 , 4 4 5 4 * , 4 5 , 5 4 , 0 4 0 * 4 4 > 4 8 5 4 , > & > % % % & , , % , 4 4 > > 4 , , 4 , 4 , * , * , 4 4 % , 4 % % * % 4 , 4 > 4 4 % , 4 % % % 4 % , 4 % % , > $ % & , & , & % , , : , % * > % 4 > , % 4 % % 4 % 4 % > 4 $ $ $ $ $ $ $ $ % % > % $ > % $ % $ & $ $ $ % $ : $ $ $ $ $ $ $ O @ @ > ",
"    . O + O O > - % + - % > > O $ > : > > : > > O $ > $ : $ > $ > > > % > : > , > > > , , , 1 $ > % + > q 1 1 q ; 7 1 7 q 1 4 > r , , & : , 3 2 7 i 2 1 2 2 8 j : 3 < I >.z ; ; ].fXJ ; ;.i.%.8.E.{.6XvXzXZXtXhXvXhXrXyXnXPXUX2 7 7 7 S 7 s 7 7 7 7 7 7 7 7 7 7 r 8 8 , , 2 r j 8 5 9 2 k > D k >   T L.9Xg.c.S k T V S H.PXPX9XzXnXzXPXPXnXnXPXIXPXPXzXSXbXrXnXGXLXyX} z E *.$.a.PXLXIXPXGX_._.[.&X1X;X;XSXAXmX&XwX8X&X_.E.`._.`.&X(.U.(.U.P.!.G.P.].|.fXwX:.z G 9 7 8 8 a Z A V K -.} } g.:XLXGXnXnXIXLXS.U u.R A R J 8 s 7 8 6 8 8 8 4 8 8 8 8 9 8 8 4 4 4 0 4 4 5 5 5 5 0 8 8 5 5 7 7 4 4 4 6 5 5 0 4 8 8 6 5 , r , 5 , 5 5 r 6 , 6 8 r r 8 O   oXJXcX5XaXCXCXiXiXCXiXsXCXpXiXz.  & y r e 6 5 5 5 4 5 8 6 r 4 % 5 * 4 4   X > @ 4 9 8 5 8 0 4 4 8 5 0 4 4 4 4 5 4 4 5 5 4 0 4 4 0 4 4 4 4 4 , 4 8 5 4 % * 4 4 4 4 4 , 4 5 4 8 5 5 5 4 4 4 4 4 5 5 , 5 4 , 4 4 4 4 4 4 0 4 5 8 5 5 5 , , , , * , , 5 4 5 4 , , 4 , * * , % 4 4 , , 4 , 4 % % 4 > % 4 % , 4 4 , % 4 % 4 , % 4 % % % % 4 , % 4 , % % , % > , : : > & , % , : , , % 4 % % * , % % > 4 , * % > 4 $ , , , , $ : & % % > $ % $ & $ $ & % $ % $ $ $ : & . $ $ & & $ o @ o - ",
"    o - O O . + > > + + > + + > O % % > % > % $ $ O $ O > > > > > > $ $ $ > > , : > $ > , , , > 4 * + - 1 7 1 ; ; 1 7 1 q 1 1 4 , , , , , , 3 , i a 1 > 1 2 8 3 1 j 1 a ;.F a d W.FXH o _ ,.;.*.<.<.p.}.nXPXqX8XGXIXZXrXDXKXUXC s 9 1 Z 7 s s s s s 7 s a 0 s s 8 , 2 2 2 8 5 , , z V 8 V 7 P   . .   s.yX<.p.K 0 k Y D . V ` q V l.|.|.rXPXIXPXPXKXPXrXKXGXdXZXwXbXPXa.O S *.T n.PXIXPXIXdXI.).1X7X1X&X;XPXvXdXSXPX7X'.'.[.|.!.U._.H.G.U.P.E.(.D.'.&X&XwX*XY G Y z s k s s A S A S ! Y U 8.}.BXGXnXnXPXIXS.U j.;.U } G 9 z s a 8 8 5 5 0 8 8 8 s 9 9 8 4 , 4 8 > 4 0 5 5 5 4 4 6 8 5 8 4 4 4 4 0 0 5 5 8 8 8 e & 4 5 , , r 5 5 6 , 6 , 8 r r 8 % & `.PXaX#XaXCXCXiXsXCX+X#XiXsXCXl.X & t & * 5 4 4 4 , 4 6 r r 8 , 4 4 r r   O + . > 9 8 8 8 5 4 4 5 8 8 5 4 4 5 5 4 5 4 4 4 5 % 4 > 4 4 4 4 4 & , 8 8 4 , , 4 , 4 , , 4 , 4 & 8 5 5 4 4 , & , r 5 5 5 5 , 5 5 4 * 0 4 4 0 8 8 5 5 5 , , 5 5 r > 4 5 5 5 5 5 4 * > > 4 > % , % 4 4 % 4 > > 4 % , * 4 % > * % , 4 , 4 * , 4 , 4 * , > 4 % * > % & , % , , , , , , , , % $ % , , > 4 % 4 4 > > 4 4 4 4 > % % % % $ & , , , , & : $ % $ % % % : , $ : $ % $ % $ % $ . $ & $ . . $ = O - > ",
"O O O O + + O O + > O > % + - % $ % O > % : $ > > : % : % + > $ $ $ $ $ > : > > $ $ $ > > > : & > % % % > 7 1 q ; 7 1 p 7 7 1 > & > , 4 7 > ; 1 1 7 p a 7 1 1 1 2 r O j _ l 7 b ' 8.a z K U A K &.&.2.I.qXbXnXrXSXmXnXvXPXLXG.e a 7 7 a s a 8 a 1 7 8 a 7 0 7 a > 2 r r 2 , 8 c , : 8 8 C 8   j.qXzX&X`.<Xj.i.D s - { R E g 0 9 6   4 *.B.S.}.3X<X X<XrXLXmXIXGXDXDXbX<.8 &.R } ).SXPXKXHXrXS.(.P.}.3XtXrXdXhX3X;XAX;X'.XX!.'.'.[.%X].).!.B.B.[.W.I.).*X;X!.d J U 8 U V G s a G A s ` Y ` ` '.ZXbXIXGXGXBX`.! g.2.R ` G C 7 z 7 s 8 5 8 9 k 8 9 9 8 9 9 8 9 8 9 8 0 > 4 5 8 8 8 8 4 4 4 9 8 6 8 4 4 8 9 9 9 9 9 4 4 5 4 , 4 5 r 6 , 6 , r , 5 r > @ ).JXCX}.#X+XiXCXsXiXCXsX#XsXuX~ X @ 5 y 5 * , , 5 r 8 r 4 5 6 8 8 & 8 8 . $ > . > 9 9 8 0 > 4 4 4 4 4 4 4 8 > 4 4 4 > 4 4 0 4 5 4 4 4 4 4 4 r r 8 4 4 5 5 5 , , 4 5 4 4 5 r 4 , , 4 5 4 5 5 , 4 5 r 5 8 8 8 4 5 5 5 5 0 8 9 e r 8 % , r r , 8 r r 5 4 , 5 r 4 , 4 4 4 4 , 5 & , 8 5 4 % , 8 4 > % 4 4 % 4 4 4 , 4 4 , * 4 , 4 4 4 > % , , 5 , % % , , , > % , , & , : % , & , 4 4 % 4 4 4 % % > % % % 4 4 % 3 , & , & 3 3 & & : , : $ & $ $ $ $ & : : & : $ $ . $ . . $ $ $ + o o - ",
". . O O + - - + - + - + - > + O : : > $ % % : O $ % : % % : % : $ $ > $ % % % : $ $ > $ $ > $ $ 4 % % % - 7 1 1 p q 7 7 1 7 q 1 % % % > 1 1 1 ; 1 1 7 p q ; 1 > 1 j = 2 J z a d ; ' 1 o S 8._ > k j E V.2XpXtX2XzXvXnXZXPXyX-.. 9 7 7 8 8 7 7 8 - 7 7 7 7 1 7 2 1 , , 2 8 8 r r 8 , j C 8 O O ).PXrXPXnXLXPXj.+ + $.$.V U S s s ;.!.p.<.S.S.g.F.s.=.R j.zXmXvXvXBXLXjX&.> Y R =. XIXLXGXIXqXj.I.}.;X;XwXwXrXvXwX6XmX[.!.).E.[.[.Y.B.B.B.!.].].].).!.].%X0X*XJ q T z G z V a 7 A 7 s &.G Z Y .XPXvXGXIXPXPX(.$.u.*.U Z k Z 8 z 9 9 8 0 9 8 k 9 9 8 6 8 8 8 8 8 9 8 4 4 0 5 6 6 5 8 4 4 5 8 9 8 6 4 5 0 9 9 9 9 8 4 4 8 4 , 4 5 r 6 & , , r r 5 r 4   _.GXJXXXT.oX$XsXCXsXsX5X+XUXOXy @ y *   & e 5 4 5 5 5 5 5 5 r 8 r 4 8 8   . 4 . + 9 8 4 8 4 4 8 4 4 4 4 4 4 4 4 4 4 4 4 4 4 4 4 4 4 4 5 8 8 8 8 8 4 4 4 4 5 5 4 4 , 5 5 5 5 5 5 5 5 5 r 5 5 5 4 5 5 5 r 8 5 0 9 6 6 0 5 5 9 8 8 4 > , , , & 4 8 8 4 4 , 4 5 4 4 4 , , 4 4 4 % 4 r 8 4 4 % 4 4 4 , , 4 , 4 , , 4 4 , , 4 5 4 5 4 % * * , 5 5 , : & $ & , > % , > , , , & % , 4 4 4 , 4 % , 4 % 4 4 % % 4 4 % & 3 : : & & & : 3 : & : $ $ $ $ $ % $ % : $ $ $ & $ $ & & $ . $ + + + O ",
"o . O = + O + > O % % > + + > + % > : % : % % > > $ : % $ % $ > $ > $ $ > > : % > : % > $ $ $ $ 4 % % % - 7 1 1 ; 1 q ; 1 4 1 7 > > > > > 1 q ; 7 p 7 q 1 > > 7 1 k = - Z z d a J _ z 1 A ..r , c ! <.K.pXDXjXcXIXnXvXLXLXV.4 j 7 7 8 a 8 1 7 7 > 1 7 a 7 7 7 1 2 , , , 2 r 2 , r , > k j > - 2.PXPXrXGXIXvXhXV @ 1.W U E G $.g E.PXZXvXqXdXxXrXrXF.D R .XrXdXwXwXPXwX$.k K R R wXIXGXGXLX<Xk.L.[.[.;XhXhXdXvXdXmXZX'.!.|._.'.`.!.B.].B.B.].B.;XE.P.].;X*Xn.p _ _ S Z F s k a G U K J   R E.SXhXnXnXnXPXPXL.<.4.*.E z 5 J s s a 8 8 8 8 8 e e 8 9 8 6 8 9 9 8 6 8 5 5 5 8 9 6 8 0 4 , 0 8 9 6 8 0 6 6 9 0 9 9 0 4 8 8 8 5 5 8 8 r & r 6 8 r r r 9 . F.HXCXaX4X4XiXsXCXCXCXCXsX5XCXx.  @ * 6 & r 9 8 8 4 5 5 r 8 r 5 r 4 8 4   . 0 . + 4 4 4 9 8 5 6 9 8 4 4 4 , 4 4 4 4 4 4 4 5 4 4 4 5 5 8 9 e 5 5 4 4 & > & 4 5 5 4 , 5 , 5 5 5 5 5 r 5 5 r 5 5 5 5 5 5 5 5 , 5 0 0 4 0 4 5 8 4 4 , % , 5 , O 5 5 * , 4 4 5 4 4 , , & 4 4 4 4 8 8 8 5 5 4 , % 4 4 4 4 4 4 4 4 4 4 , 4 , 4 4 4 , , > > > 4 5 5 , % , : , , , % & % , > % $ , % 4 , , 4 , % % 4 % 4 % % % > 4 > : & 3 & : & & : & & $ $ $ & $ & $ $ $ & $ $ . $ . $ $ $ $ . . $ - + @ O ",
"  O % - O O O > + - + + > - O + > O > O > $ : % O > % : > : > O % : % > : % > > % > > > : > $ $ % % X % 1 ; q q 7 1 ; q - - > > > > > > 1 > 1 1 p 7 1 1 1 1 1 7 7 a o 1 x z s i Z i j C P x : ..c.`._._.eXzXyXpXzXSXMXLXPXp.  j 8 a 8 a 0 1 1 7 7 7 8 s a 8 8 2 5 , , 2 , 2 5 , 8 8 > 7 8 k 7   (.PXeXqXnXIXPXU.0   R ` 4 E s $.F.PXGXnXPXPXGXKXnX<X4.` (.vXnXzXjXPX_.Y K R U K rXGXZXIXPX.Xj.I.`.*X1XdXdXdXhX8XdXZX1X[.&X`.!.E.m.B.).B.B.B.B.!.E.m.E.7X;Xd.q ) F k 7 k > s 7 D Z 4 g R E.mXPXZXIXPXnXnXrXc.g.a.*.E z 7 K s 7 s s 6 8 9 9 k 8 8 8 8 8 8 8 8 8 8 9 5 8 5 8 8 9 8 5 8 5 8 8 8 8 8 6 6 0 6 9 6 8 8 4 8 9 8 8 8 8 4 6 6 , r 8 8 r j s % $.PXVXVXJXCXBXNXBXNXNXBXCXCXCXx.*   U # 4 6 r 9 8 8 5 4 r 5 5 4 8 4 8 r   O 4 . + 4 > 4 9 8 5 5 5 5 4 4 4 0 > 0 8 8 5 5 5 8 4 4 0 5 8 9 9 9 5 4 4 , , , 4 4 5 5 4 4 , 5 5 5 , 5 , 5 5 5 5 5 5 5 5 , , 4 4 % 4 * 4 4 > 4 5 0 5 4 & , 5 r r , 5 4 % 4 5 r 8 8 4 5 4 4 > , 4 , 8 5 , 5 5 5 4 > 4 , , 4 , , , & > * , 4 % 4 , % 4 % , * % , 4 5 , , $ , % , % > , , , > , % $ , , 4 4 4 % 4 4 > % % 4 % % & , , & 3 & & : 3 : & : $ & $ $ $ $ & $ $ $ : & $ $ $ & . $ . $ & $ . + + + O ",
"O O > + O . O + = % > - % + > O $ % : % $ > O $ % : : % $ $ > O $ % > $ > > > > > > > > > > , > % % % % > > ; 1 1 ; q q ; 1 - 4 , , % 4 1 - 7 1 a p 7 1 7 7 7 7 7 5 O a Z s s p J f V - 2 P 3.~.0XBXkXyXkXpX<XbXdXPXnXjXGXV., , a a a j 8 1 2 a 1 2 5 2 8 8 7 2 , 5 a 8 2 5 7 8 8 k s 8 4 9 S o + PXPXhXvXSXzXPX3X*.@ ` { $.G X R 3XPXLXIXvXPXbXIXrXs.W 9._.2X9XPXDXu., A E G R jXZXZXPXPX).k.!.|.8XwX8X1X8XhX6X[.dXwX&X[.!.E.'.!.P.B.P.[.B.;X;X^.B.-X8X0XB.f g S A 8 Z s z s Z   g { { E.PXPXtXnXGXyX}.!.u.c.p.R S s 7 J s 9 Z k 8 9 8 8 e 8 5 8 8 6 8 6 8 9 8 5 8 8 8 8 6 9 8 9 9 8 8 4 4 4 4 9 0 0 0 9 9 0 0 5 6 6 8 6 8 8 4 8 8 j 8 8 8 a j 7   4 qXJXaXCXVXCXJXJXJXJXNXsXJXCXD @ u * 0 4 5 6 6 5 r 5 5 5 5 4 4 r 4 r 8   O >   + 8 0 4 8 8 4 4 5 5 5 5 8 8 4 5 5 9 8 5 0 8 5 5 5 4 4 5 4 4 5 5 , 4 , 4 , 5 5 , 5 4 , 4 5 5 , 4 4 , 4 5 5 5 5 5 5 , 4 , & % * 4 4 > 4 * 4 8 r 8 4 , , 5 r 5 5 , , 4 4 8 8 4 , 4 % 4 , * 4 4 5 4 4 , 4 4 4 , 4 > > 4 % > % 4 4 % , % * % 4 % % > % 4 % 4 4 4 & , , : > % , , , > , % & , , % & , % * % , % > % 4 % % 4 * > , , & 3 3 3 & 3 & & & : & $ & $ $ $ & $ $ & $ $ & $ . . . . . . $ o O O + ",
". > > - + O + + - + O + % - + $ : % % : > O > : $ % % : : % $ > % > : > > : > > : > > , , , , > 4 * % % 4 4 7 1 7 7 p q 1 7 7 7 , & & , 1 7 1 7 0 7 p 7 7 7 7 2 s > = k J a s s d Z ) 1 $ , g.pXkXeXyXyXBXkX}.bXPXLXbXBXLXk.k 8 9 7 8 9 a 2 5 8 7 7 2 a a 8 7 a 2 8 j r 8 2 8 k k , s Z s > Z 0 9 V zXIXzXKXvXPXPX(.$.V 0 6 S 9.g *.2XPXnXzXPX2XLX6Xw.9 0 g.rXPXFXUXc X A } V ;.GXLXIXPXIXY.g.U.'.6X8X7X;X6XdX;X&XdX1X[.1X1X'.`.*X[.B.P.B.B.].=X].B.).8XwXN.q f Y P x K Z s g g K 7 g Y g.D.l.g.s.p.$.<.k.v.L.k.$.G V s K 8 a k k k 9 9 9 8 8 4 8 5 8 0 8 5 5 5 4 7 9 9 8 8 8 8 8 9 9 8 8 4 4 0 9 0 0 0 0 9 9 8 8 0 0 5 8 8 8 4 9 9 e k 2 2 8 8 9 + + =.xXPXNXNXtXVXCXcXCXVXNXPXXX0 @ D @ S q 8 8 r 5 5 r 5 r 5 8 8 r % 5 ,     %   + 9 4 4 5 5 4 4 5 0 0 5 5 9 4 5 8 8 5 5 5 5 8 5 5 4 4 > 4 4 r 5 4 4 4 4 5 5 5 5 4 4 , 5 , 5 % 4 4 4 , 4 , 4 r 5 5 5 4 , % , 5 5 0 0 4 4 4 8 t r * , , , > , 4 , % % , 4 4 > 4 , 4 , > , , * , % 4 % , 4 4 5 > , * % % * % % % % % * > , % % * , * > 4 4 , % > , , & : & & , : , , > > $ $ > % 4 , > > * % * 4 % % % > % % , , 3 & 3 & , : 3 : : & : $ $ $ & . $ . $ $ $ $ $ $ $ . . . $ & $ @ o + - ",
"O O O - - + - + O > + > > - % + $ % $ > $ > > $ > O > $ : % > O % : > : $ > : > > > > , , > > , , , % 4 7 7 1 7 p q p 7 7 7 1 7 4 4 % 4 - q q 7 q p 1 7 7 7 7 1 7 0 q s s a f 7 ; s 1.a.,.S g.eXpXeXyXyXBXDX:XjXIXbXKXPXDX&.$ 3 a 7 2 8 a 7 2 8 j 8 5 7 8 j j 8 2 5 j 8 8 8 8 s k O 9 s Z 0 0 - 7   g j.PXPXPXDXmXGX6XqX|.p.9.E s   V S.jXPXIXPXPXuXI.4.@ p.zXLXbXF.  V U } 7 p.PXPXIXPXKXG.g.U.`.;X;X3X1X8XrX&X8XtX.X!.6XmX;X!.B.).%X;X=XB.!.!.*XB.M.*XvXb.q J Z Z 9 8 s o q o + Z *.U S D     9 S V p._. XXXE.2.U Z k A 7 s s k 8 9 8 9 8 8 8 0 8 5 8 8 8 8 0 4 4 9 8 5 5 0 8 4 8 9 8 5 4 5 6 9 6 0 4 9 9 9 0 9 8 4 4 8 8 4 4 5 8 8 8 5 1 a a a s +   j.xXJXJXJXJXCXaXNXPXJXtX# @ E @ W . e 9 8 8 4 4 4 5 5 r r 8 8 > 4 5     + . X 8 5 4 8 5 4 4 5 5 4 > 4 5 % 0 5 8 8 8 0 4 0 8 4 4 4 % % * 5 5 5 4 , 5 5 r r 5 5 , 4 4 4 , 4 4 4 4 , 4 , 5 , 4 5 5 5 4 4 4 0 5 0 6 4 4 4 8 e 4 % 4 5 > > > % , * , % * , 4 , % 4 * > , > , 4 5 5 4 > * , 8 4 4 > 4 4 % % % % 4 % , 4 % > 4 % 4 , > 4 % > 4 > , & > , $ , , & > , , > , : , 4 4 4 % , % 4 % 4 % % 4 4 % % 4 , & 3 & 3 & 3 & : & : : $ $ : $ $ $ $ $ $ & $ . $ $ . & & $ . $   o - - ",
". O O O > > > > % + - % + + O - > : > O % : $ % : > O > % $ : > > : % > > > > > , > , > > > > : % * % > > 7 7 1 ; q q p 1 q 1 - 4 4 > > 1 q p a q ; - 1 2 7 7 1 7 s 7 a q a J 7 Z a z } } r o.g.r.c.K.c.~.yXUXyXvXIXPX:Xg.  , k 8 2 1 7 8 a 7 5 a 7 1 1 5 7 a 7 5 5 5 8 8 k s 9 V 7 S 4 0 s V 0 W S   7 @ <XIXPXPX<XLXPXGXKXnX<XI.<.Q U 6 p.`.vXIXPXzXJ.6 j.PXPXLXF.  E A K @ S.PXLXSXLXSXG.j.I.2X6X&X;X;X6XdX6X[.7X.XE.;XvX1X'.!.P.!.B.].W.B.B.M.B.B.;XAXm.f J Z Z a 1 a o 1 o q q g q > 0   U j.}.6XPXGX&XK.E.9.Z a 7 V a Z a 9 8 8 8 9 e e 9 8 8 6 5 8 5 5 8 > 4 8 8 5 4 0 8 , 0 8 6 8 5 8 9 s 0 4 0 0 9 9 8 6 4 4 4 4 5 4 4 4 8 9 8 2 1 8 j + 8 @ V   z.5XJXGXJXPXPXJXPXT.@ # # @ W @ 4 5 0 8 5 , , 4 4 6 r 5 , 5 & 5 5   O %   O 5 5 4 6 8 4 5 5 4 4 > 4 4 % > 8 8 8 4 4 4 5 5 4 4 4 4 , , 5 5 , , 4 , 5 5 5 5 5 , 4 , , 4 , 4 , , 5 5 5 5 5 5 5 5 5 4 4 4 4 * 4 4 4 6 8 8 5 , % 5 9 8 5 5 4 5 5 4 % % > 5 * , , % * 4 4 4 5 8 r 5 > & , 5 4 4 , * , 4 % 4 , 4 4 4 4 4 4 5 % % % 4 > 4 4 > , > , : $ $ , , , , , > & : & , 5 4 5 5 4 4 4 > 4 % % % , % % 5 3 & , 3 & 3 & & 3 3 & : : $ & $ . $ & $ $ $ . $ & $ $ $ $ $ $ $   @ + 4 ",
"O O + O O + - + O + + > + > - O $ % > > > : % O > : % > O : % > > > : > > > > : , , , > , > > > > > > , , 5 7 1 1 - 1 - 1 1 1 1 > > > - > > 1 1 a 1 - > , 1 7 2 > A - Z a 8 ; o 9 7 O 8 F k 8 T { ;.{ { { k.|.|.~.h.` 0 o 7 J s z k > A > 7 z O 0 5 9 8 7 7 7 , e r 2 2 8 8 r 9 V 9 9 z V Z S g D t D D     p.IXIX<XMXnXzXGXGXPXGXtX3X}.Y.z.! u.F.UXqX<.  r.PXDXKXI.. Y ` C 7 P.LXSXKXPXhXn.U.&X.X&X3X[.|.tXrX;X;X;X;X!.-X;X;X;X[.W.l.B.E.).E.s.U.P.P.B.].h.; o & 3 c {.kXkX3XPXPX$.  k , r u.UXPXKXPXAXKX|.m.J.0.J f J 7 Z 8 t 9 9 6 9 9 8 0 7 5 8 5 r 5 r , , 8 5 5 5 4 8 0 8 4 4 * 0 4 8 0 4 9 9 0 0 4 4 4 5 4 > 4 8 8 5 5 r 4 5 , , , , r k j r 4 E     % a.UXyXcXyXS.K O   % 5 9 9 0 5 0 9 8 8 4 4 4 8 9 9 > 4 5 > 6 8   O > . O 4 5 4 4 4 6 9 0 8 8 , , , , , & , , , & , 6 , r , , & 5 r & 4 r r 5 , 4 8 , , 5 5 4 & 5 5 5 4 * 4 8 9 4 > 4 0 0 4 5 8 5 4 > 4 4 5 0 4 4 4 4 8 9 4 4 % 4 5 % , % , 5 8 4 , 5 4 % , 4 > , 8 , 4 r r 4 , % % , 4 5 , & 4 4 % , > , > , , , , , , 1 > $ > > , > > > , 1 , , , $ % % > > > > > , > > > % , & , : > , $ $ % & , : , $ & , : , % $ : : & $ & : $ % 4 > > 4 > % O % % $ X O % X O . O + + ",
". O O + + O + - - O + % > > > + > : $ > > % $ $ $ % : $ > $ $ $ % > > > > > > $ > > > > : , , > > > , > 1 1 2 7 1 7 > 1 1 1 1 7 , > > > > 1 1 1 5 2 1 1 1 7 4 1 s >   A 8 > C 1.z > } s.` G r.f.n.s.B.B.U.[.|.&XdXqX1Xd.Z o - 1 k 9 > 9 7 0 9 4 1 7 8 7 8 s 8 5 r j 8 r j j V c A k V C s g S Z 6 D W S w 0 + X `.PXPXnXBXIXnXzXJXHXPXPXJXOX*.& r r &.T e S U P kX|.a 2 Y Y 7 ).PXLXPXPXwXB.P.[.(. XqX2X[..X6X7X*XfXvXfX;X;X;X;XW.W.n.n.H.(.&X'.).E.s.H.fX^.L v f.o.c.kXBXGXLXDXvX! 0 8 . ! 3XJXAXZXPXKXZXW.i.E.m.{ U K d S 5 5 s 9 9 0 6 6 8 5 4 8 5 r r , r , 5 5 5 4 4 5 5 8 0 5 4 4 0 0 4 0 6 9 6 4 4 4 4 0 4 4 4 8 5 r , , , 5 r , , 5 r r r 5 $ r % r O $ . . $ $ O     & 4 5 0 6 0 5 6 0 6 8 8 0 5 5 8 5 9 5 8 0 r 8   . > . $ , 5 5 8 4 5 5 5 5 4 , , > , 3 3 , , , , , , 6 6 , , , , , % 4 4 8 5 5 5 5 , 5 5 8 4 , , 5 5 5 5 5 9 8 4 4 4 4 5 5 4 4 4 4 4 4 4 4 4 > * 4 > 0 8 8 4 % % 4 & 4 4 5 4 % , 4 5 % 4 4 4 * % 4 , 4 8 8 6 4 4 4 4 5 5 % % 4 4 % > > : > , , , > $ > > > > > , 2 > > , > > , , , > 1 > 1 > > > $ % % > % % > , , , & , : % , , : & % , $ , , : , % & & : % $ , $ % % % > % % % % X % O O % % % O + O X + ",
"o O O > - O - O + O + - > - - + > % $ $ > $ $ O > % $ > : % > O > : > : : > : > $ > $ > > > > > > 1 > , , 1 1 > 1 1 1 1 1 p 7 1 2 > 1 1 1 1 7 2 2 5 8 7 5 2 , 1 s 8 } e.K 9 ` D.&., a.`.C 7 E._.wX;XdX;X;XFX;X!.PXLXPXAXAX9.1 - - , s - > 9 7 7 4 7 8 8 8 8 8 8 8 8 8 8 e k k C 9 k A S g V G Y E D V D U W 9 @ <.XXPXPXqXIXIXIXcXBXVXBXJXBX}.v.u.C C ! } k   R LXI.$ 5 } Y 9 6XZXKXKXKX&Xl.L.!.:X#X}. X.X}.8X;X`.hXvXvXfX[.).P.~.).E.D.).1XXXI.m.).P.1XjX0X].U.:X~.].V.I K ! 5 .   e 8 & T ,.u.9.k.6XGXvXb.` W.B.:.K G s S r r g 9 9 0 9 9 8 8 8 5 8 r 5 r , , 8 8 5 5 5 4 6 6 9 9 0 5 0 0 4 4 0 6 9 8 5 0 4 4 4 8 8 r 5 r , , 4 5 8 8 5 8 8 r , 8 5 & > e 4   $ . .   X % 5 9 4 4 5 4 6 9 6 8 9 6 8 8 8 5 0 4 8 5 9 4 8 8     > . $ 5 8 5 0 6 5 5 5 5 , & , > , r , , , , , , , , , , , , , , 4 4 % 4 5 5 5 4 4 5 8 8 5 , 4 4 4 4 8 6 9 5 5 6 8 8 8 5 0 4 4 > 4 4 4 4 > 4 % + @ 4 8 6 4 4 - > % 4 5 5 4 % 4 4 5 , 4 4 4 , , 4 & , 4 4 r 5 8 4 % 4 4 4 > * , % > > $ $ > > > > $ > > , 1 , , 5 , , 1 , > , , > , , , , , , 1 > % $ % , > , , , , % , & : & % , $ % & $ $ % , , % $ : : , $ & $ % % % X X % > % % % X $ X % $ O @ + + + ",
"o . + + > + O + + O O + + + + + > > : O O O : > $ : > O % : $ > $ % > > > > > $ $ $ $ % > > > , , > , > > > 1 > > 1 1 1 1 q 1 7 1 , , 1 5 5 1 4 1 2 a 5 1 1 1 5 o z h.s.s > _ V.T   ,.~.1 = '.:X].H.[.fXFXSX7XgXLXLXKXAXPXKX!.9.+ @ A 4 . 8 8 7 8 8 8 8 8 5 7 7 8 8 r r e r j V a k S K D S E E T U U R R E S D .XF.  yXPXIXPXGXIXIXPXBXDXLXBXLX.Xg.U E ! C % r.wX}   T $.J K zXIXIXIXIX.Xh.P.'.}.:X_. X.X.XhXwX[.dX;XhXwX[.[.W.F.~.`.P.&XeX!.D.E.!.E.=XV.J.0X>X].0X`.Z . . O ,   V R r r r , ,   % V.KXvX;.K V.B.9.P Z 5 Z r e k 9 9 0 8 9 9 8 5 5 , , , , , , 8 8 0 5 5 8 6 6 9 9 9 0 0 0 4 4 8 8 9 9 6 8 4 7 5 5 r 8 r 5 , , 5 8 8 4 5 5 8 5 8 5 e , 5 % e A r r r r r > % % 5 5 4 0 9 6 6 5 5 8 8 9 8 8 4 4 4 4 5 > 5 5   . , . O r 8 5 6 6 5 4 4 5 , , , , , , , 3 , , r , & 6 , 6 5 , > , 5 4 % , , 5 5 4 5 4 5 8 5 5 5 5 % 4 r 6 5 4 5 8 5 5 5 5 4 4 % 4 0 4 4 + * > 4 4 + > 8 8 0 4 4 , , 4 , 5 4 4 , 4 4 % % , 4 % 4 4 4 % % % 4 8 5 4 , 4 , % > 4 % % , > > > , , , > > , 7 2 , > > > , , , , > : > > 1 , , , 2 , 5 2 , , , , , & , , : > % % , % $ , , : , , % , $ & $ , : & : & : % % X $ X O O X % % % O O % % X O O + + + ",
"  . O > + O O O > + O + + + > + : % $ O O $ % $ % : : > % : % % $ $ > > > : $ % $ $ $ > : > > > > > , > > > > > 1 1 > ; ; 1 1 1 < > 1 1 1 , 1 > 1 5 7 2 1 1 5 j O k f.3.= = ..V.,.2 r.~.I 8 V.f.d.d.m.W.{.|.&XfXZXAXKXPXfXPXPX0X4.o 7 V O 5 8 > 9 8 s 8 8 7 0 5 8 j z z z Z S S A A U T U Y R U W $.=.R R $.D   UX}.X t HXqXKXnXGXnXZXhXvXbXrXzXJXyX<.! E W C I } 1 F $.K Z ;.jXPXKXKXPX[.i.D.!.2X3X(..X8XdXhX'.).fXwXvXfX%X;X;X~.3XyX~.I..X).|.).L.'.0Xd.1 V.~.K.{.f.- J a @ s 4 q K V $ 5 r & 5 O <.LXFX_ S ;.m.s.` G r r r 6 9 9 8 8 6 6 0 4 r 6 8 5 , , , & 8 8 8 5 5 8 8 0 9 9 8 0 9 9 0 0 0 8 9 9 6 8 7 5 , 5 5 r r 5 5 5 9 8 8 4 4 7 9 8 t 4 9 8 D > 6 8 , r r e r , r C 6 5 4 0 9 9 9 0 4 0 4 8 6 8 5 5 4 % 4 % 8 0   . , . $ r r , 6 4 6 5 5 5 , , , , 3 , , , , , 4 4 , 5 4 4 4 4 , , 4 8 r 4 % % 4 5 4 4 5 5 r 5 5 5 % 4 8 6 4 > 4 8 4 4 4 4 4 4 4 4 4 4 % 4 4 4 0 5 > 4 4 4 4 4 5 4 8 4 % , 5 5 , , , 4 4 , 4 > 4 % 4 , % % % 4 , & % 4 % 4 4 > * > > > > > > , , > > , , , , > > > 1 , > 1 , : > > > > , , , , 2 5 & , , , , % , $ % , , % $ , : , : , $ % % $ , & & : % $ & : $ % % O X O O X > % % % O X + % O O + + + + ",
"o . = O + + + O > - + - > > > > $ > > O $ $ : $ > % $ O : % + : > $ > $ > > % $ $ $ $ $ % > : > > > > > > , 1 1 > - > > ; q 1 1 > - > > 1 > 1 > 1 7 1 1 , 2 8 k , c r.p.&.Z ..r.T $ &.V.&.} r.,.8.B.n.d.s.J.].{.:XgXfXPXSXAXdXPX&XF   S 7 5 4 7 8 7 7 8 7 s 8 a 5 k V C C S G Y S S R $.$.*.*.{ ` ! R E R { R U (._.U   U PXPXxXGXIXIXrXpXGXnXBXLXcXk...W r C & % S %.T ` S 9.DXIXZXSXPX!.1.g.L._.2X<X<X'.[.6X;X[.;XwXvXhX;X&X`.).:X:XG.k.V.P.}.H.(.:XdXJ.  I f.8.&.A 4 U 0 7 Z S 8 4 , , r , x C X K tXLX<.K T 0.a.` Y c r & r 9 6 9 6 0 9 8 4 e e r r r 5 r , 8 8 8 8 5 5 9 9 9 6 0 9 6 9 9 8 0 8 9 9 6 8 5 0 5 5 5 6 , r , r s 6 0 4 4 0 9 9 9 5 e * e 0 9 > , , , 4 5 , 8 r 6 8 5 8 0 6 8 8 4 5 4 8 8 9 6 8 5 0 9 4 8 5     , . $ , 5 , 6 5 4 5 6 5 r , , , , : , , > , , 4 & 6 > 4 5 , , > , 8 r 5 , % 4 r , & , 5 5 8 r 5 % 4 6 8 4 4 4 4 % , 4 4 4 4 4 4 4 4 4 4 4 5 5 5 4 4 4 4 4 4 4 0 8 4 % & 5 8 4 % % 4 % % % > 4 , 4 * , % % 4 > % 4 % % 4 > % > % > > $ : > 1 > > O : > > > > > , > > , > > > > > > > > > > % % O $ $ % % % , % > , % $ , > & % > , & , % , , : % $ , % $ $ , $ , % % % % % X + % + + % O % + O X . O X + ",
"o . O O O O + O > > + O - > > > > $ > : > $ $ % O > $ > O > : % $ > $ > $ $ $ $ > > $ > > > > > % > > > > > 1 1 1 - 1 - ; 1 1 > 1 - - > - > > 1 1 > > , 1 7 8 2 , r  .e.r.A S _ A : }  .A T F 7 d H 5.d.f.0.b.].J.].H.J.].vXvXAXDXg.  k > s - 9 7 8 7 7 8 8 s 9 7 a k k Z A G ` U Y } ;.;.,.1.4.$.$.=.=.=.R U R  XL.9 W   9.PXPXdXvXZXzXzXdXqXpXyXbX~.2.~ C K T K R $.} &.J h.PXPXPXIXPXW.w.D.(.`._.}.}.!.[.8XhX;XfXvXhXwX;X*X].`.{.}._.(.~._.'.*X_.W.|.J.a 1 F G 7 7 0 s - 0 S 7 s 6 8 I C . , r . r V.bXc.S =.3.r.G D r y r r 9 9 8 8 8 8 8 4 r 6 5 5 5 5 5 r 8 8 9 5 5 9 8 6 6 9 8 0 0 9 9 0 0 9 6 6 6 8 8 8 r 6 5 5 , r r , 9 8 4 0 0 8 9 0 4 9 w + 4 0 V 9 5 r r e e e r 6 8 8 8 8 7 0 8 9 8 8 4 7 8 8 8 8 5 0 8 4 8 5   . % . $ , 5 5 6 6 5 4 , 5 , r , , 3 , , , , , 1 4 8 4 > 4 4 2 4 , > 4 4 4 , % 4 8 , 4 % 4 5 r 5 4 4 4 8 8 4 % 4 , 4 4 , 4 4 4 > 4 > 4 4 4 4 4 4 4 4 4 4 + % 4 4 4 8 4 % > 4 5 4 % % 4 4 & % , , > % 4 4 4 > 4 , * 4 % % 4 4 % % 4 > > % > > , , > O > > > > > , , > > > > > > > > > > > > > : > $ & $ > % , % , , & : & : , : , % , % , , % $ , $ $ $ & $ $ : & : % % > > % % % X % % O X % $ $ X @ . + + ",
". . O O O O O + + O O O O + - + $ > > > > > : O : $ % : > $ $ > $ $ % : > % > $ > > > > > : % > $ : > : > > , 1 > 1 > 1 1 1 1 7 1 > : - > > 1 1 1 1 > 2 2 7 , 1 8 c A A T > P &.A r 8. .K  .C 2 1 o d d d d J J.d.) ` ' f P.PXdXbX{.8 4   k > 9 s s 8 8 8 7 8 8 s k k z V A G Y %.$.;.<.*.*.*.{ =.<.3.*.*.9.*.V (.<X%.D <.  h.tXPXvXhXbXZXrX2XbXcXCX}.y , & & W k 8 &.1.} Z U.GXPXLXSXSXD.w.!.;X3X2XdXqX).P.'.8X].8XSX8X*X'.'.;X~.).~..X}.H.L.j.).n.J.vXW.H - a - z G g g g 0 7 Z > 9 k , r r r 6 r   y _.g.. ! a.p.K k r y y y 9 8 9 k k 9 8 4 4 4 , , 5 5 8 8 9 8 5 8 5 5 0 9 9 6 0 6 9 0 0 0 4 8 9 8 0 8 6 9 e r r 5 5 , , 5 0 0 4 6 6 6 8 0 0 4 4 0 6 6 4 @ 5 r 6 5 & % 4 5 8 9 9 8 4 4 8 9 9 8 8 5 4 0 5 5 4 % 4 > 5 5     & . $ , 5 , 5 5 * 5 , r , , , , , , , 2 , 4 4 7 6 5 4 > , 5 2 , % % % & 5 5 5 4 4 4 % , 5 5 5 , 4 5 8 8 4 , > * 4 4 5 4 4 4 % % * > 4 4 4 4 4 > 4 % + 4 4 4 + * 8 4 4 > * , , 4 , 4 4 % & 4 4 % , 5 8 8 4 > , 5 > % % , * % % , , , 1 , 4 1 1 , , , , 1 > > , 1 : > % > > > , > > > 1 , , , , , : , , , , , & , , , $ , $ & % , % , % : , & % % % % : , % % : & 4 4 > 4 > % O O + % O $ % X % O o . . + ",
"  o O + + O O + O . - > - . O > > $ : > % > > $ % $ % $ > : % $ % : > > : > > : , > > % > > : % > $ : > > , , > 1 - < 1 - 1 1 1 > > - 1 1 1 4 1 , 1 7 2 2 , 8 e x F P T l z x 8.F 7 I ..P _ I 1 z P 3 < l l a V.8.o 1 ` ' s.dXZXbX.Xk @ s 8 7 8 9 8 8 8 8 8 a 9 0 g Z J J { ;.1.w.4.w.1.{ 1.;.{ 2.w.<.<.<.a.4.<.[.H.g l.` E q i.mXKXfXmXGX9XdXBXjXPXF.& <.l.& c K z U g.&.S {.LXmXKXPXvXs.n.P.|.}.<X2X X_.`.}.2X&XwXZXdX;X&X[.!.P.~.U.L.`.D.Y.'.K.H.).*Xm.d 1 P K g g Z s s g 0 V k 6 , r r r $ r 6 . r c.k.r r 2.G.! C S r U r r 6 r 6 r 9 8 5 4 * 4 4 4 4 5 0 8 5 5 8 8 8 5 9 9 8 6 7 6 9 0 0 5 0 9 6 0 0 4 > 4 5 r 5 5 5 r , 0 6 6 9 6 9 9 0 0 4 5 5 0 6 9 9 e 9 9 6 8 5 9 9 9 8 4 5 r r 4 4 8 5 5 4 8 8 8 0 4 % 4 > 8 8     $ . O r 4 4 4 6 6 5 5 4 , 5 r , r 3 , 5 r 8 5 7 4 7 7 0 8 7 7 4 4 5 4 , * 4 4 , 4 4 4 5 , 4 4 , , r , , , , r , , 5 5 r 5 r r , 4 > 4 4 > * > 4 4 4 4 4 4 4 4 4 % 4 5 5 , & > 4 4 , % , & 4 5 5 % 5 r 8 4 , % 4 4 4 , 4 4 , * , 1 , > , 1 > > , 2 , > 1 , 1 , > , > > : % > > > > , : > , , , > , , , , , , , , . $ , , % & $ % , , % , $ % $ $ & $ O $ $ $ $ & % % % + % % + * O X $ % $ O O O . O + % ",
"  . O - > O O - . O , s 9 , + > > > % % : % : > $ > : % O > O > > $ % > > > , > $ $ > > > > > > , , > > , , 1 > > 1 - > 1 ; 1 1 1 - : > > 1 1 7 > > 1 7 8 j F _ P P  .F : ; _ a._ 2 j T } P x z d x j T P = : D.8.5 F J s ,.7XIXbX:XF + 7 4 7 7 s 8 7 8 9 s s s J J J J ` *.9.s.w.w.b.i.w.w.w.w.p.p.i.p.a.p.=.4.;XL.U 1.*.<.s 0 g.KXKX8XrXzXZXqXzXPXp.  .XpXXX& A } R ,.G Y <XLXKXIXPXdXs.B.!.;X}..X.X X<X.X&XwX;X8XwX8X;X*X].!.|.~.K.(.;XP.E.|.[.*X].B.' s x J d 9 Z S 0 q g 0 9 6 5 6 , , r r r y % % <.2.t r 2.G.,.E E r C 6 r r 8 r r r 9 8 5 4 5 5 5 5 8 5 e 8 8 8 8 8 9 9 9 9 0 9 6 9 5 4 e 9 5 5 4 5 8 9 5 5 5 5 r r r r 8 0 6 6 0 9 0 9 0 0 0 0 0 6 9 9 6 8 8 5 5 5 9 r 9 8 8 8 5 8 5 5 9 8 5 0 8 9 8 5 4 4 5 4 r r     &   $ 5 4 * 4 4 0 4 4 5 , 5 , r r r 2 2 r 8 0 7 4 0 0 7 8 5 4 > 5 4 4 % , > , * , 5 , 4 5 4 4 , , , , r , , , , , , , 5 , , 5 , 4 0 4 4 4 4 4 4 4 4 4 4 > 4 4 4 % , 4 4 % , % 4 4 4 4 4 > , 4 5 4 4 5 4 4 % % 4 & % % , 4 4 4 4 > > > > , > > , , , > , , , > > , > > > : > > > > > > , 1 > > 1 % , $ , % % , , $ % , , % $ $ , % , , % , & , : $ $ O & & $ $ O % % % % % % % % O % O X $ X X O O + X 4 ",
". O = + > > % + O + 1 8 s 5 > O $ > > : > % > % > $ : % > % > : $ > $ > > > , > : % : > > > > , , 1 % > > > > - > - > > 1 ; 1 1 1 > 1 > > 1 1 7 2 2 1 , $ 2 K  .F T r.} : o r.V._ z x z I } I 8 F k i Z k 2 d f. .> s $ s s.7XPXbXyXR - > > 5 8 7 8 7 7 5 s k Z g g J { ;.9.w.i.B.b.w.w.b.w.w.B.j.B.n.n.k.B.2.2.2XP.4.*.;.<.{ s 0 2XPXhXjXzXbXpXcXPX2., bXLXyXW > &.} ,.K <.jXPXPXSXPX8Xa.B.[.&X2X2X X.X<X[.(..X;XfXZXhX;X^.).[.(.|.{.E.}.}.&XU.*X;X).M.J P F z J s 8 7 q s g g g s r r , & & , & r r & C } W r 2.S.r.! U W y r 6 r 8 r 9 9 8 8 8 8 9 9 9 5 9 8 9 8 8 5 6 8 9 9 9 0 6 0 9 6 0 * 9 0 0 5 8 6 9 9 5 5 r r r r 5 r 5 5 6 6 9 6 9 8 8 6 0 8 9 6 9 9 6 8 5 5 5 0 8 6 8 8 8 8 r r r 4 9 5 4 4 5 5 8 8 4 4 9 4 6 6   O $   $ 5 4 , 6 4 4 4 4 4 , , , , 2 2 8 2 5 8 a 7 q 7 7 s a 8 1 4 5 5 5 , 4 4 4 , 4 4 5 4 , 4 4 5 , 6 , & , , , , , % , , , , , , 5 5 5 4 4 4 4 4 4 4 4 4 4 4 , 4 % , 4 4 4 4 4 4 , % % , 4 4 4 4 8 4 , % % 4 4 % % % % 4 4 > > % > , , > > , > , , , 4 , > > 1 , , 1 > > : > > > > > : , > , , , , % % & % , % & $ , , , % $ $ , , > , , : : > & $ $ $ $ $ : $ $ + + % % + + X % % X % X + % X % + % > 4 ",
"o . O > O O + - > O . O > > - + $ $ % : > O : % O > % : O : % $ > > : > > > : > , > > > > $ : % $ $ $ $ : > 1 > 1 - 1 1 - 1 1 1 1 - 1 > > 1 > , a 7 7 > $ , K &...T -. .: $ r.c.P F :.&._ } x 3 > Z F 7 a p.D.H.J.} Z e m.dXAXhXZXqX$.> 4 4 8 9 8 8 8 8 8 9 k Z f g ' { w.s.s.9.B.B.1.w.B.l.n.B.E._.!.H.n.G.i.w.;Xh.<.;.{ U Y Y - S.mXKXnXbXpXVXPXqXr y cXLXc.A V } ! e.U e.KXPXIXAXPX6Xi.F.'.)..XqX2X.X2X|.`.1XwXdXdXwX8X;X*X[.P.L.).{.|.E.[.'.P.).).B.Z L z z a s A D g g g a 9 6 6 8 r r , $ & 6 y & % S U 8 r.c.g.E C C r y r 8 8 r 9 r r 8 8 5 5 0 5 9 0 5 8 4 5 0 4 5 5 0 5 0 0 0 6 0 0 0 4 5 5 e e 9 8 5 5 5 5 5 5 , 5 5 4 5 6 5 8 8 6 0 0 5 0 8 8 9 r 6 9 9 6 0 4 5 4 4 9 8 8 8 , , r 5 8 5 4 0 4 5 8 6 4 4 9 4 5 5   O $ . % r 5 > 4 4 4 4 4 4 r , , , j 8 2 i 7 7 0 7 7 7 7 s 8 7 7 , r 8 5 r 5 5 5 4 % , , 4 4 , 4 & , , , , , & , , , , , % , , & , 5 5 5 4 4 4 4 4 4 4 4 4 4 0 0 4 4 4 4 , , % , 4 4 4 4 4 * , , 4 8 5 % % , 4 4 % 4 , 4 4 4 % % $ > > > > > , : > , , 8 2 , > , 5 , , > % > > > > > > > > > > , > , , , % , > , , $ & $ $ % $ : & : & $ : & , , % $ $ $ % $ % % $ % % % + % + % + > % $ O O + > > . @ + + ",
"o . O + O + + - > + .   . + > % : > $ : > $ $ : > $ $ > > % $ > : % > > > > > > > , > > > % $ $ > > : % , , 1 > > > 1 ; 1 - > 1 > 1 1 > > 1 1 1 5 7 8 a 2 s T 8.f.3.,.6., 3 r.C.&.z d.K.r.) 3 : U S k U D.PXqXp.PXnXbX}.9XDXkXBXDX9X_ % 7 8 s 8 8 9 s k k s z V J { { { q.B.B.w.B.b.w.x.B.m.B.B.(.[.*X[.E.P.k.B.dXn.w.n.p.*.` $.0 =.nXPXtXGXaXBXPX.X  W rXDXR , &.T $.u.s a.PXPXIXZXPX&Xa.P.[._.`.2X2X&X2X3X XqX6XhXvXhX6X3X*X`.{.~._.UX|.H.E.E.K.E._.n.q a d P 7 J K A s s g S s g 9 0 y K C $ t 4 C > O W K k s.L.G.! S S 4 C r 5 r 5 r r 8 8 8 7 6 8 0 6 6 6 5 4 5 5 4 0 0 8 4 0 0 8 4 0 0 4 % 4 0 e e 9 5 4 5 6 r 5 , 5 , , , 5 5 5 5 r 5 5 8 5 8 r 5 r 5 6 9 9 0 9 6 4 4 4 5 r 6 r 5 r , r 8 5 5 5 4 8 4 8 4 4 8 4 4 4   X $ . & , 5 , 4 6 5 4 5 , , , & , 7 a 2 8 7 7 q 0 7 7 0 0 7 a 7 7 8 r 5 4 , 8 4 4 * , > 4 5 & , , , , , , $ , , 3 , , , : > % , , 4 4 4 4 4 4 * 4 4 4 4 4 4 4 4 4 4 4 , 4 4 4 4 , 4 % 4 4 % 4 , 5 r 5 , & 4 4 , % 4 4 4 4 4 % & % > > > > > > > > > , , 2 > > , 1 , , , > : > > > > > > , > > , > , , , % , , , , : , , $ $ % & , % , $ & , & , & $ $ % $ $ $ % % * > 4 > > > % > % % X + O $ % %     . . ",
"  o O O . O + O O = > + > 4 > - + $ $ + $ $ $ % O % : + $ : > $ > % $ > : > > , : % % : : > 1 > 4 , , > , > > - 1 ; : > ; 1 1 1 1 > > 1 1 > 7 > 2 2 a k 8 j T 8.,.>.e.d.8 3 -.:XV.a t.K.6.-...r 7 V <.P.3XLX Xp.LXkXjX:XkXJXbXkXDX2XU O 8 9 s 7 7 8 9 a 8 s k Z { :.;.1.w.B.B.1.4.1.w.s.s.B.!.).[.|.3XvX8X'.B.P.8Xn.9.h.w.<.{ { V w 5XPXrXGXjXGXGXE.> D.bXK.A z &.T *.r.k K.PXGXLXKXPX'.l.!.&X;X XqX2X<X6X3X.X1X&XdXKXhX1X&X&X<X:X|._.~.|.'.[.P.W.|.1Xm.o d F K n C 8 a Z g 0 s D S W R 4.u.u.<.! % e   e ,.U P V._.~.3._ S 5 9 r r 5 r r r e 8 9 9 9 9 9 6 0 6 9 8 8 5 5 8 8 6 4 4 0 0 0 0 4 6 0 4 * 4 4 4 6 9 r r 5 6 r & , , 5 , 5 r 5 5 5 r 5 5 8 8 5 r 5 5 6 9 9 0 9 9 9 9 5 , r , , , , , 4 5 5 5 4 4 4 4 5 0 9 4 8 8   O $ . : r 5 , 6 4 * 5 5 5 , , , , 1 7 7 7 7 7 0 d 7 0 0 7 0 7 0 7 5 4 4 , > % % , , 4 4 4 4 , , , , , , & , , , & r , , , , , , , > 4 4 4 % 4 - 4 > > 4 % % 4 % * 5 4 % , , 4 , * 4 , , % 4 , 4 , 8 5 , 5 , 4 4 4 , % > , , 4 , 4 1 , : , , , > , > 1 , > > , , , 2 , > > > $ > : > : , > , , , , % % % $ % % $ % , & $ % $ % : , % > , % : > : , $ % & % $ & $ % % % % % X $ % X % % % O X % X % . . + + ",
". . . O O O + > . - 4 > - > > + + : $ $ $ - = $ > : % : > $ O > > : : > > > > > $ $ > > > > , > 2 , , 1 > 1 > - 1 > : - 1 1 1 1 1 1 > > - > 1 1 8 1 7 8 8 7 I &.3 I e. .2 = L :XV.2 b.K.T a.C.&.G Q g.OXaXIX.XV.JXGXFXpXjXqXeXpXLX1XS O a 9 9 8 7 4 5 8 8 k S Y { %.w.w.B.B.b.w.w.{ w.i.w.B.*X1XdXdXhXZXwX[.B.H.6XB.h.l.s.i.9.<.U X U.PXGXGXcXLXPXp.> qXjXT k G K K ,.,.K :XPXZXPXIXPXP.i.'.;X6X&X<X;X<X<X.X&XrX1X*X{.8XAXvXjXfX|.K.c.L.7X;X1XwX_.*XwXm.= F P d j a 7 A ` J @ @   @ 0 W ~ 3.a.c.4.% e   } H.` ` F.*X~.r.! C 9 8 r r 5 r 8 r 9 9 8 9 8 6 6 8 9 0 8 8 8 8 4 8 8 6 4 4 4 5 4 4 5 0 9 5 5 4 4 6 r e 5 5 5 r , r , , , 5 , , 5 r 5 5 , , 5 5 5 , 4 4 4 7 0 0 r 9 6 e 5 5 r , , , , 5 > 5 8 8 8 4 4 0 6 4 8 > 8 8   . $ . $ r 8 4 8 0 4 4 5 5 r , , , p a 7 d 7 7 7 0 7 s 7 7 7 7 7 7 5 4 4 , 4 % % * , % , , 5 , , & r , , , , $ , , , , , & , , , , > 4 4 > 4 + * > % 4 * > 4 % % & 8 5 % 4 4 , 4 4 , & % , , 4 5 5 4 5 5 5 4 % 4 4 % * % % % % 4 5 > > > > > > > > > > > > , , > > , , > > > : % : > > > : > , , : , % & : $ : $ : % % % $ % $ & : , : > , > % : % $ % , : $ $ % > % + % X X . O O % O O % $ O O % + + > 4 ",
"O O - O + + O >   - > + O + > > $ $ O > $ $ % $ $ % % : $ % : $ $ > % > > > > > > , > : > > $ $ > > $ $ > 1 : - > - 1 1 > - 1 , 1 > 1 - > 1 > 1 a > 1 a 8 2 F  .-.o.r.j x l I ^.8.= {.0X..6.{.~.E.XXUX9XtXJX3XU.JXbXpXpXBXpXpXpXLX3XS % k 8 9 a 8 k k k C K } *.%.{ w.w.b.b.B.B.w.{ w.b.i.!.;X;XwXhXrX1X[.&XI.P.;Xn.g.i.n.s.4.Y W * z.5XJXPXJXzXGX} k PX(.. > ` ` Y %.R Y 1XnXLXKXIXIXH.s.!.[.3X2X<X3XwX X!.|.mXhX[.E.;XhXdX9XwX_.{.G.f.'.&X8X;X*X[.1Xi.1 I P 7 K I k 1 -   + { 2.<.w.l.a.3.a.F.a.C G   r.{.Y G L.UXU.<.K k V 9 r r , , 8 e r 9 8 8 8 0 0 4 0 7 5 4 5 4 4 4 4 0 * 4 0 5 0 4 4 0 5 5 9 0 9 6 5 5 4 4 5 , , 5 5 5 , , 5 r 5 , , r , , 5 , 5 , , , 5 0 9 8 6 8 6 r , 5 , r , % > r % 4 9 9 8 4 4 4 8 4 4 % 4 5   . $ . $ r 5 4 4 5 8 6 5 r , , , , q d 7 7 7 ; 7 7 0 7 7 7 a 7 7 7 r 8 5 5 4 4 > , * 4 % 4 4 % , & , , r , , , , & r , , , % & , , * 4 q 4 4 4 > > 0 4 4 4 4 4 5 4 r 4 % , 5 5 5 4 4 4 4 4 % 4 4 , % 5 5 5 , % % % 4 % % % % % % 4 > , , , , 1 > , > $ $ > , , , > 8 , > > $ $ & > , > > , > , , , & % , , , & , , , & > : & , $ , , , & , : & & $ $ $ , % $ $ % % 4 > > > > % % % O X O O % X X O o . X + ",
"o O > > - O . . = > - > + - % > $ $ O $ : % > > O $ > , > : % % $ $ % > : > & % $ , , & > % % , > : $ $ > > > $ > > , 1 , : 1 > > > 4 1 1 1 1 7 1 7 8 a r r , , , c ,.6./ 2 ) Z.d.c K.>X..f.:XUX|._.UXqXtXPXI.L.PXnXqXtXqXeXpXpXLXBX&.  j e 8 5 z 5 k r A K *.,.1.1.i.s.B.w.b.hXSXi.{ B.}.2X.XrXdXqX6X1X1X}.P.).1XB.J.s.s.u.;.;.4.U   $.2.j.PXLXHX` L.GX4.0 G R ;.9.:.{ %.eXLXZXGXHXPXG.g.(.|.rXqX<X6X<X}.}.&XbXrX&XW.&XZXdXFXdX].^.m.1.!.hX=X%X[.7X8X8.o J x > z C , j A R :XDXGXpXyXnXUXj.n.V.n.i.U   _.'.g G U.&Xi.$.$.9 Z s & 8 e r 5 4 4 9 9 0 8 0 0 4 0 0 0 7 , > 4 4 4 4 5 4 4 8 6 6 8 4 8 5 4 4 6 r r 4 , 5 5 5 5 , 4 , & 8 8 r 5 5 5 r 4 4 5 5 5 5 5 r 8 8 6 8 9 5 8 8 , , , , , , , 6 , , r , 5 5 5 5 4 9 4 > 5 4     $ & $ , , , , , , , r , 5 r , 4 , 4 7 7 7 7 q 7 7 7 q q a 0 7 7 8 9 9 4 4 4 0 4 % 4 4 4 > 4 % > 5 , , 4 , , 4 5 5 , & , 5 , 5 4 % % * , 4 4 5 5 4 5 5 4 , 5 4 , , , * , , 4 , , > , % 4 4 4 4 5 * 4 > 4 * 4 > % , , , $ $ & : & > $ > > > > , > > > > > > > : > > > $ % , : % % % $ & $ & : , > , , , , , , , > , : > > > > > , 4 - 4 4 - > 4 - > > > + + + O +   . O O . O O O % O O O O . O $ X . + % ",
". = + O O - + + + O + > + > > + > $ > O O > > > : > > : % $ : > % % > > , & : , & $ , : : % $ $ > > > > > > > > > > > : > > > > q 4 - q q 7 1 1 1 p 7 7 2 , 4 3 3 & c ! / c I 6.@.N ~.K.P ~.jX]. X XyXeXrXPX_.`.GXzXjXpXqXyXpXbXDXFX,.  e r j , e r r r r I o.<.w.p.B.b.i.i.B.wXSX;XB.B._.2XqXtX6X1X3X&X*X).H.E.6XD.j.g.k.i.;.` { ` V 0   @  XPX8Xp.wX<X` Z E G { { -.{ 1.GXPXIXPXLXBXk.s.).&XwX2X#X<XUX<XqXwXzX.XP.3X6XvXjXeXjXSX%XB.M.W.0X7X=X&X7X7X1.O G A k a K 5 Y {.LXGXbXyXUXtXeXjXpXL.S.H.m.{ J ;XE.J s E.}.4.G Y 9 D s 5 8 9 9 6 5 0 5 6 0 0 0 6 0 0 0 9 8 5 0 4 5 8 9 5 5 4 5 8 8 8 4 r 5 4 , 6 r 8 4 5 5 5 5 5 5 , 4 5 8 8 r 5 4 4 4 6 r 8 5 5 5 4 4 5 8 5 8 8 0 8 5 r , r , , 6 , , 6 , , 6 4 5 0 4 5 8 4 4 6 4 .   $ & $ , , , r , r , 6 , , 5 , 4 , 7 7 7 7 p 7 7 7 7 p 7 7 7 7 - > 4 4 % q 4 4 > * 4 * 4 4 4 q 4 4 * , % % * 4 4 5 , % > 5 5 , , % % % 4 , 4 , 4 , 5 4 4 % 4 4 % 5 5 4 5 4 4 5 5 4 4 4 % > 4 4 5 > % 4 4 4 4 4 4 , , $ $ : & , , , , > > > > % : : > $ > > > > > , > , % & , & : $ % : , , , > , , , , , , , > > > > > $ $ : $ > > 4 > > + > > > + + + - > > > > 5 2 4 , : $ $ $ : O $ $ O O O : + . & 4 ",
". O O + O O + > > - > + + O O + : % $ $ $ % $ > , > > O O $ : > $ % & : , $ : & O $ & $ $ & $ $ , > > > , , 1 > > > > > > > > > % 4 > > 1 q q 7 7 1 1 > , , 8 8 r $ I o...I ..>...N C.a. .1XjX:X.X<XtXpXtXJX.XUXBXbXcXcXrXyXjXbXDXLXp.$ r r r , j C j K c ,.2.r.s.d.g.n.m.B.8XhXwXPX;XB.}. XrXtX9X6X6X1X}.I.D.U.8XD.h.k.n.i.4.` G G ` E D 4 (.PXL.g.zXw.q S { Y { ' ;.Y w.PXPXSXLXLXjXp.g.'.&X7X2X<X2X<X8XvXdXwXwXI.6X3XqXAXdXkXKXhXB.m.=X8X;X;X:X1X;X:.O F s Z 8 c   A _.LX3X2XUXyX3X2XIXPXyXU.Y.!.w.{ '.!.w.&..X'.%.V S s V 8 8 6 5 5 9 8 9 5 8 6 8 0 9 9 0 9 9 8 8 5 8 8 8 9 8 4 4 8 8 8 0 4 5 5 4 , 8 r 5 5 , 5 5 5 5 , 5 5 5 4 8 5 4 4 4 , e r 5 4 5 5 , , 6 8 4 4 4 4 5 5 6 r 6 , , , r r , 5 6 , 5 4 5 5 5 9 4 4 8 4 . . $ . , , , , , , , , , , 4 4 , 4 7 7 4 7 7 7 7 7 7 7 7 1 1 - 7 7 > 4 4 % + 4 4 4 > > 4 4 4 4 * > , , % % > % 4 , , 4 4 4 5 5 , * 4 , 4 , 4 4 , 4 & 4 , % , 4 4 , 4 5 4 4 5 5 5 4 5 4 4 % > , 5 5 % 4 4 4 4 4 5 5 , & : & : , , , 2 4 , , 1 > > > > > > 1 > > , , , > > % , & , $ $ % $ : % % , & , , > > > > > > : > > % : $ > > > > 4 - 4 > % + + O + % + > > > = : : : $ $ $ : $ $ $ : $ O O : . . & 4 ",
"o o . O . O . - + O O + - - + O > > > % : $ $ O > > > $ O O $ $ $ $ $ > > $ , % $ $ $ $ $ $ $ & , , > 1 , , > > > > > > > > > > 4 > 4 1 1 7 p 7 p 1 1 > , 1 2 8 , , ..6.T N ..>.o.I f.e.d.9X2X3X}.<XpXrXpXJX3X2XIXjXpXzXpXcXbXcXLXLXp.: j 8 r e 8 c C K T 3.z.<.w.m.s.s.B.;XSXhXwXPXZX&X<X<XjXZXrXwXrX6X|.W.D.U.0XP.B.D.G.1.9.;.*.S G g 0   B.PXj.s.rX=.o S U W :.{ 8.G s.PXKXnXBXHX5Xp.j.}.&X;X6X9XrXqX6XqX6XwXvX~.~.E.{.9XAXfXlXlXB.m.hXfX>X;X&X0X;X' o J 7 8 x ! r > g.UXLXbX:X0X|.3XvXDXKX<XE.*XW.s.).{.E.P. XU.R s Z s k 0 5 5 5 8 8 9 9 9 6 8 0 6 0 8 9 9 5 8 4 0 4 0 8 5 0 4 4 8 8 8 4 4 r 5 4 5 8 8 5 4 , 5 4 r 5 5 5 5 , , 4 5 5 5 , 5 r 8 , 4 r 8 8 8 8 0 4 4 4 4 8 8 r , r r 6 , , , 5 , 6 & 4 4 4 4 5 9 4 4 8 > . O $ . & , , 3 , , , , , , 4 % , 4 1 4 1 4 7 7 7 a > 7 8 7 7 7 7 7 8 9 8 4 4 4 4 > 4 4 4 4 4 4 4 4 4 4 4 , 4 4 , 4 % % , 5 4 4 > % 4 4 4 4 % 4 % > % , 4 % % 4 8 % 4 % , , , % , * 5 4 4 % & , 5 5 4 % > 4 4 4 4 4 , , , & 3 & 3 & > , 1 , , , 7 , % > > > , , , 2 > > % > : > , $ % % , , , , , , , > > > > > > > > > > : > > > > > > + > + - - % 4 4 > > > + - + . . O O O O O $ $ O $ $ $ . O $   . O , ",
"    . = O O O O - - O + % + O O > $ > : > O : $ : > > > $ $ $ $ $ & % % > > > $ $ $ O $ $ $ % > 1 > > > > 1 1 > > > > > > > > > % * , , 1 7 1 q 7 q 7 7 7 8 8 8 3 : _ ,./ I ......| d.>.V.dX1X*X_.<XrXpXjXLXyXyXPXbXpXjXzXcXnXjXPXLX3.$ c 5 9 z r y I K $.3.r.,.9.W.B.l.E.hXIX3XhXKXIXdX.X2XyXMXqX6X6X1X&X_.H.E.wXW.G.P.H.w.i.1.{ S D G D + 9 ;.@ s I.! @ U Y G :.{ w.J S.PXLXPXzXJX9Xa.B.[.;X8XtXqXnXdX6X3X3XdX2XJ.P.W.}.eXFXdXSX=Xm.P.lX;XfX0X1XkX*XP O J a 8 O c e 5 ! ,.}.DXbX.X2XqXeXIXZXLX2X;X7X=XdX6X'.6XE.s.U s s s s 9 4 8 8 8 8 8 9 9 9 5 0 5 6 0 0 0 0 5 5 5 4 5 0 5 5 8 4 4 6 6 8 4 5 5 5 5 5 5 5 , 5 5 5 5 5 r 5 5 4 4 4 5 r r 5 5 5 5 , , 6 r r r 9 8 5 4 4 5 8 8 r 6 , , , , , , , 6 4 4 4 4 4 4 4 0 > 4 5 + . X & . $ , , % , , , , , , , , 4 % 7 4 4 , 7 7 8 a - 7 7 0 7 7 0 6 0 8 5 4 4 4 4 4 4 > 4 4 4 4 4 0 4 4 4 , 4 5 4 4 % * , 4 4 , 4 % 4 5 , 4 , , , & % , 4 , 4 5 8 5 , % 4 , , 4 % , , , 4 % 4 4 5 5 4 > 4 4 > 4 % % r , , , , : , , $ $ $ % > 1 , , > > > , , 1 5 5 , > , & , , $ $ & , : , , % , , > > > $ : > > , > > > > > > > > - > % % > % + > 8 7 0 1 , > % + > , , > $ $ O $ $ O $ $ $ . O $   . O 4 ",
"  . + > > - + + + + O O > > > + > % $ > > % $ O O % > > > $ O O $ $ $ % % : % % > & $ $ $ , , & > > : % > > > : > > 1 > > > > > 4 > > 4 7 7 7 p 1 1 7 7 7 7 5 2 , : T >..._ ..#.....3. .K.6X'.'.`. X9XwXpXbXyXyXKXnXzXnXjXbXBXnXPXbX&.. C 5 8 z r r W I ,.z.c.a.k.g.i.W.hXIXZXdXSXhXIXhX(.<X2XrXdX6X6X3X1X}.U.).fXL.D.Y.W.n.p.*.;.=.D V S G 0   0 ;.L.<.4 U E Y { :.9.J U.LXIXLXDXPX2Xu.B.`.1XdXdXrXmXzXdXrXwXmXwXB.P.Y.*XvXvXkXlXvXQ.n.0X8XfX;XfXFXE.s - G F s r 8 c } T , % :XPXeXqXqX2XrXbXIXmXfXhXhXKXKX3XwXP.3.E Z 9 k s 8 4 8 r r 5 5 8 9 6 9 6 0 4 4 4 4 0 8 8 6 8 8 8 8 5 4 5 7 8 8 8 4 5 , 5 , , 5 5 5 5 5 5 5 5 5 5 8 r r 5 r 5 5 5 4 4 5 5 5 4 5 5 5 8 8 5 4 5 5 8 8 r , , , , r , , 5 & 5 4 4 5 5 4 4 4 4 4 5 +   % : . $ , , > , , , , , & 5 & , & > 1 7 7 7 7 8 7 4 7 7 1 > - > > > > 4 > + 4 4 > 4 * 4 % > 4 4 4 , 4 5 5 5 5 4 % % , , 5 * , % , , 4 4 4 4 * 4 , 4 5 4 4 4 5 4 , 5 4 4 4 4 4 4 4 4 % % , , 4 5 4 4 * 4 4 4 & % % , , & , , , , , 1 > , , , , , , > , > , > , , 1 % , : $ , % % % $ > > & % , > , > > > > > > 1 > > > : > $ > > > 4 - 4 - + - > + > > > > > + - + > > : > $ O O : O O O $ O O . O O . + 4 ",
"o O O > + + - O - O O + > 4 > + $ : $ > : > $ $ O $ : > : % $ O $ $ $ $ > : % $ > $ $ $ : , , : 1 - : > 1 > > - , 1 1 > > 1 : > > , , , 1 1 7 7 1 7 1 7 7 0 4 > O , ..-...x I y.3.o...,.'.{.P.E.(.XX2XtXjXrX2XqXGXnXDXnXzXzXSXDXPXAX&.  z k s k r r I T &.r.f.p.B.` 2.1XPXZXeXZXKXKXPXhX}.2XrXrXvX0X6X3X1X}.W.).wXF.L.P.!.J.p.*.G $.{ S D V G 0 g i.2.S V D $.%.{ :.1.` |.LXGXBXPXPX<Xr.h.W.*XwXvXzXAXdXrXdXwXeXrXF.n.s.P.*X7XfX,XHX[.d.0X;X*X*XfXbXd.; 8 Z G s z k k a P &.X  .'.FX9X&X3X6XGXvXmXKXAXdXKXPXAX8XL.*.Y D 9 9 0 0 r 6 5 5 5 8 8 5 6 5 0 5 0 5 0 8 8 9 8 8 6 9 8 8 8 4 0 5 6 8 0 , 5 5 5 5 5 4 5 5 , 5 5 5 r r 6 5 5 5 8 5 r 5 5 4 % 4 8 8 5 4 4 , 5 0 5 5 4 4 4 5 r , , , , , , , 5 5 5 4 8 4 4 5 4 4 4 4 5 +   > , . & r r $ , , , 6 , 6 5 4 4 4 7 4 4 7 7 7 7 7 7 > 4 > > 7 > - + > 4 X + 4 4 * 4 4 4 4 4 5 5 5 % 4 , 5 , 4 4 , 4 4 5 5 , 4 4 5 , 4 4 4 4 , 5 5 , 4 4 4 , 4 4 , 4 4 , 4 4 , 4 , , , * 4 4 5 , 4 4 4 4 - , % & , 3 & , , 3 $ $ , 5 5 , , , , , , > , 1 > 1 , , , , % : , , % & : $ $ $ , , % & , : : > > , > > , > $ : $ > : $ > > > > - 4 > > - + - + + + + - - . O O O O O $ > O O $ > $ O O O + O + > ",
". O O O O + + > + O o + > 4 > > O O $ $ > > > > O $ % > $ $ O : $ $ % > $ > > $ > $ $ $ > > , > > > > > > 1 1 - : , : > 1 > > 1 4 > > , 1 7 1 p 1 1 7 1 > 4 q 4 5 c ..3.o.I | d.b.d.-.r.*X.XW.Y.~.}.6XrXbXpXrXnXIXbXbXbXnXGXKXbXKXDX,.  V A z 9 K T ! 3.3.a.a.a.H.u.[.PXKXhXhXIXhXSXZXdX6X.XvXrXeX3X7X&X&X}.I.'.6XH.'.(.`.U.s.3.*.R G V Y 4 U - R k.U 4 $.A Y R { { { { 9XPXPXGXIXPX X2.m.H.!.;XhXvXSX8X;X6X&X|.&X`.b.h.n.n.0XAX8X7X].^.fX^.W.[.eXdX&.o A z F 8 , , Z x U P U O S :XvXE.1XKXzXKXAXPXmXKXPXKXZXeXD.Y D s q s 7 8 e r 4 4 8 e 8 4 8 8 8 0 9 6 9 9 8 8 8 9 6 8 8 8 4 0 4 8 8 8 4 4 , 5 5 5 4 , 5 5 5 5 5 r 5 5 5 8 5 4 & 4 5 r 5 4 % * r r 5 & 4 4 4 > 4 4 8 4 4 , , , , , , , , , 5 5 5 5 4 8 6 5 8 5 4 5 9 + . > , . $ r r : > 4 & r , , * 5 4 4 7 4 7 5 7 4 4 4 7 4 - > 7 0 7 4 0 9 5 4 4 4 4 % > 4 > 4 4 4 5 9 , & 4 4 4 , , % 4 4 5 5 > % 4 8 % % 4 , 5 5 8 8 4 4 8 % % 4 > & > * % , * % % , % * , 4 5 4 , % > * 4 4 5 5 , & : , $ $ & & $ $ : : > > $ : $ $ > > > > > > > > , , & % % , $ , & $ $ > : & , % > > , , , , , > , > > > > > > > 4 > 4 4 > > > 4 > > > > > 4 > > > , , 1 > $ $ % $ O $ : $ O O $ + X @ > ",
". . O . O O O - O + + > + O - O O $ $ > $ $ % O > $ > O O $ $ > % > > > > > > $ $ $ , , , > > > 5 1 > 1 > 1 1 > > 1 1 > 1 > : - > $ $ : 3 1 1 : 7 ; q 1 7 7 4 > j j 1.a...I ..6.d.r.r.i.].1X(.E._.3XyXBXdX2XjXvXGXzXZXrXLXZXhXPXPXAXi.+ 7 J g q C ..-.&.9.s.h.a.a.r.aXLXBXGXDXzXzXbXIXzX;X<XqX6X;X1X&X).'.|.U.E.:XH.).'.P.D.s.;.Y R K A S S 9 9 $.4.k V R K } ;.{ q.{ ;.hXPXPXSXPXIX}.;.p.E.E.8XAXhXhXhX8X8X;X].fX{.B.B.].*X*XvXfX].!.gXhXQ.b.[.0XbX-.o _ k 1 C A 8 2 Z K z J T s &.P.1XvXvXwXKXSXSXAXSX*X6XSXZXF.G S g V s s 8 r r 8 4 & 8 r r 6 5 5 5 5 9 9 9 5 8 5 8 0 8 5 5 4 4 4 4 4 4 5 8 , 4 5 r r 6 5 , 5 5 4 4 5 5 4 5 5 5 5 5 5 5 5 5 r 5 5 r r 5 5 r 4 5 4 4 4 5 8 8 5 , 5 , r , , , 4 4 4 8 8 5 4 0 9 4 4 4 k 9   . $ . > , % r % % > 4 4 4 4 4 > 0 7 4 - - 4 4 4 - 4 > > 4 > 4 4 7 4 5 4 0 4 0 5 5 0 4 4 4 4 4 8 8 , , % , * , 5 5 & 4 8 5 > , 4 8 & , , 4 5 4 4 % , % , % 4 % 4 % & % % % % 4 4 5 , 4 5 5 5 4 4 % 4 4 * 4 4 4 > 4 , , , , % , $ $ O > = > > - > $ > > % : > , > > % % $ % > , > , $ : , , % % , , , > > , , > , > > , > , > > > , > 4 > > 4 - > + > > 4 - > + - + : $ $ $ $ O $ O : O O $ $ O O $ + + + X ",
". O O + - + + O O O O - + > - % O O > > > $ : $ > > $ : $ $ > > : > : 1 : > O $ $ $ > > > > : > 1 1 1 > - 1 1 > 1 - 1 1 1 > 1 - : > , > > , 1 1 a 1 - q 7 > 4 7 1 5 -.9./ I ..8.m.0.P -.).1XW.E.(.|.3XbXrX}.6XGXzXwXPXLXwXmXPXzXPXIXi.o q 7 g J k } 1.3.e.s.V.S.z.c.cXPXIXKXIXZXbXZXIXZX8X2XwX8X&X&X&X}.&X&XE.).2XE.'.}.P.D.9.` Y R W A S S s s E ! 8 e E U $.2.{ 1.` ;.hXIXLXnXPXPX|.;.9.).*XAXSXhXfXhXfXfX8X[.1X!.b.n.;XlX0X;XwX=X=XhX8XQ.n.Q.ZXvX8.7 G A P z x F a a U K Z k   Z %.H.&X}.0XKXZXPXfX!.w.n.1XZXg.s Z 9 9 7 0 8 6 r r , 4 , 8 8 5 6 5 5 0 5 5 0 6 8 5 4 > * 4 4 4 4 4 4 > 4 4 4 , 4 5 r 6 5 5 5 5 4 , , 5 5 5 5 , 5 5 5 5 5 5 5 5 5 5 5 5 5 5 5 8 5 5 5 4 4 4 4 r r , r , , , r 4 4 4 4 5 5 4 5 5 4 9 5 9 4   O O   % > % , > & 4 5 5 5 4 % 4 * - 4 4 4 4 4 > 4 0 7 7 4 4 > 4 q 4 4 > 4 % % 4 4 4 4 > 4 % * > 4 5 , 4 4 % 4 4 5 , , 5 4 4 4 5 4 , 4 4 5 4 , 4 > , 4 4 % 4 % 4 % 4 4 , > > 4 4 8 & % , 4 4 4 , 4 + 4 4 4 4 4 4 4 , , , > , & , , > 1 , , , , 1 , > : $ > > , , > , $ & $ , & $ % , & , > , % , , , , , > > > , , > > > , > , > > > > - 4 > % > + > > + > - > % > $ > $ $ > O $ O > O O O $ O O $ + + + + ",
"o O + > > - + O + O - + > + % O $ : > > $ $ $ O > $ $ O $ $ $ > > > > ; > > : - O O : > : = - > 1 > > - 1 1 : - - > 1 1 ; 1 > 1 > > : : 1 1 1 1 7 q q 7 7 4 0 0 - >  .8.-. .>.e.V.e.J 9.:X7X!.'.U.&XwXjXwX6XbXPXIXvXrXqXvXvXmX7X&XPXn.o f g g Y  .*.<.2.i.j.S.g.2.(.VXJXIXBXGXnXnXZXIXSXdXrXrX8X3X;X1X|.|.'.P.(.6X`.'._.F.n.a.%.%.} Y K K G D Z _ T r V T K R ,.1.;.Y 9.bXPXGXnXKXPXE.%.9.E.7XvXwXhXhXfX8X1X8X;X0X].i.b.7XSXfX=X7X].;XkX*XW.B.B.7XbXs.1 8 k S 7 1 S Z Z ` K a Z P Z ` ` 1.I.|.3XSXKXZXE.q ;.8XAX9.q s 0 0 - 7 s 5 r r , & r 5 r 8 8 6 8 5 5 4 4 8 5 4 4 4 > % % 8 8 5 0 % % > 4 , 4 5 5 8 5 5 , 5 , % 4 5 r r , 5 5 5 r 5 5 5 5 4 4 , 5 4 4 5 4 4 0 0 > 4 4 , 4 5 5 , , , & , , > 4 4 4 5 8 5 8 5 4 9 8 6 4   O .   , , % , & 4 8 8 0 5 4 4 4 4 + > 4 4 > > 4 5 5 5 4 4 4 4 4 % 4 4 + + X > 4 5 0 4 4 5 4 4 4 4 5 5 4 4 4 , 4 4 4 > % 4 5 5 5 , % 8 8 8 % % % 4 & , 4 4 4 , 4 , 8 4 4 4 4 * 4 4 > > 4 4 , 4 4 4 4 * > - 4 4 4 > , , $ , : , : , , , 2 4 , , > , , : > > , , , > , % : & , $ & $ , , , & > , , , , , , > > > > , , > , > : , , > - + > - - + > - q % > % > + > + $ O > $ % $ $ % $ O O $ O O O $ X + + + ",
"o O O + > + + O O + + > O + > + $ > , > > $ $ > > > % : O $ > % = > > > > = - : O $ = : = - - > 7 1 ; - - > 1 = 1 - > > 1 > , 1 > > , , 1 1 1 1 p 1 1 7 7 7 q 0 4 > ' 8.,.,.6.r.m.t.8.&XKXdX&X&X|.qXzXeXeXvXSXvXFXPXbX&XL.L.k.- 9.ZXB.; g D g J ! } ;.3.i.G.G.s.z.2XGXDXIXcXBXGXmXmXnXZXvXzXdXwX6X:X1X|.'.`.E.'.qX{.).P.n.h.s.4.%.$.U S S A V A $.R C K Y S U *.1.;.D w.IXPXGXDXSXPXg.{ D.|.0XwXhXhXhX8X*X|.;X[.6X'.d.B.7XAXfX8X;X^.>XkX].B.W.M.1XPXm.- G P z Z F z x x s - - K Y 9 Y g - s.'.[.'.wXKX].f w.1X}.9.- s s 9 7 8 k 5 r 5 , , , 5 5 5 8 8 9 8 8 4 0 0 8 4 4 4 0 4 0 8 8 8 5 0 4 4 0 4 4 4 4 4 4 5 5 r 4 & 4 6 r 5 4 5 5 5 5 5 5 r 5 4 , 4 , , 4 , , > 4 % 4 > 4 4 4 , , , , , , , , > 4 4 0 5 5 8 5 8 5 9 8 8 >   . O   5 5 , r 5 8 4 5 5 0 4 4 5 9 4 , 4 0 4 0 5 8 7 7 5 0 4 4 4 > 0 4 4 4 4 > > 0 4 8 8 8 6 8 4 0 5 5 4 4 4 4 , % 4 , , , 4 4 4 4 4 4 5 4 , 4 > > > * , 4 4 4 4 4 , 4 4 > > , , % 4 4 % 4 % , % 4 4 4 4 4 4 4 > 4 & , % , , , , & , , , , , > > > 8 , , 1 , , > > & , : , , : , % % > , , , > & , 2 , > , > > > % > : > > > > > > > 4 4 > 4 > > + > > - 4 + > % - O $ O $ : O > : $ O O $ $ O $ $ + + + + ",
". . O O O + - O O O + - - + + O > > > > > : $ $ > > $ O O > > > > : > > 1 - = = = = > - : - > 1 1 1 ; ; 1 - 1 ; ; 1 ; 1 1 1 1 1 3 $ , , , 1 > 1 7 q 7 7 q 4 4 0 s > F ..-.,.-.>.d.-.e.AXZX7X;X{.9X1X8XbXPXPXIXKXrX6XD.3.s o @ 7 s {.s.q s 0 f _ _ 1.m.d.a.n.h.s.k.pXBXVXJXnXGXJXbXzXnXbXZXhXwXwX3X|.&X&X{.}.}.1XwX&X!.H.h.i.2.{ } U C z V j k S E A C A U K U &.%.%.k g.PXPXGXGXKXIX9.;.!.;X8XAXvX8X7X=X;X1X7X=X=X!.M.^.kXAXfXfX7XQ.*XlX].J.Q.f.fX6X .o Y T k z K k I z d ` J o q _ J { V @ h.h.W.hX0Xi.7 1.E.6Xp.7 s 9 V s 0 k , r r , & r , 5 4 4 5 r 8 8 5 5 5 8 5 8 5 5 8 5 5 5 8 5 4 4 5 8 4 & 5 % , 4 5 5 r 8 4 4 5 r 5 , 5 5 5 5 , 5 5 5 4 , 4 5 4 , 5 4 4 4 4 > 4 4 5 5 5 r r r r r , , 4 4 4 4 5 5 5 8 9 4 0 4 9 8   . O   5 4 > 4 4 5 4 5 0 9 0 4 5 0 4 + 4 4 0 4 4 4 4 4 5 8 5 5 0 4 > 5 5 5 4 4 4 0 + > > 4 4 4 4 4 % , % , 4 , , , % 4 4 4 > > 4 5 8 % % 4 4 8 4 & 4 % , 4 , 4 4 , % % 4 & , % 4 % 4 5 , % % % 4 4 4 4 4 4 > 4 4 % , : $ : , & , , > > , > > > > > > > , , > > > , , , , , > % > > % , & , $ $ , , , , 1 > > % , : > > , > , > > > 4 > 4 4 > 4 > > > > % > > + - + $ $ O > $ > % > $ O O O $ O O $ . + + + ",
"O o . . . O O + + + O + + > + > + > > : $ O > % : % $ $ O : > : - > - 1 > : - = = = 1 - > > > 1 1 1 1 - ; 1 1 - 1 - ; 1 1 1 q ; $ 3 : : 1 1 1 1 p 1 q 7 7 q 4 0 7 = a Z ' ,.>.8.m._ d.AXwX1X3X XvXqXeXdXGXAX&XE.'.|.`   G { - o o ;.{ s g 0 g { { i.B.B.n.n.9.s.XXHXVXCXGXBXVXGXSXMXnXSXZXrX1X3X&X'.&X*X{..X{.|.6X XE.L.h.8.;.Y T U A C S Z A T T C K K K T T =.R $.9 n.PXPXnXDXHXHX1.{ B.[.=XvXhX8X;X;X=X;X8X;X=XB.w.B.lXfXfXvX;XW.;XAX*XH.D.h.].-.o a J 9 s 7 z z F - ,.1XW.7 q ;._ 9.f.J g J { 7XPX!.Z ` B.3XS.s 9 0 V 9 0 7 r r r , , , r , 4 5 5 5 8 8 8 9 8 8 6 5 4 4 4 > 4 4 5 4 4 4 4 9 4 , , , , , 5 5 6 8 5 5 5 5 4 4 r 5 5 4 , 5 5 5 r 5 5 r r 5 6 5 9 5 9 5 4 0 5 5 > > , r , & , $ > 4 5 5 5 5 0 4 9 4 > % 9 8   . .   , , % 0 4 > 6 8 9 5 4 4 4 4 4 4 + + 4 4 4 4 4 4 4 5 0 5 5 4 % 4 5 5 4 4 4 % 4 * % 4 4 4 4 4 & , 4 4 4 4 4 5 % 4 5 5 * % 4 5 8 , % & 8 r 5 , , 4 % 4 , * * , 4 % 4 , 4 4 4 4 4 5 , 4 4 % % % > > * 4 * > > 4 , & % & : , : , > 1 , , , > > > O O $ $ % % , , : , r , , > $ : , % , % $ $ % : , , > > : > $ , > > $ > : > > > > - + > - > + - > q > + % > % > O $ $ $ : O $ > : O O $ $ O O $ X @ + 4 ",
"o O O O O + + + O - O > O % - O $ : $ $ O $ : > > > $ O $ $ > : : - > < > - - = O - > 1 1 : - 1 1 1 1 1 1 1 1 ; 1 1 1 1 1 1 - 1 : , : : 1 1 1 1 7 1 7 7 7 q q 9 7 - a Z ' :.:.9.H.6.J.KX7XwXqXjX9XwXZXZXPXKX&XH.3.%.9.`.6XeXn.Z q q z J J J g { 1.1.s.B.W.D.m.|.nXJXVXPXcXVXnXnXnXGXDXKXSX6X.X<X X'.&X|.).'._.!.7X*XP.L.h.4.*.' R Y S A K S S ! U A I K K R T } Y %.k S.PXIXBXGXSXSXw.4.b.B.7X8XfXfXhX8X].!.].[.8X!.w.B.lX8XfXfXfX*X7XlX*XH.n.J.D.z o J A a G k J G 7 o i.PXAX).J s Y -.B.B.J { Z B.KX[.o s H.eXU.Z 7 7 s 9 4 7 , r r r r , r r 8 5 5 5 5 8 6 8 8 8 0 4 > 4 4 > 0 4 5 4 4 4 4 5 4 4 , 5 4 4 5 4 5 r r 5 5 , 5 5 5 5 , 4 4 , 5 6 5 5 6 5 5 5 r 5 9 8 8 5 5 5 5 8 , % % & , $ : & 4 0 5 5 0 4 4 4 5 > 4 4 5 5   O     % % % 9 4 4 5 8 6 5 0 4 4 0 0 , > % > 4 4 4 4 0 , 4 4 4 4 4 > > 0 4 4 4 > 4 0 4 4 > 4 4 4 8 4 4 5 5 5 5 5 4 % , 5 , > > 4 4 8 , % > 4 5 5 % % 4 4 , 4 , > % , % 5 4 4 , * > % , % 4 4 > > > 4 q 4 % 4 % % 4 , : & : , , > > > > > , > 1 1 > O $ $ : $ % , , $ , , , % $ & & % & , : % $ % , , > > > > > : , : > : > > : : > + > > - % > + + 4 - 4 - - + > + > $ $ $ $ $ O $ $ O O $ O O O $ O + + > ",
"o O O : > > O O O O + - - - - - $ O $ > O $ $ > % > : $ $ O % > > 1 > - 1 : - = = = > 1 1 1 : - 7 - 1 ; 1 q 1 - 1 > 1 1 ; > < : , $ , 2 2 1 1 1 1 7 7 9 7 q 7 9 s z K P }  ._ >.b.6.J.dX|.&X XzXvXeXIXLXvX`.1.` R P.hXvX6XwX|.;Xq.q s g 0 J J ) 1.{ i.n.G.h.n.PXPXCXcXPXcXJXGXGXzXnXnXGXDX2X'.&X|.'. X_.!.{.'.`.eX;XP.G.g.%.*.%.P K C j k 8 r K c e U A C ! R } G =.V F.PXPXLXPXSX8Xw.b.N.=XAX8X;X;X;X;X[.[.=X[.;X].b.].SXfXfXfXKXfXfXAX;XK.K.).W.1.i 7 Z K P z Z z 1 1 J.vX0XkXB.7 g 9.8._ s Y G s.&XD.+ Y E.GXE.J 0 4 s 8 7 5 r r r r r r r , r 8 r 5 5 4 5 5 8 4 5 4 4 0 5 4 8 9 9 8 4 4 4 5 , 4 5 5 5 5 5 5 4 8 8 r 4 5 5 r r 5 4 , , 5 5 r , 5 5 5 5 , 5 5 4 4 5 4 5 5 5 8 r r , , , , r r 4 5 5 5 4 4 > 4 4 4 5 4 5 4   % .   % % , e 5 4 4 0 5 5 4 4 0 0 0 5 5 0 % 4 5 9 8 8 4 4 4 > 4 4 4 4 4 4 % 4 4 5 9 8 0 4 > 4 4 4 5 5 r 5 r 5 4 4 4 4 % % , 4 4 , 8 4 4 4 * % , 4 % 4 % 4 > * > % , 5 4 4 4 % % % % % % 4 4 4 4 4 % 4 4 > * 4 % % , & : : & : > > $ > > > > , > > , , , , > $ : : $ % , & % $ $ $ , , , > , $ & , > > : > > > > , % > > > > > > > > > 4 4 > 4 > > + > > % > % - % > : > O + $ : O $ O O $ $ O O $ @ . + > ",
"  . + + + O - - = - - - - - - = = O O $ $ : % : > : O $ O > $ > 1 1 1 1 > 1 - - - : - ; > 1 1 : 1 1 1 > 1 > 1 > - - 1 1 1 , > > 3 3 3 $ 3 $ , , , 3 > > 4 7 7 5 a z _ |  .o...o.f.>.K.0X{..XBX0XKXLXjX'.V.a.Y 2.&XAX;XwXPXmX;X2XvXJ   Z s G s ;.s.D.B.s.h.P.3XLXnXGXIXVXnXGXGXGXbXhXcXPXzX2XyX1X*X;X;X;X|.[.].[.wX'.B.w.1.&.} $.K A C C D z V A S K U ! ! ! ! I E E 0 I.JXKXKXPXSX*Xd.:.d.B.gXgX,X=X;X=X*X].[.=XhX|.d.J.vXSXwXfXkX8XlXgXQ.W.W.W.m.^ J J g d z 8 F C 1 4 7XfX9X2XyXk., , & C R E =.c..X`.K ` wXKXL.k r r j k r , a 8 8 k k 8 7 8 0 7 s s > > 7 0 > 4 > 4 , 5 5 5 r 5 8 5 5 5 8 r 5 5 5 5 8 5 5 5 5 5 5 5 4 4 5 5 , , 4 5 5 8 8 % 4 4 , , 4 4 5 5 4 , , 5 4 5 8 8 r 5 5 5 5 , & , 4 5 r 5 5 4 4 , & % r 8 4 ,   , O   = 5 1 4 7 1 5 7 8 8 5 7 , > 4 4 , 7 4 7 7 7 q > 4 7 8 8 8 5 9 8 4 > 7 4 , > > > + - > > 4 7 4 7 7 4 > > - 4 7 > - - - - > 7 4 , > , 4 5 , : , , , 1 > > , 1 $ > , > , 1 > > , , , > , > > , 4 > 4 4 7 , 4 4 > 4 > > 4 > > 1 , > > > : % $ $ > > : > > > , > > $ $ > > > $ $ , > > : : > > , , 1 > > > , , , $ > > > , > > : > , > 4 % % % $ % % % % % O % % X % % % % O % % O $ X O . O   O O   . $ ",
"  O O > > O O - - - - - - - - - - - > > > > > > $ > % $ $ $ > > > - 1 > 1 > : - : - : > - : - 1 1 > > 1 - 1 > - > : = : - > : 1 3 $ 3 : 3 3 : , , > 1 > 1 7 7 7 - 1 z F  .:.o.O.V.t.f.:X>XyXBX9XLXLXU.p.V.i.} ).tXhX6X6XvXZXhX7XdXP.g o S J G *.w.n.D.k.h.!.vXPXnXGXIXnXVXnXnXnXnXGXzXPXcX.X2X#X!.!.[.*X;X|.*X|.dX%XJ.b.i.1.&.%.R W D A D V V Z S A K W I I T T E W 9 (.IXIXKXFXPX*Xe.,.N.B.=X=X=X*X=X;X|.[.[.[.gX[.9.B.AXIXAXwXfXgXgX;XW.^.Q.].s.^ q p G a c A a k - - qXPXyX).`.<.O C e , r r k 9.IX X*.(.LXLXL.V 8 8 r e 8 , s 8 8 8 8 7 8 8 8 > , 5 0 9 a , 5 4 4 4 4 5 5 5 5 5 4 4 4 5 5 4 5 5 , , 4 4 5 5 , 5 5 5 4 , , 5 4 5 5 5 6 r 4 , 5 5 4 5 , , , 4 5 5 5 , 4 , 4 4 5 5 5 5 5 4 4 4 4 5 8 8 5 , , 4 5 % 5 4 8 4   % O   O 5 > , 0 > 5 5 7 8 5 7 7 , - 4 > , , 4 4 4 4 4 > 7 8 s 8 8 9 8 4 > > 7 4 > > 4 4 4 4 4 , 7 4 > 4 4 4 q 4 - 4 7 4 4 4 4 4 7 > > > , 1 , , , > , : , , > , > , , > > > , 2 , 2 , , , > , , 1 > 4 > , > 7 > > 7 > 4 > - 4 > 4 , > > : > > > $ > > > > > > > , 1 , , , 5 2 , , > > > > > > > > > > > > > , : > : > > > : > > $ * % * > 4 > % % % % * % $ X % % > % % % % + % > $ % % % % $ & % O X X % ",
"o . : - > - - - - = - - - ; - = = O > : $ % % : : % > O O > $ % - : > < - 1 > : - < - > > 1 > : > 1 - 1 - > > ; 1 - - = = - 1 1 : 3 : : : : , : , , 1 1 1 5 2 7 a j n F ..-./ L 6.V.3.{.kX7XpXDXPXV.,.D.u.z n.qXdX8XmXKXhX8X8X2XfXwXn.q 0 G ;._ 9.a.B.J.D.&XIXZXZXGXGXGXnXnXcXzXcXPXzXPXnX`.OX.X;X;X;X8X;X*X[.[.fX'.m.s.i.6. ._ Y G S Z A V z V F K K K K K U ! E D D }.PXPXLXZXKX~.:.{ 0.b.W.%X;X=X[.=X|.[.=X=XfXwXm.E.hXdXKXSX;XgXlX0XP.%X).M.9.' ; p _ a Y ,.T P 7   ~.jXF.f.r.T r ! k > , W 8 3.PXjXI.eXBXPXL.c 5 5 r 8 2 , 9 5 7 5 7 5 8 s , - 7 8 7 8 8 7 5 8 4 5 , 4 5 4 5 4 4 , % , 4 , 8 4 4 % % , 4 8 , , 5 , 5 , 4 4 5 r 5 5 r 5 4 , r 5 5 4 * , % 4 r 5 5 5 4 , , & 5 5 5 , 5 , 4 , , 5 8 r 5 4 , 5 8 % > % 5 5     O . = 5 > 4 7 > 7 5 2 5 4 4 5 2 7 0 7 7 7 0 7 8 > 4 , 4 7 s 8 7 8 8 2 , 4 1 4 > - > 7 7 8 7 4 4 4 4 > 7 1 q 4 4 7 > > , 4 > 4 > % , , , 1 > , , , > > , > , > , , , > > > > 5 8 , , , > 1 , > > 4 1 4 > 4 > > 4 > 4 > - - 4 4 , > > > : > : > > > > > : > > , > % > 1 > , > > > $ > > , > > $ $ $ > , , > > > $ > > > > > > $ $ % % 4 % 4 4 % * 4 % > % % O X % O X % % O X X % X O $ X $ X $ % $ X & % ",
"  O O > O + + - - o - - ; - - - = O O O O $ $ O > $ % : > : % : ; = - - : > > ; : - - > ; > 1 - > > > > > > 1 > > > > = > > > 1 3 3 & 3 : : , 3 : , 1 1 1 2 7 2 1 7 x F @.,./ L y.b.V.kXbX9XjXLXI.e.1.S ! <.qXvX7X&XdXdX8XdX3X'.3XwX1X{   J { *.,.;.n.Y.H.wXPXIXnXDXGXGXGXbXzXzXvXPXzXIXBX.X}..X;X;X8X8X8X;X=X[.fX).d.9.9.;.` Y U G D V V V V V C A W I T K K I E V D .XPXLXPXKXPXQ.{ q.e.d.Q.%X,X[.].].=X=X;X=X0X*X9.V.dXAXKXZXSXgXfX;Xm.-X=XB.8.' d Z P 1 4.h.5 7 5 a F.`.K r S r   r C T r   S UXPXqXrXIXDXDXL.j , 4 8 r 8 2 8 7 7 8 7 7 8 9 4 8 Z D 4 > 7 9 8 5 5 5 5 5 5 5 , , , & 4 4 , 4 8 4 , , , 4 4 5 4 5 5 5 5 & 4 5 r 5 8 8 8 5 5 4 5 5 5 5 4 % 4 , 5 4 5 4 4 5 5 5 5 5 5 5 4 4 , 4 , 4 8 5 4 , 4 4 r * 4 % r 5   . O o > 7 4 > 4 > 8 5 4 2 , 2 5 7 7 7 5 7 5 5 8 0 > 7 4 1 7 0 7 5 8 7 5 , > 4 > 7 > > , 4 7 , , , > 7 4 - 4 4 > 7 4 , 0 7 4 0 4 7 > 4 , 2 , > > , > > > > > > > > , 1 > > > , , 2 , > , 1 , > > , > 4 > 4 > 7 > 4 4 > > 4 > > > 4 > > > > > > > > > > > > : > > , O > > > $ $ $ : $ $ > > > > > > : $ > > > > > % > > , > : > % $ 4 % % 4 , % 4 % % > 4 % + O % % O $ X O O O O X O .   O O O X . & X % 4 ",
"  o O - O O O - - = - - ; - o = : > % : > > $ > : % > $ $ % % : = = : ; - ; > 1 - : - - - < 1 - < > - 1 < > ; > > 1 7 , 1 1 > 1 , 3 3 , $ , , , > 1 , 1 5 2 7 2 = 7 F n |  .) | d.r.Z./.L.BXJXI.T F s.`.bX2X{.&X|.<XrXwXmXPX&Xl.B.1XdXP.Y 7 q %.j.h.U.P.s.~.SXIXZXVXGXGXGXnXnXcXVXnXnXnXGXrX X3X_.[.;X2X8X1X;X=XhX].N.w.i.8.&.` G G S D Z D A A y c W T I K C C U 0 S }.KXLXKXFXPXn.` :.0.q.s.Q.-X^.).%X[.=X=X].J.U.V.P.kXPXLXLXAXfXhX=XB.-X].B.:.J f Y F : ,.3.1 7 k P K.:X..k   c S C , e $ & H.PXIXeXGXLXKXDXU.j , 4 r 8 8 2 7 > 0 8 8 8 8 8 7 9 S A 5 > 9 s 5 , 4 4 5 5 8 r , 5 4 , 4 4 5 5 , 5 5 4 5 5 5 5 4 5 5 5 5 4 , r 5 5 r 5 8 5 5 8 5 5 , 4 , 5 5 4 , , * 4 5 5 r r 5 5 5 5 , 5 , 4 % 4 5 5 5 , 5 , 8 4 8 % 5 ,   X > . > 8 4 , 7 , 5 2 7 > , 4 5 7 > 4 - 4 4 - 4 - 7 > q 4 5 5 7 7 5 5 4 4 4 4 > 7 1 4 , > , 4 4 1 7 > 4 4 - > 4 7 > 7 7 0 7 7 4 , , 5 2 , > > > > > > > > > > > > : > > , , > > > > > > > > > > > 4 > > > 4 - 4 > 7 4 4 - 4 4 > 7 > > > > > , > > > : > > $ , , > > > , , > > > , > > : % : > > , , > > $ $ > > > , , > > % % $ % 4 > 4 , 4 > % % 4 4 4 % % X X > % % > % % % % 4 % % % X $ O O O $ X & % ",
"    O + + O - O o - - = - ; - - O O $ $ : % > $ O > $ > > : % % - : = - - : - > : - : < > - > > > - > > > > > 1 > 1 1 7 1 1 > : , , 3 , 3 , 3 , > 1 1 , 2 7 5 1 d x I F L | | ,.A.c.c.c.>XBXK.W S g.bXLXE.|..X3X;XwXSXhX6X`.k.h.E.wXvXZXp.- G <.u.9.n.J.n.I.vXPXIXDXnXGXGXMXbXnXIXnXIXnXGXIXyXyX3X4XwXtX8X7X;X=XgXB.w.w.d.9.&.` U U G S A S A Z I K K I K K I T E g U .XLXPXDXLXAXd.) -.:.` q.b.W.).*X=XQ.B.b.q.f.C.h.C.fXFX{.h.~.KXAXQ.M.[.B.b.-.f Z _ K 2 ! x s a 8 o A g.*.K C A j t r r , ! GXDXGXvXbXnXbXPXU.j > 4 r 8 2 8 , 4 0 a a 8 7 5 4 - 7 8 7 8 8 7 4 , , 4 4 r 8 r 5 5 5 5 5 5 5 5 5 5 5 r r 5 5 , 5 5 r 5 4 5 5 5 5 5 5 5 5 4 5 r 5 5 5 5 5 5 5 r 5 5 5 4 4 4 , 4 , 5 5 , 5 5 4 5 4 4 5 5 5 5 , 5 4 4 r 4 5 %   $ = . > 5 7 , 7 4 1 4 , , , 7 5 5 4 > 4 > > > - 4 7 4 4 > 4 7 5 7 1 4 1 , > > 4 > 5 7 > 4 > 1 5 5 4 4 q > 4 4 q 4 4 4 7 8 7 7 4 , 5 2 4 , > > > 1 > 1 > > > , > , $ $ > > , , > $ > > > > > > , > > 4 4 > > > > 4 > > > 4 > > 4 > > > > , > > > > , > > > : > > > > , 1 > > > , , > > > : % > , , , > % $ O $ 1 , > > > > > : : > % 4 4 4 > * % % * > 4 % % $ % % + % 4 % % % + % % % X $ X % +   X . O % ",
"  o O + + O o - - = o - - - ; = O O O O O O O O % $ > % > $ : $ > > > - - : : 1 - : - > > < > < > - > > > > 1 > 1 > 1 1 > > > > , , : $ 3 : , , : , 1 2 2 2 2 1 1 1 x n P ..O.d.R.f.t.K.yX8.. $.9XPXLXjX{.6X X&X<X1X1X'.s.=.n.;X&X{.`.;X9.o ` ,.s.p.j.L.H.D.'.dXPXGXnXnXZXnXnXnXGXnXIXDXGXPXnXqXqXtXrXhX8X8X7X7XfXB.e.e.s.9.` Y S G G S S G S V W K K K I ! ! T U V E }.PXPXAXPXgX8.' :.:.+.q.b.B.Q.].!.b.q.Y J I f.f.f.V.:.A 2 d.*X;XB.:.B.M.N.' Z x F P C K , k Z P . $ } *.x 8 r k k $ . , u.IXGXPX6X2XPXLXGXK.e 1 5 r 2 , , 8 7 5 8 7 7 7 8 1 O > , , 4 4 % 4 , , * , 4 5 5 5 5 5 4 5 5 5 5 5 5 5 5 , 4 5 5 , , 5 5 4 , , 5 5 5 5 5 4 , 4 5 5 5 5 , , 4 5 4 r 8 5 5 4 4 4 % 4 , 5 , 5 4 5 4 % 4 5 r 5 , 5 5 4 , 8 , 4 %   O O   O 7 > 4 5 , , > 4 4 4 1 4 4 7 7 7 7 7 4 , 7 7 4 > 4 4 4 4 7 , 4 4 7 4 > > 4 4 4 4 1 4 > 4 4 7 7 4 > > 4 > 7 1 4 , 7 4 5 , 4 2 , > > 1 2 > , > > > > > , > > % : > , , > > : > 1 , , , , , , 7 > - - - > 4 > > 4 > > > > > 7 , 1 , , , > > > > > > : > , > , > > $ $ $ > > > > > > > , 1 , , , , > : > > , , , : : % $ > > > % 4 4 > * > % + > 4 % % % X % % X O X % $ O $ X % $ O O O % O   O . X & ",
"  . O + - O O - o = - - ; - o ; = : $ % $ : % : $ O : : > > $ O 1 1 : : ; - - - - < - - > - - 1 > 1 1 > 1 7 1 1 1 1 > > > - > 1 , 3 , 3 , 3 : , : 3 1 1 5 5 2 2 1 , c I / L L 6.t.c.V.I 3 . I.LXGXeX{.{.1Xg.9.u.P.W.L.G.h.P.dXrX).}.7XqXhXD.;.i.n.n.F.W.L.h.P.jXPXIXnXnXnXnXnXBXnXGXnXGXnXIXPX2X X3X2X6X8X8X1X7XhX!.i.N.f.9.` K g Z D S S G S k r r r y c C K c S s U _.PXLXdXPX;X:.J  .' ' :.0.b.N.b.N.q.5.{ J I V.V.J.s.: 2 T Z b Q.fXM.1.q.q.) J J i K F k A z 1 S 8 C -.e.K r r C T K C , ,.LXPXnXeXDXGXbXPXL.5 > 5 8 , , , j 8 8 7 5 5 5 8 8 5 9 s > > 8 8 5 5 4 , 4 , 4 4 5 5 , 5 , 5 , 5 5 4 , * % , 4 r , 4 5 , 4 4 4 5 6 r r 5 % & , 4 r r 5 5 5 5 4 4 6 r 5 , 4 % , , 5 5 5 5 , 5 5 5 4 4 5 5 5 5 5 5 , & 4 > 4 %   . .   O 7 > > 4 , > 4 4 7 7 4 4 1 , 4 4 > 4 > > > 5 7 > - , 1 5 7 > , 7 7 > > > 7 - > > 4 4 > > - 5 5 7 > - > > > 4 7 > 4 , , 4 , 1 > % $ , 5 5 , , , , > 1 , > 1 > > > > > 1 , , , , , , , 2 2 8 > 4 > > + 4 > 4 7 > 4 - 4 4 > > , , , , > : > : > : % > > > > , , > > $ > , > > : > , , , , , , > > > , 1 > > > > > > $ > > > > % % % % 4 % % % % > 4 % % % > > + % % % X O % % % O O X $ & O   O . . & ",
"O . O O O + = - - - - - 1 q 1 q > > 1 > > > > , $ $ $ > > O > > = : - > - : - - 1 1 - : ; 1 , 1 1 1 > 1 1 > 1 1 > - 1 > 1 1 > > , , > 1 > : : 2 , , 2 2 2 2 2 8 1 1 n F I ' F i r.Z.V.,.T ,.pXJX|.:XUXr.U r.g.j.E.'.|.|.;XrX8X`.`.6X~.`.LX!.V ;.9.s.g.D.E.D.H.dXIXPXPXzXGXIXjXGXZXGXGXGXGXGXGXDXyX<X<XjXdXdX[.[.fXB.M.b.1.{ ` { D G V G A D K A y I K y c ! T c K J E !.KXPXLXPX|.-...6.o.#./ ..:.6.o.o.:.| / F o.f.r.f.d...2 3 ; d W.fXB.:.+.:.' f J f S ..F _ 7 i G Z z Y ;.A x 8 K -.V.(.I..XnXPXDXdXPXGXLXLXk., e > 8 $ 8 8 r 8 5 2 5 2 > % r r 8 2 4 2 8 2 5 & 4 4 , , 4 , , , 4 4 4 4 , & & , 4 5 5 5 5 5 % 5 5 8 5 4 4 8 8 5 5 5 r 5 r 5 r 4 4 r 6 5 8 r 5 5 5 5 , * 4 5 r 4 4 5 5 , 4 4 5 5 5 5 5 5 5 5 4 % 4 % 8 4   O O   : 8 4 4 5 1 7 7 4 , > , 4 2 2 4 , , , > > , , , 5 2 4 2 , > 0 5 1 4 > 7 > 7 O > > > 4 7 4 > : > , , , : > > , > , , , , , , > , , + % , , , > % > > > > > > , , > > , 8 2 , 8 5 1 > > $ > > > 4 4 > > 7 , 7 4 > 4 > > 4 - > 2 4 , > > > , > : > : > > > > , 8 2 , > > > , , , > > > > > , , , , > : : > : > > $ $ > > , $ O % 4 4 , % % % 4 % % % % % + + % % > * % + % > X % % % % % % $ % & . . & ",
"o . O : > O O o - - - - - ; - - > > > : > : $ $ O $ : O $ % : % = - - : : - < = > > - 1 > : - > - > - > > > - > > 1 > 1 > 1 1 1 < > 1 : 1 1 2 , : 1 , , , 3 2 3 1 1 F I F / / ) c.m.m...8 bXLX:XyXjX.X&.R L.2X9XIX6X6XmXvX6X;X;X|.E.|.wX6Xs.7 ;.k.E.E.D.s.9.F.mXIXPXGXnXLXGXGXIXGXZXGXGXGXGXSXGXaX2X2XrXrXdX*X*X=XB.t.i.w.{ { J ` U s D G S V k C c I I ! I K W Y U Y U.rXLXbXlXP. .....T ../ ..:.7.-.o.:.' / I  .e.d.].V.:   _ ).d.:.*XB.' :.] J J ' g r P P T ` 7 s i T ).'.h.9.;.T T s.`.UXpXnXPXnXZXDXGXLXZX3.O z 5 j , r : 5 2 , , 5 2 , > > 1 , , , 8 2 8 5 4 , 4 4 4 4 , & , , 4 4 , 4 , , , 4 4 5 5 5 5 5 5 8 5 5 4 5 8 8 5 5 5 4 5 5 r 5 4 , 5 8 5 4 8 5 5 5 5 , , 5 8 5 4 , 5 5 , , 8 5 5 5 5 5 5 r 5 4 % 4 > 8 4   O = . > 8 5 7 7 7 , 7 > 4 1 5 5 8 4 2 , , , 1 > > , , 1 5 5 , , , 5 1 , , 4 > 7 4 , 4 4 4 , 7 5 , > 1 2 5 , > > , 1 > > > > , : > , , 1 > : > , > , 1 , , , , , 1 , > 1 , , , , > 2 , > > > > , > 4 > - 4 4 > > 4 > > > 4 > > 4 > , , , 1 , > > > > > > , > > , > > $ $ $ O : > > : > > > > > > , , , > > > > > > , > > > > > > : % % 4 % % % % 4 % + % + % % % * % > 4 % + > % % O O . O .   . . , . . . ",
"o . O > - + = @ O = = - - + - - > > % $ $ O O O O $ O $ O : $ $ - : < - 1 - : - ; - - - : - = : = > - : - : - : > - - : : > > 1 , 1 1 > : , : , , , 1 > : , , , a 1 x I n P / | y.Z.K.,.: ~.GXLXAXPX{.&.2. XDXeX6XZXhX!.D.[.7X`.wX&X;X&XeXPX;XG %.s.h.g.n.k.h.H.vXPXnXIXJXzXIXIXGXGXGXDXDXGXGXGXIXrXqXeX8XdX*X&X8XB.9.w.q.:.{ Y Y D V D R U k z C C I y C I T c K Y J i.W.dX6X*XC.o...I x o.o./ ..>.| ' X./ P H ..d.8.C.u.r  .C.].m.J Q.t.d ' ' g ) m.m.,.&.P T ,.Z Z o &.LXdXV.V.S.s.s.V.L.{.eXIXLXZXPXjXKXPXbX2.> C 4 8 , c 8 , 1 1 , 2 8 5 2 , , , , , , 5 , 5 5 5 5 4 , 5 5 4 4 , 4 , 4 4 , 5 5 4 4 5 5 5 5 r 5 5 4 , 5 8 5 r 5 5 4 4 5 5 r r , 5 5 5 , & 5 5 5 5 , , , 5 5 5 4 , , 4 , % 5 5 r r 5 r 5 5 r 4 % 5 % 8 %   O O . 1 8 5 7 5 4 > 4 7 > 4 7 5 8 8 2 8 4 , , , , , , 2 , , 4 , , 7 > > 4 > 4 > 7 1 0 7 - > 4 7 4 % 1 , , , > > > , > > > > > > > 1 , , % > > , > , , , , , , 2 4 % > > , 1 % > > > > : > > : % : > - - > > > > 4 > - > + 4 - + > , , , , 1 > > > , > > > > , > % > : % $ > > > , $ > : $ : : > > > > , : > > > , 2 , > $ : > > > % 4 4 > % % % % + % % % % + % + % > % % + % % + O X X . X X O . & X . O ",
"  . . - - + = O + o - = ; - ; - = > $ $ $ O $ O $ O O $ $ % $ $ - - - > : : - - = - : : - > = ; : = : - : - > - : > : - - - > > 1 > > 1 > 1 1 1 : 3 : 3 3 3 3 , a O l I I L n L f.C.h.8...Y 3.l.s.V.u.K.wXvXdX:XwXrX*Xh.w.U.1X;XwX3X1XZXvXZXdXk.w.D.G.n.n.k.h.D..XzXJXPXGXvXIXVXIXIXGXGXGXGXGXGXPXzXqXtX8XfX&X;XgXB.9.1.{ { ' J Z A Y S ` R C C A C C c r I ! y Y ` ` =.s.*X].n.8.T ...._ o...I (  .) ) ../ P b I c.,.,.r.f.~.~.~.s.' H.Q.{ J ' J f d.m.,.} P } &.J ; o d.KXfXE.K.f.} 3.c.V.{.bXLXPXzXDXbXGXLXDXp.> k , 8 , k r , , , , 8 5 2 5 5 2 8 8 8 2 , 1 5 5 5 , 5 5 4 5 4 4 4 , % , 4 4 5 5 4 , , 4 , 5 r 5 % , 4 r 8 8 5 5 5 4 4 5 5 r 5 5 5 5 5 , % 4 , 5 5 5 * , 5 5 5 4 % 5 4 & % 4 5 5 5 5 8 5 r 8 , % 5 4 5 ,   % O   % 5 1 , , > 4 > > , , 4 7 0 2 5 , 2 , > > 1 > 1 , , 2 , 2 , 4 7 4 > > 4 > 4 , 4 , > - > , 4 % > > , , > > $ > > > > > > > > > , , > : > > > 1 2 , , 4 2 4 1 $ > , , > $ $ $ $ $ > > > > > > 4 > 4 - > > 4 > - > - 4 > > > 4 1 , , , , > > $ , > > > > : > : , , , > > , , 2 > > % > > > > > > > > > > > > > , > > $ > > > > % 4 % % % * % > % % + % % % % + % % % + + % % % % % $ % $ $ O $ X O O X ",
". . . O - + + = o ; = - - - - - = O % $ > $ : > > O O $ : > > $ ; : - : : - : - : = > 1 - - - - > > : 1 - > - : 1 - = = - : - 1 > 7 > 1 1 > 1 , : , , 3 , 3 3 2 1 ; x P I N M N d.K.c.,.F T O 4 j ,.s.qXPX9XeXDXvXU.9.g.E.&X3X3X1XKXGXZXIXPXD.s i.D.P.P.H.k.s.h.S.#XPXPXVXLXGXGXIXIXGXGXBXGXGXGXSXdX8XwXwXdX;X;X7XJ.b.b.9.*._ A G E Y 9 $.R S k I t r ! c T I T G Y ,._ ,.k.f.,.K c ....../ / / ..o.H )  .' _ J I f.e.P.{.~.W.H.:Xd.P K.>X-.f { ) q ' { ) {  .T Y d o z 1XfX%X'.}.~.s.a.&.P K.PXGXIXrXqXGXbXGXGXg.O , 8 S 2 8 2 2 , 2 2 , , , 2 2 , 8 2 2 , , > , 5 5 5 5 , 5 5 5 5 5 4 4 4 5 5 5 5 5 , , , 5 5 5 * % , 5 r r r 5 5 4 , , , 6 r 5 5 4 5 4 % % , 5 5 5 , , 4 4 5 5 , % 5 4 4 % , 4 4 4 4 4 5 5 5 4 % 5 & 8 4   $ .   = 7 > > , > > , > 4 > > > > > , > , > > : : > > 1 , , 1 1 , , 4 , 4 , > > > + > 5 , > , > > 1 > , 1 > > 1 > , 3 > > > , > > , , , > > 1 > > , , > 1 , , , > : > > , % $ $ > > > , , , , , , 4 , > > - 4 > > > - > > 4 > 4 > > , , , , , > $ , > , > > > > > > > > > > > > > > % > % : , > , > > > > > > > > $ > > > > > $ $ 4 > * 4 % 4 % > + % % % % % + % % % $ X % O % % O % O $ X O X & . . . & ",
"o O O O O + - - - - - - - ; - 1 = O O : : > > > > $ $ $ : > : $ = : - - > < : : : > > < > < : - - 1 > 1 1 > 1 > : - : = O - > , > > > 1 , > > : : : : : 3 , 2 2 2 1 / _ I n I ..d./.K.o.: C a.r.u.G.k.~.jXAXDX3Xw.Z V g.;XhXdX3XfXwXvXhXLXKX9.i.n.p.1.9.h.n.k.n.u.F.vXGXDXPXGXIXGXGXGXDXGXSXGXGXSXhXdXhXfXhX*X-X;XQ.s.s.0.1.&.` Y S 7 9 2.E S 5 t S c c & &.2...Z Y a.-.P } 1.e.d...I I I I I I | | J P ' ' ) J I b.R.fXjX].K.U.*Xm.J d.W.; Z ) J ) e.:.' :.&.` g f ; Z kXdX).F.G.s.R z 8 k V.GXGXLXzX2XPXZXDXLXI.2 4 8 A 1 , , 8 r 8 8 , 1 , , 1 : , 2 , 2 , , 4 , 4 , 5 5 4 , , 5 , , 4 4 5 5 4 5 , 5 4 5 5 5 4 , , * 4 8 8 6 5 , , 5 5 5 5 5 5 4 , 5 5 , 4 4 , 5 5 5 4 , 5 5 5 5 4 5 4 % , 5 , , , 4 , 5 5 , 4 , 5 4 8 4   O O   = 5 4 , 7 7 7 4 , 7 4 > > + 8 2 , , , , > , > 1 > , , , , , , 7 5 2 7 7 4 > O 7 7 5 , 7 7 , 8 , , , 8 2 2 , > > 3 , , , 3 , 1 5 , > > > > % > > , > > > > , > > 1 > > > > > > > > > > 1 > 1 4 4 4 4 4 > 4 4 4 > 4 4 > 4 4 4 > > > > > > > > > > > > > > > : > > > > > O : $ > > > : > > > > > > : , > > > > $ > > > % $ $ $ > 4 > % 4 % 4 % * + % + % + % % % % % % X % + % & O + X O O $ .   . & O ",
"  . . O > + - - - - - - 1 ; 1 - = O : > % > > > : $ O O % > % $ : - - 1 - - : ; 1 1 - : - : 1 > > > 1 > > > > 1 1 > - = > : > 7 1 > 7 > 1 1 : , 3 2 , , 3 : , 3 2 2 P P x N N | Z./.a.I P ! c.*.a.,.U g.eXPX.XY - o *.[.hXhXvXKXmXvXAXPXPXvXR - u.f.n.B.n.h.h.g.a.l._.zXGXIXIXGXGXGXGXGXGXGXGXSXIXnXvXmXfXwX!.P.&XB.8.1.&.` ` T G s 9 p._.U r r , K C & r I.{.! s d.*XD.k } :.e.V.,.n x I / I N P | H P ) P P J ..~.3XjX7X:X~.{.*Xn.b ,.J.) ) f ) { d.{ J { &.,.G d o o ].dX{.D.h.3...K K P V.LXKXPXZXbXLXGXGXLX{.C r , k , 5 r r 2 8 2 , , 2 8 , , , , , 2 , r 5 5 5 5 5 5 5 5 4 5 5 5 5 4 5 , 4 4 , 5 5 5 5 5 % , 4 4 4 , 4 5 4 4 4 5 5 5 5 5 5 , , 5 8 4 , 5 5 5 5 5 , 4 4 5 5 , 5 5 5 , & 5 , 4 4 , 5 5 5 8 4 , 5 , 8 ,   $ O o > 8 8 0 8 8 7 2 7 4 2 , 1 , 8 2 8 2 2 , , 1 : > > , , 1 2 , 4 5 5 8 4 2 7 , > 5 8 7 > > 4 , 2 , > , , 2 , , > , : , : , : , , 4 5 , > > > $ , > , > > > > > , , > > > , , , > > % > : > > , 7 > > > > 4 4 > > 4 4 - > 4 - > > > > > > > , > > > > > > > > , , > > , 1 > > > > : : $ : > > > $ > > , 1 > : > % > > 1 > $ : > > % % > % % % + % + % + % % % % 4 % O % % O X > $ $ $ & $ O O O   $ $ . ",
"  o O : > - O = - - - - - - - - : % % O $ O $ $ % O O O : > > O - > : : > - - - > - - - - : - 1 1 - > - - < > - > 1 - = = > 1 1 - - 7 1 , , , : 2 , 3 3 : : : $ r 3 c F n I c 2 c.UXZ...r 8.F g.2.T 2.:X:X<.-   D 9. XnXZXvXvXZXvXPXrXLXZXPX;X<.;.u.g.s.u.i.s.h.V.p.S.rXPXnXPXKXGXGXGXGXGXDXZXnXSXvXhXSXtXwX!.H.7XB.9.0.;.%.T G G D =.6XPXE % c & r I & f.bXbX!   E.PX&Xi &.F a 2 x I ....I / / P  .) P _ J ) K f.:XkXwX:X7XI.~.].8...f.K.5.0 ' J f { q.8.,.' 8.&.1 d J [.gXb.9. .r Y V.'.I.I.LXPXPXIXPXbXSXKXDXL.r 4 > c r e : , r 2 2 , , 2 8 r r 8 2 , 8 , 5 r 5 5 5 5 5 5 5 , , 5 5 5 5 4 , % , 4 4 r 5 5 5 4 5 5 5 > & , , & 4 5 5 r 5 5 4 5 , 4 5 5 4 , 5 5 5 5 4 4 , 5 5 5 5 4 5 5 4 4 5 5 5 5 5 5 8 8 8 4 % 4 , 8 4   % .   : 8 7 5 8 8 , 7 5 5 8 5 4 4 , , > 1 > > > > > > > , , , 5 1 1 5 7 7 5 5 4 , 4 8 8 1 + - > > , 1 > : , , , > > > > > > > > > > 2 2 > > > : $ , > > , , , 1 , 8 , : > 1 5 8 2 r 2 , , , , 8 8 > 7 4 > > > - > 4 - > > > - > - , > : % > : > , : > : > : , > , % : > > > , > > % $ $ $ $ & > > $ : > > , , > > , , , > $ $ > , > % X X % % + X % % % % % + % % % $ X $ % O O > O $ X . O O O O   & & O ",
". . O O . > > O = = : : - - - = : - > O = > = > = = - : = + : O - : 1 > > - = = 1 - = = - 1 - = = = - : : - > : = - 1 > > > - > 7 1 4 1 1 1 : : > , 2 , 3 : : : 3 j j c n z z d d.].Q.i.; 0 n.'.).tX:Xa.& & C ! (.aXPXJXcXBXVXaXIXBXcXcXGXLXBXpXG.4 p.c.g.u.9.k.k.f.c.~.bXPXnXGXHXGXMXGXSXZXAXKXSXdXdXhXdX6XB.B.1Xm.;.,.` G U s V 0 9.KXLXq + D Z 9 > V &XPXbX;.o *XPX;Xa J ` ) _ K H P I I I I L J ` ' ) ) _ } f.1XvXbXeX3X3X|.>X6.3 f.J.-.i ) :.f { :.{ J ' { ` d ; ' FX1XJ a 1 > _ h.I.{.0XbXmXPXPXPXGXmXPXbXs.s 9 + K   8 5 , 4 2 8 2 8 8 r , 8 2 r 5 8 r 2 8 5 5 8 8 8 8 a 8 5 7 5 7 5 5 8 7 , 1 5 8 8 8 j , , 7 7 8 5 > > 0 5 , , > 4 4 5 5 5 5 5 , , 4 r 5 0 9 8 5 4 8 9 8 5 5 5 4 4 8 8 4 4 7 5 5 5 5 7 4 8 5 2 8 - . - O o > 5 4 > 7 > 0 1 > 4 > > 7 7 > , > , , > - > 4 , > > 4 > 7 > , , , 4 4 , > > > , > > > > > $ - > , , > > > > , > > , , > 1 5 > : > > > : > $ > , , , , , > 1 4 > > > 4 - > - > > - - > > > > > 4 > > > - + + > 4 > 4 - > 4 > 4 > > - > > > 4 + > 4 > > > 4 > > > > > > > > O $ % > > : $ > > > > > : > > , , : > > > > > % > % > > > : > $ $ : > $ $ O $ : > $ $ : & : & $ $ $ $ . . $ . $ . . $ & . ",
". . O $ O = 1 = = = - ; ; ; = = - : = = = = = = = = O O = = = = : - - : - : - > O = O = - > : - : : - - > : - - > 1 > > 1 1 1 1 > 1 7 > , > > 1 > 3 3 , , 3 3 , 3 3 2 | ' z ) b { -XW.d _ %XIXPXDXUXz.. . *.oXyXGXVXcXrXaXGXVXrXHXBXbXBXGXJXBXBXzXg.9.k.9.g.k.a.f.d.f.k.}.BXHXPXVXGXKXGXKXSXZXAXPXvXwX8X6X;XJ.i.|.V.$.&.*.J G T 0   F.PX.X0 q 6 s $.    jXbXPXp.q vXKX].; ' ' K ` ) P P / ) I / H Z ) P Y  .` &.V.eXFXDXpXyX9X9XBXK.A ,.d.-.G _ { J :.{ ' ' :.' ^ Z ; Z >X7X;.Z 7 > J ,.f.E.9XGXZXPXPXPXPXPXPXmXj.G 7 + U 7 V 8 5 2 , , 8 2 2 5 8 2 8 5 2 5 , , 7 7 7 2 5 7 5 5 5 7 5 2 4 7 5 2 , 7 5 5 7 8 8 8 5 4 7 5 5 2 , 2 5 5 5 4 4 % 4 5 , 5 r , , * 4 8 5 5 8 4 4 4 4 0 5 4 5 4 4 4 4 4 , , , 7 7 , 2 5 1 5 5 5 8 > . + O . > 5 > > 4 , , 4 4 > > 4 > 4 4 , 7 7 7 4 > 4 > 4 > 4 > 7 , 4 , 2 8 2 8 2 , > 1 > , , , > > 1 > , , , > > , > > : $ , , > > , > > > > > > > > > $ > > > > , , 4 4 > > > > > > 4 > 4 > 4 1 0 > 4 > > 4 > - > - > > 4 > > - - 4 > - > 4 - 4 > > - > 4 4 4 > > 7 > > : > 1 , > : $ : > > > % : > , > > % > > > > > > $ > : > : > : $ > > > : $ $ > > > $ $ O % > $ $ & : : : $ $ & $ $ & . & . & . , $ . ",
"  . : > . = > = = = - - ; : ; = > = = - = - - > + = = = = O O - 1 - = = - : < 1 o = - 1 : - < > - > > - 1 - 1 > = = > : : - - > > 1 1 , 1 1 : 1 : 3 2 3 , 2 2 2 O c / h p ' ) b e.*Xi.q.SXKXh.1.! 5   k V.cXLXbXJXBXBXGXJXHXBXcXBXBXBXBXBXGXGXGXPX_.} g.<.u.c.3.d.f.c.c.(.bXPXSXMXHXHXHXKXKXSXAXKXSXhXdXSXSXhX).UXF.! K } T Y K S   }.vX;.0 V s V G   S PXBXKX5 7 KXPXW.@ { J J _ / _ / P I I P F H P J K -.&. .L.jXLXbXjX7XyXjXLX{._ 3.s.&.P J ] ' { ] ) ' { ' J J ; d &XFXV._ s o 1 3.'.jXbXvXhXSXhX X}. X_.E.s.U 8 > z 4 4 $ 4 , , 2 , 4 , 2 2 , , 2 1 , , , , > , 4 , , 7 7 4 7 , 7 4 , 4 7 4 4 5 4 4 7 5 2 5 7 > , 4 5 5 8 8 8 5 4 , , 5 5 5 5 5 5 4 , 5 8 4 4 4 4 4 % 4 5 4 4 5 4 4 4 4 4 > 4 > 4 7 > , > 4 7 4 , 8 > O - O o > 8 > 4 7 4 > > 4 > 4 > > 7 7 7 5 7 , 4 > > 4 , 4 4 4 > > 4 > 1 , , , > > > 4 1 , , , , , 5 1 , 5 2 1 , , , > > > > > > > > : > > : > , > > > > 1 > > , , , 4 > 4 > 4 > , > 4 4 > 4 7 5 7 , - 4 4 1 , > > > > > 4 > > q > 4 > 4 > 4 4 4 - % > 7 > 4 4 > 4 > > > > > > , , , $ > , > > $ % > , , , > > $ > $ > : > > : > > > > > > > > > : & : > > $ O % $ > $ $ % % $ $ $ & $ $ $ . $ $ . . $ & $ . ",
". . > : O O > > - = : : - - - = > > = > = > = > - : - = = > = = - - = ; - : - - = < 1 1 1 : - > > : : - 1 > > > = = = = - > > - 1 1 > - > : 1 1 , , 2 2 2 3 2 2 2 O P P z _ J n { Q.).IX).z 0 J 4   W _.JXBXpXBXpXpXzXnXzXaXzXJXBXBXJXCXGXGXLXPXJXyX*.S.s.u.g.f.f.b.c.c.D.9XIXPXnXHXHXKXSXSXSXvXKXPXZXhXPXPXPXdX1XL.K C 1.U 8 Y   { HXLXs   V Z s 0 - 3.DXLX:X7 *.PXPXD.o ) ) J Z F P P I N N I F J P J P ' %.1.|.LXLXGXLXpX:X9XbXpXK.W.V.o._ _ { ' :.J J J ) H J ) 1 b ^.fXK.>.Z ; z f.1XbXAXZXIXKX3X3.V V O @ 6 4 > 5 0 8 e z , 2 , 4 , 2 4 8 8 r 2 5 , , , , 7 4 > > > 4 , 4 1 4 , , , 4 2 1 4 1 5 1 4 > , 4 1 4 4 , 1 4 5 7 8 8 8 5 5 , 5 8 5 5 5 5 4 4 5 5 4 4 4 4 4 4 4 5 8 4 4 0 4 4 * > > > 4 > > 4 > 4 > 7 > 7 8 > O - + O > 8 > , 7 , 7 > > 4 > > > 4 , 4 , 7 > > - > 7 4 7 1 4 > > > > % > > 1 > > > , , , , , 2 2 5 , , 2 5 4 1 1 , 1 > > , 1 , , , > > > , > > : > 8 2 , , > 1 > > 7 7 7 > 4 4 4 7 > - > > , 4 4 4 4 > > 4 4 7 7 > + 4 > 4 > > > > > > 7 > > > + - > > > 4 4 > > 4 > , > > , , > , $ > > > > : : % 2 , > > > % : : > > > > > > > > > : > > > > $ $ % $ > > : $ O % $ $ $ $ $ & $ $ . & $ & & . & . $ $ $ . ",
"  . : > O O 1 : : - : 1 ; > ; > - : : = = - : > = = - $ - = : = = : : = = = = = = - 1 1 > - - - - > > : 1 > > 1 > 1 1 > 1 , 1 1 > - - : : : : > , 3 3 2 , : , 3 O 3 / ,.d d ' o 5.-X*XW.; @ _     ,..XJXLXcXeXpXBXcXnXnXnXnXBXcXaXcXBXBXbXBXBXGXIXjXa.a.c.s.r.g.a.y.f.Z.U.3XPXPXSXIXIXSXSXZXSXSXGXPXDXDXPXnXPXnXGX3.C <.! C T e   U.PXKXS . Z V z k   &.jXDX&.  3XPXdX8.  P } z j x I I I x x x F x F x I T ..f.wXPXLXAXPXkX{..X0XLXLXeXM.) ` ' q.' -.J I J H P d J p b r.h.r.;._ Z ` K.AXKXvXkX6X<XI.U . 4 .   s V A A 1 O O O 5 5 2 8 2 8 2 , 8 8 8 5 5 2 , , 2 7 , , > 4 , 4 7 4 , 7 , 4 5 5 5 4 4 , , , > 4 , , 4 7 5 5 5 5 8 8 8 5 5 , 5 8 8 5 5 5 5 5 4 5 5 5 4 4 * 5 5 , 8 5 8 5 5 5 4 4 > , , , 7 , , > , 4 > , 8 > . = O . > 7 , > 7 4 > , 4 , 7 , 4 , 7 , , > > > > > , , 4 > 4 > , > > , , 2 2 , 2 , > > > 1 , , 1 7 > , , , , , > , , , , , > , , > > > , > > > > > 8 , 8 , , , : > 4 4 > 7 4 4 4 7 > - - % > 4 > - > - > 7 7 4 4 4 - 4 4 > > 4 % 4 4 > 4 4 4 > > + - > 4 > - + > 4 > > > > - > > > : > > > > > > > , > > > > > > > > > > > > > > , > > > , > > $ > $ > > $ $ $ % : $ $ $ $ $ $ . $ $ & . $ $ . . O . : . . ",
"  . $ : . O : = - > - > < - 1 - - ; - = = = - = > = = > = > - > = ; > > - = O = O = - > 1 : < : - : 1 - - > ; > > > > 1 1 1 > > > : : - = : > > : , , 3 : 3 : 3 3 j  .I :.p o gX;X*XB.f g f { a.(.GXLXjXqXGXPXaXBXGXIXJXPXPXBXjXLXJXPXJXJXJXPXPXGXaXg.A 1.g.1.3.8.6.f./.%X:XnXPXIXIXHXSXmXSXSXSXGXBXGXJXPXvXIXPXGX{.c   T ! r r D 2XIXhXE + D Z 5 9 +   j %   } PXKX1X .- J &.x z F T P I n x c I F J Z K F P e.>XbXDXjXLXBX:X<X9XlXLXLXB.' J K :.' ' P P n H ' Z b d ' ,.6. .) Y P ` W.KXPXZXvXZXhX2XY.j.F.k.=.- + 4 9 7 k C k 2 8 8 8 5 2 8 4 2 8 2 5 2 4 4 , 5 7 4 7 7 , 7 7 5 5 7 4 , 7 5 7 7 , 7 , > 4 7 > 2 5 4 7 7 4 2 1 5 8 5 4 4 , 5 5 8 r 5 5 5 r , , 4 4 4 > 4 5 5 4 4 4 8 8 9 5 8 4 7 4 7 7 4 7 4 4 2 8 > 4 9 , O = O o > 5 > > 7 4 7 , 4 7 7 4 7 > 5 4 4 > 4 4 > , > - > 4 7 7 4 8 , , , 4 8 , , , > > > > , , , , , > > > , , > > % > 1 > % 1 > : > > : , > 1 > > : > : > > > , > > > - > > - > > 4 > > 4 > , 4 > > 4 4 7 > , 1 4 > > - 4 > - > > + > > 4 4 > > > > 4 > - > + + > , 1 , $ O : $ > > % $ > > , > > $ > % > > > , , , > , : , > > > > > > > > > > $ $ > > : % $ O $ $ & $ $ $ & $ & . $ $ . . O O O $ & $ . ",
".   O O . = : O = = - - - ; ; = = = O = = = = = - : > = = = - = - - - : 1 - - - = = = = - : : - - = = - > > > > ; - - - : - > - > - > - > : 1 2 : , : : : : , 2 . c x ,.z ; {.LX7X=X).; _ W.hXKXPXbXjXBXBXbXcXVXBXBXcXzXpXpXBXGXcXcXcXbXbXbXjXpXLXbX{.,.$.g.u.1.a.y.6.Z.~.~.yXLXPXIXKXIXSXmXSXSXPXBXVXJXcXjXtXcXPXGXc., & K C ,   G.LXdX9   - V V 5 K 8 $   P .XKXkX~.J ; Y P Z Z I I I A I x x I P F l F c e  .~.9XLXFXLXFXwXfXfXeXLXAXn.9.-._ %._  .P P M n @. .P a ,.m.P.m.:.T 8.9.h.[.dXKXIXLXIXKXIXDXPXPX|.s > 5 5 7 5 8 > 8 8 8 , , 5 , 2 2 8 7 2 , 1 2 , 5 5 7 , 4 , 7 > 5 4 4 7 , 7 4 7 1 4 5 7 4 1 > 7 7 7 7 4 2 4 4 5 5 5 5 , , , 4 5 5 5 4 4 8 4 % & 5 4 % & 4 4 , , > 4 4 8 8 8 4 5 4 7 7 4 7 4 > 4 5 7 > , 8 1 . O O o > 5 4 > 4 > > 4 4 7 7 > > > 0 1 4 4 > 7 7 5 > > , > > 7 7 4 $ > > 1 > > > > > > > > > , , 1 , > > > , , > > : , > % % > > $ > , , > , > , > $ $ % > > > > , > - > + > > > > > 4 > > 7 7 7 > > > 4 > 4 > 4 4 > 4 > > > - 4 > % > > 4 > > > 7 > 4 - > - > > > > > > > O : > , 1 % $ $ > , , , > $ > : > , , , > , > , , > , > : > > > 1 > : % $ > > > : $ $ $ & $ & $ $ . . $ $ . & $ $ . O O $ : $ . ",
".   O O . = 1 . O = = ; = = = = = = O O O = O O > - : - > - : > < 1 : - : : 1 1 > - = = - 1 - - : : = - = : - : : - > > - 1 > > 1 1 > - > 1 , 1 : : : 3 : , 3 r 3   c _ F ) e.m.q.].).m.wXKXdXdXpXbXBXbXBXGXDXBXBXnXbXGXIXnXcXcXGXGXDXDXLXVXBXkXnXDXGX`.&.9.r.8.a.t.r.K.|.~.>XFXPXIXKXPXSXSXSXSXPXnXBXBXpXGXpXDXBXGXBXU.& . ! C o 0 (.P.  g 9 9 V s K % > 5 k PXPXkXs.o o _ l 7 x Z x x c x I x x P F a A c r P V.:XPXKXjXeX:X1X1XkXPX].J d.f.) :.-.>.) P x F ..:._ i :.n.>X7XK.i.J.B.m.].hXhXdXnXZXKXPXnXLXPX).4 = s 8 9 , k 5 2 2 2 , 2 , , , , , , , , , , 4 4 7 , 7 4 > , 4 1 , , > > 4 , > 2 5 1 5 4 4 4 7 8 5 4 > > , 2 8 5 5 5 , % * 4 5 5 , , 4 4 4 > % 5 > % % , 4 5 & > * , 5 5 8 8 4 5 4 , 7 , , 7 > 7 0 > 7 8 4 O . O   O 4 > - > > - > > , 7 4 4 > > > - > > > , 7 0 7 4 , > > > > : > > > , , , > > 1 > , , , > , , > > 1 2 , , > , 8 , > 1 , , > > > > , , : , > > > > > > > > > > 4 > , > , 0 4 4 > - 4 > 4 , 4 > 4 > 4 1 4 > > > + 4 4 > > - 4 - > - - - 4 , 4 4 > 4 > % + - 4 > > > 1 > > , 5 > : O $ > , 2 , > > > > : > > , , : , > > > , > > > , , > > > % $ $ > > > $ $ $ . $ $ $ $ $ $ . . $ . . . $ O O $ , $ . ",
"O   O $ . O : . ; = O = - - - - > > > - : = = = = - : - > = > = = - : > - - : - - > - < - > - > = - ; : : > 1 > - 1 1 1 7 1 > 1 > 1 : 1 1 2 , > , : , 3 : , : 3 3 3 , c I I ; I n.W.K.LXAX0XvXPXPXcXBXLXnXIXPXbXcXIXPXPXPXLXLXPXPXLXLXLXLXLXPXPXLXLXLX>Xs.3.a.<.8.t.d./.UX{.:XeXwXIXIXSXHXSXSXPXIXBXGXzXcXGXcXJXjXDXLXLXUXr . C Z + @   + G K 8 > O V z r   G.bXbXeXV.k : k j 8 C c c z c A A F A A A c c k c C 8.K.bXLXeX X0XKX0XPXKXAXP.m.0.^ o.,.:.F c n N I ' ) x ' ~.{.*XfX].].W.P.6XdXhXmXmXLXzXvXPXGXjX,.> k r 1 8 8 > , , 1 , , 1 , , , 2 , 4 , 2 2 4 , 7 , , > 4 > , > > > , 7 4 7 7 2 4 , , 7 7 5 5 5 7 4 4 , 4 5 5 7 4 % , 4 & 4 , , r 4 4 4 % % 4 4 & , , , & , , , r r , 5 , % $ , 7 8 2 5 > > 4 > 4 7 2 4 7 , o o O . > 5 > > > > 4 > > 0 8 8 7 2 4 > > > 4 7 , 4 > 7 > 4 4 4 > 4 , 4 , , , 4 8 , , , , , , , , , > 1 2 , , > > , 5 , , , , , , > , , , , , , > : , , 1 > , > > > 4 4 > 4 > > , > - > 4 > 4 4 > > > 4 > 4 > 4 > 7 + > - > > + 4 > > > > - > 4 4 7 > q - 4 > > 7 > , > > > : , > , $ > , , > $ % > , , > > % $ $ > > > > , : > : : > > > : % $ % : : > > > $ > $ > $ $ $ & X $ % X O O X O . . $ % $ % % O ",
"O . $ : $ $ : O o = = = - < ; = : - - = - : - = > - - : - : = = = > - - 1 - : ; : : - : - 1 < > - : - - > > > 1 > > > 1 1 , , 1 1 > > > 1 1 , 1 : , : : 3 , , 3 3 r r c / ..a n 0.R.:XPXGXvXzXKXjXrXPXJXjXnXIXPXPXPXGXGXDXZXpX9X}.}._.`.I.J.G.D.`.K.G.n.r.9.a.r.b.d.r.f.A.~.{.{.7XfXSXKXSXSXSXmXVXIXGX5XyXBXbXBXGXpX<XPXLXI.& c s R 4 4 k > 9 4 G , 4 8 k $ F.FXDX:Xr.% . a F T F A C C x x c k c x I S c c r , ..,.7XLX:X:XkX0XAXFXfXPXPX;X9.f ,.r.,.P x I I |  .H < ..0XLXkXgX7XfX8X*XhXhXSXAXKXSXIXvXDXDX{.V O e 5 > 8 8 : 2 5 5 , 2 , , , 4 , , 2 4 4 , 4 2 7 4 4 > 4 7 2 5 0 7 4 > , , 4 5 4 4 > , 4 4 1 , 5 1 4 7 1 0 7 8 4 , 4 4 , 4 4 4 4 4 4 , 4 , , 4 , , , , , , , , , , , , , , , , 8 8 5 1 4 > > 7 > 0 4 > 8 > . O O . = 7 - - 4 , 0 > > 7 5 5 5 5 > , 7 4 4 1 4 4 4 4 > > > 4 4 > > , , > 1 , 2 , > 1 1 > , > , , , , 5 7 1 % % : : > > > 1 , > , > $ % > > > , , 1 , > , , > , > 4 > 4 , 7 7 4 7 > 4 7 , 4 1 4 , > > 4 - 7 7 > 4 + > > > - 4 > 4 4 > > - > > > 4 - > > > 4 4 > > > > > > > > > > > > , > > : > > , > > : $ > : > : > > > > > % > % : $ > > > % : > > $ > > % : O $ & O O O O O % O O O . . . O $ . $ & O ",
"O   O $ O : > = o = = = ; 1 = O - = : > : - > > = : - : > : - > = - : < : - : = - - - > : - > > > > - > - > - 1 > 1 > 1 > > 1 1 > - > > > , , : 3 : 3 3 , 3 : , 2 . . I T I 2 ..-.W.FXPXbXZXbXIXPXPXrXDXPXIXLX8Xn.2.K > . .     , , $ $ O . O 7 :   $ T 2.a.f.f.r.8.b.V.K.~.Z.W.=X;XvXKXmXSXJXzXBXLXLXwXeXLXbXpXeXLXpX~.yXL.. r 4 G z A D 7 8 k k , , 2 r $ c.FXPX]._ > a Z x z c x x c k j j j c x A c c c c c O I gXLXd.f.AXkXKXfXK.M.H.J.8.) 6.r.,._ F F I T :.L i  .gXFX0X|.gXSXSXwXSXSXKXSXKXjXLXjXVXbXs.O > 8 2 , r 8 3 r 8 2 2 5 , , 4 2 2 2 , , 4 2 , 2 > 7 , 4 7 5 5 8 8 8 4 , > , 7 5 7 2 7 4 , > > , > 4 1 > 4 > 4 1 4 4 , % , % 4 4 , % 4 , 4 4 4 , & , , , : : , , , & & r r % , , 5 7 5 , 7 , 4 1 > 7 , > 5 > O O O o > 4 4 > 4 , 8 4 > > 7 > 1 5 4 4 > 4 4 7 5 7 > > > 4 7 > - > : > , > > , , > > , , , > 1 > > , 4 2 , > > > $ > > > > > > , , : $ > > > > > , , , 1 , > 1 > > 7 7 , 7 , 7 7 4 4 > > 4 7 4 > 7 > 4 > 4 > > > 4 > - 4 4 4 > > 4 7 4 4 > 4 4 > 4 > > > > - 4 > 4 , > > : > > > , : , , > > > > > > > > > > > > > > > > > > : > $ % > % > $ > : > > $ : % O > % > % % O O O @ O + . . . . . o . + . O &   ",
".   O $ O O - = o = o = < - ; O - - = : - : - > > - : - = - : - - : - > > - > = < - : ; > 1 ; 1 > > > : : : - > 1 : - : > - 1 > > 1 : 1 : , 1 > : , : , : > 3 3 , . 3 ../ r j -.W.:XAXdXAXPXPXbXzXbXPXPXnX[.Y - @ + . O - 5 8 k & 5 e k A r 4 8 F K T 4.a.e.8.e.V.a.f.m.Z.K.K.UX*X*X7XvXZXSXPXLXzXBXbXeXbXLXBXpXPXUXLXpX>XF.r . k   9 k   z 4 8 9 k k 2 r . T K.K. .O O k F k : 8 8 j k j j a r c A c c k c A x c F |.wX..a.LXFXgX7XB.^ ' 0.d.{ 8.e.,.P Z n F T P I i | :XkX7X>X;XhXAXfXSXKXIXKXLXvXvXrXLX2XK   8 8 8 , 2 8 8 r 8 8 5 4 1 , 2 4 , 4 4 2 , , , 4 , 7 4 , , 7 7 8 8 8 7 4 , 7 2 5 4 5 4 7 7 4 4 1 4 > > > > > , 7 4 , * , 4 4 5 4 & , 4 4 5 4 4 % , , , , & , , , 5 , , , , , & , , 7 4 > 4 > , 4 > 7 4 > 7 > O . O   + 0 > > 7 , 7 2 > 4 , > , 5 1 4 7 7 , 4 , 1 4 - > > > 4 4 > % > > : : > > > > > > > > > > > > > , , 1 > > , 2 8 , , , 1 > , , 5 , , > 1 > > , > > > , > > > , 4 4 , > 4 , , > > 4 4 , 4 7 > > - > > 4 > 4 > 4 > 4 > - > > 4 4 4 > > - > > 4 > > 4 - > > > 4 > > > > > : > > > > , > > $ > > > > : > > > > > > > , > > > > > : > > : > $ % $ % > > $ % : : $ X O X & + O @ O . O X . . . @ O . O $ . ",
"    O $ . O : : = = O = ; < ; > = = = = : > - > = - : = - : - : - : - - < : - - : - : > - > - 1 1 > > : > > 1 > > > - - = 1 > 1 1 > - > 1 1 : 1 : , : > , 3 , , $ , c I a I P x m.>XPXPXLXvXPXKXPXPXP.1.D     @ 7 9 z V k k e k r r r 8 k j a z j P P T -.-.,.d.f.e.,.m.K.J.Z.Q.Q.).].*XpXjXjXGXLXGXbXDXKXDXFXLXLXBXDXUXK.V.$ $.H.Y e 8 . A 5 8 r e r $ c $ O c : O O 2 2 2 r 8 2 8 j k k j j k r c x C c c r , x a m.K.) f.LXfXW.m.m.e.e.d.b.-.8.e.4.Y Z z c P ..N 3 / :XlXgXeXgXwXvXhXKXSXSXKXPXLXeXbXPXI.$   r 2 , , > > , , 2 5 , , , 1 > , , 4 4 2 2 2 4 , 8 5 2 7 > 4 , 7 1 7 7 5 8 8 5 5 4 5 7 , 7 4 5 7 8 8 8 5 5 7 8 8 & % 4 > , 4 5 5 5 5 r 5 5 4 , & , , , 3 , $ , , , , , , r & : , > , > > 4 > 4 7 - 4 > - 8 4 O O O o > 5 > 7 7 7 4 > , 7 7 > - > > 7 > 4 4 > 4 4 > > > > > 4 > - : > > > > 1 , > , > > > > > > > > > > > > , > , , 2 , , , , > > , , , , , , > > , > > , 1 > > > > 4 7 > 4 4 > > > > 4 4 4 > > > 4 - > 4 4 - > > > 4 > 4 > > 4 4 4 > > 4 - * > + 4 4 + > > 4 > > , > , : > > > , , > > > , > > : $ > > > > , , > > > > > , > > : , > > > : % $ O : > $ > > $ $ % + + + + @ X + X O O @ O . . @ + X X $   ",
".   $ > O O > : : = = O = - 1 1 - = > > - : - : > = - > > = > - ; - : 1 - - - : - < - > > < > - > 1 ; > ; > > 1 : - - : - - > > - : - : > 1 , : , > 3 3 3 : : 3 3 : 3 r a &.>.x d ` 9.f.D.h.g.*.D 4 q   q D q Z S k 0 , 5 k z V , $ > 2 O 1 z C C _ T T ,.3.8.r.i.f.8.i.m.C.~.W.W.%X%X*XyXyXyXpXDXPXKXKXjX:XyXjXjXLXf.  ~.|.3 }.DX.X4 > A k 8 z : r r > r r $ r O 2 c a 8 2 8 j a k k z k j s j r c c c j k j j : a d.K.P r.AX0Xd.+.N.d.0.0.d.,.r.d.6._ J C A I ..L j ..:X0X>X0XfX8XdXhXKXSXKXSXDXPXjXPXbXg.> , k 5 r r , , 2 1 2 , , , , , > , 2 2 , , 4 , 4 2 7 5 5 , 7 > , 1 , > 5 5 8 8 2 5 , , 4 7 5 5 5 7 4 7 4 4 8 7 5 8 % > % 4 4 4 5 r 8 8 5 5 5 , , , & , , , & , , , r , , , , % , , 4 > > , > 4 > , > 4 4 > 0 > O . O . > 5 4 > 7 4 > > 4 8 4 > + > 4 > > > - > > - 4 - - 4 7 > > > > , , > > , , > > > : > > > > > , , > > > > > : > > , > > > , , > % > : > > , , , > , > > > > : - > > > > > - 4 + > - > > > 4 > > 4 > > > - 4 > > > 4 4 4 - > > - 4 > + > - > - > - > > + > 4 4 > > > > : > > > > > > > , > > $ : > > > , > : 1 , > , , > > > > , > > > % $ $ O % $ $ $ O $ : O + + + + + % + @ X X + + + . . + O % %   ",
". O > > O . > = ; = = O = - ; > > - : = = > - = = > > + = - - : : : - : 1 : : - : - > ; - < : 1 > > 1 - > 1 1 > - > > > > 1 > 1 - 1 - : : 2 , : : 3 3 > 3 , 3 , r : $ x F r.m.:.z ; =     o @ +   0 q D Y D Z g Z z s k Z z 5 : r r &.3.P k x 1 1 z F K ..,.8.a.;.s.m.K.^.W.R.K.].:X7X1XUXUX#XyX9XbX0X X~.K.K.K. .T r   UXZ.$ ~.PX3X    k > $ r 8 r c 5 $ > $ r O 8 , $ j c r j e c x z s 7 a 8 r c c r j c x K n z d.W. .f.KX7Xq.>.M.d.0.d.d.0.d.d.3._ K Z A I N c c @.{.>X>XkXfXwXfXhXSXSXIXvXbXbXjXDXL.T r c V , 8 j 2 2 r , 5 2 1 , , , , , 4 , 2 4 , 4 , 2 7 2 5 2 4 7 5 5 , , 5 2 4 8 , , > 1 4 4 , , > 4 > > > 4 1 > > 4 , 4 4 , 4 , 4 5 5 r 5 5 5 4 4 , , , , $ 3 , , , , , , , , , > , 7 5 1 1 4 , 4 , > 7 , > 7 >   . = . > 5 > > 7 4 > > 4 4 > - > 4 , > > 4 4 > > > 7 > > 4 4 , 4 > $ > 1 % > , , > > > > , > , 1 > 2 , > : > > > % > > > > > , , , : > > > > > > , > , 1 > > > > > 4 > > 4 > > 4 > - > > > > 4 > > 7 > 7 4 > 4 > > > 4 4 > > > - > > % 4 - > > > > > 4 q % - 4 , , , > > > > > , > , > : > , , : $ > > , > , , > , > , , > > > > > > > > $ > : % : % % > O $ % $ $ + + % + > + + X O + + + . . . O O + X . ",
"  . : : . o = = O = o = - - - = > : - > - = : = = > = : - : = > - - - : - - : - - : - > - > - 1 > - > - > > 1 1 = 1 > 1 1 > 1 - > : - > , : , > > : : , : : 3 , : 2 3 j : 3.D.} i o Z a J { s G R U U J W U Z S k 5 - . o . O O > $ R } O o V 8 7 5 8 r x T <.p.i.;.e.f.V.V.y.b.K.K.].^.Z.I.UXXXeXAX'.m.k.J.L.f.,.K . i /._.. ,.FXE.o O , 4 O 2 %   O . O r , r > x a , z j 1 k 8 k z j a 7 7 a , c x c j j j r 8 : r.J.H 0.KX0X6.-.0.0.d.f.8.:.e.e.,._ A k k K ..I h @.{.UX:XkXAXvXAXhXZXSXZXqXvX3XbXyXK   , 5 j % , j 4 , 8 1 8 5 2 , , 2 4 2 4 2 4 , 2 2 , 4 5 7 5 5 5 5 8 8 7 5 4 1 > , > , > 4 > > > - - > > > > - > > 4 , 4 , 4 4 4 % , % 4 , 4 % , 4 5 4 , , , , , & , r , & , , , , , r 5 7 5 5 7 4 7 7 > 4 > > , >   o > . 1 7 4 > > 4 4 > > > > + > 7 4 4 7 > 7 > 4 > > 4 > 4 4 7 > > > , > > > > , > , : , > , > > , > % $ : > , , , , 2 , , , > , % , , , , , > 1 : > > > > > > > > 4 4 4 > 7 4 > 7 > - 4 4 > 4 , , 4 4 7 > 4 > 4 4 > - > 4 - + - > - > + > > 4 > > 4 > > + > > > , > : > > > > : , , > > > , > > $ > > , , , , > : > > > , , , > > : O $ > % > > > : : % : : $ O O % % % 4 > + + + . . . + . . . . . % O   ",
"  . $ $ $ $ $ O O O O : O = = O : = - = > : > > O O = - = - : - : - - = - ; : 1 = - > 1 - ; : 1 > - < - > 1 1 1 - 1 > 1 > 1 - > 1 > 1 > > 1 > > - 1 1 1 > , 2 8 : j : 3 : o.K.F 2 a P 1 >   o @   @ .         X . X O $ . . .   . + q   @ q   + @   4 @   0 C 6 *.g.8.c.K.k./.b.V.~.~.%X{.R.~.Z.W.1X].m.K.~.J.f.d.m.d.s.kX1X,.e.DXH.9.;.;.3.,.a.&.a.L.H.c.<.K *.,.3.} j 2 c z 4 + k s 7 s k 9 s c c j r d Z Z a z l  .V.n +.FXlXr.j r.r.f.y.6.6.a.6.r.T I k C K ..z a r.W.~.].>XyXFXDXbXDXdXrXZXpX>XpX:Xr & r 4 5 4 4 2 5 2 8 5 2 , , , , 2 5 , , , 2 2 , 2 , > , , 5 5 2 8 2 8 5 2 , > > , > , , , , , , , 2 5 r 8 r 8 4 2 , , r , > , > > 8 j 4 5 5 7 5 4 > 4 5 , 4 , % , 4 5 , % , , 4 5 5 5 4 , > , , , , , 8 , j 8 1 , . O . . = 4 > 5 7 > , 7 4 > - 4 7 , 4 , 4 7 7 1 > > 4 , > > > - - > : > > , , , > 1 > > > , > , : , $ : > , , 3 , , : : , : : : , , > > > 1 - 1 > 1 - > > > 1 1 1 > $ $ $ % > , , , , , > : > > , , 1 , , > > > O = > , > > > > > : , > : > > , > $ > > > , > , , , > , , > : > : > > > > 1 1 , , > : , , $ > > > : % > > > : : % % : > > $ O > > : % $ > > O O : > + O % O + - O - - O O . . O O + O X +   ",
". $ : $ O $ $ $ O O O O $ $ : O - = O > - = = > = = = - > : - : > 1 : ; : - > : - : > < - - : 1 1 : - : : - > 1 1 > > 1 1 > 1 1 1 > > 1 1 - - 1 > > 1 1 > , 7 2 : 2 3 r 2 ..p.F k 1 1 S D.!.B.h.S.S.S.G.G.Y.L.U.`.XX}.#X5X5XpXpX9X;X2X8X<X[.XXtXOXtXPXcX4X<X#X3.A 2.~.}.{.{.UX{.K./.~././././.Z.R.Q.C.d.d.t.e.m.m.V.-.,.lXs.J ; = k ' _ G %._ g z $.bXPXV.K 8 k x 2 8 C z 8 4 z d s 8 a 9 1 1 s r A F Z g J J z z z ..V.I c :X0X6._ e.r.b.f.6.6.y.6.6.T K e c K P P L  .Z.K.e.K.%XbXFXkXeXbXAXrXyX{.UX{.r . j r 8 8 8 5 1 5 4 2 2 , , , 3 , , , , , , , , , 2 , , 5 5 4 2 4 8 2 2 , , , 3 , , 3 > > , , 4 2 4 , 2 8 2 4 2 , , , , , , , , > , 2 4 8 7 0 7 , 4 > , 4 & 5 4 % % 4 , 4 4 4 % , , % , 2 5 2 1 : , , , , e 2 > 2 . O O o + , 4 7 5 > > 4 , - > 4 7 7 4 > > 4 > 4 4 - 4 4 > 4 4 4 4 , > , , , > , > > > > > > , , 1 , > : , , , > : , : , : , , : : 3 > - - > 1 > 1 > : > 1 > - > > 1 > : > > > > > > > > > > $ > > > , , > , > > > > , > > : : > % , , > > > , , , > > > , > 1 > , , , > > > > > > > > > > > % : > > > , , > : > , $ $ > % > > % > : $ , > $ $ > , $ $ > > > > O $ > > % - + O + O O + + = O O O > + . % O   ",
". $ : O O O > > O O O $ O $ $ O O = = = O = = = = = = : = - - = > : : = - - - : - - < > - - > > - - - 1 1 < > - 1 1 1 1 1 1 1 1 - 1 - : - > > : 1 1 1 > > 1 > 1 2 : : 2 r I ..c c 1 o Y ).PXPXPXHXIXGXIXHXPXPXPXJXJXPXJXJXCXcXcXPXPXPXKXKXPXPXKXPXMXxXMXPXPXCXGXU.} 3.a.I._./.UX^.A.K.V.c.Z.Z.Z.t.m.b.,.+.8.e.r.d 1 o b eXJ.o 1 a 1 ; s s o - s o r.PX2Xr   e 8 > , 8 j k k k r s 7 s z a 7 8 k d Z Z d s f J Z _ z L D.6.3 @.>.r T r.6.b.V.r.6.y.,.3.I P j z K Y f P  .V.V.o.f.K.>XLXLX8XdXZXhXpXUXUX{.C O , 5 8 8 8 5 4 4 , 2 8 2 , 2 , , 3 > , 2 2 2 , 3 , , r 8 , 2 5 2 , 2 , 2 , , > , , , > > 2 8 5 2 , > , , , 2 , 4 5 , , , , 8 , 1 % > 4 4 7 7 7 4 - - 4 , 4 5 8 4 % , 4 4 , & , 4 4 , 1 4 8 5 % $ 1 8 , > 8 , > , . : O . = 4 , 7 8 > , 7 4 > > 4 > > > > 4 > , 4 > + - % - 4 > 7 4 2 , , , , 1 > > > > > > , > , > > : > : , , , 3 , , : , : : , : , > - 1 : > 1 > 1 1 > 1 > > > > 1 , , , > > : > % > : : % $ > : > , , > 1 > > > > , > , > % > > : , > > > , , > > , > > 1 > > > > > , > : % , , > , > $ $ $ $ > , > , , : > , > $ $ $ > : > $ % : % > > : > > > % % : > : O $ $ % > > + - + O O . + O O O O + O - O X %   ",
"  O $ O O $ : 1 O $ $ $ $ $ $ O = O = O = > = - - = = > > = > = - - = > : - : - - : > - : - 1 > 1 > : > - > 1 1 1 1 > 1 1 > > 1 : > > - < > - 1 > 1 > 1 - : 1 1 2 = 2 < r I c c a 1   O %.1XmXhXzXzXzXpXaXzXzXcXaXcXBXVXJXJXJXJXhXhXmXdXqXSXPXHX XV . 4.NX5XcXPXLXG.F <.~.~.f.K.K.c.Z.N.6.y.f.b.t.8.0.d.0.,.>.}  ._ a ` 6XJ.o 8 a g @ ; q + q - . }.0X4.  % c 9 r c x j 8 k z j - > V S s V J s s d Z G ) ` ) J F H _ m.,.r T 8.V.~.~.b.8.f.t.y.t.,.6./ F j e K g J ;.) r.0X:Xf...k.yXFXdX&X'.'._.K.L.V.r $ r 5 8 8 8 2 2 5 4 2 8 3 , , , 3 , , 2 , r , , : 2 , , 8 8 8 2 8 , 5 , , 2 , , , 3 > > , 2 5 2 5 , , , , 4 2 4 2 2 2 1 , 2 8 , , , 1 , , , > > 4 > 0 4 , 4 4 5 % 4 4 & , % 4 4 5 4 8 1 , 2 , , > , 5 1 $ , , 1 , . O O . > , > 7 8 > 4 1 4 > 4 , 4 > 7 , > 4 7 4 , 4 - > > > 4 7 5 5 5 5 1 , , , , > > > > > , > , , > 3 , , : , > : , , , , , , , > 1 > 1 > - 1 > > 1 1 > 1 1 1 > - , , , , > > > : > > > > > > > > , > , > , , > 1 > , : > > > , > > , > , > > , > , > , > > > > : , > > > > $ : > > > > $ $ % > > > > , > > > > > > > $ > : > % > : > > > > > > : > % > $ % : $ $ - > > - + O O O O O O . o . O O % % % . ",
"  . > $ O O $ O O O $ O $ : O $ - O > = - - - > > = : > - - > = - : : - : - = > : - - > : - > ; > > ; ; - > > 1 - > 1 > 1 - > : ; > ; > > - > > = > > > - > 1 1 3 $ 2 $ j T r 3 P c k 7 Y 6XPX1XvXvXzXzXzXzXcXvXJXGXGXVXVXBXcXpXPXSXhXMXPXIX!.W @ @ *.PXrXJXHXyXDX7XK  .f.a.-.r.y.r.b.N.6.y.y.N.t.r.d.d.8.-.' b f ' 1 p :Xr.9.8.o Z f G P Z Z 1 T <Xg.> 9 7 5 e k 1 < k j : 1 F 7 - s G k 7 s 7 + 7 g g f J J Z F 1.f.].{.{.0XFXbXDXBX:Xr.a.f.r.r.>.>.I I r d F ' _ b 7 q.0XLX7X].{.7XkXKXwXL.P.I.K.V.z.+ % k 8 5 7 4 7 , 5 8 8 8 2 , , , , 3 > 8 2 8 , , > 2 8 2 8 8 5 5 8 2 r , , , r , , , : 2 2 5 2 1 , 4 2 2 2 2 4 2 8 8 8 1 , 2 , , , 2 8 > - 4 - 4 > 7 0 8 4 % % , * , 5 > % , % 4 5 5 5 , > > > , 8 2 , , O , , , ,   O . o > 7 > 4 7 > 4 1 4 4 > 4 4 > 7 4 4 > 4 , 7 , > 4 > , 7 , 4 4 2 5 1 4 , , , > : > > 1 > > , , > , , , , , > > : , , > , : > , > 1 > 1 - 1 > 1 7 1 , 1 > ; > 1 , > , > , > > > > > > , > > , > > , , , , , , , > > > > > > > , > > > > > > > > , , > , , > > : > > > : > > > > > > > > > , > > > > > > > > > > > % % > % > > > > % > , 1 > % > $ > % > $ $ : % + > + O + = + + O O @ . . . O . O $ $ . ",
". $ > : % : $ . O O O $ $ O $ O = - : - : > : > > > - 1 : : : : - - - : 1 : : : < : - - 1 1 1 > - < > > < - 1 1 > 1 > ; : - : ; > > , > > 1 > 1 - > 1 - > > , 7 , : 2 : 3 I r 3 2 = 1 1 G 1XPXhXrXrXaXrXzXnXnXcXBXVXGXCXCXJXJXGXSXPXPXrXa.    4 X 4 VXJXBXVXPXrXPX9X2 I 6.o.6.d.y.6.y.r.r.y.y.y.,.t.f.>.)  .-.J G K 7 s *X~..XU.o 7 - 7 s o o o 8.G.A   k > k 8 j 5 2 j j 5 7 k s = > a > o . 7 U J g ; 0 { B.*XfXZXAXLXbXLXkX0X>XkXFXDXZ.y.N.>.r.o.>.T T c Z P J s 1 0.;X7X:X0XlXbX0X|.wXeXP.P.|.`.G.,.O O a , , , , 7 5 5 8 8 8 2 , 2 , , , > 2 2 2 , , 1 , , 5 5 5 8 8 2 8 8 , , 2 , , , , , 5 5 1 , , , 2 5 4 5 2 8 8 8 2 r , , , , , 5 r 8 > 4 - 4 4 7 7 7 r 4 4 , > % > 5 5 4 4 , 4 , 4 > , > $ > 2 r 8 , , O > 1 2 , . O . o > 5 > 4 8 > 4 > , 7 4 > - 4 7 4 > 4 7 7 5 4 > 4 7 7 4 7 > > , 1 , , , , > > > > > > 1 > > , > 1 , , , , > : , : > , > , , : 1 > > 1 > > - 1 , > 1 7 1 > 1 > > > > > > > , , > , , , 1 , > > , > > > 1 > > , > , > $ > > > > $ : > > $ : $ > , , , : > > > > , > > > : > > > : > > > > > > $ , > > > , : > > > > : $ $ $ : > $ $ $ > > $ $ : > : : $ > > $ $ + + + - + - + O + O = O O O O -   X .   ",
"O O $ : $ > : O O $ O $ $ O $ O = = = : = - : = - > > > > : - ; ; : > - - : - ; > - = - : 1 : - > - > - - > 1 > 1 > 1 > > : - - 1 1 1 > > 1 1 > > , 1 > : 1 1 1 2 : , 2 , c c r j : s - s i.;XZXdXzXzXdXzXGXGXnXcXBXVXBXcXcXcXBXPXSXS.9   0 U 6 @ 6 GXIXPXPXaXPXkXd.$ I r.o.:.-.6.6.6.y.>.>.y.y.r.O.O.,. .H P %._ a a G ).wX6X~.o s V ; s Z s J p.&.s s k V A > 2 x x 8 8 Z k :   > 8 > 1 s K ` { m.!.;XwXAXIXIXKXPXKXZX XfXwX9XyXeXpXlX{.f.t.r.N.>.,.....c z H ' { H { ^.0X>XlX{.7XfX|.1XhX`.H.V.g.3.G . > 8 7 7 1 5 , 5 7 7 8 2 , , , , 2 , > , , 2 , , 1 > , 2 5 2 5 8 2 r r 2 2 , 2 3 , , 2 8 2 5 5 5 2 , , 5 2 4 2 2 5 5 5 , 2 8 , 1 , 8 , 0 , 4 > > 4 7 5 8 4 , 4 4 % , 4 8 5 5 4 , % % % 5 , > , , 8 , > 8 O > , 5 , . O . . > 7 > > 8 , 7 , , 5 0 > > > , > > 4 > 4 1 4 > , 1 5 7 , 4 > 1 > , , 1 > 1 > > > > , > , , 1 1 , 2 , 2 , 1 > : , , : > > , , > 1 > > 1 > 1 : > 1 1 > > , 7 1 : > > > > > > > > > > , > , : > > > > > > > > > > : > > : , : , : > > > $ > > > > > > > , > > , , , , : > > > > > $ : > > : : > , : > , > > $ > > > $ $ $ $ > > > $ $ : % $ $ > > % $ $ $ $ : O > O + + + O + O + - O O O - + > . O X   ",
". . .   O , > % O O $ O $ $ : O = O = = = = = : : > ; > > - - - : = - 1 1 - - = < - = = 1 > 1 - 1 : - < - > > 1 1 7 1 - 1 - 1 - 1 4 > 1 1 > 1 1 1 1 1 1 > - > > 2 : 2 r 3 3 c c k 1 z 1 s s k.mXbXZXnXzXzXDXGXnXBXBXLXJXGXGXJXPX<X1.E _.3XR @ E S @ t }.zXGXPXrXJ., K I ,. .o.) I >.y.N.y.#.N.y.t.,.-.:.o._ J J J a a z W.L.bXK.q o d J s   s P.P.k + 8 - > > e 8 5 2 8 j 8 2 2 3.).&XE.{.vXPXLXSXKXKXKXKXKXKXmXfX&X&XkX1XLXjX3X>XpXyXBXpXc.r.y.y.,.>./ I j 2 z ' s H ) b.&X*X7XkX0XgX_.!.1XU.a.;.! A 9 > > s 8 5 5 5 7 1 5 8 2 5 , , , , 5 3 , > , 5 2 , > 1 , , 7 8 8 2 r 8 r r r 2 , , , 2 3 , 8 2 8 5 2 , , , , 5 , 4 2 2 , 1 , 2 > $ , , 1 8 7 7 7 4 , 4 7 4 % , 5 5 4 & 4 4 4 , 4 * , 4 4 8 2 , , > > > 1 r $ , 2 2 2   O . O > 0 > > 7 4 7 > , 5 7 > + - > > - - > > , , > , 4 5 5 7 7 > > > > , > , > > > > > > , > , > , , , , , 1 1 > , : $ , : , : > 1 > 1 - - : - > 1 > > 1 1 1 , 7 > > : > > : > > $ > > > > > > $ : , 1 > > > > > > > % : > > , , > > , > > $ > , > > > > 1 , , , > > > > > : > > > % $ $ O $ % > , > > > , $ : > > : > $ $ $ > > > O O $ $ O O > > $ $ $ > > % O > > - > + O O O O O O O . O O O O X O . ",
"  O O $ O $ 8 O : : > $ O O : > - - = = > > - - = : - : - > > : 1 : < - - = = = = = - : - ; > > > - 1 > ; > < - - > > 1 1 > 1 - > > 1 1 1 - : > 1 > > 1 > 1 > 7 1 > > 1 2 2 2 2 : 2 x 8 s k Y _.IXmXdXhXmXnXbXIXPXaXzXPXPXGXtXz.  p.IXPXnXGX  5 G 0 9   $.E @ @   2 d F } ..-.o...@.o.6.y.y.>.o.:.,.>.n -...Z T 8 I a K P.e.7 a d 1 7 Z 7 o G KX:X  . G z 9 4 4 1 2 8 : j 1 2 O &.).jXbXLXPXKXLXKXPXKXPXIXPXKXKXvXvXdXZXwXhXSX0XUXyXpXBX0Xy.6.r.0.6.>.' P l z _ Z J ' ..-.6.f.{.DXFX:X:X.XS.s.&.` G k k 8 2 - 4 5 7 8 7 4 > , 4 2 5 , , , > > > , , , , , 1 4 , 7 5 2 7 4 , , , , , 1 , : , , , : > 8 r 2 2 , 5 , , , , , > , , : > , > 1 > , 7 4 , - > 4 4 7 7 , & % % % , % 4 , 4 , * , 5 4 4 : , , 1 5 , , > a , O , 8 > . 2 : . > 7 7 , , > > 4 4 , 4 + > 4 4 > > - - 4 > 4 7 , > 0 1 > > 4 , > , > > > : > > > > , > , , , , > , 1 , > > > $ > > : > > , , 7 1 1 1 > 1 > - - > - - : : 1 1 > , , , , > > > : > : > > : > > > 1 > > > > > , , > > : $ > > > , > $ $ : > > > : $ > $ > > > , $ $ > : > % : % $ $ $ $ O $ $ > > : > > > $ > : > > > $ > > > , , > $ % > $ $ O O O $ O $ : $ O + + > - % > O + + - + > O O .   O . . . ",
". $ $ > O O , O O $ : $ $ O $ % > > = : > > - > = = - > : : - - - - > : : > = : = - - : : > > ; 1 > : 1 > 1 : - ; - 1 > 1 1 1 1 - > 1 > > - 1 1 > 1 > > 1 > 1 1 , > > 1 2 r j 2 8 < a : a K ` J.AXSXZXKXhXvXSXmXzXPXPXaX}.3.*.2. XPXzXzXPXJXE   V U 6 S   4 0 Z Z Z z T o.P ..>.o.| ..y.y.#.o.O.6.r.,...T o.T n } P 1 Y }.r.  > Z J J d G - G KXvX7 > k 8 V C z x 8 2 O 8 a k 1 > o o 8 F k T k.G.H.Y.!.F.g.9.h.Y.9.h.'.;XPXPXhXoX>XkXFXpXZ.a.>.0.>. .) H a 7 Z ' P T _ ,.3.L j K.I.m.D.D.9.;.S A s 5 8 8 5 , 5 7 5 5 7 7 > 4 7 4 2 2 , , , , > > 1 , > , , 2 4 4 5 5 4 1 , 1 , 1 , , , , , : , > , , 5 , , 2 8 2 , , , , 7 2 5 , > > 1 , , , > 7 , 4 > q 4 7 8 4 4 4 4 % 4 4 , * 4 > 4 , 4 4 4 > 1 , , 1 , > > 5 , $ , 8 O . , - . > 7 7 > 4 > - 4 4 > 4 - > > > 4 > > > > 4 > 7 > , 7 0 > > 4 > , > > > > > > > , : , , , > 1 > > , > , > > > > > > > > > > 1 1 1 7 > > - > - 1 > : - - > > 1 > > > > , > > > > > , > > > > : > , > > % : > > , > > > > , > > , > > $ > > > $ % > $ > > > > , $ > > : > > % : $ % > $ O > % > , , > > > > > > % : % : : > > > > : O : > > $ O $ $ > $ : $ O $ > + O > + + - O O + O O O + O +   . . . ",
"  : $ > $ O > O O O $ $ $ $ $ $ > = - : ; > - - = = - : > - : - : - - - - - ; : : - : - - : > < < - > 1 - : 1 1 > 1 1 1 > 1 , > - > > 1 : > 1 > 1 > 1 1 , , 1 1 > 1 1 1 a a j j j 8 k : 7 _ %.i.'.SXwXwXdXdXwXGXPXcX!.V   ! <XPXJXGXPXJXBXnXa.  D + V s Z V Z Z z S A Y T j x P I ..o.o...>.#... .o...o.j F P x A _ > r ~.L.r j Z { { a Y s Z KXjXz V G c W V , S j j : 8 7 k e Z 7 1 k s O @ > o 7 - - - s 7 D q s 9.|.8XKXhX;XUX>XpXlXpXZ.a.>.6.>...P J d 7 l ' ' ' _ >.d.o.: . O o = g s S s 5 , 7 8 a 5 , 8 8 2 4 , , 4 > > 2 5 , , 1 , > , , , 1 4 2 4 , , 7 2 5 2 4 , , 4 , , 1 , , , , , 2 , 1 > , 2 8 8 2 8 , , 1 , 5 2 , , > > > , , , 7 , 4 7 7 4 7 8 4 , 5 5 5 5 4 4 4 , , % % 4 4 4 > , , , , , 1 > , , > 2 8 $ . 2 - . > 5 > 4 0 > - > 4 > - > > - > 4 - 4 > > > 7 0 > > , > > - 4 1 > > > > > > > > , > , > 1 , , > > , 1 > , > , > > > > > 1 , > , , 1 1 1 > 1 > 1 1 > > - > > 1 > > > > > > , , , > > > , > > , : , > > > % : > , , > > > : : > , > $ > > > > $ $ > : % : > > 1 > $ > > > > > $ > : > > > % > 1 , , , > > > > , % > % > % > > > $ O O > $ > > > > > : > % $ O O O % - + + - O O - + O O O - + > . . . . ",
"  > O : $ . $ : . O $ $ $ $ $ $ > = = = > : : = O - - - 1 : > - - 1 > : : - - = - = - : : - > - - > : : 1 - - > - > - 1 > 1 1 ; 1 1 > > 1 > - 1 7 1 1 > 1 4 1 7 7 7 1 1 2 8 2 8 j 2 F a : Z T %.H.PXmX;XmXGXIXLX2X3.6 + Q (.JXcXcXGXcXzXPXPXc.  X U U + 0 D s > , 5   . e k j : r / ....#.r.>.P -.o._ 3._ F ..P F 2 $ 8.JXFX;.8 Z _ ` J P Z Y ZXbXK V Z C U S r 2 a x 8 8 > j z O s G k s J Z - J ` Y ` _ ` V K B.wXhXIXSXZXhXwX0XyX>XpXgXb.y.6.6.,.` P L x s z Z J  ...-.f.h.o.I I a 7 s q 7 - 7 1 5 9 8 4 , 7 5 5 > , 7 7 7 4 , 4 1 , 4 > , 1 , 2 4 1 , 4 2 2 5 5 5 4 1 , , 1 2 1 , , , 3 : , 5 , > > 5 8 2 , 5 4 1 , , , 1 5 , , 1 > > > , 1 4 7 4 > , 4 7 4 , , 5 5 8 4 5 , 4 4 4 , 4 % % 4 , , > > > > , , > , > 5 2 : . , O . > 2 > , 4 > 4 > > 7 > - 4 > > - > > 4 > 4 4 > > 4 > 7 > 4 > > > > > 1 > , > > > > > > , > > > , > > 1 , , > > , > > > > > > 1 > > 1 > 1 > 1 1 > > - : - > > : , $ > : , , , , > , > > , > , > > , > : > > , , > > > > > > > : > > > , > $ $ > > $ > > > > , > > > > > > $ > $ $ > % $ : > , , , > : > > > > $ : > > > > : $ $ $ O O > > : > > : > > % $ O O - + + % + O + O + O + O + O + + & . . . ",
"  r > $ $ . O : $ O $ O O > : > = = = O = = = O = = > = > > - : : > > - : = - : - : - - ; 1 - - : : - ; - < - 1 : 1 > 1 - 1 1 > > > 1 - 1 > > > > > > 1 1 1 7 1 7 7 7 1 1 1 2 j 2 3 k z : 1 z G { ).PXFXZXhXmXE.p.s.l.=.*.L.PXPXCXPXpXVXBXLXPXW   9 s U G o @   e 4   K F.7XjX9Xc.>.I I L N | >..._ x I  .x I 7 I , T H.DXLX3.$ _ J ) { Z Y 9.LX9XS K R R $.U K 5 8 c r j 4 k j J A S z 8 k A k S s 9  .Y z R H.8XPXPXrX].fXmX;XUX:X:XgX,Xb.d.y.o.o...I F k j z Z J ' { -.r.8.F d J Z Z J Z s 7 8 8 8 8 4 > > 4 7 , > > 7 5 , > 5 7 4 1 4 4 4 > 4 7 7 4 5 2 4 5 5 5 5 1 2 4 , , , , , , , 1 > > , 1 , 2 8 r , 1 , > , , > 1 , , 2 1 > : > 1 , , 4 , q 4 > - 4 4 4 4 5 4 4 4 4 * 4 * , % 4 % 4 % 7 > > > > > , , > , , 1 2 O . : . . > 0 > > 7 > > 4 1 4 , > > > 4 + > > 7 4 4 > > > > > 4 > > 4 > > , > > , > 1 > > : > > > > % 4 - 7 4 4 , , 1 , , > > > 4 > 4 > > 1 > > 1 1 > 1 7 > 1 1 - > : > : % % > > , , > > > : > : > > > > > > : > > , > , > > > % > > $ > > , > > $ $ $ > % > > > > , , : > > > > % $ $ > $ : $ % % > > > > : % > > > $ % > > > > $ $ $ > $ % % : % : $ : % $ : % > > + % % + + O + O O O O O O O . . $ & . . ",
"O A r $ $ . O $ $ $ O O O > % > = = = = > > = = = > = > - < : - > ; < - - > - - = : ; : > > 1 : - : - - = - > > 1 - - 1 1 1 > 1 > 1 > : > 1 1 > - 1 1 1 7 > > 1 1 1 4 1 1 2 j j j O 2 x 8 5 z k o U E.;X;Xs.9.s.6XPXPXI.&.g.IXVXcXPXcXBXGXBXPXzXF.  G D q -.J.1XnX5X XrXPXPXLXLXLXbXeXeX:XV.o.F  . ...F } A T F x r ,.K.|.BX3.. { U K { g ` W.PXP.8 T &.&.*.U c A j j , z j z k 1 7 e z G K K K J z j V : Y P.PXeXwXPXwXB.hXPX1X~.%X%XUX{.V.f.r.O.o...K x k 8 j ) _ ' ' -.-. .j z P J Z Z g s q 7 7 1 > > , 7 1 5 2 > 4 4 4 > > , , , 4 4 1 > , 5 5 2 5 7 4 1 5 7 2 5 4 , , 1 > 1 , , 1 , : 3 , > , , 8 8 2 , > > 1 > > > > , > 1 , , > > > , , > 7 > 4 4 4 - 4 , 4 , 4 4 , > % , , 4 > % > > 4 1 , , > > 1 , , > 2 , , 8 $ . O o . , 7 - > 7 4 , 7 5 7 4 4 > 4 > 4 , 4 4 > > 4 - 7 4 > - 4 4 > , > > , > , , > > > > > > : : > > > 4 , 7 7 4 5 , 4 4 > > 7 > 7 1 > > 1 1 > > 1 > > 1 > > 1 > 1 % > > : > > > , $ > > > > > > > > , , > $ > > , , : > : : > > > $ > > > > : > $ % : : % : > > , > > , > > : > : $ % > $ $ $ : > , > > > : > $ > > : > $ : % $ $ $ > > : $ $ O > $ % $ O $ $ : % > - > - > O O O . O O - O O . o : . . . ",
"$ T c O O O $ O $ O O O O $ $ O - - - = - > - = = = - > > - : - - 1 : - - = : = - : - : - : - : - - = = = > 1 1 - - 1 > 1 > 1 > 1 > - > 1 1 > - - : > > > > 1 > q q 7 1 7 7 j k c 3 , c x c S Z ` =.i.L.[.u.G !.IXIXJXIXj.t XXJXPXyXBXJXaXGXnXPXPXU   > V PXPXIXBXVXCXPXPXBXBXLXbXFXLXLXLXLXeX{.f...T I c j x K T   *.9XLXLX! $ ` ' _ Y K ' &XZXk.s } K S *.} U I k c 8 k 2 k x > S Z 1 4 k A G 8 c 8 : 2 K.ZXPXAXKXPXSX!.6XIXfX.X:X{.].^.f.d.6.>.,.T n A c 7 a P ' ) ` ,.>.-.P a Z Z p a s s g 1 , > > 7 8 0 , > > 7 4 4 > , 4 4 > 7 4 4 1 4 7 5 7 8 5 4 4 5 5 5 1 5 2 2 , , , 4 , , , , 3 > > , , 8 2 5 , , , , , > > > , 1 > , , , > , > > , 7 7 4 7 4 4 7 > 5 4 % , % , , % % 4 % > % 4 > , , , > , , > , > , 5 , , 2 > . .   . 1 > - > 8 > > 4 7 4 , > 4 4 4 , 4 4 1 4 > > - > 4 > - 4 4 > > > , , > , , , , 1 , > , > > > > 4 , 4 , 4 4 4 4 4 4 > 4 - > 4 > 1 1 > > 1 1 > > 1 > 1 1 1 1 > > : > > > > > > > > > > : > > > > > , > > > > , 1 , > > > > : > $ > , 1 > $ $ $ > > $ : > > > , > , , > , > % $ $ : > > % > : , , > > > : > > > > $ > $ $ $ $ > $ > > > $ O O > $ % $ O $ $ - + 4 > > > > + + O o . O O O O . . & . .   ",
". _ C     O : $ $ O O O : $ O . > > > : 1 > > > = = - : : - > : - > : - : - = : ; - - - : - 1 - : = = = - - 1 1 : 1 > 1 1 > 1 1 1 > - 1 > 1 > - = > > 1 1 > - - 7 a i 7 1 2 a j j j 8 j z z K K h.W.;XSXPXZXw.n.IXPXeXPX<X  S (.BXJXBXBXbXLXBXBXDX*.  8 Z V eXKXPXPXnXzXnXnXVXBXjXfXeXjXbXFXFXLXjX&.x :.T T k x , j K.FXDXjXc W K { %.J %.` 6XeXe.C 2.} T r.<.K c C P k 8 . 8 A a.H.U.F.H.L.}.bXjX{.a.;.a.bXPXqX:XPX8XPXPX2XIXtX>X:X].%X%Xd.t.y.,.O.I c Z z 8 7 J ` J ' r.1...i = a s a q a q q 0 7 > 4 8 8 8 > > , 7 4 > - , 7 , 4 4 1 , 4 4 , 5 7 8 2 5 2 1 4 5 5 5 7 4 , , , 2 , 5 1 , , > , , , 4 , 1 > , 2 , , , 1 , , , , 1 , , , , 4 > > 4 7 7 0 7 7 q 4 8 8 4 4 4 % 4 4 % > > * > 4 4 4 > , , 1 > , > , 2 5 , , 8 :       O , , + , 8 > > 4 > 7 > > - > 4 7 4 1 4 > > - + , > - % 4 , > , > : 1 , , , , , , , , , > , , > > , 4 1 5 2 5 7 7 7 > > 4 > > 7 > 1 1 1 > > 1 - - > 1 > > 1 1 $ > > > , : : $ , > > , > , > , > , > : $ > > > > > > > > > > > % > , , > $ > > : % % > > > > , , > > , % > : > > > > > : > 1 , , , > > > > > > > > > $ $ $ $ $ $ O > : > $ $ > > > : $ O O O O > 4 > > > - - + O O . O . - > + & . . . ",
"  <.K   8 . , O O $ $ $ $ $ $ O : > - : > : > > O = - : = : - > > : > - : > - < O O = - - : - = : > 1 > > - - : = = - - > > 1 - 1 7 q 1 - 7 - 7 7 - - 1 1 - 7 a 5 2 2 8 r r j r 8 a J f J ' ' i.k._.PXSXSXPX(.S j.PXPXLXnXp.  R `.GXGXBXGXGXPXPX}.r R g.A O   2.<XKXPXHXHXSXMXIXPXqXtXzXIXzXbXKXIXH.@ G ` G G z , T _.bXBXZ.U r R K U A } f.:XDXa.r &. .$.&.} ..&.! C e 4 S F.2XPXPXIXPXPXIXPXPXPXPXDXPXbXPXjXpX9XBXGXBXPXGXyX:X].>X:X^.^.N.d.q.5.>.I F Z k x > F _ H ..0.0.:.K a 1 z 1 s d + 8 7 s s , > 8 8 > 4 > 7 > > - , > > > > , 4 4 4 7 5 5 7 5 5 7 7 4 , 1 7 4 1 5 7 > , , 4 2 , , > > > , > 4 > , , 4 3 , , , , , , , , 8 r 8 > 4 7 0 0 7 0 q q 0 0 w 0 2 , , , > , , > > , 5 5 2 > $ : > 5 2 , > , , > > , 2 8 $ . . . O $ > , > > , > $ $ 1 > : % > > > > > , > % : , > > , , > , > > > > > > > , > : > > 1 > > > > % > % > > 4 % 4 % 4 4 % % > 4 % 4 > > - > > 4 > - > 4 4 4 4 > > > > 1 > > > > > > , > > > , > > > > + 4 > - > 4 > > > > > > 4 > , > > : > > > > $ > : $ % % > : > > > > , > > > : % $ = $ $ $ > > > > > > % : > > : $ $ $ $ % $ % O O O > > > $ > > $ $ $ O $ O % - - + + O + = 4 - . O o . O + X       ",
"O e.} . ,   + > O $ $ O $ $ $ $ : : > = = - = - O = = > - = = = = > - > : - > : = = = > > : - - < > > > : 1 1 > = - > : - > > > - - 1 - 1 - 1 1 - 1 7 7 q 1 7 7 a 7 2 , 3 r j c i a ' e.i.9.{ i.1..XPXSXPXPXZX*.  S.LXPXLXPXpXr.2.GXGXLXFXcXpXpXGXcXpXJXUX! % .   9 g.rXPXGXKXPXtXrXKXnXKXnXMXrXmXSXB.Y Y s C k r c.eXBXBXu., K &.K }  .! S vXDXr.A } *.3.r.<.*.a.! A T (.PXcXPXPXxXHXPXMXuXqXSXLXnX|.nXPXGX3XyXwXJXLXBXLXBXyX:X7X7X%XR.A.t.t.q.>.>.L x x j z - F  . . .-.-.-.P = 1 J i ; - 8 s 7 2 5 7 7 5 7 5 > , 7 , > 4 4 7 7 4 4 , > , , 4 1 5 2 4 5 4 > , , 5 5 , 7 5 5 , 7 5 8 8 5 7 7 , > > 4 > > > , , , , 1 > 3 , , , 3 , 8 8 4 4 4 7 0 7 0 q 0 0 0 0 8 2 , , 1 , 4 2 , 1 1 , , , , , % > , , , > > 1 > 1 , 8 2 $ . . . . $ , , > > , > > > , , > > , , , , 1 , > > > : , > > > , : > > , 1 > > , , > > > , , , > > > > % > * > > 4 % % % 4 > % % 4 > 4 > 4 4 4 4 4 > > 4 > > > 4 > > > > > > > > > > , , > > > : > , > 4 > > 4 4 > - > - 4 4 > - > > > > > > , , > : > > % $ > : % > > > > > : > : $ > $ $ % O > $ > > > > : : % > > > $ $ $ % % > $ > $ : $ $ > > > > $ $ $ O $ O : O O O + O + O + > > + . O . . + % X   @ ",
"% p.<.. -   > > O O $ O $ $ O $ = = = = - : = - = = = - > = = > = - : - > > 1 - = - - > > - : - > 1 - - : : - > - : - > 1 > 1 1 - 1 - 7 7 - > - 1 - 7 1 1 7 > 7 7 7 2 2 3 r h j P P ;.B.W.W.;XkXF.I.IXSXPXKXKX2XV.e 8.UXLXBXLXAXF.I.PXjXpXbXbXbXzXbXPXLXLXg.  ,   o     =.1XLXdXPXGXmXrXzXzXGXKX8XPX6Xh.e.K K A C _.BXGXpXK & $.K ;.S.a.k G PXeXA ! 2.p.a.c.k.a.c.<.$.L.JXPXGXGXmXrXPXnX4XuXtXuXPXnX(.pXPXGXUX3X3XVXPXDXIXDXtX3XfX>X^.Z.M.t.b.y.O.:.) n z j k 1 p J P  .>.6.:.F s d 7 o = 7 z - a 1 > 8 8 > , 8 4 7 7 4 4 4 7 8 7 4 2 4 7 > , > , 4 1 4 1 , > > 4 7 7 , , 4 5 7 7 4 8 7 7 2 4 7 4 - > - > > > > , , , > > , , , , 2 8 2 4 > , 8 0 7 0 7 0 0 w 0 8 5 2 5 , 1 4 5 , , > > > , 2 r > > > > : > > , , > , 8 , $ O . . . O 1 , > : , , > > , , > : > > , , , , 1 > , , > > , , > > , , > > , > , > , > , , , , , > > > % > % > * 4 % % 4 4 % % % * > > > > 7 7 7 > > > > - > > > - > > , > > > > > > , > , > > > > > 4 - 4 > > > > > q > 4 > q % - 4 > > > > > , > > $ > $ > : > > > > > > > : > % $ > $ : $ > : > > > > > $ : > % > $ O $ $ : > > $ : $ O $ % > $ $ % $ O $ $ O : O + O O O + O + O > - + O O O O + + X @   ",
"  p.3.  + > 8 + $ O O $ O $ $ $ - = > - = > = = O = - : O = - = = = - = - : - > > : - : - 1 > - > > = = - - > 1 > > < > > 1 > 1 - - 1 1 7 7 1 - - 7 1 7 7 - 1 - 2 2 2 8 2 2 2 r P ,.m.=X8X;XKXSX!.U.SXSXtXPXnXPXcXg.T f.BXvXGXLXqXV.PXPXLXBXnXbXjXPXbXBXPXz.  e U s q 4 @   { (.vXvXvXnXDXvXDXPXdXvXPXvX:XK.<.x r.{.FXFXZ.y r T } a.S.e.$.~.bXa.C 2.3.9.r.K.U.k.K ! H.PXPXeXPXGXxXqXPXnX;XtXhXtXPXPXUXcXLXLXtXUX3XGXPXBXGXGXzX9X0X>X%XR.Z.b.N.y.O.o._ n j z Z k z H P >.8.,.-.F d = a ,.s.9.o + 9 8 8 8 7 > , 7 4 > , > > > > 7 5 5 4 7 4 7 1 2 , 7 5 5 7 4 , 2 7 5 7 > , 5 8 2 , , 4 > 4 , 4 > > 4 4 > 1 > , 1 , , > , : > , 3 , , 8 2 , , , 5 7 0 0 7 q 0 0 0 8 4 1 1 , , , 1 4 , 1 > > , , 8 1 > > $ % > > , , > , 2 , % O O . . O > 1 > > , 1 > > , , > > > 1 , , , > > > > > , > > > 1 , > > , , > 1 > , : , > , , , 1 > , % , * 4 , * > > % 4 , & % % 4 > - > 4 4 , > > - 4 4 > - + - 4 4 > > > > > : , > , > > > > > , : 4 > > > > q 4 > > > > 4 > > 4 > , > > : > > > > % : > > > $ $ $ : : $ % % $ $ > O % O $ $ > > > > > > > > $ > : $ $ $ $ > > $ O > > $ $ : > > $ O : O O O $ O $ + + > O O O + O + - O + O O - + + X @ @ ",
"  k.f.    7 8 o O O O O O O $ $ : - : > > - > = O = > - = = = > = - = > = > > = - - = > - > > 1 > > = = - - > 1 > 1 : 1 1 > > 1 - - 1 1 1 > > - > 1 7 1 1 1 : 1 2 7 2 , 3 r r j F r.P.kXKXfXwX7X!.L.<XPXPXbXzXdXLXPX3XF..XLXPXbXPX{.s.eXDXPXDXjXkXjX1XeXLX}.k   a J 0 q G 7 o @ '.vXZXDXZXAXKXDX7XeXLXLXDXLX7X{.~.{.DX:Xo S 1.U &.2.r.k.7XLX9X*. .H.L.V.<.r.G.H.I.(.PXPXzXnXGXBXPX2XuXPXqX}.5XrXLXBXqXPXcXPXBX3XrXGXIXbXzXGXnXfX0X>X>X/.C.t.t.q.>.o.| n k z k k z H ' 8.,.o.,. .} ,.9.pXbX~.  = 1 k s , > 5 8 > > > 4 , > , 7 5 5 5 5 7 8 8 8 8 5 8 8 8 5 7 5 5 , 4 7 , 1 4 8 5 4 , , > 4 > > > 4 2 4 4 > , , , , , : : : , 3 , 2 , , , , , , > 4 7 7 4 q q 0 7 4 , > > 1 > , , , , , 1 > $ > > 1 , > > > > , , > > , 5 , $ O O . . : 1 1 % > , > > $ , , $ $ > % > > > > , > > 1 > > , , > 1 > > , , > > > , > > > > , > , > > 4 4 4 % 4 , * , % > * % % % 4 4 4 > > 4 - 4 4 > > - - > + > 4 > , > > > > : > > > > > % > > : > - > > 4 4 > > - > > 4 > > > 4 > > > > > , > > > > $ > > $ > $ $ O $ $ $ $ $ > > O $ O + : % > > , > > : % > > > : $ % : > > $ O > $ O O $ % : $ : $ O O $ $ O > > > - > - O O . + O O O O O O . * q X X ",
"  G.F.>   o O   $ O O O O O $ $ = > - > > 1 : = O = = : > = - = : - : = = = = = = : > : - : : > - : = = = > > 1 - 1 > - - 1 > 1 > 1 1 1 1 1 ; > ; 1 1 , - 1 > 1 5 1 > : , j c F _ 3.J.jXKX;X*X;X` . u.}.LXSXGXIXbXDXLXGXc.S.:X0XUXa.4 -.i.`.vXKXPXwXLXPXFX9XZ k V Z o = V 1 o _ 6XKXeXjXDXKXFXAXjXAXAXlXDXFX:XFXLX].FXPX%.Y 4.,.} k.p.V.PXeX'.P P.k.<.k.P.:XDXPXGXLXLXjXnXLXIXPXPX6XrXPXwX.XrXrXPX3X3XPXBXPXnXtXyXvXGXGXGXIXBXrX7X:X>XR.t.0.t.t.>. .| c a j 5 2 1 z / ,.,.,.,.I J.).K.{.]..XK , O 7 9 > > 8 s 7 , 7 7 4 4 2 5 a 1 5 5 7 8 7 8 8 8 7 a 8 8 8 8 7 > 7 4 > 2 8 8 5 7 7 7 4 > 4 4 7 5 4 7 1 , , > , : , , : : : , , 2 , , 3 , , , , , 4 4 > 0 7 q q , , , > > > > > 1 , 8 2 > $ $ % 8 , > > > , , , 1 > > , , $ O O . . $ > , > > , > > > > > % $ > : > > > 1 > > > > > > > > , > > , > > > > > > , : > > > > > : > % , % , * % % , % 4 , % % % , * 7 > > > > > > 4 > 4 > - - > > - : > > > > , > > , > , : $ > % > > 4 > - + 4 > 4 4 - > 4 > > - 4 , : > : > , > : > > > > > > $ $ $ $ $ $ > > > > $ $ > : % : > > > > > % > $ % : > > > > > > $ $ > > : % : > % % : % > O O $ $ % 4 > > > > + - O O O . O O O . . q X X . ",
"  f.h.> @ O o O $ O O O O O O $ O > - > - : - = = = = - O : = > > - - = - = = = : = = - = - > > = = = : - : : 1 > > 1 : - : - : 1 - > > 1 > > 1 - > > > 1 > 1 1 1 1 > 1 3 r c c x _ r.~.;XP.n.*XG.s.:Xn.`.PXPXZXKXbXLXDX_       j   ` k 1 Y K.:XjXkXvXdXn.- o i s d d z Z p a T 1XLXfXAXLXLXDXjXjXFXeXFXLXjXgXFXFXAX1Xi.- ` 2.{ &.g.S.V.PXPXBXV.F.V.~.BXPXLXLXbXIXPXjXDXPXvXbXbXKXrXGXGX6X8XvXzXPX X<XPXIXPX9XjX1XrXLXPXLXDXzXwX>X%X0XQ.t.0.N.d.O.| | k 8 x 5 2 j F T  .>.d.f...f.kX1.H.V.c.yX% . , 8 4 , 4 5 5 4 7 4 7 4 7 7 8 2 4 2 5 7 4 5 7 4 8 5 5 7 4 , , > 4 7 , 5 8 5 7 7 7 , > 4 , 7 4 5 1 7 4 > , , 1 , , , : & , : , , 3 , , , , : : 1 , , 7 4 4 7 1 4 , , > 1 > , > > , 5 5 > $ $ > 5 , > : > > > > , > 1 , 1 $ $ O O . $ , 5 1 , 2 , > > , > : $ > > > > , > , > 1 , > , > > > > , > , > > > , > , > > , , , > : > 4 4 , 4 4 4 % 4 4 4 4 % % % > 4 > 4 > > 4 > 4 > 4 > 4 > 4 > > 4 > > , > > > > > , > > > : % > > 4 > 4 - - > > 4 - 4 4 > > q > 7 > , > > > > > > : > > > > : $ $ & $ > : > $ $ $ % $ > $ $ > % > , > : > : : % > > > % > 1 , , , > : % : % : : $ > > > $ : $ $ $ + + > + + % + + O O + O O O .   + X     ",
"  <.;.  > >   > O O O O O O $ $ = = : > : - - = O = > = > - = = : > > > = O = O - = = O = = = > O = - - > - > > - : - > - > > : 1 1 > 1 > 1 ; 1 > 1 > ; > > 1 5 - > 2 2 r 2 , 3 r c I T i.b.m.;XdXSXDXU.h.qXPXZXPXKXP.} . c U z , J k F -.` &.;.,.} ` a > > J J Z 1 a s 1 Z F o V.LXFX0X:XAXLXkXlXkXV.f.C.Z.kX^.K.|.8.7 ,.1.9.h.u.f._.G.K.2X'.V.c.G.eXLXLXKXPXLXLXGXPXzXdXIXPXPXPXwXLXKX6X2X3XvXGX<X2XIXLXPX.XjXzXnXPXIXjXqXeXqX>X:XfX^.f.y.t.y. .| ( c k F 9 a : F _ P o.~.jX{.H.E.bXFXUX3X].P O O > 8 7 > > 1 > > , , , 4 0 8 4 7 4 2 7 , > 4 > > , 1 4 > - > > 1 5 4 7 7 5 4 , 4 4 > - > , > 7 5 > 4 > > , > & , : , , 3 : 3 2 2 3 , , , , , 4 2 , 7 1 1 4 1 1 , , , , > , 4 > > 2 , > > > 2 , 1 > > > , > : , > > , > $ O O O O > 2 , > , 5 , > 1 , , > $ : > > > , , , , , : , > , , > , > , > 1 > , : , > > > 1 , , , , > 4 4 4 % , % 4 % % 4 % % O % 4 4 > > 4 7 7 4 4 - + > 4 4 4 4 > > > > : > > > > , : , > $ > > $ > > % 4 > 4 > > > > - > 4 > - > > > > : > , > > > % : > , > $ O $ 1 , > > $ $ $ $ : > $ O $ $ $ $ > > > : % > > > > $ $ $ > 2 8 8 > > $ O % % $ O , > > $ > O : % O + O + = + - > + O - - O O .   * X   @ ",
"O K 8   o @ - . O O O $ O O O O = - = = = = = = = = O : = O : = = = : = : > - > : - - : : - = = 1 > = O O = > 1 , 1 > > ; > - - > 1 : 1 : 1 - : > 1 1 1 1 : : = 5 2 , > 1 2 2 8 j P z Z 8.s.W.ZXZXdXAX!._ } L.dX7X&.O 1 7 7 a F a a F J b ` ' a d = z d f d 7 ; : a j 1 - x x 1 >.eX0Xr...p.0XkXFXAXZ.f.m.{.0X,...:X{.k.i.s.h.D.f.g.U.V.U &.V.p.g.K.L.g.f.g.a.I.'.1XAXPXPXKXKXIXLXZXvXZXKX|.6XDXPXUX6XPXPXqXwX3X:X.XF.<.S %.2XjX>X%XUXZ.y.o.o.y.o.o./ r r A r r a s T / r.|.~.eXU.V.LX9XjX).k   > K >   C a + 8 1 , > 4 > 4 4 > 5 , 7 > > > 4 > 1 4 5 4 7 , 4 7 4 , 7 4 1 , 4 , , 4 > > > > > > , > > > , , , , : > > > , , : , 3 : : 3 , , 1 , 1 > 1 > , , : 1 , > 1 > , > > 1 5 1 1 > , , 2 8 > > > $ $ > > , , 2 > , 8 : O $ . O $ > > 1 , , , , 1 > > > > > > , > , , > , > , 1 1 > > > > > 1 > , > > > $ $ , > , > > > , , % % % % % % 4 % 4 4 * > % > , 4 + > 4 4 4 > > > > > > > 4 - > 4 , > > , : > > > , > : > % , > , - 4 4 > > > 4 - > 4 - > > 4 - 4 > > > > $ $ > , > > > > > : > > $ : > > : % $ $ 1 > > $ $ > > 1 > , > > > > > > $ $ % > $ > > > > > : > > > > $ $ O O $ : % $ O + - + + O + - + > O + O . = -   + X     ",
"+ S 5   + O O o O . O O O O O $ = O = = = = = = - = - = - = = - - - = > - - > > > = > - - = > > > - = = = = > 1 > - ; > > : > > 1 > 1 > > : 1 : : 1 1 1 , 1 1 : > , 1 , 2 2 2 i a a z ,.d.9.H.PXZXvXeX3X'.D.` T k 1 7 - , F x k s J z z F J s i Z i z 1 7 7 Z z z a s x x x z 2   ,.s._ c j C.bXLX:Xb.d.8.e.J.e.^.I.P.F.h.n.U.).k.k.V.V.F.G.g.r.9.V.K.g.a.,.A K 7 o s { s.P.).!.{.FX{.).dX|.9XFXbX~.<XIXMX~.(.qX XL.2.2.E.6XvX9X>XUX%XA.6.o.o.y.o.o./ j 2 c 5 r a F ' s 1.~.|.:Xf.LXbXjXPXE.Z 8 9 > 8 7 . > 5 . 5 , , 7 , 4 1 4 > , > 4 4 7 7 7 4 2 5 2 5 4 7 4 4 > > 4 4 7 7 4 7 7 7 5 7 0 7 7 > > 4 > > > > , , > 1 , , : , : : , , > 3 , > , > > 1 , , , , > > , , , > , , > 2 , , , , 2 8 5 1 > > > > > > , > , > > 5 $ . O . O > , , > > $ > , > > > > > > > , > 1 , , > 1 , , , > > , > 1 > > , , > 1 > > > > 1 , , > > > % % , * 4 4 > % , , > 4 > * 4 % 4 > 4 > > 4 - 4 4 4 4 4 > > > > : > > > , > > , > > > > > : , : > > > % 4 - 4 > > 4 4 > 4 > > > : > > > , > > > $ > : % > % % > % > > > > > > $ % $ $ $ $ > , , > > > > > > > > : % : > > $ : > % > > % > > > > $ $ > % % : % $ > > > > + O O - > . + O . O +   + X     ",
"O s O o - + O . O . . O O $ $ $ > = - : - : - : = - : = > : > = - : - : - : = = = - - : > = > = > : = O = - > 1 : - > > > 1 1 1 - 1 : > > : - : > 1 1 1 , : , : = > 1 2 2 2 3 r a 2 x -.s.d.h.W.kXKXdXdXnXPX)..   a P s : j 1 1 a J a 7 Z a 1 x Z z Z z s a F i C 1 $ e z J K k j : , 8 K F k.FXLXf.-.s.V.f.&._ c.V.~.P.!.}.(.(.j.V.V.c.c.g.g.V.h.V.L.c.a.3.I A V g J g q a _ 1.k.vX].U.7X~.1XjX|.G.a.&XvX9.P.1X<XZXPXPXPXGXqXPXyX:X:XA.r.o.o.6...o...j r c 5 e Z a F _ '.jXLXDXP.GXnXwXDX<XR 4 > = k , , s 1 k 4 1 4 > , , 4 , > > 4 > , 5 5 5 8 5 5 2 1 , 7 , > , > , 4 7 , 7 4 > > 4 , 4 1 > > > - + > > > , 2 2 , : : , : , , , : , > > , 2 , 1 , , , 1 , > , , , , 1 , , , 4 , > > , , 2 5 , > > , > > > , > , > > , > . O   O : , 4 > $ $ > > , > , 1 > , , 1 > , > 1 , > , , 1 , > , > , > , , 1 , , , , > > > , , > > > 4 % % 4 4 4 > 4 % > * % % * > 4 4 > 4 > 4 7 > > > 4 4 > > + - 4 > : > > > > > > , > > : > > > , > > 4 4 > 4 % > 4 > 4 > > 7 > 4 , > , , , , : $ > $ % : $ $ > : > > > , > > > : $ $ $ > > 1 , , > > > : : > , , > > $ $ : > % $ % : % : : > $ % : % > : > $ : % - > - + O O O O + O O + . O :   q X     ",
"  >     > . O O O O $ : $ $ : : > > - > > > - > > = - > = - = > > > : - : = - = - : : - = > - : = = = - : = - : > : - > - > > > : : > < ; : 1 : : : 1 1 1 1 1 2 - 1 1 2 , : 3 2 a j s F { d.i.{ ,.&XPXLX0XeXAXI.8.8 > z k k j F 1 s a 7 z d a Z s p - a a 1 z s j A P c 8 Z T F > : A c r >  .wXPXU.1XDXPXLX{.>XeX{.bXFXZX<XD.U.k.a.L.1XK.&.! <.k.k.k.a.,.<.<.} _ U Y _ P { i.n.i.I.^.:X7X].jXeX.X2XG.H.3Xs.6XtXZXPXGXPXbXqX*XzX9X>XUX/.y.o.>.6.......j 2 k 5 r O a _ T U.P.*XwX'.kXvXwXDXjX~.Y -   7 . $ 8 . k 4 4 7 7 7 , 7 4 4 > - 4 > 1 5 5 7 5 7 5 4 4 , > 7 4 7 4 1 > 4 , 4 > > , , , 4 4 4 > 4 4 > 1 , 2 5 , , > , , 2 , , , , , > > 2 5 , , , , , , , , 4 1 > , 4 1 , , 1 , , , > , , 7 , , , , , 1 , > 1 , > > 2 $ . O . O > , 5 2 , , > > , > , , , , , > > , > , > , , > > , > > , > > > > > , > > 1 : > > > , > > > % 4 , , 4 4 4 4 * , > > , % , 4 - > > 4 > > > > - > 4 - 4 > > > > , > > : , > > > > > , > > > > 4 - > - > - > 4 > 4 > 4 4 > > 4 , > $ > , , $ $ $ $ > $ : % $ % > > > > > > % > O $ $ > > > > > > $ % $ : > , , > > > > % $ > $ $ : % > % $ : $ O > $ > > $ $ $ . O O + + . - > + O + - . O -   + @     ",
"  >   o > o o O : $ $ : $ $ $ $ - : > - : > - > = : = = O - O = > - > : : - = = : = - : = - : - = - > = > - - - 1 > > 1 - - : > : > : : : : > : : : : : : , < , , , , 1 : : 2 2 j 1 a Z J ` 0.s.` 1.w.).PXfXFXFX_.d o x z a 2 - k a j j 2 k x , A c c I a - 2 k $ r K A r c &.3.4.;.r.! F R e.cXvX`.SXIXHXIX&XZXLX(.GXLXLXPXIXnX.X~.e.1 2 F.eXUX2.2.e.r.%.%.{ Y { J Z ' { w.m.B.d.i.W.*XUX{.0XUX*X XW.E E.dXAX<XLXPXZXKX&X'.wXAX>X:X:XA.y.o.o.r.| ..I i r k , r = z z Z .XAX7XjXL.pXDX.XdXIXU.F.R   k k   8 9 O 5 2 7 7 4 5 4 7 1 7 7 > 7 1 4 7 7 7 8 5 4 4 4 > 5 4 5 4 4 4 > > 4 7 4 7 5 8 5 5 > 0 7 5 2 , 2 8 , , > > , , , r , , 5 > , > 7 1 , , , , , , 1 , > , , , 1 > , , 4 1 , , , > , 1 1 , , > , > 1 > > , > , 5 > . $ . O : > , 1 > , > > > , 1 > , , , > > > > > > , , , > > > > > > , , > > > > > $ % > > > > > > : * > 4 % > > 4 % % > % , 4 % 4 4 > - 4 > - 4 4 > + - > + % > 4 4 > , > > > > > > > > > > > > > > 4 > > > > > 4 > > > > - q > > > , > $ $ > > $ O > > : % : > % > : > > $ $ $ : % > : > > > $ % $ > > $ $ : > , , > > > > > % : $ $ > $ % > $ $ % > > : % $ : $ $ > + + > + > > 4 O O - > . + >   + @     ",
"O s + O 7 . . O $ $ $ $ O O O O = O = = = = = O = O - O = = = = : > - - - : - = - > : - > - - : = = = = = > 1 : 1 1 > > > : - = : : : : > < < : : : : > 1 : 1 > 7 , 1 : : , 3 2 1 1 d G f J { 9.9.%.J i.FXPXLX]._ o 7 J 1 a F s a 1 j k , x F : r 2 k r o s P 1.a.} I <.p.H._.:XDXLXLXUXc.a.V.PXPX;XSXSXIXIX&XhXBX}.LXBXzXPXPXVXPXPX3XI..XAXPXFX,.1.e.g.9.{ { ) J J { { { q.n.Q.i.~.FXFXAX0X,XgXeX.X}.F.ZXPXPX3XGXPXKXmX).E.jX6XUX{.UXA.6...o.6.....I r j k 5 r > F Y 9.jXLXUXbX{.wXGX.X.XLX$.g.$.> a k > j 8 4 4 4 > , , , 1 4 8 5 4 , , 4 4 , 5 5 2 5 7 1 4 , 5 2 7 7 , > 4 > > 4 , > , 4 1 4 , 7 8 5 , , 8 8 > : > : 3 , 2 r , , , 5 4 , , , , , > , : , > 1 1 , > , , , > , , , , , > , > , 1 , , , > , > > , , > 1 8 : . $ O O $ $ : > > > > : : > % > > > , > > > > > > , , , > > : > > > 1 , 1 > > > $ $ > > > > > > > > > % % > * % % + % * % 4 > 4 % , > 4 > - > - > > O - > > > % > 4 > : > > , > , > > : > , , > > : > + 4 > 4 - 4 - % - + 4 > > + > , > $ O $ > $ $ > > > > > > > > : $ $ $ $ $ O $ > > : > $ $ $ $ : % > $ $ > > , > > $ % : % > % $ $ > : : > % : : % : % : $ O O - > > - + + + > O O > > . O > . + @     ",
"O s - O > o O O O O O O O $ O $ = = = O = O O O - = - = > O > = > = = = > = > - = > - > > = > = > - = > = = > - - > > < > > : > - : ; : - < > : 1 : : : : 1 1 1 1 1 : 1 2 2 2 3 1 d s s g J Z d 8.0.9.m.].1XK.; o 1 P H - a 7 1 5 4 8 j r j c j I j C $ r P.7XLXLXyX}.<XcXLXPXPXLXPXDXbXrXyX}.bXSX;XhXSXIXSX3XmXeX}.JXJXPXtXqXPXnXPXPXDXFXPXPXeX&.4.1.s.9.` { { { J ' { ;.i.m.B.I ~.LXFXFX,X:XeXeXeXZXPXPXdXZXeXkXSXbX{.j.E.KXZX{.{.%XA.6...@.5.@..._ j j r , r V - 1 k.LXPX1X9XDXPX3XDXqXaXu.V C 1   . 9 4 . 8 , 7 4 7 4 4 7 4 4 5 4 4 4 2 7 4 7 , 4 , , 7 7 , 7 , 4 , 4 1 4 4 - > - > - > > - > 4 7 4 > > , 8 : > : , > , 2 , 1 7 5 8 7 7 4 > > > > : > > > , 1 > , > > , > 1 , , , , , , > 1 > , > , > > : > , , > > 8 > . O . O > > > > % : , > > > > > > : , : > > > : > , , > > > > > > > > > , , > > : > > > : $ : $ > > % % * > > % % % % % , % 4 4 4 4 > > 4 - + > 4 > > > 4 > > > % , > > > , : > , > % : , > > , > > > q > 4 4 > % > % > > % > > > > > > > : > % > $ > $ : % % : > : > $ % $ $ $ $ $ > > $ $ $ $ : > > % : % : % > > $ $ > : > $ > : $ > > : > > : % O > O > $ O O O . O O + o . O . @ . > > . O - . + X     ",
"  9 - @ + @ O - O O $ O $ : $ : - = : - - : - > = > : - : - : - O = - > = > : > - - : = : - = > > = = = = > > > = - - > 1 - 1 1 : ; : - : : > : : 1 2 1 : 1 1 2 1 : : , r j r 2 d a 1 p s g s Z ` 9.%.n.V.i.a k a 1 o - F P i a a c a j A 8 > F k r I r o.lXGXLXGXGXPXLXJXGXDXnXBXPXBXqX<X2X<XGXPXhXxXSXPXIXwXuXpX~.cXJXHXnXPXcXGXeXLXPXDXPXDXH.` %.&.a.u._ Y J J Z ) { 1.i.m.m.6.{.kXLXJX>X0X>XeX1XLXAXhXPXPXkXvXkXdXH.D.:XKXfX-X{.UXA.6.@...>....._ c 8 , X 9 a 1 7 f.eXeXbXeXKXzX:XLXPXGXg.g Y , O V 8 , z % , > > 4 > 1 , > , , , 1 5 5 7 8 4 , 7 7 4 , 7 5 > > > , 7 5 7 7 4 , 4 4 > > > > - > , > = > > 1 > > > , , : , : , 5 5 8 8 0 > > 4 > > > : > > > > > > > > > > > , 4 1 > , > > > > > , , , > - O , , > > 2 : . O   O > 2 8 4 , , 4 2 , , , > , , , > > % : > > , > , > : > > > : > > , , , , , , , > > $ $ > > , * 4 % > * % % % % % * % , 4 % , 4 > + > + > > > 7 7 8 4 > , % > > , > : > > : > > > > , , : $ > > > - 4 - > > 4 4 - 4 - 4 > > > O $ > , > > : > % : % > $ % $ % , > > $ $ > > > % $ $ O O > > > % : > > > > $ % $ : % : % > > > > > % > > > > > $ $ $ O O O O . . O O O O O - > o o = + . O =   + @     ",
"o 9 - o o   = O = = = = O = = : = = = = - O = O > = = = - - O > - : - - - : > = = > = > > = > = = = = = = - = : 1 1 1 > > : : 1 1 1 : : > , , : > , , : : , 3 : : : 1 3 : : 1 2 2 a 8 a 8 a 8 8 1 Y 1.9.;._ k = Z Z k k a 8 s j k j z k s d s k s 1 Z x Z d.vXwXGXBXJXJXpXJXBXJXPXHXHXcXZXqXqXmXIXzXnXaXPXVXrXJXzXoXJXGXJXJXnXVXBXPXPXGXGXcX3.K <.&.,.a.f.r.! c T I T &.,.f.oX{.b.a.Z.yXlXkXlX^.=X;XAXPXAXAXPX&X:X:X].F.).eXlXjX{.^.^./.d.c | >...P ..c , 9 a 9 o 7 ;.6XwX1XvX'.I.}.ZXPXqX2X<.%.s.+ O 4 = @ s > 1 > , , , 1 , , , 7 1 , , , 1 , 8 7 4 , , > , , 4 2 4 1 4 2 4 1 , , > , , , 7 5 , > 1 > > > > > , , , > > > , , 8 7 , > > 4 0 8 , > > > > 4 > > % > > > , > > > 1 1 , > > , , 7 > > > > > > > > 2 8 > > , O   O O O > 2 > , 4 > , > > > > 1 > > , , > > > > 1 , > , > , 1 > > , , > > > , > > > > > > > > , , : , , % $ $ : > > > > > $ > $ > > > > > > > $ > > > : > > > > > : , > > , > , > , : > > > > > , > > > 4 > 4 > 4 7 > 4 > > 4 4 > > , > % > $ > $ $ $ $ $ > % > > : , > $ $ $ > > $ O O $ $ $ 1 , , 1 , > > > > % > $ > > % $ : > > $ > O % $ > > > % $ $ $ : > > , > > > - - > - > + > - O . > = o X @ .   ",
"4 z 7 + o o = o O O = = O O O : O = > O = : = = = - > O = : = = : - > : > : = > = - = = - = = O = O - = : = > - - > > 1 > = > : : : > : 3 > : 3 3 , , > 3 , , > 3 , : : : : : 2 8 2 2 8 j k d a 7 A K L A A A z a d k d s d k z k k z z s 8 s x A 1 s G K ,.7XnXGXBXJXBXBXcXVXIXrXGXPXGXtX;X2XPXPXtXnXGXPXJXjXJXpXU.GXBXGXGXzXcXPXrXJXPX_.*., ,.&.&.3.u.r.! c c I I ! ,.6.a.Z.Z.Z.Z.A.%XA./.gX>X%X!.hXPXAXKXkX&X:X].K.C.^.gXAXlX^./.^.U.t.x L >.I N T x 2 z s k 7 - ` PX2X'.'.rXg.s.dXPXrXAX9.%.|.s o 8 > 4 8 > , , , , , , 1 : , > , , , , , , 5 2 , , 1 > 1 , 1 , , , , , 1 , , > , > , , , 1 , , > , 1 , > > 2 , > > > > , , 4 4 > > > 4 1 5 4 4 , 1 4 > > 4 : > , , , , , > , , , > > 1 , > , > > > , > , : , , % : , $ . O O . > 5 1 , 2 > , > > > , , > > , , > : > > , , , > 1 , , > , , : > , , > > , , > > : > > > > , 1 > > > > > % : > > > : > > > > , > , > > > > : > , , > > > > , : > > : > > > > > , > : > > > > 4 > q > > 4 4 > 7 > 7 > > > 4 - , 1 : % : > > $ $ > % : : > > > , > $ % > > > : : $ $ % % > > , , , , , 1 > : % $ > > > : % $ % % : > : $ > : > > $ $ $ O > > , + O O . . . . . + > + O O - O   X .     ",
"7 z 1 - - = - o = O = O O O O : - = = = = O = : : - $ - : O = > > > : > - - : = : O O = - = = = = > = > - : - : = - 1 > > - = O : : : : : : > : : , 3 : 3 , 1 : 3 : : 3 3 3 : 1 2 , < 2 8 d 7 1 8 z A k 7 a a 7 5 8 8 k a k k k z z V Z Z a s A Z 7 s A A } ~.GXIXHXJXMXPXVXPXBXIXPXPXKXhXhXdXSXPX3XrXGXIXIXzXPXpXI.GXPXGXDXGXDXBXbXLXyX<.! *.&.&.3.r.r.&.c r c c K ..r.a.c./.A.6.c.{.yXA.:XgX:X).B.6XKXdXFX].%X>X~.J.K.~.:XAXAX^.Z.{.R.t.L x >...N I A s 7 1 7 V   <.dXIX X).PXLX:X1XPXLX6XR } DX&.  7 4 9 > > , > , , 1 , , 2 , 1 , , > , 1 , 1 , 1 > > > > > , > > , , > , , , , , > > 1 , , , 1 4 , , , , > , , > > 1 1 , 2 4 7 > > > > 4 > 7 7 5 5 1 4 7 > > , , , , , , , , , > > , > > , , , 1 > , 1 , , > , $ > , : O $ . O , 8 , , 5 : , > > 1 , , > > , > > > : > > , , , > , , , , , , > , > > , > > : > : > > > , > > : , , > > > $ % > $ > > > , > , , , : > > , , > , > > > , > , > > > , > : > > > , > , : , > > 4 > > > 4 - > 4 , 4 > 4 4 - - > > > > : > > > > $ > $ > % > > > , 1 > : > > > > > % % : : % > > , > 1 > > > : % $ $ > > > > : % > $ $ > : > > > : > > O : % > > > > > > > - > > O + O O . - O o . @     ",
"O 0 o @ - - - o O = O = O = O = O = = O = - O + - = = : - - = = > = - - = = - = - - = = O = = = - O = - = > - > O : > 1 : - $ $ : : > : : : 1 3 : , 1 : : 2 , : : : : : : : > 1 1 1 : 1 1 1 > = 2 j x k 7 1 > O 5 i a a 8 a j k A s s A Z a 8 z z K P K K ..~.PXnXnXIXrXGXPXaX<X3XbXGXDXAXhXhXvXrX<XUXqXzXnX2XIXzX(.PXPXGXnXJXPXPXBXGXXX2.g.c...,.,.,.<.,.! I c I I ..r.f.Z.UX{.N.b./.gX/.gX,X{.%XB.*XKXfXAXJ.).:X~.~.P.C.|.DXlX^.V.{.R.f.| c >...I I K a 1 - 7 7 - n.bXAXIX|.vXPXPXqXKXPXIX'.p.BXF.4 - 7 7 > 2 4 1 , , , > , , > > , > , , > , , > > > , , > , , , 1 , , , , > > , 1 > > , , , 2 4 2 4 1 , , , , , > > > > , , , > 4 4 4 > - > 1 5 5 5 4 > 4 7 1 , , , 1 , , , > > , , > , > , , , , , > > , , > > $ > 4 : O $ O $ > 2 > , 2 > , > > > , , > > > > > > > > > , > > > > , > > > > > > > > : , > % , , > > > > > > > > > > > > : : % > > , > > , , , > , > > > > , > > , > , > > > > > > > > > > > > > > > > > : > - > 4 > > 4 > 4 1 4 > > > > - > > $ > > > > > $ $ $ > : > % : > > % > : > > > % : % : $ > : > O $ $ $ $ % > > O $ , 1 > > $ $ > O > $ O > $ > > > % : % O $ : O + O O . . O O - O + . O O O @ .       ",
"o -   o - o - O = = = = = O = : = = = = - O = = = > : = : > = = = = O - = = = = > = = = = - : > : = : : : > : : > > : 1 : - > 1 $ : > 3 : > , , : , , , : , , 3 : 3 : : : : 1 < 2 7 j 2 1 1 1 1 7 2 2 2 1 1 2 2 1 2 7 a a a j j G s 8 Z J z 9 k 7 G K K G T n.bXLXGXPXIXPXPX_.P.u.D.).;XIXZXAX&X(.rX<X3XrX2X XJX3XI.VXPXzX2XrXzXPXJXBX}.V.c.k.3.,.,.,.,.,.&.I c T ! ..r.a.F.%X%XZ.r.f.UXA.kX>X/.%XB.W.KXdXvXQ.).'.~.~.J.b.:XFXlX].V.%XW.b.o.c #.| n H x 7 a 7 s   s 8XPXwXwX X1XLXKXbXPXhXKXPXD.<XpX} O 5 - 4 5 2 , , , 1 > , , 7 , 4 2 4 , , 4 , 1 , > , , , > , , , 4 1 > , , 7 , , > > , , , , , , > , , , , 7 , > > > , , , > 4 > 4 4 > > > 4 4 7 4 > > > 7 > , > , , > > > > 1 > , > 1 1 , : > > > > > > > 1 , > > 2 % . O   O > 2 , , , > 1 , > > > > > > > > > : : > > > 1 > , > , > : , > , > > , > > > > > > , > > , > > > > : > > 1 > $ $ > > , 3 > , , > > > > > : , > > , > > , , > > : > % > : > : > > , : > > > , - > > 4 - > > 4 4 4 4 > % + - + > $ O O % > > > > $ > > : > > > $ > : % : % $ $ $ > $ $ > > > , $ O $ $ : > > > $ $ > , > : $ $ > O : $ : $ > $ % $ > O : $ $ > + + O O . O O . > - O O O O O O   @     ",
"o - o o - o O O = = = O O = = : O = = = O : = = = O - - - O > = = O = = = = > - > > > = - : - > : > - : : > > > : > > : : - 1 > : : > 3 > : , 2 : 1 3 : : , 1 : : : : 3 , 3 1 : : 2 8 8 1 1 7 a a 8 2 2 2 2 8 a : 1 8 2 8 j j k z a 8 z S S A z 2 9 z P K S ;.*XKXZXZXPXSX8Xa.w.1.1.i.H.IXHXSX!.G.JXtXqXnX.X;XPX`.F.cXGXdX}.}. XUXjXyXG.V.c.p.3.,.3.2.,...! I r A T &.a.f.Z.{.].b...Z.0X/.kX>X-X).d.m.SXlXvX).W.{.~.~.V.V.>XLXjX^.f.^.R.b. .j  ...n Z k 1 8 7 s o Y 8X1XIXE.).vXKX3XdXPXKXPXvXU.|.PXk.O 0 - 5 7 4 2 , > , > , , , 2 1 4 2 5 2 4 > > , , , , , > , , > 1 , , , , , > > , > > > > > > > , > 1 > , , , 1 > > > , , 4 > 7 > 7 > 4 > , > > > 4 4 4 > , > > > : > > > > , , , , , > , > > > > > > > > > , > > , $   O O   > , > > , % > , > > , 1 > > > : > > > > > > > > > > > > , > > : : > % > : > , > > : % , $ > , > > > % > , , : > > , , , > > , > > > > % > > : > > > > > > > > > > , > : > , > > > > > : > > + > > + > 4 > 4 - > > - > 4 > > > % $ $ $ : O $ > $ O > $ > > % $ % $ > % $ O $ $ O O > % > > , > , > > > % : $ $ : > > > > : % > $ % $ O $ O $ $ $ $ $ > % % : - > > - > > - - - X . % > O . O @       ",
"@ - o = - o o O = = = = = O = : > O = O = = O O - : = = O > = = O = = = > > , > - - = = O = : > : : : > > : 1 : : ; : > : : : : $ : 3 , : : , 2 : , 2 : : 3 1 : 3 : : 3 3 2 1 : = : 1 1 1 1 , 2 a 7 a a j 2 1 1 1 2 2 2 i r j x k Z Z Z A G F Z A Z A _ } } } D.dXPXKXIXAX`.n.i.3.s.n.P.SXvXSX*XH.DX X9XLX.XqXnX~.L.jXnXmX_.).'.I.~.L.c.U.p.<.8.&.3.3.&.! ! I r c T >.f.c.R.:X^.Z.6./.gXZ.:X%XUX^.e.b.AXAXAX'.J._.].^.D.V.>XFXeX].m.W.R.m.@.c / ..I P k 1 a 1 q - 2.J.|.KX3X!.LXIXPX6XU.&XLXdX}.9XPXL.. > 7 5 5 7 1 > , > , , 2 , , , 1 , , , 1 , > , , , > > - > > > > > > > > , > , > > 1 > > > > > , > , 1 , , > > > > > , , > 4 1 4 > , 4 1 1 > - > 5 8 7 > > > > > > $ > > , > 1 , , , > > > : , > > , 1 > > , > > 8 :   O O . $ r > , , > > > > > , > , > > > : > > > > : > > > > : > > > > > > > : > $ > > > , > > : > > > > > > > , , , > > 1 > , , > > , > > > : > > > > > > > : > > > > > > , > , > > , > > , > , > > > 4 - 4 - % > - % > > 4 - > 4 > > : > O $ % $ O $ $ : $ > > > > $ % > > : O O $ % $ > $ : > > > , , 1 > > > $ $ $ $ > > > > % > : % + : % O O > O $ $ % $ > O $ + . @ O . . . . > O O O = . . O X X     ",
"o 7 O - - o o - O O = O O O O = = = = - - = : - - = = > = = - = = = = - > 1 1 1 : = = O O = - = > = > : : 1 : : . = - > > : : = O : > : : : 3 , : 2 , : > , , : , : 3 2 2 2 2 : 1 1 > 1 1 > > > 2 , : : , : 1 2 2 j 8 i 8 2 8 j k K P J Z F S z C J Z S Y ,.I ;.H.vX;X_.!.9.m.1.;.i.s.].IXIXFX[.).rXH. XPX|.bXwX`.E.rXvXbX'.E.|.].UX}.~.UXV.a.r.,.3.,.......T r I ..3.k.c./.UX{.c.>.{.yXZ./.-X>X*Xd.B.KXFXLX'.n.R.].'.J.V.:XFXlX%XC.W.R.V.+.n | _ I P d 1 s 7 1 D ;._.eXIX9XdX.Xs. X6XdXLXKXhXI.bXDXP.  o 8 , , 4 , , > > 1 , , , > > , , , > > , 1 , , > > : = : % > : > > % > 1 , > > > > 1 > > > , > , , , , 4 , 1 > > > 1 , 7 > 4 > 7 4 7 5 4 - O > 5 8 7 > , , > > : > > > > > , 5 1 , > > , 1 , , , > > , > , % 1 , $ . O   . > , > > , : , , > : , , , > % > > > > > > > > > > > > , > > > $ > > > > > : , , > > > , $ > : > > , , , > > > > , , , , > $ > > : % $ $ $ % > : : > > : % : , > , : > > , > > > > : > > > : - % % > > 4 4 > - + % - 4 > > 4 , > > : $ > $ $ $ > % > $ > > : $ > > 1 > $ % : > > > : % $ $ : > > $ % : % $ > $ > > > $ $ $ > > > $ $ $ $ : O O O O : : % > > > > > - % - > > - . o O O . o . @ . .   ",
"o o - -   - - O = = = = = = O O = O = = O $ - : : - = = > = = = > - > > = = > > ; : : > > : = > O O : : $ : : : $ $ $ $ $ $ : : $ $ $ : $ $ : : , : 1 : , : : , 3 : 3 : 3 , , 2 2 : O : 5 1 > 1 1 : : : 2 2 1 < 8 8 2 2 2 8 8 2 k z Y T G P P k F A z s Y _ 2.1.2.3.&.4.} T 9.*.b.b.9.[.KXIXvX|.).&X).}.LX&XwXdX[.H.wXKX;X*X!.E.U.~.L.~.~.U.8.3.....&.&.! I ! I } } ,.d.V.I.:XR.8.:.%X>XM.{.R.>X*Xb.r.jXFXLX{.m.K.K.].V.K.:XlXlX>XQ.J.Z.m.| 2 o.| ..F : j 7 s O - G 6XPXwXrXZXzX!.1XbXLXZXvX2XP.bXPXpXF . > 8 5 , , 1 > 1 , , > > , > , , , , > 4 , > > > > , , 2 4 , , 2 4 4 2 > , 4 1 > > , , , 1 > > 1 > , > , , 1 > > , , 1 > > > , , 7 4 4 4 4 7 > 4 > 4 > : > > , 1 > > : > , , , > > > , > $ : > , > > , , : > , , > O O . . : 8 , , , > > , > : % > > , : , > $ $ , , > , , > > > 1 , 8 $ $ , r > > : > > > > > , : > : > , > , , > > > > % $ $ $ $ > > > : % > : > , : $ > > , , > > : $ > $ > > > > % > > > > > , , , > 4 > 4 4 > > + + > 4 > + + > > > > $ : > > > : O > $ > > $ $ $ > $ : $ % : % > : % % % : > > > > > > $ > $ $ $ $ > > > $ $ : > % $ O O > > $ $ > > > > > > , > 7 4 , > - > - - + O . . O O = @ @       ",
"  o - + o - - O O o O O = = : = = = O = = - = = O > > = = O - O = = = = = O = - > > - - - - > = : : $ : : $ : : : $ $ $ $ : : : $ : $ $ : : : : > 3 3 : : , 2 : : , 1 : 3 : 1 2 7 1 : 1 1 1 2 7 8 2 , 1 2 8 a 8 j a j 2 a j j z d s K _ K Y T C Z G Z k T K }  .E e.r.<.9.k.n.;.g { i.8XIXSXfX*X'.2X6XrXPX&X3XdXP.n.;XKX;X*X].!.'.L.n.S.c.V.p.a...! ..&.I c c c T _ &.e.C.~.:X~.8.>.*X>XM.=X^.%X1Xd._ AXLXFX*Xn.P.K.^.K./.{.,XgX*XK.C.m.f.| 2 | | T P 8 j > 1   G dXPXzXLX6X6XLXPXrXZXKXPXPX9XdXbXLXLXF.  > 7 , , , > > > , , 1 > , 1 , , 1 > , > , > 1 , , , , , , 2 4 , , , 2 > , 2 > > > , , , , , > , , , 1 , , > > , > , , 7 4 4 7 4 4 > > 5 5 > 4 4 1 > 4 > > > , > > > > : > > , > > > , , > > , , > 1 , > > > , , > O O O . > 8 , > , 1 1 , > > > , > > > > , % : , , > , , > > > , , , $ > 5 , > $ > > > > , > , > > > : > > > > , > > , > > % > > % : $ > > > > > > > > > > > > , > > : > , % : > $ , > , , : > > , , 4 4 > 4 + > > - + > > - - % - > > > $ $ > > > % : $ % : > $ > $ > $ % $ O > : $ $ > : > % > % > > % : > $ > > $ $ $ > > $ O $ > > : > $ > : > + $ $ > : > : % $ % - + . . . . . + O . . O O O @ X       ",
"o - - - - - - o O O o = O : : : O = = O = > : + > > = - = > = = O = = = = O = - > > : > > - > > > : : 1 : $ $ O : : : $ $ $ $ O : : : : : : : : : : : , , : : , : 3 : 1 3 , : 1 a 2 1 1 1 1 a a a 2 1 > 2 8 j 8 j a 2 2 2 j k z 8 k K T K T _ Y z K z z &.K ` -.,.,.K 8.}.AXFXfXP.B.e.-XkXAXgX|.{.*X1XAXLX6X*X0X%XB.;XvX*X!.E.!.K.D.~.*XH.f.u.,.! I ..! I y y c I &.a.V.{.{.:X/.d. .%XkXR.{.^.:X^.f.,.lXAXFXdXn.P.{.UXb.V.%XgX%X].Q.C.C.f.X.c ) P I P c a q 7 o 6XIX<.*.LXhXE.PXk.%.wXnXGXPXwX XbXDXPXbX- O > + , , 1 , , 2 1 , 7 , 4 , > 1 , , > , > , , , > 1 , 7 5 1 2 4 1 4 > , , , 1 > , , , , , , > 1 1 4 , : > > > > > > > 7 7 , 7 , > 4 1 , 4 , 7 4 7 > > > > , , , > > > > > > : > > > , > > , , 1 > , > > , 2 2 > . . O . % 5 , > , > > , , , , , 1 > > > , % > , , > 2 , , 1 > , > , $ > , , > > > > : > > > > > , > > > > , > > > > , , , , > > > $ : > : > > > > % > > > , > > : % > > > > % : : > > > > > > > , > 4 > - % - > > 4 - > > 4 > - % 4 > $ $ $ $ > $ $ % : > % $ > $ > : : % $ O $ % > $ $ > % : > > > O $ $ > > > > > $ $ > $ $ O $ % : % $ % > $ % $ $ $ O O O O O $ > > + + O . O O - O . O o O O + X X     ",
"= 7 - - O o O o = = = O = O O = O = = O = = - = = = = = = = O > = = : - O = = = - - - : - : : = : : : : : : : : : : : : : $ : $ : : : > : : > : : , , : : 1 3 : : : 3 3 1 : 2 : : 1 > 1 > 1 7 8 2 2 1 1 2 2 i 2 j j 8 5 2 8 a j s z K Y K P T R K ` G S -.K T 1.! p.3.,.P.KXPXbXIXvX;XlXvXvXdX7X1X).*XvXZXvX|.1X0X).0XfX!.J.D.W.K.J.{.pXK.a.r...I ! ! ..c c c c K &.s.V._.].`.K.r.-.:XlXJ.^.].>XW.6.0.FXFXfX7XW.~.`.^.c.V.A.UX%XQ.M.Z.K.f.| c / | x I j 1 7 a 7 ZX9.s U.mXAX'.IXdX(.PXbXfXIXdX&XPXjXPXPX$.. 7 O 8 > > , , , > , 1 , 1 , , , 4 , > , 1 7 , , > > 1 , , > , , , , , > , > , , > , > > > > > > , , , > > > > > > , > 4 4 > 4 > 4 > 4 , > 7 > > > 4 > , > > > > > > > > , > > : > > , > > , , > > , , 1 , 8 4 $     $ O > 2 > - , , , , 1 , , > > $ : > > 1 , , > > , , , , > > > > : , > > $ $ > , > , : > > > > $ : > > > > : > : > 1 > 1 , > > $ > > , > , > : , : , : > , > , > % > : > , > > > > > > : > , > , > - > > > 4 > 4 % > + > + + + > > % $ $ $ > : % % % $ > > : $ > % % : % > $ > $ > $ $ : % > > : $ $ $ % : $ > > O $ $ $ : $ % : % > $ : $ > : $ $ O $ $ O $ $ O > > > - > - + > - O O . O O O O X X @   ",
"4 s = O -   o o = = O = O = O = = = O = = - = = - : = = = = - O O = > - : O = : : : - : - > = > $ : : : : $ : : $ : : $ : : : : : : : : : , : > : : > : : , : 3 : : 3 , : 1 > : : > 1 1 1 1 1 1 1 2 7 a 7 8 7 a j a s a s a j s s Z F P P S K ..K } T R i.;.3.h.r.F.V.k.I.DXAX1X8XZXSXKX0XwX0X1XdX].*XZXdXkX=X6X;X].fXAXW.n.B.B.W.n.W.0XK.f.a.! ! ! &.! I r C I } 8.c.k.E.).].].>.8.7X{.t.{.>X%X/. .r.FXKXAX*XB.K.~.].Z.Z.K.{./.m.N.m.K.t.n j / ..n x 7 = - @ 1 {._.G.i.U.6X&XvXLXrXKXeXPXLX'.I.PXjXPXLXL.. 5 > 8 1 : , , 1 1 , 4 , , > 1 > , , > , , , , 1 , > 1 4 , , > , 1 4 > , > , 1 > , , > > > % > > > > > > > > > > > > > 4 > > > > - 4 > 4 4 > > > > 4 , > > > > > > , : > > > > > > > , : % , > > : > > > , 8 2 $ .   O O : 2 > : , > > > > , , > : % % % > , > > : $ > > > > > , > > > > > > : > > , > > , , > > > : > : > > > : > $ $ > > , 1 > > > > > , > > > > > > > > > > , > > > > : > % > > > > > : > > > 1 , - > 4 4 , > - - > % > > + + > > > > % $ : > > % : : > > > > $ $ > O : $ $ O > : : % % % % : > > > > $ % > $ $ : $ $ $ > > > > > > O $ O : > $ > $ % $ > $ : % : > > + > O + O > + O O O O O O O @ X     ",
"o z o o -   > ; O = O = : : = : = O O - O = > = = O - = - : : > = = > 1 > > - - - = = = : - = : : : $ : : 3 : 3 : : $ : : : : : : : : : : , 3 : : : : : , : : > 1 3 : 3 < : < : : 1 , 1 2 2 1 > > 1 2 7 a 2 2 2 1 7 8 d j j s a Z Z A K T A P $...,.<.8.V.g.V.V.v.r.*.a.D.AXPXDXSXIXKXAX1XdXAXwXfXK.E.gX0XvX7X;X*X!.hXfXB.m.M.B.n.m.H.0X~.a.,.I ....&...c , r y I &.c.V.J.K.~.].8.d.%XW.t./.%X%X~.6.C.AXFXPX*XB.V._.^.k.f.Z.%XA.m.d.N.C.6.< i ( | I F a 1 a o s n.<Xk.%.vXzX6X8XmXeXeX;XKXDX.XG.LXkXPXDX9X  O > 5 > $ , , > > 2 2 , , > > > , , > > , 1 , > , > > , , , , , , > 1 , > > , , > > > > : > $ > : > > > > > > > > > 4 > 7 4 4 > > - - > - > > 4 4 > , > 1 > > 1 1 > > , , , > > 1 > > > > 1 , > > > $ $ > , 4 : O . O . > 8 > > , > > > > > > > > > 1 : > , , > % 1 : > > > , , , 1 , , > : > > > > > > > > , > , > > > > > > > > > $ % $ : > > , , > > > > > > , > , > > : : > > > > % > % > : $ > > > % > > > > > + > > 4 4 4 > + 4 > - % - % - 4 > : : > > > > > > % % > > > > $ : > % > $ > $ > % : : > > > % > > : > $ $ O O O > $ $ $ > > > > > $ : % % $ > O > : $ > % 1 > > - > + + - + + O - + O + % O O X X X     ",
"o k o o 1 o - - . O O = = : : : O = = = = > > = = O = > = - - > = = : > - = = = = - - = O : : $ : : $ : : : : : : : : : : : : : : : : : : : , : : : : 1 : 2 , : : : 3 3 : : : 1 , 2 1 1 2 7 1 - - > 1 7 1 1 7 1 7 1 7 8 8 s s z x Z k J T P I ;.a.f.f.a.k.8.r.<.E S I A > _.KXvXkXGXPXAX{.*X7X;X*Xh.D.&X7XdXfX*X*X).kX0XB.N.b.m.b.B.J.&XI.,.! ..I I ..! r r c c _ 2.]._.).].*X*Xm.m.>X>XK.K.R.>X:X6.b.FXPXhX).H.I.K.V.Z.V.b.W.R.M.N.f.m.6.1 j n P I F a 7 g o { PXL.s.6XPX'.&XrX'.).vXvXdXPXZX'.BXbXDXDXZX>   > 5 : O , , : > , , > > > > > , 1 1 , , > > , > , , > > , > , 1 , 1 , > , 1 , , > > > > > > > > > 1 > > > , > , 1 7 1 7 , , > > > 4 > , > , 4 4 1 , , 1 , , > , , > , , , , > 1 5 , > > , 1 > % > > $ $ > , > O . O . : 8 , 1 , , > : > > > 1 , , 8 , , 2 , : > , > 1 , , , , , > : > > > > > > > : > > > > > > > , > , > > , > > > > > > > 1 > , > , , > , : > > , > > > > > , > : , : , > > , $ > % % : $ > > > > , > > > > - > + > > - - + > 4 > > > $ > > > : % > > > > : > % > $ $ O + : % > % % % % : > > : > : O : O > $ $ $ O O $ > > > $ : % $ $ > : $ $ $ $ $ : > > > , > + > + + > > - > + + O + O O   X .     ",
"o V o @ 7   O o = = = O O O O O = O = O = = O - = : O - : : - = O = - - > = = O > = : : : : : $ : 3 3 : : : : $ : : : : : : : $ $ : $ : : : : : $ $ : : : : : , 3 , : : : : : > 2 2 1 : 1 7 7 = 1 7 7 7 7 7 0 a k s a s d k k k Z Z s A } T _ 3.3.8.,...*.! &.T $.r ! a.! |.IXDX9XeXAXAX{.*X1X7XE.b.W.wX=X7XdX*X%X).AXfXB.s.i.i.0.s.d.].~.6.! ! c I ! ! I c I ..;.e.UX.X~.~.|.=Xn.~.KXFX].A.R.>X:Xd.0.7XIXAX%Xd.K.I.K.c.Z.Z.R.b.d.d.b.J.6.i i < I / n < - i o 1.ZXH.k..X|.9X&XAX&X_.ZXIXvXbX2X9XDXGXeXPXKXS o 8 5 : $ , , $ O , , 1 > O > > > > , , > > > , 4 1 1 4 1 1 1 > > , , , > > , , , > , , > 1 > , , , , , , > 1 , , , 5 5 7 4 7 7 4 > 4 4 , 7 4 7 1 0 , , > > > > , 4 , , 2 , > , , , , , > , > > > , , > > 1 > $ . . . . $ r , , , > , > > > > , 2 8 8 , , 4 , > > 8 , 5 4 2 , , > , > > > > , , > : : , > > , > > > : > > , , > > 1 , , > > > > , , , , > > , > > : , , > $ $ > > , > $ > > % : > > : > > > $ > > 1 0 7 4 - + + 4 4 - > > + + + > > > $ $ $ $ $ > % : : > > > > > : > % > $ $ $ % : : % : : % > > > O O O % $ $ > > : O O $ : > > $ > $ > O > % > $ O O $ O O > > > > + - O O + O + + > O $ + + O X X X .   ",
"o J 7   + o o o O O $ O $ $ O $ . $ $ . $ $ $ $ $ $ $ $ = : - : - = ; = = = = = ; = = = ; : ; : : : : : 3 $ $ : : : : : : $ $ : : : : : : : : & : $ $ : : : , : 3 , 1 1 : 2 1 : 2 2 1 1 1 , 1 : 1 5 1 > > 7 7 7 7 7 4 - 8 k z s s S s V  .) >.f.>.o.3.6.f.F.V.~.5XyX_.uXIXPXnXPXIX1X{.~.W.^.^.%XK.Z.*X7X*XeXdX1X|.[.vXKX!.s.f.s.:.-.` w.0.{ f ` J Z ' Y k P L K } e.W.K.H.L..X].k.J.LXlXV.d.R.{.>XV.| :XFXPXeXm.P.].Q.e.d.C.A.N.y.0.t.f.@.3 1 z ) F z a a o ; h.&XeX*XY.&XhXfXSXfX;XAXKXKXSX6X0XdXvX6XbXLXG.$ > 8 $ 2 > $ 8 , 2 > 1 > , , > > > 5 , , , , > > = 1 1 1 7 1 1 1 > > 1 7 1 , , , 5 1 , > > > , , 2 8 8 1 , > 1 4 5 > , , 1 % > > , , , , , , , 1 > > > > : > : > > , , > > > : > > , , , , > , > > , > 2 > , ,   . O O : 5 , : 2 4 , > > > > , > , > > % & , , % , > & , , $ % % % $ $ > > > : > > > > , > > > > > , , 1 , > O > > > > > > > > : > > > > > > > % > > $ > > , > > > > > > > % > > > : > : > > : > > > > > > : > > , : % > $ > > $ $ > : $ O > > : % > > > % $ > : % % > : % > : % > O : : % $ : % : > > > > > > > > : > > $ $ O : % O O $ : % $ : $ > O O O $ O O O + O o O + > > . O + + = O O O o O .     ",
"o G s o O = O O O O O $ O $ $ . $ . . $ $ $ $ $ $ $ : $ - = = - - > - = = = = ; : ; : : : : : : : : : : : : : : : : : : $ 3 : : : : > : : : : : : : $ : : : : , , : : 1 , : 1 2 : 1 : 1 1 : 1 , > 7 7 7 7 s k d 7 k z Z Z J z 9 U Y s ,.-.d V.M.o.8.Z.K.*XeXpXLXBXGXcXPXnXHXnXPXZXfXeX{.K.Z.Q.%XR.K.%X{.W. XeXrX2X[.eXzX).J.E.f.1.,._ 0.b.i.J s J d P J z F J _ ,.e.K.E.L.J.'.7Xf.s.lX0Xs.t.C.,X>Xt.o.gXAXKXAXP.!.'.B.d.M.A.C.t.6.6.d.f.>.l d H ..P F F n o o 0.W.;X;X'.6X0X*X8XhXhXdXKXKXKXAX8X;XPXbXwXG.A . r 2 $ 5 > $ 2 > > , , , , > , , > , 1 > 1 , , 1 > > > 1 1 7 1 1 1 > 1 , , , > , , > > > 1 > , , , 2 , , , , > , 2 , > , > > > > > 1 , , , , , > > , > > > > > > , , > 1 > > > > > 2 , , > , > , > , > 8 $ , ,   . O . > r > > , , 1 > , > > , > , > > , > : , , % : , : > % , , : > , > , > : , , > > > > : > > , > > , , , > % : > : > $ % > > > > : % : > : > > $ > > , > , , > > : > : : > > > > > > > > > > > > > > > > > > > > > > $ $ > $ $ > % $ % : % > $ > > $ : $ $ > % $ O $ $ O % $ O O $ O % O > $ % $ > $ $ : $ % > $ $ > % $ $ $ $ O O $ $ : O + $ $ $ % : $ O $ : > + . O - > = O O O O O O O O @ @ .     ",
"  Y k o o o O . O O O O & $ $ . . $ $ O $ $ $ $ $ $ > $ = : - - ; - - - = : ; = : : : : : < : : : : : : : : : : : : $ $ $ $ : : : : : : $ > : : : : : : : : : > 3 : : 1 1 2 1 : : 2 2 1 : : 2 2 7 8 7 7 7 5 0 1 Z z 8 > 1 s D G D Y z &.&.I m.r.o.Z.>XBXLXPXjXLXJXPXPXPXhXnXnXIXZXPXAXW.f.Q.^.=XR.R.:X:X*X1XwXdXdX}.wXhX&X&XdXh.J 9.:.i.s.:.Z J K d d F J b J :.,.d.D.).~.~.I. XD.D.kXAXb.d.C.fX>Xt.y.LXFXFXKX`.{.*XJ.M.J.J.M.b.O.>.t.d.>.l i F P J d a 1 o P {.&X0X;XJ ;XAXhX7X[.AX8X*XPXKX&XdXDXLXeX5 _.I.  O 5 O 8 , : , $ $ , , , , , 1 > > > > > > , 5 2 7 - 1 1 1 1 1 7 1 , , , > > > > > > > > , > , , , , , , , , , > 1 , 1 , > : > > , 1 , , 1 > , > > , > > > > > , > , 1 , > > > > > , , 1 > > , > 1 : > , > , 1   . O . : 8 > % , , : > , , , , > > > > , , , > % , > & , & & , $ , > , , > , > > , : > , , > > > > $ > > , , > = O > > > $ > : > 1 > : > > > $ : > : > : , > , : > > : % : > % > % > > > > > : : % : > > > : $ > > , > $ $ % > $ > > % $ $ % : : % > : : $ $ $ : $ $ O O : O : $ $ % O $ $ O : > : $ $ O $ O % O O O > $ $ O O O $ O $ O $ $ % : $ : : % O % : % : > + + + > > @ . O O O + O O O . @ .     ",
"  Y J   o O =   O O $ $ $ & $ $ $ $ $ $ & $ $ $ O % = : = = : = 1 1 ; < : ; : ; : ; : : < : 3 : : : : : : : : : : : 3 $ : 3 $ : > : : : : : : : , : : : , : : : : 1 1 : : : 1 : 2 j 7 2 : 1 1 2 5 a a 7 1 7 1 - 2 1 4 8 s k s a Y ` s o J 1.f.t.f.{.bXFXLXLX9XLXbXLXDXLXxXKXmXbXzXPXbXP.f.K.^.].W.^.>XkXbXbXdXrXzX XdXSXdXZXPX9.s ,._ 8.d.;.J s ' K z z P Z J >.d.V.m.D.L.).).UXL.'.kXLXJ.>.J.{.%Xb.b.FXLXKXFX|.W.[.J.e.b.N.N.t...O.r.t.:.j < b ) L F 1 - o &.dXPXwXJ.dXfXAX6XhX'.P.fX1X7XmX|.;XDXnXs.G.jXLXC   r : 8 2 > r > : > : > > > - $ $ > > > > , 2 4 1 1 ; - 1 1 7 1 2 > 1 , 1 > - : > > > , , , , > > > > , , , , > % > , , > > % > , > > > > > > > : 1 > > > > > > , , , > > > > , , , , > > > > > , 1 > , > > ,   O . . > 8 > : > > > > , , , > > > > > % % $ , & $ $ , : > , : > & $ : > , > > > , > > > > : > : , % : $ > > , > > , > > > $ > > > > > > > : , % > > > > > , > > > > > > % $ : > > $ > : > > > > > > > $ $ > > : > , > $ $ $ : > $ > : $ $ > > > $ O O % > > O O $ : > O % $ $ $ O : $ $ O % O % % $ O : O $ O : $ $ O > : : O $ O $ O $ > $ > O $ O + $ $ > $ % > > % - > - % O . @ O O . . O o . + .     ",
"o } K - o - > . . $ & $ $ $ . $ $ $ $ $ & $ $ $ > $ O > = = - : - > < - : : : - : O : : 3 $ 3 & : : : : : > > : , : : : : : : $ : : : : : : : : : , , : : : : : , 1 2 : 1 : : : j 2 2 1 1 2 1 1 1 a s 7 s s s s a 1 2 k Z Z k 7 0 k G } V.m.r.>.Z.eXFXFXbX0X~.GXjXPXPXKXLXLXmXLXdXZXLXkX*XK.m./.K.].gXlXLXFXzXvXvX XdXGXbXPXZX` Z } J &.9.%.Z z _ { G z J Z G ` t.V.m.V.K.'.|.9XP.{.KXFXJ.:.Z.R./.Z.r.%XDXLXKX0XB.].J.t.N.N.t.5.| >.8.e.,.d < H _ J f 8 i   a H.W.L.KX1XvXhX|.kXwXS.mXKX3XvX8X7XPXbXV.JXjXPX    j : 8 , $ 2 > > $ > > > > > % : , > > > , , , > 1 1 1 1 , 1 1 1 = > > > > > > 1 > > , , 1 > > : > > 1 , > , > > , , , 1 > > > > > > > > : > > > > > > > > > > > , , : > > , 1 , > > > > > > > , 1 > , $ , ,   O .   : 2 > > > > % > 1 , , > > : , & , % > , : , % , % , > > % > $ > > > : > > , : , > , > > > , , > $ > 1 , , , 1 > > > > > , , > > > % > > $ , > > , > > > : > > $ : % > $ : > > > > : % : > > > : > $ $ > : > , % $ $ $ > % > > > $ : $ > > $ $ $ : % > : $ O > % $ : > % $ > $ : $ $ O $ > > % $ > % % : $ > > > > > $ $ % > : $ > $ $ O $ O O O O $ O : % > - % > > > - O o O O O O O . o o @       ",
"- ` G O + - O o $ $ . $ & $ $ & & $ $ & $ $ > $ $ $ - = = > - = - : - > : - : ; $ $ : = $ $ $ : : : : : : : : : $ : : : : : $ 3 : : > : : $ : : : : : : : , > : 2 2 2 1 : 1 1 : 1 : : : 2 2 , 1 1 8 a 7 7 a a 7 A k 7 7 k z z z A 7 ` '.|.r.a.1.Z.BXLXbX>X*XL.lXgXAXfXeXKXPXIXPXbXGXPXPXLX1XJ.K.V.%XAXZXKXAXwXvXnX&XeXKXbXPX&XH T T J ..:.-.J Z J _ G V Z P %.,.9.h.J._.`.`.|.eXU.P.PXlXm.r.J.].K.~.r.K.LXLXkX<XJ.).W.m.M.J.M.' ) -.7.r.>.z < P L J s 1 1 o P {.W.=.&XdX[.8X!.KXvX'.wXLXvXdXbXmXjXs.|.GXjXk.O   r $ , : O , > > 1 , , , , > > > , , > , , , 1 - 1 7 ; 1 > > 1 - > : > > > > > , > > , > > > > > > > > > , > > > > > , > : > > 1 > , > > > > > > > > $ : : > : > > , > > > > > , > > > : > , : , > > , $ > , . O   . > 8 > $ > % > > , , , , > > : % % $ $ & % $ % , & : > > > % $ > > > : > > > > > > > > % > > 2 > $ $ > , , , > > > 1 > > > > > > : > > > > $ > > > , > > > > $ > % : > $ > $ : % > > > > % > > > $ > > % > > > > $ $ $ % : > > > % % > > > > O O O > $ % : % > > > > > > > > : $ O O $ : > > : > % : > $ > % > > > > > : $ > : % $ % : > > O : $ $ O $ $ $ O > > - % + + O . o O . + O O O @ @       ",
"o G s o o o . o . $ . $ & $ $ . $ O $ $ $ $ % > + % = : = O > : ; : - : : : O = $ : : : $ 3 : : : : : : : : : : $ 3 : : : : $ : : : : : > : : : : : : : : : , 3 1 : 2 1 1 2 2 1 = : : 1 2 1 2 2 1 7 7 1 1 1 7 - - 7 s J J k 9 a A Y n.bXlXk.d.:.{.LXeXW.~.yX%XJX>X~.R.~.*XvXPXKXbXZXzXfXKXFX).m.m.7XLXKXKXAX9XjXKX1X0XGXAXPXJ.s -.J k G $.d.P > s G Z J f K w.i.n.n.W.U.E.(.6XnXV.n.PXdX,.5.V.%XZ./.r.Z.LXLX0X^.J.K.J.m.b.M.N.) H ' >.0.6.d ; I P I x 1 1 q i.PXrXdXF.PXIX1X[.dXAX|.wXPX0X;XbXmXV.9.yX~.GXPXP   8 $ , > $ 2 , : , , , , , , > > , , > > , , > 1 > 1 1 ; 1 > > 1 > 1 , > > : > , , > > > : > : > > > > > > , 1 , , 1 , > > % > , , , , > > > > > , > : > > > , > > > > > > > > , > : > > > > > , > > , $ 1 ,   $ .   > 8 , : > : 1 > , , > > > > > : : , > > , $ : > > > > > > > > > > > > > > > % > , > > > > , 4 , $ $ > , > > > > , , , , > > $ , $ > > % > > > > > , > > > $ > : % % $ > $ > , % $ > > > , $ > > $ > : > > > > > $ $ > : % $ > > % : > > : > $ > $ $ % > > > : > : > : > : > % $ O O O $ $ > : % $ > % : > : : > > > $ $ > > % $ > : % : + $ > $ $ > > O $ : > + > - O O O O O O O O O O o O X .     ",
"o J 7 o - o . O . $ $ . $ $ & $ $ & $ % $ > : > : $ = - = - = - = = = : = = = O $ $ : : $ $ : 3 : : $ : : : : $ $ $ : : $ : : : $ > : : : : : $ : : : , 3 , : , : 1 : 1 2 8 2 2 $ 1 2 2 2 1 : 1 > 1 > - - 7 7 a - 1 7 s 8 8 z Y &.k.*X:XeX{.m.d.*XFX^.,.f.:XR.%X^.b.M.V.m.%XPXKXZXKXvXjXPXDX`.J.W.dXPXAXKXKXqXkXGX3X6XKXGXLXe.7 Z z } L Z 1.G z Z Z f Z 9 Z 9.0.s.m.U.L.(.:XnXzXk.D.KXKX&.' C.{.A.K.o.f.FXFX>XE.B.J.J.m.9.0.0.) F  .5.9.8.z = H K Z a 1 - o _ :XdXvXAX6XZX6X{.1X8XzXAXdXeX'.U.KXU.C ! yX{.K   O , $ 8 8 > 2 , , > > 1 , , > > > , 1 > 1 , , , > > ; > ; - 1 1 7 1 , , , > > % 1 , 1 > > % > > > > , 1 > > , 2 5 , , , > > > > > , , > > : > > , , > , > > > > , > , > > > > 1 , > > > > > > , , > > 1 $ > ,   $ . . > r , > > > > > > > > 1 > , > > > > % : > > > > , > : , 1 > : > , , > > , , > > > , : > : > > > O $ 1 , > $ $ > , , , , > : > $ , : > > > : > > 1 > , > > $ % $ $ $ $ $ $ > : > , $ > > : > > > > > > > > > > : > > > > $ $ > > $ % : > > > $ > > $ % : > > $ % $ % $ % % $ > $ $ O O O > > > O > % : % $ $ $ > > $ $ $ $ $ > > $ > > $ O $ > > > $ > : % % - + + + O . O + O + - O + O O @ @ .     ",
"@ J 7 o 7 - o + $ $ . . & . & $ & $ $ % $ & $ $ O O = = = = = = O O - = = O : : : : : : : : : : : : : : > : > : $ : : > > : > : : $ : : : : 3 > > : : : : 1 : : : : 1 2 2 2 1 1 1 < 2 8 2 1 2 j ; 1 a G s Z s d 7 ; 7 - 1 a d &.f.m.'.8XfX7X1X).lXAXB.:.N.B.B.=XZ.N.J.R.m.W.dXPXPXGXkXdXKXZXfXK.).kXKXfXjXbXeXpXFX:XyXjXBXFXs.8 C j  .T c 5 G s g _ g P g J ;.9.V.k.I.'..XqXqX Xu.h.PXFX .Q.W.~.C.J.y.r.AXLX0X^.m.Q.R.U.K.M.7.) F  .-.>.1.b o F G Y 7 - 1   a.fXvXAXdXLXzX6XqXeX X.XvXdX<XeX<XzXBX).. e &.S.} . e , > , , 1 : > > > , : > > : > > > > > > > > > a i 1 - 1 7 1 1 7 1 4 , 1 > , , : , > , > , > , , , > , , , 7 , , , 1 , , > , , > > > - - > > > $ > r , , > > > > , , , > > , , 8 2 , , > > > , > > , , > > O O . O : 2 4 , > , , , , , , r , > , , : > > > > > > > > 1 > 1 > > , > > , > > , > , , > > : > , , > > > , > > > $ , > > > : > > , : % , , , > $ $ $ > > , , > , > > > $ $ $ % > > , % > > > $ > : % > $ : > > > , > > > O $ O $ $ > > $ $ : > > $ $ $ $ $ : % $ : > $ > O % % : $ $ : : % : $ : % : > $ > $ : + > > $ $ % O $ $ > $ O O % % $ $ O > > > > $ : O O O > > O . O O . = O . o . O . o + .     ",
"o Z 4 o 4 = . > $ $ $ . . $ $ . $ $ $ $ O $ $ $ $ % = - = O = = O = - : : O = : : : : : : : : : > = > - = : = = : : : : : : : : : $ : : : : : > $ : 2 : : : : : 2 1 : : : 1 > : : = : : : $ : 8 J s a ` ' Y _ 9.,.;.;.} 9.V.f.s.{ B.fXZXZX6X1X*XAXSXB.] :.B.M.!.d.y.Q.^.C.J.1XLXFXGXzXeXAXbXZX|.].KXKXdXjXbXkXkXbXUXbXPXLXbX_ d P T 1.} P K Y 7 s q J J J ` { n.a.V.{.2X X<XrXvXg.<.ZX&XV R.^.m.J.J.5...kXLXgX{.e.K.K.V.f.r.:.l H .. .>.,.x = K Z L a s z O p.PXPXSXwXPXbX'.'.PX1XP.GXvX:X1XvX:XGXPXnX9XBXLXbX> O 8 r $ O 8 r $ , , > 1 > > > > 1 1 > , > , > 1 8 1 1 1 1 7 1 , 1 , 1 , , , , , , > , > > > , > , > , 1 1 , , 1 2 8 , , , , > > , 1 > > > , 1 , : , , , , > , 1 , > , > 1 , , > , , > > > : > > > , , , > : O . O O $ , , 1 > , , , > , , , > , % > > > > , , > > > > > > > > > > : > > > > > > , > > > , > > > $ > > , 1 , > 1 > > : > > > > , > > > > , > > > > > > : : > > > > > > % > : > > > > > : $ > > % > : > $ $ % : > % $ : $ > $ > $ > : $ $ $ > % > : % O > O > > O $ % : > : : % > : % % $ + > > $ O O O $ O % : > > $ > : : > $ % $ $ O O $ : $ $ $ O $ $ $ O $ O . O + O . - > O > O . o O O . . @ .     ",
"  z 1 o > O . > O O O . . . & $ % , $ $ O . $ $ : % > = = = = = O O : : $ $ $ $ : : $ $ : : $ $ = : : : : > : > $ : : > : > - $ $ : : : : : > : O : , , > $ : 2 1 : : = = : : > 1 : < 1 < 1 8 j - K K _ ' 9.8.w.D.).:X:X7X1XP.m.s.&XIXKXZXwXwXeX8XwXB.N.q.M.m.b.O.7.R.].J.h.E.bXLXLXvXeXvXAXLX7X].PXZXAXgXjXeXeXpX>XBXFXLX9Xs A A A ..j z } %.J G   q s { { { s.S.~.!.(.I.!.;X;Xn.p.bX~.d.1XK.d.t.M.r.X.lXFX7XK.d.~.n.e.f.d.r.i b ' } -.&.d - J Z J s z 7   1.DXvXPXrXhXrX}.~.jXZXzX&X2X}.pXtXrXLX8 &.LXPXPXPX,   O , 2 > : : > > > , , > > , > > , , > 1 , , > 1 7 1 1 1 1 1 1 1 > > > > > > , > > > > , > > > , , , , > , , > , 5 , 1 , > > > , , , , 1 > 1 , > , , , 1 > > , > , , 1 , , , , > > > > > : > > : > , , > : O   . O : , , > > 1 , 1 > > > , > > , : > > > ; 1 > > : > > 1 - > > > > , $ > , : > > > , > , > > > > > > > > , , , , > > : > > > > > % > > : > $ > > > $ $ O $ % % > > : > > : > > > > > , % > % : > > > $ $ $ $ $ O O % > > > % > > > $ $ > > > : $ $ > : $ $ $ > $ > % $ % $ > O % % : > % : O > O O $ $ > % $ > $ : > O % > > : $ O $ : > > > $ O O $ $ O $ $ $ . + - O O O - + O O . O O o . . X       ",
"o s - o 1 @ O - O . . $ $ $ & $ : $ & $ . $ $ $ $ O = : - = - - = $ O % $ : $ $ : $ $ : & : : $ = > = > : = : : $ $ > : > = : : : : $ : : : : : O : 3 , > 3 : , 1 > : : 1 2 2 2 2 2 8 2 2 8 j x a G z ` ,.9.0.B.J.~.{.|.~.m.s.D.&XAXKXfXZXdXwXhXfXfX].B.w.N.b.N.y.C.=X>XW.m.Q.AXLXLXvXfXAXAXPX7X*XIXAXvXwXDXyXgXpX9XeXgXLX XZ J c K &.K K R k 7 G n.s.@ @ 4.B.{ 1.'.6XqX2X2XVXmXU.(.PX&X0XKX].d.N.J.y.^ gXFXfXP.e.K.6.o.t.d.t.< z _  .o.' a - P K z a 7     G.DX6XzX<XzXBX<X`.rXrXLXtXeXPXqX|.:XLX} } bXLXDXjXr $ O : r 8 $ $ , 1 , > , , > , , 1 , > , > , 1 > 1 1 1 7 7 1 > 1 > 1 > > > > > > > , > 1 > , > 1 , , , , , > > , $ > $ > - > > 1 , , , , , , , , , > , > > > , , , > > > > , : > > > > > > > > > % > , , 1 : . . O . $ , , > > , > > : > > > , : 1 , > > 1 > > > 1 1 > > > > < 1 > > > > > : , > : > > , > > , > 2 , , > $ > > > , > > > > > > > : > : , , > > > > > > $ % $ : : > > > > > > > > > $ : % > : % > > > $ % $ : % % O $ : % > : : $ > : $ % $ > $ > > > > % > $ > % > O : > O > % : % : % $ $ $ > $ , , , > > : $ $ > % $ % : O $ % : > O % : > : O $ : $ > > > % $ - , 4 > + - + O - O O . O O .   X X     ",
"o s - + - . O > . . . . & $ $ $ & $ O O O O > > O O = : > - > - = O : % : > : $ : $ $ 3 & $ 3 $ : > = - = : - - = : > : - : - : $ : : : : : : , : : : : , 2 , : < > : 2 2 8 2 2 1 2 j 8 i r r k ) ' Z ` 8.h.m.].%X).W.].).J.P.*X;XfX8X;XSXSX8X8XSXlX7X=XB.N.N.q.d./.gX>XQ.m.J.3XvXKXfXfXkXfXLXfX;XAXSXSXeXLXyXkXjXyXeXkXLXD.K z K T ;.} T Y 0 ` dXPXPXmXl.- D l.;XPXPXPXPXnXPXSX X XPXvXLXLXlX0.d.B.0.^ :XFXAX^.r.V.o.o.r.8.r.z z P  .&._ 1 1 Z Y k a >   F bXPX}.rX2XrXqX<X<XpXbXbXnXLX3XE.<X2XbXPXPXKXLXLXPX} $ 8 8 $ > j e $ > , , , , , , > % > > > > > > 1 1 7 7 7 1 ; 1 > 1 > > : > > > > , > > > > , > > 4 1 , , > > > > $ $ % > > > > > , > > , , > , > , > > : > > 1 > > > > , > > > , , > , , , , 1 , $ > 1 , > $ . . O O $ > , > > , , > : % > , > > > 1 1 > : 1 > 1 > > > 1 - > - > > > > > > : > > > : > > , > > : , , 1 > : > > > > > > , > > > > > > > $ > > > > $ : % > > > > $ : $ % : : % > $ $ > > > $ % > : : % > : $ > > > > > : $ O % : > > $ $ $ : > % O : % > $ > : > : : : % > > O > % : % % : > : % $ , 1 > > > $ $ O $ > : O $ > O > > > : % % % O O > > > > : : $ O + , > - O O + . + + O O O + O o * + X   ",
"o a - - >   - O . $ & $ $ & $ . O O O $ $ $ : , O $ O > : > > : - : O $ $ > $ $ $ : $ $ 3 $ $ & : - - : > - > = = - - - : - > O : : $ : : : : : 3 $ $ : 2 2 : : 1 1 1 2 2 2 : : 2 a j 8 2 j c x Y ;.:.{ 0.J.W.).%X&X&XgX0X*X|.|.=X;X=X*XSXvXfXfX8X8X8XfX=XM.M.q.t.W.0X%XJ.s.h.W.1XdX6XeX7X{.FXlX=XhXSXAXUXpXyXpXbX:XfXLXfXT z Z F c K I K F Z P.PX6X2XPXnX;Xl.B.PXDXeXvXIXHXPXPX(.2XIXvXPXLXbX6.] M.N.] Z.7XAX>XV.V.&.3.d.d.r.z k L  .-._ a - s K k V 7   1.bX{.:XPXLXeX&X2X2X3XPXnX2XPXL.(.2XbX'._.PXLXUX9XU.K $ > : $ : 2 r $ , > > > 1 > , > > > > > , > > > 1 1 7 p 1 - > 1 > > > > > > > > > 1 , > , > > , , > > 1 > , > , , > , > > > > > > > > > > > > > , > > : > > 1 > > > > > > > > , , , 1 , , , > > > > > > > $ O . O . O > > : > , , > > $ : > > > > : - > > > ; > > 1 > < > 1 1 > , : $ , > , , % > > , > : > > > $ > % > > , , , > , , > > : : % > > > $ > $ : > $ & : , , , > > $ $ : % % $ $ $ : $ $ % > : > % > % $ > > > 1 , , > : O $ O % $ > $ $ O O $ > : : % $ > $ % % : $ % > O $ > : $ % : % % O > O > $ $ $ $ : $ > > > O > % $ $ > : > > : % : > $ O $ : $ $ O O O O o O + . . + > + + O + O + O O   * # X . ",
"o 7 - - O . > $ O O $ . $ . & . O O $ $ X $ > > : = = > : - $ $ : O $ $ > > : O : 3 $ $ & & $ $ = > > O - : - - = > - > > = : = : $ : : : , : : , 3 : : , 2 , : 2 2 1 1 1 : : : 2 j j 2 a c F I ` ' :.m.B.Q.H.*X6XAXfXdXfX1X:X*X[.=X[.).hXhXhXhXfX8X7X7X;XQ.-XJ.N.~.gX*XJ.b.n.K.{.>X|.7X:XR.7X>X!.8XhXAX(.Z.yXeXbX:XbXFXV.> V Z j 8 K } K s + H.SXdXhX8XuXPXDXJXdXdXGXIXmXmXHXmXk.3XPXqXLXLXAX6.+.B.M.{ o./.FXFXR.f.-.8.e.d.8.p d F ` -._ s 1 s G z z - O P.3XF.GXnX}.<XbXwXUXjXnXvXjXbXSXqX:X.Xk.U.LXLXF.L.S . > . X , , $ $ > > > > > > > , 1 > > , > > > > > 1 1 1 ; - ; 1 1 1 1 > > > > 1 1 , > > , > > 1 > > 1 > , > > 1 , , 1 , , , , 1 > : % > 1 > > > > , > : > > > > > 1 > > > , > > > , > > , , > > : > > > > > : : $ O O O > > > > , , > > : > , , > > 1 > 1 1 1 > 1 1 > 1 > 1 > 1 > : > > , > > > > > > > : : > > > O O $ : > , > , > , , > , > > $ $ > % > $ > > % $ $ : % : % : % $ $ % > > $ $ $ $ & $ : : $ $ > > : > : % > > > % : % > $ $ > % $ $ O $ % : % O % > % % > > $ > : % $ : > O $ > % : : $ $ $ > $ O O O O % $ > : > : $ $ $ > $ > $ O O $ $ $ > O $ $ $ $ $ $ O O o O + O + > > - + O O + + O .   % & X @ ",
"o - @ - $   > $ . O . & $ $ & $ $ $ & $ $ $ O = > > > > : = O O > O O > : > > $ $ $ $ $ $ 3 $ 3 : = > : = > : : = : = : > > - : : $ : : : : : : , , > : : : : , 2 2 1 : 1 1 2 1 8 a 2 1 2 k P T ' 8.f.D.B.].;X7X7X0X;X0XfX7X&X%X!.=X].W.;XhXhXhXhXfX8XfXlX=X7XQ.M.W.7X*Xm.d.m.P.~.].R.%X:XZ.*X~.B.fXvXSXZ.6.yXeX0X:XLXAX&.s H s F k P T Z 1 o W.;XdXwX6XqX:XIXLXKXIXPXmXrXPXPX4Xk.(.PXqX1XPXLX,.O.B.M.q.6.{.LXFXK.f.d.s.8.8.6.F 7 x ' -._ z 1 7 K k 7 o 5 AXBX9X<XP.k } 3XDX2XvXIXPX3X9X2XnX.XtXL.|.DXbX,.3.9X> > j c , : , 2 $ > : > > > > , > , > 1 , , , 1 7 1 7 1 1 - > , 1 , > > > > 1 > 1 : , > > , > > > > > > > , , > , % : $ % > 1 , , % > > 1 1 1 : - , > > - , , > > > > > > : > > > > > 1 , > > $ $ > > > > > > % > O . $ > > = > 4 2 , > % > > > , > > 1 > ; > 1 > - 1 - 1 - 1 - 1 , > > > > : , > > > > $ % $ > , $ $ % > > > > $ 1 : , , > > $ $ , : $ $ $ : > > > $ $ $ O $ $ $ $ $ > > > > : $ $ $ $ % % > $ > > > % $ $ $ $ $ O $ $ > > > : : > $ O $ : % % $ O : O : O $ $ O % % : % $ % : % : + > O > > % : % : > % : % > O % $ > $ + : $ > O O O $ : > > O $ % % $ > % : $ + > > + - > > > - - O O : O O o X X .   ",
"o > + - @   , O . O $ O $ $ $ $ $ $ $ $ $ $ $ : O $ $ $ $ O O O - = = = : > > : $ $ : $ : $ $ : : - : : - : : < - : : : : : : : : = : - : : : 1 1 1 1 : : 1 : : 2 : : , 2 2 7 j z x 7 J z g :.{ :.m.H.K.].*X;X8X=X8X8X7XfX=X[.!.=X8X[.B.[.8XSX8XdXhXfXAXhXfX*X_.J.P.UX:XV.f.V.M.B./.M.%X=Xn.^.Q.,XhXfXSXJ.f.wX:XW.{.BX0X..$ c 1 J P z J _ - a J.rXeX9X:XeXyXyXyX1XjXvXGXGXBXJXVX XpXLXyXbXDXGXr.] N.b.r.t.lXLX>Xa.N.r.y.c.N.>.c c c ......c r r x T - 1 G _.jXr.c :X:Xc.%XpXpXpXLXDXeXyXT.rXIX:X_.0XVXPXO ,.LX$.$ : , O   k : 1 : , : : 1 : 1 , 1 > 1 > - - - - 1 2 > 1 1 > 1 7 > - > 1 1 7 1 > , 1 1 , 1 > > > > 1 > 7 - 1 > 7 - > > , > > > = = > 1 1 > ; 1 7 - 1 1 7 1 > - > 1 1 > 1 , > > > > : > > : : , : 3 & , $ , % . , .   1 > $ , , , > > : > > , > > % % > > > 1 ; - 1 1 ; 1 1 1 1 1 > % : , % % & , : > , , % & > & $ : , > % $ : > 1 > , > 1 > % $ O O % > > $ $ > > $ > : % : : > 2 1 % : - 1 > > : > % $ $ $ $ $ O $ > > > $ % O : $ O : $ $ > O > % $ % $ % $ % $ O O > $ > $ > O $ $ O : $ > > $ $ % % : + $ O : > > $ $ > > > > > % > : % : % $ : > : $ % : % : % O O > > > > . > 7 > > , -   o . O O O . O . X X X . ",
"@ 7 - - + o - O . O O $ $ O $ $ O O $ $ $ O $ $ $ $ O $ O O $ $ = = O O : : = = $ $ $ $ : : : $ > : : ; : : : : : : : - - : < - < > : : > < : 1 : : O : 1 2 1 1 : 1 2 r 2 : : 2 = 1 s J Z f ' :.i.b.M.m.W.%X;X;X8X;X[.=X8X8X=X;X].[.=XQ.Q.=XhXfXwXjXdXhXhXhX1X;X.XUX9X3XR.V.C.m.Q.^.J.=X).d.J.Q.fXfX=XgXV.m.jX7X~._.bX>X.., F 2 s P P _  .s a 9.kX X:X:XeXbXUX>XeXbXnXDXGXBXCXBXcXJXPXpXLXDXGXr.{ B.K.,.e.AXLX~.3.Z.K.c.N.r.6.I c N ..@./ c h 3 Z F a o = V.jXeX3.eXLX^.UXlXpX>XL.7XjXPXjXrXPXnXI.{.7XLXg.  f.p.2   z > d   $ 2 1 : , , : 1 : > > 1 1 1 1 > > - , > > > > , > 1 1 1 1 1 1 1 ; 1 1 , 1 > > 1 1 - 1 > 1 > 1 > 1 > > > 1 1 > > > = - - > 1 1 1 1 1 1 7 i 1 7 1 1 1 > , > , , , > > > > : > & 3 3 & , 3 , $ , ,   & .   , 1 : , > , > > > > : , > , , , , 4 7 1 7 7 1 1 1 1 - > > > , % , & $ , $ : , & $ % : , % , : r r r , > , , % : % > > % > : O $ > > $ $ $ > > > % $ $ > % > , 1 = > > > > 1 > > % % % % $ & % $ : % $ > $ $ % > > % $ $ $ > > > : $ > : > O O % : O $ O : % : O O O O $ $ $ = % O : $ $ > O O > > $ O > > > > > : % $ O $ O : % O > > $ > $ $ > $ $ $ O : : . > 4 > + + O   . O = + O . O . X X . X ",
"  7 > O O o . o . O O O O $ O $ . O O O O O O : O O O O O $ $ $ - O = = > : : = : $ : : : : : : : : : : = : - : : : : < - : : - < : : : : < 1 1 1 : O = : 2 1 : $ 2 j j 5 : , k F s J Y ' { 1.i.{ t.J.~.E.).=XgX;X7X=X8X=X=XB.=XQ.].=X].B.^.hXhX:XwXeXjXdXdX6X8X9XqXpX7X*X]./.Z.^.Q.m.].^.N.m.B.fXSX8X;Xd.n.AX9X_.{.BXyX` 1 L s i J J P T a = 8 >XBX}.UXyXeXeX0XbXDXnXBXnXBXCXBXPXJXVXyXJXkXpXf.:.J.E...6.fXlXV.,.b.Z.Z.f.6.&.I c N ..../ c r h A z z = o 3.PXKXK.R.FXLX>X>XbXjX]._.3X2X_.g.1.rX.XS.DX{.e.c.,.,.: 2 a 1 : 2 : 1 : 2 , 1 > : > 1 1 > > , 1 q 1 q > > > : > - 1 > 1 1 7 1 1 ; - > 1 1 1 1 1 > > > > 1 > 1 > 1 > 1 , > > > > > = = : 1 > 1 ; ; 1 1 1 1 < 1 1 7 1 > 1 , , , > > > > > > > , : , : , & : r , 8 7   . .   > 1 % , > > > > > > > > > > % > > > 1 1 1 1 1 ; < - : - > > $ % % % : & % $ $ > & > , , $ : $ r k r $ % , > O $ O $ $ $ > > $ : > : : % $ > > : > $ % > $ > 1 > = - > > > > $ > $ % $ $ $ $ > : $ % $ $ > : > > > : > > $ > > $ O $ O > $ : > $ : $ $ $ : % O $ O O O O $ $ $ $ : O : $ > % $ > > O $ > > : > : $ % $ O O O % $ $ $ $ > O : > % : $ O $ O O O , 7 > + > > . + > - + O . O . + . X   ",
"  s > - - . . . O O . O O O O O . . O O O O O $ $ O . O O O $ $ - : O = = > > = O : : : : : : : < : : = = < : : - : : - : : : : : : - : - : : : 2 < : : 1 < 1 : > 2 7 2 , 2 c F J z _ ' ' :.{ d.W.J.Q.).].%X&X[.8XSXhXhXhX[.].=XQ.Q.Q.B.B.B.fX8X{.:X0XeXfXfX8XdX9XpXwX7X9X:X].~.%XA.b.Q.P.m.M.B.gXSX7X^.0.h.kX0X_.%XLX>XP = J z J F P _ P F 7 i *.FXgXyXkXkXpXyXBXGXnXnXVXVXJXVXVXVXaXyXFXpXpXZ.q.Q.%X5.t.kXlXV.r.V.I./.A.f.,.I c N / ../ c c c L 7 d   ,.:X9X>Xf.{.gXpXLXyXUXFXLXbXAXF.S.jX&XG.yXeXLX}.&.F.jXa.O 7 O > . C 2 $ , 3 , , : 1 : > > 1 > , 4 1 7 > > > > > > > > > > > > 1 1 1 1 ; > > , > 1 1 - 1 1 > 1 > 1 > 1 > , , , > > > = > - - 1 - 1 > 1 7 7 ; - > 1 a 1 > > 1 : , , , > : > > > : , , 3 3 : : , , 0 >   . .   , , $ , > 1 : > $ > > > > > $ & % : > > ; - ; 1 ; - - > > > $ $ $ $ $ % $ % , : , , % % & ,   > r : $ > 1 $ $ $ $ $ $ $ > > O $ $ > $ > $ > > % > $ % : % > > = > O = > $ : $ $ $ O O $ $ $ > > > : > > > > : % > > % : > > : $ $ O : > > > : > > > O % O $ $ O $ $ % : O $ $ $ % > + $ O : O $ : $ O $ % $ $ $ O $ $ $ : % $ $ $ % $ O > O : $ O $ $ O $ O . O > O O > > - O + O = O O o . X X . X ",
"o Z 0 - 4 - + O $ . . O O $ O O O $ $ $ O O O O $ $ O . O . O O = - O = > : - : : : : : : : : : > - : : ; : : > : : : < : ; : : : = : - : : : : 1 1 2 2 : < 1 2 3 3 > > , r x S 1 s ' _ ' { { d.m.n.W.=X1X1X1X|.=X8X[.[.=XB.[.[.-XQ.-XB.N.M.7X8XK.UX9XeXjXeXeXfXqXvXeX2X0X9X%X{.].C.b.J.B.N.b.E.AX,Xb.B.b.B.dXkX{.:XFX].x 1 J z J Z F _ _ K J L . f.FXjXBXFXyXjXDXGXBXBXJXBXCXcXcXJXCXeXLXBXpX{.,./.>X6.t.kXkXV.#.~.eX{.b.t.r.n l n P ' I c j x F k : d T ~.gXc.c pXDX/.0XjXeX{.LXPX:X9XGXKXPXzX1XPXDXKX~.  3XV.1 o > > x . 2 2 2 2 2 1 > : > > - 1 1 > > > 7 - , , , > > > 1 1 - - < > 1 1 1 7 > 1 1 > 1 1 > > > 7 > 1 > 1 > 1 4 , , , 1 > 1 > > 1 - 1 1 1 1 1 1 - ; - 1 7 1 > 1 > , , , > > > : > > : , : $ , > : 1 > 1 >   O .   , , $ 1 > > > > > : > > > $ > , , > 1 , 1 1 ; 1 ; - - : = = $ % $ % : & $ $ , % > : > % % > O > , : > 8 2 $ > $ $ $ $ $ > % $ $ $ $ : > % % > > : % : % > : - - = : : > % O > $ $ $ & & $ $ > > : > $ > > > > > $ > $ : $ $ % $ O O % > > $ > > $ : % $ : + : % % $ > : % $ + $ $ O $ $ $ $ O > > O O $ $ $ O O $ : $ : > > $ $ O $ O $ $ % O O $ O % O $ $ o . O . . O + O O . O O O . O . X . X . ",
"  D ,   > . . . $ $ . . O $ O O % : $ $ O O O O $ $ O O . O O O : O = = : : : = : $ : : : : : : : : : = : : : < : : - - : : : : < > > : 1 : 1 1 : : 8 a 2 , 2 8 , , 2 2 j C z j G J J F { 1.q.b.J.Q.].E.Q.W.*X0X8X8X=X[.=XB.=X=X=X^.^.B.t.M.=XgXb.~.:X>XjXeXeXeXwXnXjX0XfXfX7X>X=XJ.b.m.B.N.m.^.HX8X:.w.b.B.lXkX:XyXpXh.7 z J z f a Z P L z s Z r : ~.DXDX0XeXFXDXGXBXBXBXNXBXcXCXJXJXpXBXbX>XI.../.0X6.>.0X>Xy.6./.gX%Xd.-.>.n l n L / K j 2 j x T x o 3 F.{.0X,.r.~.kXbX{.>XkXBX:XbXKX2X3XPXzXeX{.{.pXwXI..XS.  > 8 z j o : 1 , 2 , 3 , : 1 : > > 1 1 7 > 1 > > , , , , , 1 > - - - 1 1 1 1 - 1 > > 1 > 7 > 1 1 > 1 > 1 > 1 > , > 1 > > > > 1 - 1 1 > - ; 1 1 i 1 1 ; 1 1 1 1 > , , > , > > > > > > : , : $ 3 : > , > 4 >   +     2 , $ , $ $ > % > > : % > $ > % , % 1 > ; 1 1 ; ; - - = : > % $ % $ % $ % : > > > & > > > > > > $ $ , 5 : O > > > > > $ > : > $ O > % > : $ : % > $ $ > > > : ; - - - > > : $ O $ O $ $ $ $ % : $ + $ $ $ > > % > $ % $ $ % > $ $ : : $ $ > % > % > $ % % : > : > > > $ > O : O : % = > O $ O > > % $ $ : O O $ $ $ > > > > % : > $ > : > $ O O $ $ > : $ : + > > > - + O - O . o . O O O . + X X   ",
"  k -   + o   o > $ O   O $ $ O $ $ $ $ O O O $ $ O O O O O O O : + O = : > : : $ : $ : : : $ : : : - : = : : : - : : : : : : < < : : : : 1 1 : O 1 2 2 2 2 2 2 r j r j c A c a T T a F 1.q.9.N.m.J.D.W.{.>X1X*X8X=X7X8X;X[.;X=X-XQ.B.M.q.N.-X=Xr.V.].%X0X0X0XyX9XjXjX9XeXdXgXgXgXW.e.M.m.m.J.W.SXlXN.0.0.B.AXAXUXfXjXe.> F J b V J G P Y A a s A O ;.lXLX7XjXeXDXLXBXBXBXcXCXcXCXBXJXzXDXpX{.c.,.^.0Xy.>.0X:XN.A.^.:X:XV.>.,.' z x P / F a 2 i I F . 3 r a.bXLXFXN.r 3 ~.AX0X0XL.J.jX{.)..XE.}.PX).k.K.K.DXU.c   s > z O 2 , = : 2 , 3 1 : 1 1 1 1 1 7 1 4 - q > , > 1 1 , 1 > ; > 1 > ; 1 1 - - > > 1 1 4 1 > > 1 > 1 > 1 > 1 1 > > > > > 1 > > 1 1 > ; 1 ; 7 1 1 1 1 1 > 1 1 > , > , > > > : , > > : : : 3 $ : $ > > 4 4   O .   2 , $ > $ > > > > % % : % % & $ & $ - - > - ; 1 - ; : : - > > $ : % % > & , : > > > > > > > , $ O $ > > $ $ $ $ : > > > > > : $ O : > > > $ > % > $ > $ $ > : - : > 1 1 = O O O O & O O $ $ $ % : % > : $ $ > > > > > $ $ $ > : % O % > > $ $ $ > : > : : > % % > : > % $ O $ > $ O % $ % $ $ > , : $ > > $ O O $ O $ $ $ $ > > % > > $ : % O $ % : : % $ $ , > 4 4 > > + > O . O . O O . . X . X . ",
"  A >   > O . = $ $ . O O $ $ O O O $ $ O $ O $ . . O O O O O O - = = = = : : : O O : O $ : : O < : : - : : - : : : : : - : : - : : - : = : : 1 : < 2 8 8 2 < = r r r 2 r z z k 1  . .1.e.{ 1.s.W.].W.Q.{.1X:X&X8XB.Q.!.Q.8X=X[.-X^.B.M.b.M.-X[.6.b./.{.gX0XyXyXwXjXpX9X6XwXfX7X7X~.e.h.b.0.J.^.gX>X;.0.w.M.fXKX{.lXLXd.1 J z Z i H J F T P z s ..x x K.jXlX0XFXDXKXBXnXBXBXGXCXJXaXcXBXGXpX_.a.6.K.UXN.6.0X{.N.{.%X{.~.d.o.>.H d z P _ I j i l i x k 2 . . m.eXLXkXLXUX:XFXyXeXV.~.GX3XF.n.'.ZX|.G.wXbX9XpXh.e.1 O   = j . 8 1 , : , , 1 , 1 2 7 2 5 1 7 > 1 - > > > , , > > > 1 1 > 1 1 - ; = - 1 1 > , 1 1 1 1 > 1 > 1 > 1 > $ $ : O $ > > , 1 1 1 ; - - 1 7 q 1 1 - = - - > 1 1 1 > , , > > , , , , , $ $ $ $ $ , > 7 -   + .   4 4 $ > $ $ : > % : > $ % $ $ % , : 1 > < ; 1 ; ; - ; - - : : > > $ > : : : , > > > > > > > 1 O O > , $ > 8 O $ $ > > , 1 > % $ O % > > : O > : > $ $ $ > > > - - : > > : O > > % , , % , , > > , , , , > % , , 1 > > > > : > > $ > : > O $ $ > $ % $ > > > O : $ > $ : $ O $ + : > $ $ : O $ > , > $ $ > O : $ $ $ O O O O > : : > > > > > > $ > > > $ $ $ O + - > - O . O % - O O $ - O   X X X   ",
"  s k - O - O . O O O O O O O O O O O $ O $ O $ O O $ O O O O $ . O o = ; = : O $ : $ $ : : : 3 : = : = O : = : = = : : : 3 = O : : : = = : : : 1 1 > : : 2 2 8 j r r 2 2 r j k _ &.' -.1.e.n.n.K.J.J.W.*X:X&X1X7X6X'.E.=X1X[.=X-X^.B.M.N.N.B.M.5.b.C.~.UX:X:X0X9XjXeXyXeX9X9XwXkX].B.M.b.8.J.^.gXfXd.e.e.e.gXFXF.0XFXc.3 c K z s F _ P G _ F f Z _ :.' Q.lXfXFXDXBXHXnXcXGXNXBXJXBXJXaXGXjX{.~.,.f.eXb.t.>X>Xd.d.~.Z.r.+.6.5.I d z J ) P a ; a I j 2 1 , 3 x _ b.K.fX9X*XjX0XFX&Xk.qXeXE.rX;XvXc.p.}.DXK.k.FXbX1 O S   1 2 8 < 2 , : , : 1 1 , > 1 1 > 4 > > - O > > > : > 1 > 1 1 > : 1 1 1 > - : - > > 1 > - 1 1 > 1 1 1 1 7 , , , , > 1 1 2 , 1 > - - 1 1 p ; ; ; 7 1 7 1 1 > 1 > > > , , > , , , $ 3 3 & 3 , : $ > , % @     O $ > > , , $ > > : % > > > , , , , , , > > > 1 1 ; 1 - - - : , : % $ : > > , > 1 , 1 1 , , , , , , > > > > > $ : > > > > > > > > % : % $ > > , > , > > > > > : = = = - : > > , : % % & , , % O > , , > > > 1 : > > : > > > $ $ $ $ $ % : > > % : % O > : O > % $ $ : O > $ O > : % $ $ > > > $ $ > : : % $ $ : $ > O O : % $ O O $ $ > : % > : > $ O $ O O O - + % > - + + % + O O O > - O . . X X X ",
"o 9 8   @ > - . . O O O O O O O O O O O O $ $ O . $ $ $ O O O O O O O = : : : O $ $ : : O : : : O = = = : = = = = = = = : ; : : : > < > - : : : 2 2 1 2 2 2 j j r j j k x K K I _ } T -.8.i.m.s.M.J.!.-X:X1X:X&X:XgX;X*X7X7X].=X].Q.B.N.t.N.M.t.0.M.C./.>X>X7X0XwXjX0XwXwX9XwX7XhX=XQ.J.b.1.A.W.7XgX0.>.;.r.kXLXK.yXkXf.. 2 I A s z L A J K x z f _ ,.;.n.;X0XKXBXbXnXpXcXGXVXVXVXVXJXJXGXyXUX/.&.N.yXZ.6.:X>XK.y.Z.K..._ ,.-.H a b J T I a 1 l x a 1 1 , 3 c T I x P O./.eX:X7XFXDXFX:X`.I.1XwXV.{.c.bXpX|.BXI.'   z F $ O 8 , 2 2 2 : > 1 , : 1 - > 7 1 7 - - : > % > % > > 1 7 1 > - 1 ; ; - 1 - - > > 1 1 - > > > > > 1 > 1 , , , , , , 1 7 > 1 1 - 1 ; q ; 1 1 1 1 7 p 7 1 1 1 > > > > > > 3 , $ $ & & 3 : , : $ > 4 > . o   O : > > > > : , > , > > , > , , & & , , 3 1 1 ; 1 1 ; > - : - % > : > > > > , > > , , , 1 > > > > > : % : : % > > > > , > > > : $ : > > > $ $ > > > $ % : : > - - - > > > : > $ $ $ % : > & $ $ $ : > % $ > $ % % > > : > $ O : % = % O > : > : % $ > $ % > $ : % > % $ % : % O $ % $ $ > : % $ : % % > $ > O + $ % : % $ : + O O $ $ O % $ $ > O % $ O $ $ O + - - + > + - O O O O + + > + . X X X . ",
"+ 7 >     > = . O O $ O O $ O O $ O $ O O O O O O O O $ O O $ O = = = = O : = O : : : $ : $ : O = = = = = = = = : : = O = = : < : : : > : : > 1 : 1 1 2 2 8 2 a 3 2 j j c A F F L ` ..;.9.s.m.b.b.M.W.*X&X].).*X*X;X*X'.8X8XfXfXQ.Q.Q.N.N.N.N.#.6.b.f.R.:X>X0XyXeXjX9X7XqXyX9XyXhX;X=XB.d.q.B.W.7X;Xr.6.-.3.jXLXV.UXeXa.7 a z z d z J x z J s s Z ` q.8.e.W.gXPXDXnXbXzXbXJXVXCXVXzXBXPXDX*X:X{.>.N.gXA.0.^.>X{.y.K.^.@.] 7.:.P d z H _ J 7 1 F x a 2 i 3 r c I I  .c ..9XLX0X>XfXAXkX_.i.s.vXeXg.0X{.bXW.I.FX2X_   . > . j i > 2 , , 2 , , 1 , > > > 1 q - - - > > > : > > > > 1 1 1 : 1 1 - - 1 : > 1 , , 1 1 - > > ; 1 > > 1 > , > 7 5 , 1 1 1 > > - 1 1 q 1 1 1 1 q 1 1 , > > : : > > > > $ $ $ & 3 : : & 3 , , : > 4 + o     O 1 > > > > > > > > : : % > , $ & , > > 1 ; 1 1 ; < - > > - - : > > $ - : 1 > - 1 > > 1 > - 1 $ > $ $ $ % > > % > > > % $ : O O $ > > > : $ O $ : $ % $ $ > $ = : 1 1 1 , > O $ $ $ $ % : : > > $ $ $ > : > > > > > > > % : % % : + $ O > % > : % > % > : % $ % > % : > : : > $ O O : : + > % $ % : > > $ : > : + O : $ $ $ $ O O O O $ $ O $ : : O $ $ O O $ + O + > > + % + + O . O % > + O X & X . ",
"+ > +   o O O . O O O $ O $ O O $ O $ $ O $ O O O O O O O O O O = O O = = = = O : : : : : : O : O = : O = = : O : ; = : = : : : 1 1 < : < 1 1 : : : : 1 2 i a 8 2 r j j c e c c s L ` -.,.8.i.b.H.Q.B.J.K.W.'.wX;X7X*X).7XgXhXhXQ.Q.B.N.N.q.N.#.o.d.y.V.UX>X0X7XjXjX7X2XqXqXwX9XhXfX8XP.d.8.J.].,XAX~.P.b.V.LXAX~.:XpXf.Z a a d x Z Y F b J d d J ) ,.0.,.m.gXKXFXDXKXbXcXCXBXJXaX3XpXLXDXyXeXUX6.b.kXR.#.R.%X^.t.A.:X..' >.+.n d b J P J i p Z x d 2 2 2 r c T I  .c 1 W.lXfXeX).W.dXKX'.1XdXZXc.G.I.gXI.I.eXeX.X> : I O O 2 : 2 , 3 , : 1 1 1 - 1 1 > > 1 1 - > > > > > 1 > > 1 1 - - ; 1 1 1 1 > > 1 7 1 7 > > 1 > > > - 1 > > > , 2 2 4 > > 1 < 1 > ; 1 ; 1 1 ; - ; 1 > - = > > > > > : > > % , 3 & & 3 3 : , : > , , + o o   O , , $ > > > , > > > > $ % $ : % $ , 1 - 1 - 1 ; - 1 ; > : > > : > % > > - 1 - > - > > - : > O $ $ % > 1 , , > > : > > : > O % $ $ > > > O > O $ $ $ > $ O > - - - > > > % $ % > % , , : , & > : $ O > > > > $ > % > > : $ > > $ $ $ : $ $ > $ > O : O > $ > > : % > $ > % > O : O % $ $ O : $ : $ % > $ % O $ $ $ % $ - $ % $ $ $ $ O $ : O O O $ O O O > $ > % - + % $ - - O O O O - + > + + X +   ",
"o > > @ O O . O O O $ O $ O O O $ $ O $ O O O O O O O O O O O $ O = = = O = O : : : : : : O : = : = = = : : = : : ; : : : : = = > < > > : 2 , < 1 1 1 : 2 2 j j c c C c C A F I P ` &.&.;.,.8.r.m.Q.J.B.W.=X&X=X*X7X*X[.fXhXvX7XM.Q.A.N.N.q.N.N.#.N.6.f.{.yXkXwXjXjX2X2XeXtXrXeXhXhXhXW.N.N.B.].fX=XW.AX%X8.7XLX:XeXeXr.z 7 a J z z P K J U s d P z -.e.1.b.8XSXAXvXFXhXpXnXnXPXqX`.rXGXDXbXyX/.3.b.0XZ.@.R.^.R.t.R.*XO.| >.X.z d Z J J J d 1 d z 8 1 : 3 : c / _ ) ) o f.AXlX0X*XK.3XLXPXZX(.rX9X2.PX{.<.eXK._ p.x =   2 r 2 8 , 3 1 : 1 > : > 1 1 - > 7 - 1 - , > > > : 1 > 1 > : - 1 1 1 1 2 1 > > 1 7 7 1 > 1 1 > 1 - > 1 - > , , , , , 1 - > 1 > 1 ; 1 - 1 ; - - - > > - ; > 1 > > > , , > , > : > , $ 3 , > > 1 , 4 + o     O > , $ : > , > > > > > > : % > % > % > > ; - ; 1 ; ; > ; > : : > : > - > - : : > > = - > - : $ $ $ : > > , , > > , , , > , , > % $ $ O : > > $ $ % : > : > > : : - - = : $ : $ % $ % & , % $ % $ O O $ $ $ $ : % > > > % $ O % > > O % $ > $ > O > $ : $ $ > O $ > $ $ $ % $ > $ $ $ $ $ > O $ > $ > : % % $ % O $ $ $ O $ = > : $ $ $ : $ > % $ O $ O $ : $ O - - > + % + O + O O O + - + O X + X   ",
"  - - + - O o > O O O O O $ O O $ O $ $ $ $ $ O O O O O $ $ $ $ = = O O O : $ = : : : $ : : : = = : = : : : : 1 O : - : : : = = 1 : : < 1 : 1 , 2 1 : , 2 2 r j c r r c c S I T -.} -.-.8.d.i.a.m.B.Q.).&X*X).).%X;X*X].lXhXvX=XB.Q.Q.N.t.q.N.q.6.y.y.f./.eXkXpXjXkX7X2XrXrXzXrXwXvXlXW.b.N.B.].gXgX].*Xf.r.bXAX{.:X:X,.Z p d F 7 a G J J J f J J p { d.:.M.;XlX6X0XdX8X3XwXxXPXrX`.pXGXLXbX{.c.>.c.0XZ..././.V.t.W.%X5. .>. .F d J b Z Z d < p x j < < : 3 c P K H :.o e.kXjX>XvX1XAX1X6X9X&X:XLX9Xa.r.{.I.G._.3.  7 Z P O : 2 : , : , > < > - > > 1 > - > 4 7 > > > > > > > > = - 1 > ; 1 1 7 > 1 > 1 1 1 1 1 1 > 1 > > 1 > 1 > > , , , > > 1 1 - 1 - ; 1 1 1 1 1 ; 1 1 1 > : 1 , > > > > > > , , : , $ , , : : : > , > - o     $ > > > > > > , , , , , > , % > > , % : - - ; - 1 1 - > > - - = O - : < - > > : - : = = = : - > > > $ % $ $ > $ $ $ > > > > > , > $ $ O $ > > $ $ > > > > > > : - = = = O O $ $ $ $ $ : $ $ % > $ $ $ $ > > > > > > : > : : % > : > $ $ $ O > $ % : % % > $ $ : $ O $ $ = : O > > > $ > $ $ $ > O $ > > $ : % % : > O $ > $ $ > > > $ $ % % > $ $ : O $ O O $ + + + + > + > + + - + O O + + + . & X   ",
"@ + O o - @ . = $ $ O $ $ O $ $ O $ O O O O $ $ O O . O $ $ $ O = O O = O O : : : : $ : : : : : : : : : : 1 : 1 : : : : = : = = 1 : : : : 1 2 1 2 2 2 1 3 2 r r r r r r C x I K _ Y  .` -.i.r.e.^.J.M.Q.E.K.W.;X;X8X&X).8X;XfXW.A.Q.A.t.t.q.q.#.>.6.y.r./.eXyXjXjXbX9X9XrXrXaXrXhXhXhX).B.B.Q.-XAXlX~.W.,.3.LXLX`.UX:X,.P s s z i 7 Z F J J f g f q 0.N.q.m.-XgX&X*X6X|.[.6XzXPXvX}.tXFXLX7X/.f.6.V.,X/.>.^.~.Z.y././.5.( | ' d d J J Z J d p a x j 2 3 3 3 j I F L / o r.0XLXAX%X).AX'.J.[..XP.F.9X_.wXPX~.g..X .. : O z j 1 : 1 : : 1 1 : : : > > - - q 1 1 , , , 1 > 1 > > > - 1 1 1 1 - 1 1 1 > ; , 2 1 , > > > 1 1 - > : > 1 > > > > > 1 > > > 1 1 1 1 - 1 1 ; 1 1 1 1 1 1 > > > , > > > , > , > : , : , 3 > , 1 5 4 + o     O > > > > , $ > > > , , , > , % & > , > : - ; < ; 1 ; < > > > = = - - > < - : 1 - - = = - : > 1 > : > $ > : : $ O : $ : - O $ 1 > > : $ > > , $ > > > > > $ O - : = = $ $ $ $ $ $ $ & $ $ % $ $ > 1 , , > > , % > > > > $ : $ > : > O $ > : % > : % : % : : % % + > $ > $ : $ > > : > : > $ $ O $ % % > > O : $ O : $ $ $ $ % > > $ $ O : % > > : + $ O O $ $ O > O > - - O + - + - O O O O + . X X   ",
"- O   o q + . O O O $ $ $ O O O O $ $ $ $ : $ : O O . O O $ $ O = o O O = = : : O = $ : $ : : : : : : : 1 < , 1 < : : = = = = : : : : 1 : : 1 1 2 2 j 8 r j r r c c c x x x C c L _ ,.-.%.6.8.f.m.B.B.b.m.W.'.%X*X7X=X[.gX;XlX^.M.B.M.q.t.q.N.O.@.@.y.r.A.pX>XjXjXvXqXqXrXeXaXrXlXhXhX=X;X=X^.=XlX;XP.^.r.-.lXAX0XjXeX1.T z d z s a F F Z b d g J f b.m.9.M.Q.;X7X*X*X'._.1XhXLXeX|. XBXPX>XUX~.6.V.eX-X>.R.K.V.f.{.W.r.' X.| b a z J J J a 1 s z a 2 2 , 3 r n F / b O C.gXFX7X0XE.:X{.'.wXK.wX.Xf.}.LXDXFXV.~.jX..1 5   O 2 2 : , , , 1 1 : - 1 1 > : > - > , , , > 1 > > 1 > > 1 1 1 - - > , > > > 1 7 , 1 > > ; > > : - - : > , 1 > > , > 1 - 1 > 1 1 1 1 ; ; - - ; > 1 1 > > > : > > : > : > $ , % : : $ : : : 1 7 q O o     O $ > , , > $ $ $ $ > > > : > $ , % 1 > 1 1 1 ; - - - > - : > = = > > > - - = > 1 ; : - > > 1 $ % % > , , 4 8 , , , , , > > > > > > > > > > > : > > > > > : = = - > 1 > $ $ O > > $ $ % : & , $ $ > > > $ : > > : > % > > % $ % > % : $ O $ $ O > $ $ > + $ > > : $ > % > % > > > > > > % > $ : > : > $ $ > O $ > O > O > $ = > > $ O O $ $ : > $ $ O $ O O O > + - % % + > O > + + O . O O .   . X . ",
"+ 8 O . = . - O o + - O O O O : $ $ O $ O $ $ O $ O O O $ O O O = = = O = O = - O = = = = > 1 $ : : : : : : : $ 3 : : 3 , 3 , : : : : : : 3 3 : 2 2 , 3 2 3 2 2 r j c j r c I K F ......<.,.,.f.q.i.n.B.J.K.J.K.C._.:X{.UX%X:X_.C.M.b.t.0.6.r.0.:.q.q.q.B.7XgXhXjXaX<X3XyXpXbXpXDXpXkX{.{.%X^.^.SXfXM.:.f B.HXlX!.;X,X{ F 1 7 z z Z F x z Z J F J F b.m.0.d.B.=X7X&X^.{.*X!.&XPXdXW.1XIXbX>XDX{.6.r.lX,X6.Z.^.b.V.R.^.y.+. .' a 2 F n A x 2 j j c 2 1 a < O 2 x F F J d 0.AXFX0X>X0XjXeX~.W.0XkXcXeXx $ k.LX~.,.LXbX..  C 8 O 2 , > > : > 1 7 7 1 > 1 1 1 1 , 1 , > > , , > 1 1 ; ; - - - : > > , % > > > > - 1 1 ; 1 ; > - > = > > > > > > - 1 1 > 1 > 1 ; 1 ; 1 1 1 1 1 1 1 1 > > > > , > , > , > , , , : : : : , : , , -   o   - > 4 > 4 4 - > 4 > > > > > : > > > > > : % : > : > : = O > > - : - > - 1 1 > 1 > > > - > > - > > > > > $ > > : > 1 , , , > > $ % > , % % > , > O = = > > > = = ; 1 1 1 = = o > > > O $ O > > $ % $ $ : > : , % & , : % : & : , : $ $ $ > > $ $ O O $ > > % O : > > > > > % : O $ $ $ $ > : > > > > % : $ $ $ $ $ O $ O $ > O $ O O $ $ $ O > > > $ > $ O $ $ O $ > O O : $ O O $ $ $ $   O O X + X . ",
"> a O O O . O . . O O + O O X + O O $ O O O O $ O O $ O O O $ O = O O = = = = = = = = = O : : = O $ : : $ : $ : : $ : : : : : : : : 3 : 3 2 2 2 2 3 2 2 2 2 r j r j x A c K I K n _ T I ..o.,.r.9.N.B.b.d.f.m.K.C./.].~.^.U././.V.d.r.t.8.>.5.5.{ 1.:.:.B.7X,XhXdXzX4X2XyX>XpXkXlX>XkX:X:X{.^.%XhXfXB.q.J M.SXAX%X0X7X:.A a d Z s a a d G G D k s a f.n.t.M.Q.=X>X%XW.[.*XW.&XIXhXW.:XDXBXyXbX/.8.>.eXfXC./.R.N.t.Z.~.y.' .. .z 2 A x A x 8 j j k 7 2 2 1 O : z Z z J 7  .1XFXlX9X{.9X{.I.0XbXpXpX#.a.a., 3.LXLXLXLXp., a O O 2 1 , 1 - 1 > > 1 > 1 1 7 7 1 > > > > > , > 1 ; 1 q 1 > > > : % > % , > % > - 1 1 p 7 1 1 1 1 > > > > > > 1 > > > 1 1 - 1 1 1 1 q ; 1 ; - - 1 1 - 1 1 > , > > , > > , , : : , $ 3 , , , $ 0 -       o + - - 4 > > 4 > > , > > > , > > > > > > > : > > > % $ $ $ > - - : - > : - : 1 1 - < : - > > : > > : > > $ $ % % > , , , > > $ $ > > $ $ % $ > : = > > 1 < - - 1 1 1 1 > = = > 1 > $ $ : > > > $ & $ % > & % , $ > % % $ : & > > $ O % > $ O $ O $ : $ $ : % % % : > $ $ $ $ : O $ > $ % > > > > $ : % $ > > O O : % : > $ > $ O O $ $ O O > O $ O $ $ % : > $ > > $ $ $ $ O O O O $ O O O O   + .   ",
"O 8 O . - . O O O O O + O O O - $ O O O O $ O $ $ : : $ $ $ > $ = = = O = O = O = = : O = = : O O $ $ : $ : : $ 3 $ $ $ : : 3 : : 3 3 3 , 3 8 2 3 r j j 3 2 j j : , j x c c x r I T / T ..-.6.6.d.B.H.b.f.B.V.R.K.{.^.R./.K.I./.K.y.>.r.y.5.:.>.:.:.:.] B.,X=XfXjXtX<X2XyXUX>XpX0X{.0X>X*X[.).*XgX,XB.q.J N.hXSX;XgX7X:.J Z f g s a a Z P G Z k a d d.M.N.M.Q.^.*X|.].].7XW.&XIXkXL. XbXFXeXyX_.r...>XgXR.^.Z.y.N.Z.^.f._ '  .k a x k c F j a 8 c 2 2 2 : O 2 z J d P ; Z ^.AXAX0X{.kXeX{.kXbXeX..T >XBXG.r V.:XLXkXe., 1 , 1 - 2 7 1 1 1 > 1 1 7 1 1 , 1 > > > , > > > 1 1 1 1 1 1 1 - 1 > > > , & > > 1 - 1 ; 7 1 1 1 1 1 1 1 , : > > > : 1 > > 1 > - ; 1 1 1 7 i 7 i i 7 7 a 1 7 > > > % % % , : : , , : : $ $ , , & 7 +   o   @ + - - 4 4 > - 4 > > > > 1 > > > > > > : > $ $ > > : $ O O > = : > 1 > > > - > - > - > 1 > 1 > > > % $ > : % > $ > > > > > > $ $ % > % $ $ > : % - : > 1 > - - 1 - 1 1 > > = 1 > : + $ $ $ > > $ $ $ % : , $ , : $ , : , % % $ $ $ $ $ > : $ O $ > : O O % > $ $ > O O > $ O $ O $ $ : % $ > : > $ % $ $ % $ > O + $ % : % $ $ O O $ $ O $ > $ O O O $ $ : $ $ : : $ $ % $ O O O $ O $ O O .   X O   ",
"  , o   O . + O . O + O O O + O $ $ $ O O $ $ O O $ $ O $ $ O $ O = = = = = O O - > > = = - - O : $ : : : 3 : : 3 : : : 3 : , 3 , 3 > : : 3 3 : 2 3 j 2 2 2 3 8 3 r c A c K I A A I ......8.3.o.0.d.d.0.d.J.m.m.R.yX].V.K.K./.{.J.t.6.t.0.6.:.O.] :.:.:.M.-X=XgXbX1X X1X>XUX:XyX>X{.0X%X*X%X*X%XgX,XB.{ f N.hXAX=X;X7X1.L Z s a d a z K A s a Z Z Z 0.n.d.M.Q./.*X].%X].7XB.*XKXjXD.{.pXFXpXeX>Xc.,.fX0XR.0X/.f.b.R.:XM.' |  .a 8 x j z x r j a a 2 2 2 2 : 8 x P d J p F ].FXvX].~.7XbXeXjXpXZ.&.W.DXeXW.G.V.P r I r : > > a a 4 1 1 7 > 1 > > > > 1 , 1 > 1 > > > > > > - 1 1 1 1 1 1 > > : > > > > > 1 > - 1 7 1 1 1 > 1 > 1 > > > > > 1 > > 1 - 1 ; q 1 1 1 ; ; - - - < > > > 1 , > > > % % : & : : $ : $ $ $ , 3 $ 4 > o     @ + - - 4 4 4 > > > > > > : $ : > > > > > > $ > > > % : O > > = - : > > ; > - : - : - > - > 1 , > > > : > > : : > % : % : > > $ & > $ % $ $ $ > : - - - > - 1 - ; ; 1 1 1 - = - : - : O $ $ $ $ & $ $ & , $ % $ & % $ & % $ $ $ $ > $ $ > > % $ $ > $ $ $ : > $ > $ % : $ $ O $ % $ > $ > > > > > > : % > : > $ $ : O $ % : $ $ $ O O $ O O : > : : $ O O $ O . O $ O O > > $ O $ $ $ O . O O   X .   ",
"  >     O . O . O O O + O + O - O O $ O O = O $ $ $ O $ : O $ : O : = = = O O o : 1 > - = - : = : $ : > , : , 3 , 3 : : : , , 3 2 1 1 1 1 : 1 1 2 2 1 1 2 j j j r r c c r K I x j n T _ T o.-...{ 1.:.{ r.m.d.e.K.:XC.f.b.Z.I.~.V.t.y.y.q.5.-.' ' :.:.:.M.^.[.fXgX|.{.>X>X{.UX,X7X^.>X%X%X*X|.%XlX,XM.' f d.AXKX=X=X0X8.G Z 7 a d a l Z z , 7 Z Z J 9.b.N.m.Q.-X*X].=X].7Xm.[.KXrXD.{.eXLX0XeXbXb.,.eX>XZ.0X].t.t.R.%Xd./ ' } l 2 x j k c 2 j c j 2 2 2 2 1 2 z G i J d P {.LXLX{.K.{.gXpXkX'.K f.UXUXr.. $ 2 o   1 a Z k - = O 1 > 1 1 1 7 1 1 > > > 1 1 1 1 > > > > > 1 1 ; 1 1 1 - > > > % $ % & , > > - 1 ; ; 1 1 ; 1 1 > 1 > , > : 1 : > 1 1 - 1 > ; 1 ; 1 ; 1 - ; > - - = 1 > > > > > > > : , $ $ & 3 & : $ , & : r & o o   O - - 4 4 > > > > > : : : > $ > > > > > > > : > > > : $ $ : > : = > > - : > : : - > = < > 1 1 > , > > > > > > % $ : % $ > > > $ $ $ , $ $ $ % > O > : > : > < - - 1 ; > > : > > : > $ > + $ $ % $ $ $ % > > % & : % $ , $ $ % O $ $ $ $ > > : > > O $ $ > > $ > : > > > $ $ + O O > : $ > > > > > : > > > > , O O : % : % > > $ O $ O $ $ $ $ % : $ $ O O $ $ O O $ O $ $ > $ O $ $ O O O O O . X .   ",
"o 1 . O : . + o O O @ O O + + O : O $ O O O O : O $ $ O $ O O O = O - = = = = = - : 1 = = > > : O = : : 3 : : : : : $ $ : , : : 1 : : 2 1 2 , 2 2 , : 1 r x x c r r r r , r K x c I I F T .. . .q.e.e.5.6.f.d.f.^.%Xf.m.V.f.A.^.d.y.y.y.5.5.:.' ] :.q.q.M.Q.-XfX7X^.:X>X]././.yX*Xf.~.|.*X%X*X;XlX,XB.] ) b.lXLX7X7XgX8.F Z d z Z s 7 k Z s z Z J ^ 9.b.i.M.^.-X=X].*X*X6Xm.|.PXjXD.).dXGX:X9XbXf.o.:X>XA.-XZ.7.C./.{.0.) ' ' k 2 F j k k 2 j k j 5 2 1 1 : 2 a J d H ; s ~.FXLXjXV.0XfX~.V..._ a.c.,.C A .   j 2 o   = 7 1 = ; - > > > > > , 4 - > > 1 > > > , : % > > - > - 1 1 ; 1 > > > : & , % , > 1 > ; 1 1 ; ; 1 - > - > > > > > > > > > > 1 1 - q 1 1 1 i 7 i 1 7 1 1 1 - > > : > > > , $ $ $ $ $ & 3 : $ 3 : $ 4 $ o @   - 4 > > > , - , , , > > > > > : > 1 > > > > = : > > > % $ = > = > > - 1 > 1 - - : - > - > > 1 , > > , > > > > $ > $ > $ > > : $ $ % : % $ $ % $ $ > > - - - > - ; - ; : - = : = > O % $ : : O > $ $ & > > % $ $ , % % $ $ % $ O > > $ $ % > % , > O $ > > : O $ > > > > % : $ $ $ $ % $ > : > > > > % > > > > $ $ O $ O % $ $ : > > $ $ $ % O O O O O O $ $ $ $ : > > $ $ $ $ O O $ $ O O O O . % @   ",
"O 5 O O - . O o O O o O O > + O = = O = O = O = : = : = = = = = - : = > = = - : O - - = = > > = : : : : : : : : : : : : : : : : : 1 1 1 1 , 1 1 2 2 1 , 8 j j c j j c c c c x x I T K F | ..|  .:.q.0.1.3.r.8.r.%X{.d.V.c.N./.%Xt.y.r.t.q.5.:.:.] :.:.:.N.B.^.gX>XR.].{.A.R./.UXR.6.Z.{.*X|.;XgXfX;Xb.q.J 0.;XIX0X;XfX8.z z a z x j a a z Z F K Y ' e.M.w.N.Q.^.=X].%X*XfXJ.*XPXdXn.U.jXLX|.0XfXk.p.9XgX-X%XV.7.A.-X^.5.'  .P a 5 x j c x 2 j 7 j a 2 1 1 : 1 2 z J _ o d ~.AXLX>Xk.3X7Xr.r   r.d.c.r.c 2 r c 8 o = a k 1 O o 2 1 > > : > > 1 1 1 1 1 > 1 > - : > % > > > - 1 ; 1 1 > 1 , , % > & % % & > - ; 1 ; ; ; 7 > < > 1 > > > > > > > - 1 > 1 - ; 1 q 1 - = = - : - = : > 1 > 1 > : : $ $ , $ $ $ 3 & 3 $ 3 , 3 4 > @ o   O > > > 4 , > , , > , , : : > - 1 - 1 > : - > 1 > > > : - > > = - - < > - : - > - : > 1 > 1 > > > > : > > > > $ % > > > > > % $ & % & % $ > > = > < - - : - 1 < ; 1 - 1 - = ; - > $ : $ % O % % $ $ > > > > $ > $ > $ % % $ $ $ > > > $ $ : % , > : $ $ $ % > $ > $ > % : % $ O % O > $ > > > $ % $ : > : > > : O : % : > % % : , 1 $ $ $ > $ O O O O $ $ $ $ $ $ $ $ $ $ $ O O O $ O O O O . . + @   ",
"  1 . . > . O o = O . O + - + O = O = O O = = O > - = > - = - = > - - = = = > 1 O = = O O = - O : : 1 : > : > : : , : , , , 3 , 1 2 : : : : : : j a 2 2 1 1 2 8 , 2 r c r r r r I T c x  ...I T ' ' 5.{ >.3.o.#.{.].6.r.6.N.{.%Xt.7.q.d.0.O.:.5.] :.:.' N.M.B.,XgXR.A./.Z.A.A./.V.6.R.{.|.*X=X;XfX=Xd.q.f { ].IX0X=XfX0.F Z a s a z z a 1 7 Z K J ` i.M.t.N.Q.^.-XW.!.%XfXK.%XKXfXs.V.zXPXUX0XyXy.C.>X>X>X>XV.y.Z.{.^.#.-.,.P a 2 x a c A j 2 : j 8 2 2 2 2 2 j d J P o L %XLXPXeX{.:X].;.2 O F x / c A , , O 2 a a a : 1 7 > 1 1 > < - - - > > 1 7 2 , > - = O > > > , ; - 1 1 - 1 1 , 2 , , , , , : , 1 > 1 1 ; q ; 1 - 1 > > > > , > > > 1 1 > 1 1 : 1 1 ; 1 = - - > 1 1 1 5 1 1 > > > > : $ , $ , $ : $ 3 , $ , $ & 5 > . .   o = + - 4 , > > > , : : : : $ > 1 > > > > : = > 1 1 > - : > > = : - > : 1 > - 1 > : - - > > 1 : > $ > $ $ $ $ $ : > > 1 > > > $ > , % , $ $ , O > > > > = - 1 1 1 1 1 - 1 - - = = > O > : $ O > $ $ $ : > > % $ > : % $ $ $ $ $ > , $ $ $ $ $ > > > > O O > > O % $ $ > : O O : O $ : % : > > $ $ $ $ O $ > > O $ $ O O % : : > , > $ $ > 1 $ $ $ $ $ O O O $ . O O O . O O . O O $ $ O O O O . + .   ",
"  7   :   % O O o . . O O O . O O = = o = = = = = = = = = = O = O = = = = O - = O > 1 1 = O > 1 O = : 1 > : : > , , 1 1 : > 1 2 : : 1 : 1 1 1 2 k j k j 7 2 8 x r i r r r 2 r k j c F I F F P o.{ ' :.:.-.f.:.:.>X^.| N.y.r./.UXy.7.y.y.y.#.| O.] ] q.{ q.M.B.=X,X/.A.A.Z.Z.Z.Z.N.N./.UX/._./.yXfX=XM.q.f J =XHXfX7XfX8.x i k z k z d 2 1 2 k C g ) r.f.y.t.Q.%X%XQ.^.=X7XC.*XIXfXs.g.eXPX{.jX9Xc./.>X%X%X:XZ.f.R.R.{.0.( o...a a k j j c j r j c 8 : : 2 2 1 1 J F d ; ' |.FXAXkX~.:X0Xs.O 2 : 1 7 ; 7 p o i a o = - 1 1 q ; 1 1 1 > 1 1 1 1 1 > 1 1 > 1 > > > > % , > 1 1 1 i 1 1 - 1 1 > % $ & , : , > > 2 1 1 p q ; ; - - 1 : > > > > , , : 1 1 > > 1 1 1 1 1 1 > , 1 1 1 1 > - > - : - - : : > > > , : $ : , : 1 4 4 - @ o .   % , $ $ , : : > $ : : , : , > - 1 1 > 1 - 1 - 1 1 - < > - : = - - : - : > > > - : > : 1 1 - , > > > , > > > > $ > $ > $ : $ $ $ $ $ % , $ > $ > > > > = - 1 1 1 - ; ; > < - = - O $ $ O O $ = O O : > O + 1 $ O : > $ : O O : : % $ $ O > % O % > : + $ > : : O $ > : > O O $ : > > $ % % O O % % O O O O $ : % O O $ O > $ . , 2 O   $ > O > > > : % $ O O   O $ $ O $ $ O O O O O $ O O O   . .   ",
"  8 o + . = O . o O O O O O - O = = O = = = = = = O o = = = = = = = = - = = O = O > 1 1 = O = 1 : : : > : 1 > : : 3 > O O : $ : 1 1 1 1 > 1 2 2 2 1 1 1 2 2 8 x r r r i r j z c x F I P I I I _ _ ' ;.:.-.i. .7.:XA.I 6.r.t.R.%Xf.y.t.N.y.5.| o.] ] :.] :.N.M.Q.A.A./.A.Z.Z.Z.Z.y.6.c./.Z.L./.UXhX=XB.N.J J W.SXgX:XfXr.G Z d 7 j k z x z k x A d J 6.d.t.C.^.%X%X~.^.*X7XP.*XKXdXa.h.zXPX].wXrXc.~.kX0X*X/.V.f./././.r...-.&.d i c j j z j 8 e z 7 2 1 2 2 2 i z z Z ; b W.FXFX0X).>XwXJ.T 8   a a - a s 7 a 7 1 1 p 7 1 1 1 1 1 > > > > - > > 1 > : 1 > : - > : > , > : 1 ; 7 1 - > - 1 > % $ & : , , > > 1 1 1 1 1 ; - - > 1 , > > > > > 1 1 > 1 - < 1 ; 1 1 - : - - > > > > > > < - > 1 - 1 > > : > : , 3 , , > > 2 4 = o @ . . % , $ $ , : > : : $ & 3 , : : - - : 1 - 1 > < : - > - - : - O : > > : - - - = > - > > - > > > > > > > : > $ % > : % $ $ % $ $ & & % % % $ > $ $ > : > = : > 1 < ; - > > - - : > - : % $ $ : : O $ > > $ = : > > > : > O > = > % > $ $ > $ : > : > % : $ $ > $ $ O % % : $ O $ $ $ $ % : : $ $ $ : $ : O O $ > O O O O $ O % O , 5 : O : > $ $ % > > > : $ $ . $ : $ $ $ > $ O O O O O O O . . + @   ",
". 8 O = . O O . . O O O - - O + O O = = O = = ; = = = = = = = = = > > O = O = O O - > - O = = - > : : : > : : > 1 : : = : > > O : 1 1 1 : 1 2 7 2 1 : > : > 2 a r j r 3 r x A c z c A I I I P P ) ` { ' '  ._ f.:XV./ >.y.N.K.UXf.y.y.N.y.7.@.@.O.] :.:.:.N.N.B.Z.Z.A.A.N.y.V.Z.t.6.b.Z.c.Z./.yXlX^.N.{ J J B.SXAX0XlX9.F P a d < i z z z k c A _ ' 0.r.y.M./.Q./.%X].%X%XJ.].ZXAX9.V.bXLX`.:XvXK.Z.UX>X>X>XZ.y.Z.Z.f.6.)  ...2 2 z j j c j 2 j j 2 1 1 1 1 2 j s d J ; ; V.AXLXjX~.{.:Xb.S   1 1 1 o p a 7 i - - 1 1 1 ; - - 1 : 1 1 > - > > 1 > 1 > - > - = > > > > > : - 1 7 1 1 - - > > % % , , , & > 1 1 > 1 ; ; 1 1 > 1 > > , > > % > $ : 1 - - < 1 1 1 1 = > : > > > = > 1 1 - > 1 1 1 1 : > , : , , : $ > : > 4 4 - o   . . > , % % , $ , , : : & 3 $ $ < > > > - 1 > 1 > = : : = - : = = = > = - : : > = - = - - : - : > > > > > > $ $ $ : $ > > $ > $ $ , : : % % $ > $ $ > : > O - : 1 - - - > < - : > 1 > > > > > > > - = - > = O > > : > > = = : > > % $ $ $ O O $ O $ : % : % O > $ $ O O : $ $ O $ O $ $ $ % > $ O $ % $ $ O $ : % $ O $ O $ $ : $ > , , > $ : > $ $ $ $ $ $ $ O O $ : O O O O . $ O O O O O . . @ + X   ",
". j . > o = . o . o o O . O O O = = = o = = = = = O = ; o = = = = O = = = = = = : = = = > - : = > > : ; - > 1 > , > : : , 2 1 : = - > : : , 2 2 8 2 1 1 a 2 2 2 3 r j 2 , c x j k j c F P P P L J ) ) ) ) b J C.UXr./ ..r.c.A.>XN.#.t.N.y.5.@.@.:.] O.] :.N.N.M.Z.Z.A.Z.Z.y.V.Z.y.>.N.f.N.b.R.gXSXB.N.' ] ] B.AXfX0XAXr.s Z - a 2 2 2 i 8 j x A G ` 6.8.t.A.-XA.Q.7X>X7XE.C.].PXAX8.D.AXKX'.{.bX~.R.:X>X:X^.Z.y.R.R.t.r.' -.-.z 7 j j k x c 2 8 2 2 2 2 2 1 2 k d d z p o d.FXFX0X~.eXKXU.,.o o p 7 - 7 i ; 1 O ; 7 1 ; 1 > ; ; > 1 7 1 > = 1 1 > - 1 > - : > : > > > > - - - ; 1 ; > : : > % > : & , : 1 > 1 1 ; 1 7 1 > ; - > , > , : > > : > - > : - - ; - 1 > > > > > > 1 > > 1 1 1 1 ; 1 > > > > : : : , 3 , : > 1 > + o     . , , % : , : , : : $ 3 $ $ 3 > > ; > : 1 1 - - - - - = = = = = - > > : - - - : : - = = - : > : % $ : $ : $ % > > > % : % $ $ % : & % $ $ $ $ O $ : > = = = = 1 ; < - - - : - 1 > > > : > $ > 1 > : 1 > = = > - > - > > = = - > : > $ $ $ > > : > $ > O $ > $ > O $ : % > $ $ O O O $ O : $ > : > > $ $ O O % : % : O $ $ : $ : $ > 4 , $ $ > : > > % $ $ O O O O $ . . O O O $ O O O O O     + + + . ",
". 9 . % . O . . o . O O O O O o = = o = o = ; ; o ; = o = ; - = O O O = = - = > - = O > : > = = > : - - - : 1 1 > = O = > 7 , = > > - > - : > , 1 > 1 7 k d 8 8 $ r j r , r k j F x c x F n x x f z P ' -.a n J.*X6./ I ..d.Z.,XM.q.N.N.y.7.@.@.O.] +.O.] q.w.N.Z.Z.R.C.b.t.N.Z.y.5.N.N.f.N.A.kXAX-Xb.J ' ' { m.%X7XAXf.d z O - z j 2 i r j S I j | r.t.b.R./.C.M.=X=X*XB.b.^.PXvX9.B.AXKX|.|.bX^._.gX>X^.^.Z.y.{./.t.t. ... .k 8 j j j x k 2 2 a i 8 2 2 2 a x s d d 7 ; d.ZXFXjX^.7X]._ &.} 5 o ; o ; ; ; 1 ; 1 < 7 i i 7 p 7 - 1 2 1 - = > 1 1 > > - : > : > > , > : : $ 1 > i 7 - > > > > % % , > > > 1 1 1 1 1 1 7 1 - > = > > > > : > = = - : - > ; ; - 1 , , > > , 1 , 1 1 1 7 ; 1 1 ; 1 : > > , 3 , , $ , : : , > - o o . . : 2 $ $ , 3 , & & 3 $ : & 3 : ; 1 ; - 1 1 1 - ; : - ; - ; = - - > > - = = : - 1 - 1 > > > = % $ $ % $ % $ > > : > : > $ $ $ , $ $ . $ $ $ $ $ $ > - - = = : 1 > ; ; : - > > > > % > % > $ > 1 > - > > = - : = : > = O = = > > $ > O $ $ : % % $ > : O % % > > $ $ $ > : % $ O O O O O $ $ > $ : > $ $ O : % : O > $ $ $ O > : O $ , , O O 1 : > > > : $ $ O O $ $ O O $ $ $ = O O O O . .   O + X   ",
"O k O - . = O . O O O O + O O = = = ; ; ; = = = = ; = ; = = ; : O = O = = : : - > = = = > - = = - : - : - - : > - = = > 1 1 1 > 2 1 1 1 < - - > 1 : > a a a 1 1 3 j c r 2 j j i x c c x z z F I Z Z H _ ..a ' R.%X6./ I / r.Z.>XM.y.N.N.t.q.@.@.q.] #.q.:.q.d.N.V.Z.R.C.b.y.f.Z.N.6.b.Z.V.Z.A.lXlXQ.0.f ' ' ' :.*XfXFXm.s z a a j j j j k c x A T  .r.r.t.Q./.C.N.C.Q.^.N.9.W.KXhX1.B.SXKX&X*XKX~.{.gX:X^.-XZ.7.^.A.t.7.) / _ d i j k j z j 2 8 8 2 2 2 > : 2 j Z b a p ; d.AXFX>XU.yX].2 : F > 1 d 1 1 ; = 1 ; o o o ; - ; 1 1 - > > > = = > 1 > 1 1 1 > > > > > > , > > > ; 1 7 1 1 1 1 7 > > , % > > 1 > 1 1 d 7 1 ; 1 > > = > > > > % $ = > < - : - > - 1 > > > > > > > - > 1 1 1 1 1 1 1 1 , , > > $ $ $ 3 , : > , 4 +       . > , $ $ , $ 3 3 : : $ 3 : $ - 1 - 1 1 ; 1 > < - 1 ; - > - = ; : - - : = = > > > > > < - > > $ $ : % % $ > $ > > > > : > > > & $ $ $ $ . $ $ $ $ : - : = ; - - ; > 1 : : 1 1 > > : > > $ : $ > : = > > = = > > - - = = O = - > > % : + : O $ O > $ > : $ : $ > > : : > > % > : O $ O O $ > > $ $ > > $ O O : > O $ % > % : % $ O O > > O $ % $ O $ $ $ O $ O O O $ O O O $ O O O O O O O .   . @ .   ",
". a O - . O O O O O - O O O O O o ; = o = ; ; - = o ; o = ; - ; = - = = = = = = = - > > - - : - ; - > : > > > > > 1 1 1 1 > 1 > 1 1 1 1 - : : 1 8 1 1 7 7 > : : , r r j c k r 2 j j l k z l F P L H H v J x r./.V...I / N y.C.:XM.N.N.y.N.y.#.O.q.O.q.q.q.q.N.t.b.Q.J.M.b.y.y.Z.6.#.t.N.N.N.Z.eXlXB.w.f ] { t.0.7XFXlXm.a j x j 2 i 8 j k c x x I T >.6.t.Q./.A.t.b.Q.].b.:.^.SXhX1.b.HXKX'.{.LX{.>XlX>X]./.t.t.^.M.t.o._  . .F j j j a j j 2 8 2 2 : : : - : 2 d J d q 7 0.dXAXeX~.jXjX3.  j a o ; ; ; ; o ; o b f a 1 ; ; ; ; - > > - > - - > > , > 1 1 1 > > > > , > > 1 1 1 1 1 1 - , , > % & , , > > 1 1 q i 1 ; 1 > 1 1 > > : > : : > > - > - > > 1 ; ; 1 > > % > > = - - - 1 1 1 q 1 ; 7 , : , : , $ : , , : : , > + o   .   : > $ $ 3 $ : & : : : & 3 : > ; - 1 q ; 1 1 ; 1 - ; : ; - - : : > 1 > = = = > < > > - > > = $ > $ : $ > > > > > % > > % > $ : $ $ $ & $ $ $ O $ > > - = : - - ; 1 - - ; > 1 > > > $ : > % $ : O - - ; = - : < > > - = = = > : > $ $ $ O $ > $ > $ $ + > $ > > $ O O $ > $ $ > $ : O $ $ : > % > : % $ : % > $ > : $ $ > : $ O $ O $ % $ $ $ O $ O O O O O O . O O O . O . . O . . O O O .   . @ .   ",
". k O - O = O O . O @ + O o o o = = = ; o = - - o = ; = = = ; - - : - = = O O O = > : 1 : : : > : - > > 1 : - : = > 1 > > = = O = - : : - > 1 1 a 2 1 2 2 1 1 8 r , 3 j x c r : 8 j z z 7 2 l F H P _ a x L b.K.@.3 3 | c r.t.A.Z.b.N.N.N.t.X.#.O.] O.q.q.q.N.q.M.J.C.M.b.t.y.y.6.#.t.N.N.N.Z.gXlXB.t.) ] ) ,.] {.fX:Xd.a j x $ j 2 2 i j c A x I | >.t.M.A.A.y.q.N.~.=Xb.' B.AXhX1.b.IXKXP.).KX0XyX>X:X0X,XA.Z.^.b.t./ '  ...x j k j j k a 2 j k a 2 2 1 < 2 8 p K a ; ; :.0XAXkX/.*X7XV.2 2 o o a F ;.f.J.).W.n.s.8.` F 7 - = 1 1 : : > 1 1 > 7 1 1 , , > , , > > > > 1 : , 1 1 ; 1 1 1 > > = , % > > 1 1 1 ; 1 1 - ; > 1 5 2 $ % > O > > : > : - 1 ; > > 1 > , > , > 1 > > - 1 - 1 1 ; 1 ; 1 , & : 3 , $ : : > $ $ , , O o       $ > $ & , & : 3 & : 3 3 , : , ; ; 1 ; 1 ; 1 1 ; > 1 ; - < - = > > > = O = - > : - - = = = = > = > : > > : > > > > : > > > > % $ & O $ $ $ , > > > > : - > 1 - - 1 - - - : 1 - 1 > > > $ > > ; O = > > = - - > 1 : - = = - , > % $ $ $ > : % : % > > $ $ $ > $ O O O O O $ O > > $ $ O $ > > O > > > % O $ $ $ $ % > > O > O O $ $ O $ : > $ > > > > $ $ O O O $ : : O O . . O O . . O . o o   . .   ",
"O z O % . O   : + O . . . O O = = = ; ; = = ; = = ; ; = o ; = ; = = = O O = - > = = : : : : : : O = : < : = : 1 : : : 1 > 1 : 1 : $ $ 3 , 3 3 , r 2 , 2 k k j a c a 2 8 k j 2 = 2 j j c j a c I J F J F a 5.W.V.x p I | M >.f.b.M.M.0.b.N.q.O.O.] :.q.q.q.q.M.w.M.J.N.b.b.0.M.N.q.5.N.N.M.N.M.lXgXM.y.n H H -.7.^.kXFXf.3 N 3 3 r 2 r j z c A F _ ..r.f.Z.Z.y.>.>.N.A.UXy.@.f.V.m.e.i.KXAX).U.vX:X9X:X{.lXlXM.M.=Xd. .( o.>.P J a x z a z k 8 2 i 8 r 2 2 : 2 2 8 z a 1 : o.>XLX>Xm.lX,Xf.Y o d H ..,.f.G.R.G.c.r.,.! F ....x r : , 1 7 7 2 , , 1 , 5 , % $ % > > 1 > > 1 ; : - 1 1 1 - - > 1 ; > > > - - > 1 > - - 1 - : 1 1 > = > : > > , > : > $ O : = > > 1 1 1 1 1 1 ; 1 - < 1 1 1 - - 1 1 > , > > > , , : : : : , , % .       $ > O % , O > 1 1 : - 1 1 : = ; - - ; 1 - - - ; - - ; - - = - + > > > % - - + - - - - - = o - - - - - - 1 - 7 > - > - 4 - + $ & & $ $ % $ > > > - 1 > - - = : - > = = % = > : % > : % : > % O > = O : % O : > : - O > = = $ $ $ : O > O O $ : > $ $ : $ % : : $ $ > % $ > : % O $ > O : % > $ $ % > $ : O $ : $ O : O > % % O : > $ $ > > $ $ $ : O $ $ $ . O $ O O O O O $ O   O O O O @ O       . ",
"O S > O o O . O > > - + O O O O o = o ; = = o ; = o ; o = ; = o O = = = : : ; : O = : : : ; : : O : 1 : : ; : 1 : : 1 < 1 : , : 3 3 : 3 j , 2 , 3 : 1 2 2 2 1 : j 2 2 2 j j a 2 1 2 a 8 2 j k F a d d a z 0.W.b.l F / l 3 6.f.6.N.b.N.N.0.N.:.#.q.q.q.q.q.0.N.q.M.B.N.N.N.q.N.N.#.:.q.N.M.0.M.gXgXM.y.b ) ) >.6.:XgXlXf.3 N 3 c j r r c x x x F | ..o.6.d.f.t.5.6.N.Z./.>.| f.b.M.e.d.SXFX).P.FXfXkX:X>XfX>XN.N.=Xb.o.' -.-.K x a x d a j c a i 8 i 2 2 : , 2 2 k d 2 1 3 ..%XlX%XC.gXlXK.p ; 1 7 7 k S ..*.&...! I r c T ! A r a a s j a 8 5 , > , , , > % > > , , , , > > > > > 1 > 1 1 1 ; q , , 1 > < > 1 1 - 1 > - > - > 1 - > > > > > > > , > > > > > > > > > ; 7 p 7 ; 1 - 1 > - : - - 1 4 > > > > : 3 , , : > , , % . .   . > , $ : > = - 1 1 = = 1 1 ; ; = ; - : ; - < 1 ; - 1 : ; ; - - + > - - > + - = O - - ; - ; - - - 1 - - 1 q - 7 - > - 4 > % + $ $ $ O % % % % = : > > > > : = : : % : > $ > $ $ > % : > % > : $ > $ > % : > $ > > : % O $ $ > > > % $ $ $ > $ % O > > % > $ > % > $ $ : % O > % : $ % : % > > : % $ O O $ % $ % $ $ + : O $ : O > > $ $ % $ . O $ $ O O $ $ O O O O O O $ O O O O X O O O O O .     X ",
". K 8 O   . O O > > - - + O O o O ; = ; o o o o = = = = = o ; o = = = = = : = : = = : : : : = : = : : : : : 2 2 : 1 > 1 1 2 2 3 3 $ 3 3 3 : 3 , : 1 2 2 2 1 1 1 7 8 7 i 2 2 j k 2 j a 2 8 j j j z H d i F r.C.e.n d n d I #.y.y.N.b.i.b.N.N.:.:.N.q.:.q.q.t.N.q.M.M.N.N.w.q.N.i.:.#.0.N.N.q.q.%X,XM.5.v ^ ^ -.>.%XkXlXM.3 N 3 i 3 , 2 j c j c c ..>...#.y.d.m.y.r.y.6.b.) ^ y.t.b.i.d.SXKXW.D.LXdXvX>X9XgX].0.N.%Xd.] / :.>._ P a l a 2 a j a a 2 2 2 3 3 , 2 2 j 8 8 2 = ) ^.FX^.C.fXkXW.d d o 2 8 j k K I P K I ! K I o.*.! K k k z k k a 2 2 , , , , , % % , > , > > > > > - 1 1 1 - ; 1 - 1 1 > : > 1 > > 1 : 1 - < : - 1 1 1 , > , , > % $ , > > > : > : > ; 1 1 < 1 1 q 1 - - > : - = > > > > > > : > $ > , : > > , $ O .   . $ > O % 1 = > 1 1 : - 1 ; - - 1 - - 1 - 1 ; 7 1 1 ; 1 1 ; > - > + > > + - - - - o = - - 1 - ; 1 - ; - 1 - 1 > q - % > > > + $ & $ & $ $ > > > > : > > - > = : % > O : % % : > : > > % > % > $ $ > $ % O > % > % % $ > $ O % > : % > $ > : O $ > > $ % : > O % : > $ % : O > > > $ : $ $ $ > > : O O O $ > > $ % $ $ $ % + : : $ $ O $ : $ . . O : O . O O $ O O O O O O $ O > O O . o . O . X     . ",
"  K 8 +   - = O O O + + + + O - = ; o o ; = ; o = ; ; o = = ; = O = = = : = : : O : : : : = : : - : > : - : 2 8 : : < > 1 1 2 : $ $ $ , $ : 3 3 1 , 2 2 2 2 8 j 3 2 2 2 2 2 8 j j k j 2 8 c j 1 J J d s L r.V.e.1 l L 3 ..6.y.6.0.b.b.b.N.w.:.:.q.:.] N.t.q.t.N.M.M.q.q.N.q.N.N.5.:.t.0.N.q.q.].gXM.X.v P P  . .].AXLXm.3 N c : , : , j j j r j ..>...r.t.y.V.y.r.6...>.m ^ 0.r.t.e.q.lXKXP.n.PXeX0X:X>X7X).q.M.gXQ.7. .6.,.' H a l a a l j 7 j 2 2 8 2 , 2 r 2 j k j a o n ^.LX^.f.kX].d.' ; o 7 a k x A K K K U I K K ! ..K c 8 a j k a 8 8 8 , 4 , , , % , , , > > 1 > > 1 - 1 > > > 1 ; 1 1 > 1 ; 1 > ; 1 - 1 > 1 > - - 1 > > , 1 , > 1 > > > 1 > > > > > > 1 ; ; 1 1 1 ; 1 > < - - = : : > - > - % $ % : : , : $ > > $ . .     : > O : 1 O : 1 1 - - < 1 - > ; ; 1 - 1 ; 1 ; 1 1 1 1 ; 1 > - + % - - > - - - - - - + ; - 1 7 - 1 ; - - q 1 > > + > + 4 % - $ $ $ $ $ $ $ % : > - 1 > : : : % : $ > % : % $ O > $ % $ : $ $ > % : % > : > : > : > $ O % : : > > > : > $ > O : O $ O > O $ $ O > O $ $ % : $ $ O $ O $ % : > > > $ $ $ % : > > : > O $ O : % > $ O $ > , 1 $ . $ : O O . $ $ O O O O O $ $ $ + = . . o @ O . + .   . ",
"  K a O   + O . o o O O o O O o = = = = ; o O O = o = = = = O = = = = ; = : = = = = : : : : : : : < : ; : : 1 2 = = : : : 1 : : 3 : 3 3 3 : : 3 1 : : < 1 5 2 8 1 1 , 2 8 2 2 2 8 j 8 2 5 z k 1 a a < z _ 0.C.V.r h M h o.>.>.>.0.M.M.N.N.0.q.#.:.O.:.N.N.q.w.M.M.b.0.q.q.q.q.N.5.:.y.N.b.t.y.^.gXA.] J ^ ) { ' -XAXKXB.- x n 3 r 2 8 x x j c A  .../ e.t.,.d.6.y.>.) o.n ) 0.5.1.q.{ 8XKXW.B.IXdX0X0X=X=X].:.N.gX^.0.| ,.>.T F i j a a z c 2 a 8 2 2 2 , 2 8 r k j k j = v R.AXZ.0.7XR.) } o 1 j 7 1 4 8 k F P A F C z K K c r 8 j a j 8 5 2 5 2 4 , > , , , % , , , > 1 , > > 1 1 > ; ; 1 - ; 1 > 1 > 1 - > 1 > > 1 > 1 < > 1 > > > > , , > , $ % > % : % > > 1 1 1 1 1 1 - - > 1 - : : > > > % % % $ $ : : > : $ $ : : O .     . $ > O : , = 1 1 1 - - 1 1 - > 1 1 - > > 1 - - : 1 1 1 > ; = - % - % > + - > 7 - - - ; + ; + 1 q ; q - - 1 q - - > > - + > > $ O $ . $ $ % : > > > - - - : ; % : > : % $ O > % : % : > > $ : : > % > > $ % > > $ O > O : % % % > > % > : % > $ % $ : % : O > : % $ : + $ : % $ $ : % + $ > > $ > $ $ : $ % : > $ $ O : O $ $ > O O $ > , , > O $ > O O O : $ O O O O O $ O $ O + . @ o o o . + X   . ",
"O Y s O   O o   - O + O O O O o = = = = = = = = = ; = = = = = = o = = = : : = = = = : : = : : : : : : - : : < 1 : : : 1 : : 1 : 3 3 , 3 : 3 , 3 2 2 > : 1 2 , 1 1 1 : 2 2 i 2 < 3 1 2 : 2 j j a z p < b P 6.b.r.c $ 3 c o.! / y.0.M.M.N.N.t.q.O.q.O.:.N.N.q.N.N.M.b.0.q.q.:.:.N.O.#.t.t.b.t.5.K.fXB.' J J ) :.{ ~.7XAX^.b l j 2 j 8 j C A j x T  .n c >.,.( O.| y.r./  .H ' q.:.q.i.] =XPX!.b.SXZXgX7X7X=X].5.d.%XW.5.) -.>._ F a d a l x z 2 a i 2 2 , 2 , 2 2 z 7 2 z 2 n V.].>.6.:X0X8.H ; a k j j z x x A I A S z c K I K c a k k 8 2 1 , > , , , > > , , , 1 > , > > > 1 > 7 > 1 > 1 - 1 1 - 1 > 1 1 1 1 > 1 1 1 1 > - > 1 > > : > > > , , O $ 1 > > $ > , 7 p 7 1 1 ; - ; 1 > = - > , : % > % > $ > $ > : $ $ $ : : O     . . > > O > 1 > > 1 > - - ; 1 ; 1 : 1 > < - - > = - > 1 1 : : O > - > + + - - - 1 1 - - ; - + ; 1 ; 1 - - - - - - - + > + > + - $ $ $ $ O $ % > = > - 1 1 > - - = % O > $ > > % O > O $ O $ > O > O $ : $ > $ : > > > $ $ % : O > : % : $ > $ $ O $ % O $ $ $ O $ O $ % : O % O > > O $ : > $ > % : > > > > % $ > > > O $ $ O $ > $ O $ > : $ $ O : > $ O O O $ O O O $ O O O O O O O o . o . . # .   . ",
"O P 5 o   = o o - + = o O o O - = O = = = = = = = = = = = = = = = O = = : = = = = = : : : : : : : > - < 1 : > : : : : < : : : : 3 , 3 : : 3 , $ 1 1 2 2 1 , 1 1 2 1 2 2 2 8 2 2 = : 2 2 2 2 j j F a i F P 6.e.x < h j 3 c >.>.6.0.M.M.q.N.0.N.:.q.:.q.N.q.q.w.0.N.t.0.q.:.q.q.t.>.5.y.y.N.0.O.m.lXA.) f J J ' ' W.;XfX^.I d a ; 8 2 r x j 8 x ....a i | | L / L 8.6./ ' J ) q.-.t.b.) ].PX'.i.hXKXdX=XfX0XQ.0.d.,X>Xb.' >.>.' s a l a a z a 2 i 8 2 8 2 , 2 2 2 z 8 2 j 3 l 0.f.( O.%XLXK.d - p 2 5 j Z K Z k k 8 j 8 8 A I C k a a 8 5 2 1 > > , > > % 4 , % % > , > , , , 1 > 1 > 1 > 1 1 1 1 > - 1 > > 1 - 1 1 1 1 1 - 1 1 > > > : > > : > 1 $ % , , : $ > > 1 1 1 1 1 > - = > - O = > : : $ , % $ > $ $ : , : $ $ , , O .   . . > > . > 1 > - 1 1 > ; 1 ; > - > - 1 > : : - - : > : > - - - - + + % % + > - - - - - q 1 q ; 1 q 1 ; - - 1 - - - + - + + > 4 $ $ $ $ - > - 1 - : : 1 - : : = > O > $ $ > : : : % O > > O $ O % > > $ : % : % > > $ $ $ $ $ > > % % : + $ % $ % O O $ $ O $ O $ $ $ O O O $ : $ O : + O > > > % $ : > > % : % : : % % O O $ $ > $ O $ % O % > $ $ : O O O O O O $ $ O $ O O . O O o o . . O . + X     ",
". Z > O   - O o O O O o o o - - o o o O O = = = = = = = = = - = o = = > : : = = = : : : : = : : : : : : : : : = > 1 1 : 1 : : : 2 2 3 : 3 2 3 $   : 2 2 1 : 1 2 1 2 2 2 1 2 a j : 1 8 j 2 1 2 z x p i n / e.t.= j h j N c @...6.0.N.M.q.N.N.0.:.q.q.q.q.N.N.N.N.N.0.q.q.:.:.:.N.>.:.0.q.t.t.5.C.AXQ.) b J J ' ' ].6XgXD.1 a F 1 8 8 r z j 2 x .. .i n _ | ..( n 6.6.P _ f ) q.5.9.b.b W.PX*XN.fXLXKX|.AXfXb.0.t.%X:Xd._ -.,...l k l 2 i l 8 1 a j 2 j 3 , : 2 2 a 8 a s : p o.r.,.@.^.kXV.; ; 1 a 1 , 7 k j k x 2 8 2 r A A c r 1 1 1 1 > > : 1 , > $ > , , , & , > 1 , > , 4 1 1 1 1 - ; - 1 1 - 1 1 1 1 1 : - 1 7 1 1 > - > 1 , > > > $ % : > $ 1 , , > $ $ 1 ; q 1 ; 1 1 - > > : = = O > $ $ > > , % : , : : > : > , 2 $ .   . . : 1 O > 1 > > 1 > = ; 1 1 1 - 1 > < - - < - 1 1 - = = = - > > > - + O > - > = o - 1 ; ; q 1 1 7 - - - 1 - - - - > > > + > > % % % $ : > : > > 1 - > 1 > - - = > : % > O % $ $ $ $ $ $ $ $ > $ : O $ > O $ $ : % $ $ : + : % $ : % $ : $ O : O $ : O : O $ $ O $ O : % $ $ O $ > $ $ $ $ % : 1 > % $ O $ > > > % $ $ : O O $ $ $ $ > > : 1 8 $ > $ O O $ . . $ $ $ O O O O . . . . O O o o o X .     ",
"o d - o ; o = o o = = o - - o - = O O O = = = . > = = = = = = O - ; = = - 1 : > : : : < 3 : : : : : : 1 1 : : : : : > 1 : 1 : 1 : : : 3 3 , 3 , : 1 : 1 1 > : > 2 7 i 2 2 : 2 j a 2 2 7 2 2 2 2 3 & h N ..t.N.N h j < l | | I ,.0.M.N.0.0.t.t.:.0.q.q.N.0.t.N.b.t.0.q.q.O...5.t.>.O.y.0.y.y.7.R.gX^.) f J ] :.1.8X7XvX].a d F > c j k j F Z a P o.x H _ ) '  .i ..,.I @./ ..6.o.r.0.) K.SX;XM.;XFXfX=X0X~.d.q.e.-X%X5.L 5.-._ d l j i a z 7 1 2 2 2 2 : , , 2 , z 8 2 a i l ..0.' l /.lX~.b o 7 8 8 8 a a j a j 2 2 2 k x x j 8 1 8 2 : > 5 8 , $ > : , : , % % > > > > > , 1 > - : > - ; 1 ; ; > 1 1 > 1 1 > 1 1 1 1 1 - > 1 - , > > > + > , 5 , , > > > % : O - > - - : 1 > > - - : > : > $ & > > % > > : , : , $ $ , > $ . .     : 1 = $ , - > 1 > < ; > 1 ; < > > - > : > > : - : > > = > > - > > + > % - - - - - - 1 ; + ; - ; - 1 - - - - O + > + - + > > , % : > 1 > > > - > 1 1 ; 1 ; > > > $ $ : > > $ O > $ > $ : % > O : > % $ O O > > > > > $ O $ O O O O O $ O O $ $ $ $ O $ O O O > $ $ $ O + + : $ O $ : > > $ O > $ $ O : % $ > % % % : > > : $ % O % O $ $ : > $ $ > $ > : $ O O O O O $ O O O > O @ + + - O   X . .   ",
"o s > o - o = = = o o O o = o o O = = = = O O O = O - : = O - = = = = = : : < : = : : : : 3 3 : ; - : > : 1 : : > < < : : 1 < : : : 3 3 3 : : $ 1 : 2 : 1 1 1 1 1 2 2 8 2 > 1 7 2 2 2 2 2 2 2 2 3 3 h c ..y.r.c 3 i 3 l | L I 6.q.N.0.q.q.q.N.5.q.5.q.0.t.0.t.t.N.0.q.:.o.@.>.y. .O.r.q.t.d.y.C.fXQ.^ 7 J 0.w.:.].8XSX!.i a J 1 5 1 , , k z i T } j b / L ' X.d I >.I I N / ,.@.>.0.' J.SX8Xd.8XPX8X*XdX=XM.0.t.-X>Xr.L >.-.P 7 a d a j n x i k 2 2 , , 2 2 3 2 k 8 5 i 2 d L O.5.n W.kX:X,.; - i i 8 8 8 8 9 j 8 7 7 a k k k j a 7 1 1 1 7 8 2 > > , & , & , > > > : , > > : > 1 - 1 > ; 1 1 ; 1 > 1 1 > > 1 1 1 > 1 > > < 1 > > > > : : > : > > $ > > $ : > $ ; > - : - - - 1 : : > > , > % $ > > > > > : $ : : $ : : % $ .     . $ , $ $ > - 1 > 1 - 1 ; - - - > : 1 > > > - - 1 : - - > : - > + > > + + - O - - 1 - - 1 q - - 1 1 - - - - - - - - - + O + - > : $ $ O : - > 1 , > 1 - - - > = O > $ > > O $ O $ % : $ > $ > O > > $ $ $ $ > > $ $ % > % : $ $ > : % > $ % : % > > : > $ % $ $ + : $ $ : $ % > : $ $ O $ $ > > $ $ $ $ > > > : : O % > > % $ > > : : O $ O $ $ $ $ $ O O O $ O O $ $ $ $ $ O - = O O + + o   X       ",
"O Z 1 o - o = = - = o ; = o = o O O > $ . O O > O O $ O $ % O : O = = = - > - : = : : : : : 3 : : : : < < > : : : : : : 1 : 1 : $ : 2 3 $ $ $ 3 1 1 1 2 , , 1 1 : 1 2 i 8 < : 2 2 1 1 : 1 : 2 i h 3 c M / r.6.h < < p c L I L 6.5.N.q.5.q.0.N.q.q.5.0.N.0.q.t.t.d.0.:.:.o.o.>.8...:.r.7.y.d.5.d.gXB.^ 7 f { { J !.lXAX].F a b 2 7 , 1 - s j a ` -.b F P H ' ' p c 6...N N T o.o.q.d.' d.hXhXM.7XPXfX*XkX7Xm.7.0.^.=Xy.L -.>.' j < 1 1 a z k 2 2 2 2 : 2 2 2 8 2 a 2 8 a i p n / O.I R.fX{. .; 1 2 5 8 i 8 a a 8 j 8 2 7 8 k k j 7 1 1 1 2 1 2 5 , > % , , % : % > > > > > > 1 1 1 1 > 1 1 1 1 q - : 1 - - 1 ; > > ; > - - - > > = : : > > 1 > , > : > : > > > > - > < - : > > > > > > % , > , & > > > > , $ , : : $ $ , > $ O     . % , > $ > = 1 > > - 1 - - < > > > > : > > > > > > > > : $ > % > - + - + - - - - 1 - 1 ; 1 1 - ; 1 ; 1 - - - - > > + + O + + > % $ O O O - < 1 1 < - - - ; ; > : : % % : > O > : % $ : % O > $ > > > : % > > O $ O : > > > > > : > > > > > $ > : > > $ > $ : : + $ O $ : % : > : O O O O : > : % $ $ $ > : $ % $ $ $ : > $ O > > $ O $ O $ O $ $ : $ $ $ O O $ $ : $ $ : $ $ - + O + O O . .         ",
"o z 1 o o o ; o o = - o o ; o = O O $ : = O = : O O O O $ $ > % = O o = = : = = : : 3 : : : $ : : : : : - : : : = : - : : : : : : , 3 3 3 3 , 3 2 , 2 1 2 2 1 1 : : 2 8 2 : : 1 2 , : , 1 1 2 2 3 h 3 c / 6.5.c < p i l n n L >.q.N.N.q.q.0.t.t.t.q.q.N.q.t.t.t.t.q.O.:.O.O.7.y.X.O.y.7.y.0.O.y.lXM.' J J ' J ` =XSXhX].&.a a p z 9 s 7 s a a .. .Z z L P ' _ a C 6...N I / o.6.{ d.0.5.!.;XN.=XKXAXgXdX%XM.5.q.R.:Xd.[ :.8...z j l j j x z i a 7 2 , , 2 2 2 2 2 7 2 a 7 2 l F ( ) R.>XJ.p o p 7 2 7 2 8 7 7 5 a 8 7 2 a a j k a > > 7 5 1 > 5 , > , % , , , , > > > > > > > > > 1 1 1 1 1 1 1 - 1 - > 1 - > > - > > 1 > 1 1 1 > $ > > , 5 8 r , , , > > > > $ 1 : : - = - > > > > > > , , : $ > > > % $ > : : : : : & : $         : , O = 1 = - - 1 : - 1 ; : - > : > > > % : $ : > = % : > $ % - > > + > - + - - - - 1 q q 1 ; q - q - - - - - - > > > + + - : $ $ O = = = : 1 > ; - ; 1 < 1 > - O $ % > % : > > > $ % $ : O $ > $ > % : > $ O $ $ $ % : > > $ $ O $ O $ $ $ O $ O $ O $ O $ > $ > O $ + $ $ % $ % O O O % > > $ > % $ O % > > O $ $ > > > $ > : > $ $ $ O O $ O O % O O O O O $ O $ $ O O O O + + - o @ . . .       ",
"o z 7 o o o o o ; o ; o - o - - = O O : > > O O O $ O $ $ $ % : = = = o : ; : : < 1 : : = : $ : : > < : : = = = - < : : : 1 : : 2 3 : 3 , 2 2 3 : < 1 1 1 1 1 > , : 1 2 2 : 1 2 1 : 1 2 2 , 3 , 3 h 3 h / 6.>.h < p j n n x L >.q.M.q.:.q.q.q.N.0.q.0.N.q.q.y.y.y.5.o.X. .O.5.6.) | r.r.y.6.o.V.FXJ.J Z ) { ) J ;XSXfXW.' a 1 1 k 8 a 4 a 9 a } ' k d F P ' ) b c o...I I N ..>.:.q.b.w.B.!.B.B.IXFXfXAX=Xm.5.0.R.>XM.) -.8.P 1 z z a i z j 2 a a 2 2 2 2 2 2 2 a 8 7 7 i i l n | ) V.].J.F o p 1 1 5 2 1 7 2 2 2 7 8 7 7 a 8 8 7 > = 1 , : > , > , : , > , % & > > > > > > 1 > 1 > - - 1 1 < - 1 > 1 1 1 ; 1 1 1 : > - 1 1 1 1 2 , , > 1 , 8 r , , , > > : % > > - : - : - : > , 1 > % , , , $ > + > > > $ , : , $ : & , $     . . % , $ O - = - : > ; 1 - - - > : > > : > > > > $ + > : > > > > > - + > + - - - 1 1 - ; ; ; 1 ; - 1 - - - - - - - > - > + > > = = : - - - - = ; ; - 1 1 1 1 ; = + : O % > $ $ > : > % > $ $ O $ $ : > % : % : : : % $ $ > O > O O $ O O O $ O O $ $ O $ O $ O $ $ - O : % O % O $ $ > : O $ $ O $ > : % O O % : $ : % > > $ O $ % : O $ $ $ $ $ $ % $ O O O O O O $ O $ $ O O . = - + o o o . .       ",
"o F d o ; o ; o o o o ; ; - ; - O . . : , > $ . O O O $ $ : $ > o = o O = : : = 1 : : $ = O : $ 1 : : = : O = = : : > : 1 : 1 3 r 3 : : 3 3 < : : : : : : : : : 2 1 1 2 2 1 1 2 : : 1 2 , : 3 3 3 c h 3 [ 6...3 : < c L I n I | q.N.q.{ :.:.q.q.0.q.q.q.y.y.0.5.0.5.+.| ' | o.6./ ' y.y.y.6.o.V.AX-X) p f ] ` ) Q.SXkXJ.H d 2 2 , 2 7 7 a s z ;.o.F Z J ) / ) b c ....I / I ..>.t.:.q.M.B.].B.B.IXvX=XAXgXm.:.t.^.>Xm.P  .6.L 1 p a 1 ; 2 a 1 2 a 2 2 2 , 2 2 , j a 2 1 i a l n H m d.W.J.) 1 1 1 1 7 1 7 1 1 7 2 1 2 5 8 2 1 2 1 = : > , > > > > > % % > > % , > : , > > > 1 : : - : 1 - ; - 1 1 1 1 > > 1 > 1 > - 1 1 1 1 1 7 8 , > > $ $ > 1 O O + = + : > $ 1 : : - - > > $ , > > > % , , & > > > > : > : > $ $ $ : : $ O   . . : 1 $ $ > = : - : - - 1 1 - > > > > > > > % : > > : : % % : + > - > - + = - > - - - - q - - ; q - 1 > > - - O - > % + > > > = - > 1 1 > ; = o = - ; 1 1 < > > : $ > > : $ $ % > $ : O > % : % $ O O : > O $ > % : > > $ : O : $ $ O : $ : % % $ : % > : > % $ $ $ $ O $ > : O $ > > $ $ O > $ $ > > : $ : > % $ O > > : $ $ $ O $ $ O : > > : % $ $ $ O O O O O O $ O O O O . O + + O @ o .         ",
"o Z a o o o ; o o o o - ; - ; - O O O O $ $ O $ : O $ O : O = O = = O = = : : = : : : O : : : 3 : = = : : = : : - : : : 1 : : : 3 : 3 : 3 : : O 1 : 1 > > 1 1 : 2 : : 1 1 1 : 1 2 1 , 2 r 3 3 , h c 3 3 [ >.| p < < c L L F ) | :.N.q.] 5.:.:.0.t.5.q.N.y.y.y.5.7.,.:.| / ( o.>.X.o.r.r.t.r...t.AXgXO.b b H ' ` B.AXSXJ.z x i i > 7 8 a s s a &.-.P F L _ P H n c / &.I I I @.@.q.{ ' q.B.-XM.N.KXAX;XfX&Xb.O.t./.=Xm.H  .8.P d a z a i j x j j 2 2 , 1 2 , , 2 8 a 1 1 p p l l d b 0.J.V.H ; - > 1 , > 1 > 1 > , 1 7 2 1 1 1 1 1 1 > > 1 , , $ > , $ % & : > > > > > > > > > 1 - > - - - ; - ; 1 > - 1 > 1 ; 1 ; > < > 1 1 1 , 1 : > > $ $ O O $ O : > > > : > > - : - : - : > , % % $ % , , , > - > > > > $ : , $ 3 , , O .   . . : , O > > O - : = : ; - 1 < > > > : > > > > % O > > % > > > + 4 % % - + - - - - - - - - - - ; - 1 - - - - - - - > - - + > > = = : > 1 > : - - ; ; ; ; ; ; 1 : > $ $ > % $ % O : > $ $ $ > : : $ O $ % > $ O > > % $ $ $ O % > % $ > > $ % : % : $ : $ > > > > $ $ $ $ $ $ % O : > : O O $ > $ $ 1 > $ O $ > > $ $ > > > : $ $ % $ $ O $ $ $ > % % : $ O O O O O O $ $ O O O o O O + . O . . X . .   ",
"o Z p o o o ; = o ; o = o o = O O O O O . . $ 1 $ $ $ $ O = O O = = = = : > : = : = = = O : < : = = = = = : 1 < = = = : : : : : $ : , 2 3 : : $ 1 2 2 2 2 2 , 1 1 : : : 1 : : : 2 2 3 2 , : 3 3 3 M 3 h | 6.| h p < p n x I | ..:.N.5.] q.5.q.t.N.q.:.q.0.y.0.>.>.6.>.../ ' -.8. .o.7.>.t.t. .>.gX=Xb f ' J ) ) Q.lXKXQ.P J 1 a 7 a k 8 a 7 ; _ _ J z H P P J H c I >.c N ..o...:.N.:.+.N.B.N.q.IXIXgX0X^.y.+.f.^.%Xb.m ' 8.P x a j a i k z a 2 2 2 > : , 2 2 2 j 8 7 1 p a a i ) L >.m.m.P 1 o 1 1 > 1 > 1 > 1 > > 1 1 > > > > > 1 1 : > 5 , $ $ % $ $ $ $ $ > : , > > > % 1 > < - : 1 : > < - - 1 - > 1 > > > > 1 - > - - > , . O > > , > % O , 1 , > 1 > > > 1 > - > - : > = , % % > % & : & > > > % : > : > $ $ $ : > $ .   .   > , : O > = - ; : - - < - - > : > > : > > : > > > : > = : - > % > - - + - - + = O = ; = - ; - - - 1 > - - - > - 4 > > + + - > : - : - : - : 1 1 1 - - ; - = > $ > O : % > : O % O > $ > % > > > > $ > > > $ $ $ $ > % : > : $ $ % : O $ % $ O O O $ $ O : O $ $ > O $ $ $ $ $ > : $ O . $ , O % > > > O : > O % : O > > % O > > : % $ $ O O > > : $ $ $ O O $ O $ $ $ $ = O O O @ o + . .   X     . ",
"  7 = o = O o o - O = o - = = o o O = = O > = = > - > = = O = O O = = = : : : : = : : = O = = : < : : : : : : : : : : < 3 : : 3 O : 3 : 2 < 2 3 , : 2 : 3 , < 2 : 1 2 2 : : 1 2 2 2 , 3 , 3 > : p h 3 p | #.| 3 3 p j l n F P ( >.f.+.| #.#.7.y.5.7.@.7.y.5.5.7.7.>. .' ] (  .7.:. .8.0.t.y. .>.>X%X_ d b v G ) %XlXFXE.P d 7 d s - s a = 7 J _ P J _ ..L F L H d ' :.] J J ] ] q.q.q.:.q.M.b.;.LXIX7XfX>X:.X.b.%X=XM.L | 8.| 2 : k p a a , 2 a 8 2 2 2 , 3 : j 8 2 1 i i 1 p d H f ) d.b.F < : 7 1 > 1 5 1 1 , 7 > > 1 7 1 > 1 > 1 > > > : : > > > , > > > > : , > 1 - q - 7 - - 7 1 1 4 1 1 - > > 1 - > 1 > > > 1 > 1 - > > < - : > 1 - > > 1 > 1 - : > > 1 > $ > : > > > > > , > > : > > > > : : : > , , > $ $ 1 > > 4 O   .     $ > $ - 1 - ; - 1 < 1 1 = = > : > $ : > - : - : - - 1 - : - + - - - - > - > - : - : > = : : > > - = = : - > : = - > = - : > : $ : : > : > : $ $ $ $ : : 1 : : : : : : > = : = - - - = - - = > > > $ $ > > > > O O > > : > > $ $ $ > % $ O O : % $ > O + $ $ $ % $ > O % % = > > O $ O : % > : $ : % > > > : O > : : % > O > , , > > % $ $ % > % $ $ % $ O . O O     O & O . . . O $ X .   . . . . . ",
"o s o o - o - = o - o - - o - o = O O = - : = = = = - = - : = = O = = = = = : = = = : = O = = : : < : 3 3 : 3 : : : : : : 3 3 : : : : O : : , 2 3 3 : 3 : : : : O : > 1 1 : 2 2 3 : 3 3 3 3 3 3 3 3 3 p / #.I 3 3 h l l n F ) _ 5.t.O.| #.+.7.0.7.7.O.5.y.#.>.>.:.>.] ' ' '  .8.+.' 6.7.e.r.| O.1XgXd.P b J _ -.*XAXAXW.J V d Z 1 O s s - a F ` ' L P ' P J F z f ] ] J f ] :.:.q.q.:.{ N.B.b.q.gXFX0XfX>X7.X.0.^.%Xf.N / ,./ 3 < k 8 a a > 2 a 2 2 2 2 2 : : 2 i 2 1 i p p p d J d P 0.f.F 1 = 2 > > 1 1 , , 1 1 1 > 7 1 > 1 7 , > > > % > > > > , > $ > , 2 4 - > 4 - > 1 - - 4 1 - 7 > q > 7 1 > > 1 - 1 1 - - - - > : - > - > - - > > : - 1 1 > > > 1 > > 1 > $ > > > > : > > > > > > > > > , , , : > > : $ $ > > > 1 O o O .   % , = - ; ; < ; - - = : - - $ > O > > = > > - - : 1 - : ; : - - 1 - > - > > : = : : $ : O : = = : = : = = - = > : = - : - = > : : : : : : : $ $ : : : : : > > : : : : : - > : - + - - + - + : % % > : % > $ > $ $ > > $ $ : $ > $ $ : $ $ $ O $ $ + $ : O > $ = : O $ : $ $ > $ : O $ O $ O $ O O % $ O $ % > $ % $ > O > $ > > > > > 1 1 , $ : > : : O O O O   . O . O $ O . O O $ X O O O @ . . . ",
"o s -   - - - - - o - o O = o O = = = = = = = O > = - > > = = O = = = = : = = : = : : : = = = : : 3 : : : : : : = : : : : 3 : : 3 : : : : : 3 2 : : : : : : : : : : : 1 1 1 1 2 1 : 3 , r 3 3 3 p h 3 h ..o.I : < i h c z b I ) +.t.X.) @.@.5.0.0.7.O.5.y.5.#.>.:.+.' ) ' (  .q.] ' 5.8.e.r.@.>.0XfXm.J d ) F _ *XkXdXn.s Z J A - - s z 1 d J ..} x J _ P L P x f ' ] ^ J ] q.:.:.q.:.] N.B.N.:.=XPXAXlX7Xt.5.0.^.-Xb.n ( ,...7 1 k 8 a k 1 8 a 2 2 2 j 2 3 : 2 a 2 1 2 p p p d d p J 6.d.x 1 = > = > 1 1 1 2 8 1 > 1 1 1 > > 1 > , > : > : > > > , , $ 1 , 8 a - - > > - > - - > - - 1 1 4 - - - 1 > 1 > > - 1 : > - : : > - : 1 > > : - : < > > 1 1 - > ; > > % : $ > > > > > : > > , , > > : , > > , 1 > : $ > > > : 4 % . O O . > , = O 1 - 1 ; - ; = = > > % : % $ O > = - ; : - : ; 1 : - > q > > 1 : - : : > > : : $ : $ = - - > - - = = - = > - - : : : : : : $ : : > : 3 : : : : > 3 : : > : $ O - : > O = - + - - = - % $ $ : $ % O : > $ $ $ $ O O $ > % $ O O $ : O > : + : $ $ : % $ % $ > $ % O $ > O % $ $ $ O > O O $ : O $ $ $ : % $ $ $ % : % > : > > > % > > $ > , : % O O : O X $ $ O . $ $ O O & X O . O O X O . . ",
"O z > o O o - o O o = = o - - - - = = - - > = = O = : = = O = : = = : : : = = = O ; : : : : = = : : : : : : 3 : : : : 3 : : : : : 3 3 2 3 : 3 : 3 : : : 3 : 3 2 , 1 1 1 2 1 1 1 , 3 3 2 2 2 r 2 3 h 3 l ..@.N 3 < p j l l x H P | t.X.) @.| 5.y.6.7.@.>.6.>.>.#.:.O.' ) _ ) ' 5.O.' 5.6.r.y...6.gXfXm.f d { J ' {.kXfXh.1 x S f 1 - z s 1 7 s P } z z T ) P L b b  .O.] J ] ] ] q.d.:.' N.M.q.{ {.LXdXgX*Xr.O.5.^.%Xb.n ( 6...j 1 z 7 a j 2 a 8 2 : 2 3 , 3 3 3 a 2 1 p 7 7 d b f a d  .r.x < = > > 1 7 1 > 1 7 , > > 1 , > 1 1 , > 1 > > > > > > , > > , 2 8 5 - - - > 4 - > - - - - > - - - - > > > - < > > > - : - : - - : - 1 > 1 - - - > > - > : - : - > > % > > > : > > > $ > , , , > > $ , : : > > : $ $ > , > O , > . % . . > 4 = > 1 1 1 1 - - = = - 1 > % : > $ > : - = : : > ; - ; - 1 - - - - : - - > : = = : : : : = - > > > > > = > = = > > - = > > : : : : $ : : > : : : : : $ : : : $ $ : = : : > = - - - + - - $ $ O O O O $ $ > $ $ > > O O $ > > : $ O O % % $ $ $ $ $ % : O $ $ = O + : : % : > $ $ O $ $ $ O $ $ O > $ + : > O > > : % % : > > O : $ $ O $ O O : O O O O $ O $ % & .   O & & $ O O . . O X @ O @ @ ",
"o k 1 o - O = o O = o = O - = O = > = : - = - = = = = - = O = O = = : : = = = = : = = : : : : O : O O : : : : : : : : : : : = : : : 3 3 , 3 : : : : : 3 3 : 3 2 , 1 1 1 1 : : : , 3 3 3 3 3 3 , 3 3 3 v | | l < i h l n b n H ) X.t.@.^ +.@.q.y.5.7.O.O.7.5.O.O.:.+.' ) / ) ' 5.:. .q.6.6.6./ o.,XgXm.l d ) F 6.*XFXfXf.; s F s 7 1 a - ; 1 7 P o.F F ' P P H l z ( o./ ] ] ] ] q.M.q.] b.M.d.:.).KXfX0X=X0.X.5.^.%Xf.n P >./ 8 1 s 1 a k 2 a 8 8 2 1 , 3 : 1 , a 1 1 p p p d d d d d _ 6.x : : > > , 1 , = > 1 1 : > > , > > 1 , > > > > : > > $ 1 , > , 1 , > - > > 1 1 1 - - : - : - > - > - > ; > - : 1 1 : = - : - : - : - 1 1 > : - > - 1 : > = > = > > - : > $ > > > 1 > $ > > , 1 > > : : $ : : > > : > > , $ $ 7 > . % . . $ , = > 1 ; ; 1 1 - - > 1 > > > > > > > > > > : - > 1 - ; - - - > - = = = O : = > : > 3 : , = : 1 > 1 > - = : - = > = = > = : : > : $ , : : $ : : : $ : $ : O : : : : : $ O $ = > = - O - - $ $ $ O O O : O : $ O > > $ $ % > : $ O O $ > : $ $ $ $ % O : % : % $ % O % = % % $ > $ $ O $ O $ $ $ $ $ % > $ > O > $ $ % : % > : % $ O $ O O $ . . . O O O   O X X O O X . . O & O . . . . O . . @ . ",
"  s - o - O - - o - = @ + o - - = O = = - : O = O O O : = - = : O = = = : : = : : : : : < : : : = = : : : O : : = 3 : : : : : : : : : O . O O : : : < : : : : 3 O = : : : : : : : , 3 : 3 : : 3 p 3 p M ..| l < < j x n x x H P | t.X.[ @.X.7.q.6.6.O.O.7.O.+.X.+. ./ ) ( _  .0. .] 6.6.y.r...>.kXlXf.d z J d ,.:XZXgXd.o s F s 7 7 s 7 7 a a P  .F K  ._ H H F F .. .) ] ] :.] ] d.q.:.b.J.N.1.W.FXfXlXgXt. .t.-X%Xb.x I -./ 2 1 k 1 8 j 2 2 2 i 1 3 : 3 : 3 2 7 1 1 1 p 1 p d p z z P ,.c : 1 1 1 1 7 1 > > 1 1 1 - 1 1 - > 1 > , > > > > > > $ > , 1 > , > O 1 : 1 > > > 1 > - : > > : > = : > > > - : - - > > - 1 : > - : > > : > - > : - > - - : = = = = > > % : > : > > > > > > , 1 > > $ $ $ $ : 1 1 , : > , O > 7 > o O . . $ , = > 1 1 ; ; ; 1 1 > = = : % > $ $ > : > = - - : ; > > - - - - O = = = = = : : > : : , 3 - > > > 1 > > : - = > = = > - : : : : : $ : : : $ $ : $ $ : : : O $ : : 1 $ = O - = = = - - - - > O $ O $ $ $ : % $ $ > > > > 1 > > > O $ O O > > + : % O > O : O % $ $ : $ $ $ O > $ % : > $ O - $ $ > > : : > $ % : % > : % $ % > % : $ : > > , $ . O $ 1 : .   . O O $ $ O O . . O .   . . O @ X . . ",
"o s 1 O = o o O o o o = o - = - O = O = = : O = O = = O - O = O = = = : = : ; : : : = = : : 1 ; : : : : : : : = : : : : : : : = O = = O O O : : 3 3 3 : : : 3 O = - < 1 : : : 1 : 3 3 : : : 3 3 3 3 i N o.| l 2 < i l x l l H L | y.( m | | 6.>.O.7.O.>.>.+.+.| +.X.) ) ( / X.8.' / 7.6.y.y.o.6.LXLXb.l H ) I >.*XAXdXb.- a d a 7 a 8 1 s z a G _ z F ..T H H H P .. ./ J ] :.] ] d.d.q.N.M.d.:.b.fXgXkX0X0.( t.-X:Xb.n L >...8 1 d 1 7 j 1 7 2 8 2 : 3 2 3 : 2 7 2 7 p 1 p 7 p < H z n  .a $ < 1 > > 1 7 1 1 7 > > > 1 1 > - 1 1 > > 1 > - : 1 : > 1 > > > > = > 1 > - : - > 1 1 - > - > 1 > = - - > < > > - : : > > - > - > - = - > > 1 > > : : : - = = = > : > : > > - 1 > > > > 1 > 1 > > 1 , : $ : 1 > : > > 1 = : 7 > o o . . % , = : 1 - ; - - ; = = = = $ : $ O : : = = - : - < - ; - - = + - - = = - > > = : : : : $ : - : : - = - - = > = > = : - > = $ : : : : : : : : $ : : : : : : O : : : : : $ O : = O - = > = : O : O : O $ % $ > $ $ > > $ > > O - = = : = O = = = = = > O > = O : + : % : $ $ : $ > : % $ O : O $ : % + : % $ $ : % % $ $ $ > > : > $ % : > > , , $ $ > , : :   O % , % O X O . O O O . . . . @ . @   ",
"- F 7 o o   o o = o O - o = - - o O = O = - > = O O O = = = = : O O = = = : : : < : = = : > : - : 3 < : : : : : : : : : : = $ = O : 3 2 3 < : : : : : : : : : : : 2 8 2 1 : > 1 : : : 3 , 3 3 j 3 3 3 N o.| h p < i l n z v F P X.t.| m | O.7.5.X.5.o.#.#.O.+.X.o. ./ ) / ) | 5.( _ 5.6.y.6.| >.kXLXd.i d z P 8.>XKXFXJ.a s 1 = - - 1 - a a - z P z P ..H d x x n I | L ] ] :.:.:.q.M.q.t.M.d.-.e.fXfXfX>X>.) y.^.:XM.n P -.( j > j 1 7 j 2 2 2 2 < : 2 2 , 3 : 2 1 ; p 1 p q p 1 H x z ..1 O : 1 > - 1 7 2 5 2 1 - > > 1 - > > 1 1 - > : > > - > , > > - 1 1 - > > - = = - > > - > : 1 > - > > > : > - - : > - - > : > - > < > = - > 1 1 1 : - - - = = = - = - > > : > > > 1 > 1 > 1 : > > > < : : : : : > > = 1 > O > 1 -   o . . : & O = ; = ; ; - - = = O = O O O $ O O = = - - - > < > ; = = - - - - > = > : : : $ $ $ $ $ = = = O = O = = : - - : - = > : > : : : : : : : $ : : : : 3 > , $ : : $ : O : : = : > = = = = - $ % $ $ % : O % > $ $ : $ O O O : > > = - = : O - = - = = : - = > $ $ $ $ + $ % O % $ > $ $ O O $ O O O $ $ > O > + : : $ > % : > > > $ $ $ $ $ > $ O O O O . .   % 5 5 %     . . O $ & $ O . . . . .   ",
"o F - . o = o - o o = = o = o o = = O = O = O = = O = O = = O = = O = O : = : : : < : : : : : : : O : = = : = = : : : : : : : : 3 3 : 3 < 3 : : : : : 3 : : 3 : : > , 2 2 , 1 : 3 3 : 3 3 , 3 3 : p p N @.I < < i l a d b n z n ( y.( N / | 5.#.#.5.@.+.#.O.O.| '  .| ) ) L | >.| @.6.>.y.t.| / gXLXV.h l n L o.{.0XFXK.3 3 x ; 0 7 7 s z a 7 d I I _ ' K H L F L I o...) | X.O.] q.N.q.y.N.N.q.f.AXkXFXgXt.) 0.-X-XV.[ M | o.r a 2 , 7 a j a 2 : 1 3 , : 3 , 2 2 2 : < 2 p i s ; a d H T j $ , 1 1 > > > > 1 7 1 1 1 > 1 > > - 1 1 > - > - > 1 1 : - > 1 1 1 ; - > 1 1 1 : : : 1 1 > : : 1 : : - - - : - - - - : - = > = : > 1 > > 1 > 1 - 1 - 1 : 1 - - > - 1 - : - 1 - ; > 1 > - = = = > - - : : : : : > 1 < 1 - = > 1 - o o . . $ % : $ > : 7 q ; = = - - = > $ $ $ % $ = > - : : - ; = ; , - - + - - 1 = = > : > - : : $ $ = > - = - = : = > > - = = = - : : : : $ : : : : : > : : : : : : : : : : : : : : 2 , : $ O : : > > > O $ $ $ > > : % : % % $ O : = : - = = = = = O > : = = > - = % O > : O > O : > O $ > % $ > O > > % > > % > > $ : % % % : % % > > $ $ O : > > > : % $ > O $ $ % O $ & O & O . O . . . . . O & O . . . ",
"o A = o o =   o o O O o + = o o O = o O o o O = = o O = o = = O = = = = = = : : O O = O = O O O : : : : : : : : : : : : : : : = : : : : : : : : : : : : 3 , : : - - : 1 < 1 1 : , , 3 : : 3 2 2 : 3 h n | n < < i l l d n b z H  .t.X.L / @.q.7.O.5.X.X.O.O.+.X.| X.| ) ) ) ' >.| ..>.#.y.t.@./ gXFXZ.c n l x ..R.fXLX~.x , s 1 7 ; 7 a i 1 i V Z J P / F F H F N L o.| ( | X.O.@.q.y.y.N.M.t.5.b.kXgXlX7Xt.( 0.^.-Xf.N M @...r d 8 1 7 2 8 8 7 2 2 , > , : 3 2 a , 1 1 1 1 p d < i d F P r O : 1 - - 1 1 > > 1 > , > 1 1 1 1 > 1 1 > 1 > 1 > < 1 1 - 1 1 1 > - < 1 > 1 , : > > : > 1 > > : : > : : > - : > : > : - = > - > - > > 1 > 1 1 > > > > 1 > > < > 1 > : > : : : > : - 1 - ; = - : > : > : : : > : > > 1 - = > 1 - o   . . $ , > $ : > p ; ; - ; : > = > $ $ % : % - = - 1 1 - = ; ; > 1 - - - > : = = : > : : : : : : : - : > : > - > - - = = = > > > > : > : $ : $ , : : : : : > : : : : : : : : : : 3 : : $ : = > = > $ > $ $ $ $ > % > > : $ > > $ = - - = = O = = = : ; = = = : = = : $ O $ $ > + $ $ $ $ O : O $ $ : $ $ $ > $ $ : % + : : % % : > $ $ $ $ $ > $ $ > $ > $ % : % % $ $ O O O . O & . . . . . O O X @ . . ",
"  A + o o - o o o o o = = o o o = O O o = O O = o = O o = O = = = = = = = = = O : : : < < 1 : < : : : : : : : : : : : : : : : : : : O = O O = : : : : : : : : : = = : > : 1 , 2 3 3 : : 3 , 2 i : i c N | c : < i l l l x z x H +.y.| m ) | 7.7.O.5.@.X.O.X.@.| | | ( ^ L L | #.@...o.>.y.f...| >XFXZ.B n i j / ~.AXjXf.k 1 2 1 = - - 7 1 - 7 Z J F P P F n F H I N ....(  .X.O.@.y.N.y.y.N.N.O.d.eX7XfX>Xt.( 7.-X=Xt.M I o.| 3 a 7 7 1 2 2 7 2 1 2 3 3 : 3 3 3 2 , : , 1 1 p a ; i 7 x I j O : : = = > > - 1 1 1 1 - > 1 > > 1 1 > 1 1 1 - > - > - 1 - 1 1 - > , , , 1 , 1 : > : 1 : > , : : > > : - > : > - : 1 : : - - > > 1 > ; 1 > > > - > > 1 1 > > > > 1 1 - 1 - > : - - : > : - = - - > > : : > : : < > 1 1 > 1 > - o o . . $ : > = ; 1 1 1 1 ; > > - - $ : % : > = > : - : 1 : = = - : > > - - - : = = = : : : : > > : - > > = - : : - = = = > : - = : : : : $ : : : : : : : $ : $ : : O $ $ $ $ $ $ $ 3 , : : O : O : O > $ > : % > $ % : % $ : O $ + - : - = = = = = - : - = = - > = = > > O $ % > : > $ $ O O : $ > $ O O $ O : $ $ % : > $ : % $ $ > : $ $ O > $ > > % : % $ : % : X $ & O . . . . $ O . . . . . . @ . .   ",
"  J > o O - o O O = o = = @ = = = o = o = o = o = O O = O = O O = = = = O = = : = = = O : = = = : : : : : : : : = : = = = : = : 3 : : : = : : : 3 : : 3 3 : 3 3 : : : : : 1 < , 2 3 , : 3 3 3 2 3 j h N | h : : i c l l z l b H ] y.( M N ) 5.5.+.>.O.+.@.X.X.| ( | ^ N N N ( >.@.( o.>.r.y./ / {.lXV.p b d i F {.FX>X#.2 ; 1 : > 1 7 7 < 7 d J F H P _ H H F F I I o...) ] ] ] #.q.N.y.y.N.y.O.t.0XfXfX=X8.( >.{.>XV.M I O...j i 7 a 7 2 1 2 2 : 2 2 2 < , , 2 8 2 : 2 1 1 p a p a 2 c I r O : > > - > 1 : > 1 > > - > > 1 1 > - 1 - 1 1 1 1 - 1 1 > 1 > , 1 > : > 1 : : 1 , > 1 > 1 : > : > : - 1 : - 1 > 1 : - - - : - : - > > - > : 1 > < - > - : - - > > 1 1 > - 1 - : ; - = - 1 - = = : < : : : : > > : 1 1 : - 1 7 o o o   . $ & > > ; - 1 ; 1 1 1 > : 1 > > > > > > > > - : - - - ; - < - - + - - > = - O = : - : : : : - = = = > - - : O = = : 1 > > > > : : : : : : : : : : $ : : : : O $ O $ $ $ : : $ : > : : : = O $ O : > > > O : > > $ > % % : : = - - = = - = = - > - = = - > - > % : > % : $ > > : $ O O $ % > $ $ % : $ O > O > % : > $ > > > $ % $ > > O > $ $ : > O O > O $ O X . O O . O . $ O . . . . . . @ .     ",
"  P s > o - o = = o O = o - = o O o = O O O O O = = = O o O O o O = o = = = = : O = = = = O O O : : : : : : : : : O = : = : = = : : : 3 : : : = : : < 3 : 3 3 : 2 1 1 > 3 > , 1 3 3 3 $ 3 , 3 3 3 p h N | N < : i l l l x l v P ) 6.( m ^ ) 5.5.+.5.O.X.X.| X.( [ | | N N N | 5.@.I o.#.y.6.N N :XAXb.< l b l a ~.LXjX8.i = O : 7 7 1 7 i a z G z z H T H b b x L L o...( ] X.] #.y.y.q.y.N.y.#.9.gXAXlX>X5./ +./.>Xt.L n O.T x 1 1 7 a 8 2 2 2 2 2 2 2 1 : 2 2 j , , 2 1 < 2 i a d p a x j $ 3 1 > > 1 1 > : > 1 > - > 1 1 1 > > ; 1 1 1 1 1 ; - 1 1 1 1 1 1 - 1 : , : : : 3 1 : > , : : : : > > 1 > - < > > > > : > = : > 1 - > - 1 1 1 - - < 1 > - : > : > > 1 ; 1 1 - - ; - - ; 1 1 ; ; - < - < < : ; ; 1 1 < - - 1 1 ; o o   . $ > - = - 1 - ; 1 - : - = > : > > : > > > > - : 1 : ; ; - > - - - - > > > > : : : > : : : 1 : - > = - : - - O = = : > > - : : : : : : : : > : : : , : : : : : $ 3 $ $ $ : : : : : : : $ $ O $ $ % > > > $ O > $ $ : % O % = - - ; : - - ; 1 - < ; = o ; < : > $ : $ % : $ > $ $ O $ O $ > : > O $ $ $ $ $ $ $ > $ > $ > : % % : > $ : % > $ % : % O : O $ O X O O . O . . . O $ O O . .   . @ .   . ",
"O ` k > o = o o o - O - - o o - O = O = = O = O = = = = = o = O = O = O = = : = < : < : < : ; : : : : : = : = : : : : : = : : : = : : 3 3 : : O 3 : : : : > : , 2 2 1 1 : : : 2 $ 3 $ 3 3 , r 2 3 h 3 n | N < ; l n l c l z z H L q.( L ) ] 7.7.@.5.@.| X.( | ( | | | ^ L ) | 7.@./ #.6.y.y.[ | ,XLXb.< l L b i ^.FXlXr.j a ; ; a 7 - 1 7 s z b z z P _ P F F b I I  .| ' X.X.O.@.y.y.#.7.t.y.#.e.fXLXAX>X7.' +.R.^.r.L x  .T I 1 1 2 8 j a 7 2 1 2 2 2 3 2 2 3 r 3 2 , 2 1 1 p a k 8 2 c r $ , 1 , 1 7 1 - - > 1 > : : > > > 1 - 1 1 1 1 1 q 1 ; 1 1 1 1 ; - 1 1 : : : : , : , 3 , > : 3 > : 3 - : - > - > - - - - = : - : : 1 : - > - : > > > > - - 1 ; > 1 - 1 1 - ; < - : ; - ; - < : - - : < : - - : 1 - < - ; ; 1 7 ; ; o   O % % : = - ; 1 ; - ; - - > : > > > > : > > - - > - - = - ; 1 o = - - - = > 1 : = = : : : : : - : > = = > > = = O - > - : - 1 > : : $ $ : : : > : : : : : : : : : : : $ 3 $ $ : : : : $ : $ : O > : > > O % $ $ > > % $ > $ = : ; ; - - < : ; - - - = ; - > = : $ O % O $ $ > O > O > $ $ $ $ $ > $ > O > > % > > > > > > > % O % $ % > % % : % O $ : $ % $ O O O O O O O O . O & . . . . .   .       ",
"o U 7 o o > o o - - O o o + o o O = = = = = = = O O O = = O O = O O O = O = = = O O O O O O O . = : : : : : : : : : : : : : : : : : : : = : : : : : : : 3 : 3 : 1 1 : 1 : 3 , , , 3 3 $ , 3 3 3 3 p h n | M < < l c l d x v n n ) 7.( L / ( 7.7.| O.| | X.( | ( | | L N N | | 6.@./ 5.r.t.y.@.6.lXFXb.3 n n l l {.lXAXe.1 F 1 = > 1 7 7 < 7 a s J x I .._ H H F I F | ' ) +.X.O.@.#.y.7.#.y.y.#.e.gXFXkX:X5.+.+.R.R.>.P c o./ F a 1 7 2 8 i 8 2 2 1 2 3 : 3 2 2 2 2 2 2 2 < 1 2 2 l 8 2 k 2 $ > 1 > > 1 1 > - > 1 > - - - > > 1 1 ; 1 ; ; 1 1 1 ; 1 1 1 1 1 1 : : : , : 2 1 : : : 3 > 3 > : > > : : : > : > > - > - : - > - > > : > > - > - : - > : : - - : - > - ; < - ; 1 < - ; > - - > ; ; ; - : : < ; : 1 1 - - ; 7 1 o o o   . $ > > - < - < ; ; - < > > - > : > > : > : - < - > : - ; ; : - - > - = = - > > > = > : > = : > = = > - : - : > = = - = - : > > : : : : : > : : : : : : : : : : : : : $ 3 $ $ : : : : : : 3 , > $ $ $ $ % : $ > > $ : : : % - : ; - : - ; < - ; - - ; = - ; - = $ O $ O $ $ O O $ > : > $ $ O O $ $ : $ : $ : : % > > : > > > : O > : : : $ $ : O > $ O : O $ O O O . $ X O & O O $ . . . .   @ .     ",
"o J =   o 7 - O = o - o = O - = = = = = = = = = o o = o O = = = = = = O = O = = O = : : : : ; : : = = : : = = : : : : : : : : : 3 : : : : : : : : 3 3 : : , 3 1 : > : : , : : : : 3 $ 3 3 3 2 j 3 j h n / c < < l b l a x b x L L 7.( m [ ^ 5.5.) @.) ( @.| | ] ) [ | N N N | #./ [ >.6.y.6.@.y.lXFXt.p n l 2 n ^.kXPXb.: F 1 > = 7 7 1 1 ; 7 a P x F T L J F m I L ..] ) ' X.] @.y.y.7.7.y.y.#.r.>XkX0X{.O.O.O.^.R.O.( l  ./ x k a 1 , 2 a 7 2 2 2 2 2 1 2 2 2 r 2 2 2 2 1 1 1 < d a a c 2 O : : : > 1 1 : - > 1 > : - - > - - > 1 ; - q 1 1 1 - 1 1 1 ; : > 1 : : , 2 2 2 , : > > : > : : : : : : - - - : - : : : - : - : - 1 - : - 1 : > - - > > : - - > : : > > - - 1 > ; > : : ; : 1 1 - = : < - < > 1 ; : 1 ; 7 i q ; o o   O + : > = = 1 1 - = ; > 1 1 > > - : - > - > : - : - : = = - 1 - 1 7 - = O O : > : : : : : : O : = > = = : : - > > : = = : - : : : : : $ : : : : : : : : : $ : 3 : : : $ $ $ $ : : : $ $ : : , : > $ $ O : > > : % > $ % O $ = = - - : - > - < - ; - = ; < - = = $ O O O O $ $ O O $ > > : O O $ O O O O O O O > > > : % > > : $ % > > > % % O % $ $ O $ O $ O & O O & & O O % . . . O . . . . . .     ",
"  s o   1 = o O - o - o o = O - O o = - = o O o = = = O O = O o O = o O = = : - : 1 < : : : : : : = : : = : : = : : : O : : : : : : : : : 3 : 3 $ : : : 1 3 < : < 3 3 1 3 : , 3 $ $ 3 $ , , 3 r < i l L / l < < c n l j l n x L L 5.( ^ M ( O.5.( X./ | X.( ( | / I ) N n N ..6...| >.6.t.t.@.y.lXlXZ.3 h N i n ^.kXLX{.P 1 = a - 1 - = > a z Z F F I I L x c l N I ..| N [ @.#.@.#.6.#.y.#.y.7.t.>XgXgX{.>...#.%XQ.O.^ J ' P H s 2 > 1 2 a 2 2 2 1 : : 2 2 1 1 1 3 3 : 3 : 2 2 2 j j 2 j 2 , 3 > 1 1 1 : 2 1 1 : 1 7 7 1 - - - 3 , : : 1 : , 3 , , : : : : , 2 1 : > : : : 1 : 1 : 1 : : > : > : - = : : : > : : : : $ $ : $ : : 1 > = - > > 1 > > - : > = - = = - : > > : = = : : : : : : $ O < - < < = ; ; < 7 1 - 1 1 ; o o   O > > % O O : 1 > = O ; ; : > 1 1 > - - 1 1 - ; - - ; ; - - > > : = > = > : : : : : : : : : : : : > = O : = $ : : = $ : : : : $ : : : : : : : : , $ : : $ : : & : : : : : : : & 3 $ & & : & 3 $ $ $ $ $ & $ $ $ $ , : , $ $ $ > O O = > > - = = = = ; o - ; : = : + O : O : O > $ $ O : % $ > $ : $ $ $ O O O % : $ $ $ $ $ > $ O O $ $ $ $ $ $ O $ $ O O $ O X $ X $ O . . . & O . X $     . . . . . ",
"o s =   - o o o o + = = o o o - O = = = = O O o = = = = = o O = O = = = = = = : : : 3 : O = = = : : : = : : : : : = : : = : : : 3 : 3 3 : : : : : : 3 > : 3 : 3 2 2 , : 3 : 3 3 $ 3 $ 3 3 3 2 3 : i M P P h ; < B l j h b l l n ) 7.( ^ b | O.5.] +./ X.X.^ [ ) / ) / I N I | O.| | o.#.y.6./ #.lXLXZ.h i L i n E.AXFX/.z : i a 1 1 > - 1 j z z K F I P P L n n N N | @./ [ @.@.| #.6.6.y.#.y.#.e.7XFXFX%X#.' >.%XQ.:.^ ^ ' H J z a 1 2 8 2 2 2 , 1 1 1 , 2 2 2 2 2 2 : : 3 2 r 2 j r 3 2 2 3 : : < 3 : 1 2 , 1 > > - 7 q 1 1 - , , 3 > > : > : : : : : $ : : , : 1 : : : 1 : : > 1 : 1 1 < : : : : $ : $ : : 1 > : : : : $ $ : > : = > = = > > = : = > - > > - - > - - : : = O : 1 : : 3 : : : : - : : - = - 1 1 1 - ; 1 - o o O O > , : O = > = ; = ; - 1 1 ; ; 1 1 - - ; > : < - ; : - 1 ; : = - = - $ : : $ : : : : : : : : : : : : : $ : $ : : $ : : : : : : : : > : : : : : : $ : : : O : : : & & & : & & 3 : : 3 : & 3 : $ $ 3 & 3 3 $ $ $ $ & $ $ $ $ $ = : O : - : = - = = = = - ; - - > % $ > O $ O $ % $ % : O $ O > % O > % : $ $ O O $ O $ O $ O O $ : $ $ O O $ O $ : O O $ $ O O O O % O . O O O O O O & O     . @ . .   ",
"= a =   O o o o = o o o O o o - = = O = O = O O O = O o O = O o = - - = = = = : O = O : O O O = : : : : : : : : : O : = : : : : O : : : 3 : : = 3 : : 3 : : : : 3 : : : : 3 : : 3 $ 3 3 3 3 3 3 : i x L I 2 = < l l h j M x l n ^ 5.( ) M ( O.5.| @.) ( | ^ ) ) I I / I I N ..o.| N @.#.y.#.[ >.>XFXK.2 = n 2 l ^.FXAX~.Z o 1 : 1 1 > 1 5 j z z c x n P P L I n M N | @./ I @.@.@.#.6.#.y.#.y.@.t.>XFXlX^.-.] q.=XQ.o.) ) ] ) F z 8 1 1 a 2 1 1 : 1 > 1 1 1 2 2 2 2 2 3 : 3 2 2 3 j j : 3 3 : : : 3 1 , 2 1 1 1 > 1 - 1 1 1 - - > : : > : : : > : > : : : : : , 1 : : 1 : 1 1 1 < 1 : : : > : < : : : : : : : > : : : : $ $ : : : = = O = = = - O = - - > > - : : - : - O : : = 1 : $ $ : $ 3 : : 1 < : ; ; : > - = ; < 1 - o o . $ > , > O = > O = = > 1 1 1 ; - < ; = - < - ; ; - > ; - ; ; ; = = O : = O $ : : : : : : : $ : : : : : : : $ $ : : $ $ : 1 : : : : : : : : , : : $ $ : : O $ $ : & : : : : : : & : : & : : 3 & $ $ $ 3 $ $ $ $ $ $ 3 $ $ $ $ $ . $ > > O O : , = = = = ; - ; : > : > O $ $ > O % : $ O % $ + : O : > : > > $ > O O O O O $ O O > $ O O O $ $ > O : O $ O $ O O O O X $ O . O X & O O O O .   . . .     ",
"- 7 o   O o = o o - = = o O O o O = O O = o = = O = O = = O = = - = = = = = = : : : 3 : : = : : : = : : = : : = : : = : = : : : : : = : : $ : = : : 3 : 3 : : : $ $ $ $ : : : : 3 3 3 $ 3 3 , 3 3 h l n N h : < j l l h x l j n L 5./ ^ n ] O.#./ ] [ / ( N ) ( N N I N N N | o.| N O.5.y.6.( y.>XFXR.l < N p c {.FXkX%X' o ; = > : - - 2 j s a j c n P L H n c N M / | / [ | @.( #.6.#.7.y.y.@.t.:XfX0X^.5.' 5.%XJ.+.m P _ _ b k i 1 2 8 5 1 , : 1 , 1 > > 2 7 r 2 2 2 : : 3 2 3 c 2 : , 2 3 , , : : 1 : , > : 1 > 1 1 q 7 q - , : : : : : : : : : : : : : : : : 1 : 1 : : : 2 : : 1 : > < > : : : : : : : : : > : : $ : : $ : - = O = O = = = = : ; > - : - : 1 > : = = = > : : $ : $ : : 3 : = < : < = = : < ; = ; > 1 ; o o . $ > : > : = > = - - > 1 - ; O - 1 > ; ; - - ; 1 - < - > ; > > = - = - : : : $ : : : : $ : : : : : : O $ : : : 1 : : $ : : : > > : : : $ : $ : $ : $ : $ : $ $ : : & : : & & : 3 : & 3 : & : : 3 $ $ $ $ $ $ 3 $ $ $ $ $ $ $ $ O O $ > = = : : = = = = ; - ; > : > O $ O $ $ > > + : $ O : $ % $ O O $ > $ > % : > % : % : : $ > : $ O O O $ > $ $ $ $ $ O $ O X X % O O   O $ $   . O . .   . @ . .   ",
"- 0 O o O o = o O O - - O = o - = O o O = O = O O = O = o = O = = = = = = : = : : : 3 : : : : : : = : : : : : : : = : : = : : 3 : : : : : : = : : : 3 : 3 : : : 3 : : : : 3 3 3 : : : : $ 3 , 3 i i l L I l < < l n l i l c l n ^ #.( N v ) O.O.[ ) [ ^ ( H ^ ) I I L N n L @.O.| / #.6.y.6.@.y.,XLX/.N h n < l {.lX0X/.T . i 1 - 1 1 1 1 d d 7 x x I ) / I n N N N / / [ [ @.@.@.#.6.@.6.6.y.@.7.=XlXlX=Xt.) 5.-XZ.@.M N I ..c x 8 : 1 2 2 2 2 : 2 2 1 3 , 3 2 3 3 2 3 : : 3 2 3 j 2 , 3 3 1 : : 2 : 2 1 1 1 1 1 1 1 > 1 - 7 - : : : : : $ : : : : : $ : : : : : : : : : : 1 : 1 > : 1 < > : 1 > : : $ $ $ : : 3 $ : : : : : : : - - - = = - : - > < - = = O = 1 > > - - : : 1 : : : : 3 : : : : 1 - - = = : > - = = > 7 - o o   . $ > $ O = - > = = - ; ; - - - : - = O ; - = > - = - = > - : > = > - : > : : : : : : : : : : $ : : : $ : $ : : : : $ : : > : : : : : $ : : : : : : : : : : $ & & : : : & : : & : : : : : 3 $ & 3 $ $ $ $ 3 $ $ $ $ $ $ & 3 $ $ $ $ $ $ $ $ $ = = : = : : - : : : O O O $ $ > $ O : O + : > $ O O $ $ : % $ : % : % : > : % > > > O O O $ > > $ $ + $ O : O $ O X X $ O O X $ O . O & O . . . @ .     ",
"1 7 = = o o = o = - - - + - - - = o = O o = = O o o = O = O O = = = = O = O = ; ; : : : : = : : : : : : : = $ : : = : O : = : : = : : : 3 : : : : : : : : : : : : : : : : : : 3 : $ $ $ 3 , , 3 2 h c ) ( M < < l c c h l v l n ) 7.( N v ) | X.) X.) ) ] ^ ) ) P / L n N P +.O.| | >.#.y.6.[ #.>XFXR.n i l ; n {.FXgXV.3 . a 1 - 1 7 1 2 a d a z x n P ) I F n I N N | [ N @.@.@.#.#.@.7.#.y.@.>.>XlXfX>Xt.^ e.{.V.+.n N N ..c c 2 1 , a 2 2 2 1 2 2 1 : : > , 2 , : : : : 3 , 2 j 2 3 2 2 : 3 1 < , 1 1 1 1 : > > 1 1 - 1 ; > : : : : $ : $ : : > > 3 : : : : : 1 : 1 1 : 1 1 : : 1 : > : 1 : 3 : : : : : : : > : > : : : : : > : : > > > - > > 1 > > : = = O > > > : > : : : : : : 3 : 3 : $ : : : : : - : : - = = 1 1 - o o   . $ $ $ $ = O - = = = - 1 1 < = 1 : - = - - = : - : : - - > - > > : > > : > > : : : : : : : : : $ $ : O : : : 3 : $ : : : : : : : > : : : : : , : : : : : : : : : & : : & : & & $ 3 & & : & & $ $ $ $ $ $ & $ 3 $ $ $ $ $ $ $ $ $ O $ $ : $ $ : > = = : : < > O : > $ % : % : $ > $ $ O % O : O $ O $ % O O $ $ O O $ $ O O $ > $ $ $ O % : > : $ : $ $ $ % O O O $ X O . O X O . . . O . . . X .     ",
"> - o - o o = o o - - + - o O - o O = = ; O = = = O O = = = = O = = = = = : - : = = : : O = = : O : : = : : : : : = : = : : : : : : : 3 : : : : : : : : 3 : : : : $ $ $ $ : $ $ : 3 $ $ $ , 3 3 i c N L L 2 ; p l x l i x l l x / 5.) m v ^ | X.( X.( ] X.^ ) ) | / L I n ) ..o.[ @.#.#.y.y.( @.%XFX~.m p I l L ^.FXlXV.$ . : : - 1 i 1 1 i s s d l b L I N n n N N N | | | @.( / @.#.@.7.@.7.@.7.0XlX,X>Xd.f N.%XZ.>.N N c ..N j 2 : 2 8 i 7 2 2 1 1 1 , 2 2 2 : 2 : : : : 3 r 3 r 2 3 2 3 : : 1 1 1 2 , , : 1 1 1 1 - 1 - > 1 > , : : : : : : : : : : > : : : : ; : : : 1 : 1 : : : : : 1 : 1 > : : $ $ : : : > : : $ : : : : - - : - - > - : > > > = = - O = - - : > : : : = , : : : 3 : : : : > : : = = : : > = O : 1 - o o o . $ : > $ = = - ; = = - 1 1 1 - : - = = : : = : - - ; : - : < > : - > : > : : : : : : $ : : : O O : : : : : : : $ $ $ : > > : : : : : : > : > : : : : : $ $ $ : & : : : : & : & : & : $ : : $ 3 & $ $ $ $ $ $ $ $ $ $ $ $ $ $ $ $ $ $ $ $ $ $ : = = : > ; > : O O $ % > > $ O : O > $ $ $ > $ $ O > $ $ $ $ O $ $ % $ $ $ % O : > $ $ O : : % O > + $ $ O $ $ O O O & . O O $ O . . $ O . . . @ .     ",
"- = o > O   - o o o - = = - o o o O O = = = O O o = o = O o = = = = = = : : 1 1 : : : : : : : : : : : : : : = : : : = : = : : 3 = : = : : : : O 3 : : 3 : = : O : 3 : 3 : : : : 3 $ $ $ 3 3 3 3 j n x n h = = j h l l l n l h l L #.) m v ( +.O.^ ( ^ ^ ( m m m N I L n n ) X.+.[ | #.#.y.y.@.@./.FX^.n ; n a L /.pXFX~.j $ = 1 ; 1 7 1 > < i a d d x n L F n F N N [ | | [ | ( / @.@.#.7.#.#.@.6.,XfX>XgXM.f 0.%XZ.>.N c c ..c j 1 1 2 i 8 2 a 1 : $ : 2 2 , : 2 3 2 : : 3 3 3 : r 2 : 2 : = : , 1 , : 1 : 1 : 1 > 1 > - 1 > > : , : : : : : , : , , : , : , : : > : : : 1 1 1 1 : : 1 < > 1 : > : : : : : $ : 3 , : > : : : : - : - > : = > = - : - > > : ; - = = = - - = O = 3 , : $ : : 3 : = < : : : = $ 3 1 = o ; - O o o . . O : > > : > > : - - ; ; - = - 1 > = = : - = 1 - : - - : - : - - : - > : : : : $ $ 3 : : : : : : $ : : : : : : : $ : : : : : > : : : : : : : $ $ : $ $ $ $ $ : : : & & : : : $ & : : $ 3 & & & : : : $ 3 $ $ $ $ $ & $ $ $ $ $ : , $ $ O O $ > : : = : : : > O O $ > > : $ $ % $ $ O $ $ O > > > : > > $ $ O > : > > $ > > > % $ % : > $ % : > $ > $ : $ O $   O O O O . O & . . . O . . . . . @ .   ",
"o 1 7 o o o o O   o - - O o - - = o = o o = O = = = = o O o O o = = = = : > : > : : : = : : = $ = : : : O O : : : : : : : : : : = : : 3 3 3 O = : : : : < : = O 3 $ $ 3 $ 3 $ 3 3 3 $ $ 3 3 $ $ 3 l L n j O o v x l l l h c n b N 5.) m M [ O.X.m ^ v m ( ^ ^ m H H H m b ^ ] ] @.@.#.#.y.y.@.| Z.FX]./ h c = n V.kXlXK.P o = 1 1 ; 1 1 1 s d s d z n F ( L b n N h N @./ N @.@.] ] O.O.#.#.#.O.y.,XgX>XlXA.f q.^.C.X.L h c I c c j 3 : 3 3 , , 3 $ 3 , 3 3 , 3 2 2 , 3 : : : 2 2 2 3 , : 2 2 : ; > 1 > - 1 - 1 1 > 1 : 1 : 1 : : : : : : : : : : , : : : , > 3 : : : - : : 1 : : : < : : < : 1 : : 3 $ : : : : $ : , : $ O : , - = = = - > > > > - ; : 1 1 > > = : > - > : > : $ $ $ $ $ : 3 : 3 $ $ : : $ $ $ > = O : > o o     O O > > > > = = = - < ; 1 ; 1 > : - - : : > > - : - > > > 1 : - : = = = : : > : O : : $ : : : : : $ : : , : : $ : > , : : $ : : : : : : : $ : $ : : : : : $ $ & 3 $ $ $ : & : & $ $ $ $ : : : 3 $ $ $ $ $ $ $ & $ $ $ $ $ $ $ $ & & & : & : : O $ : : $ : : : % O . O $ $ > O $ % O $ : O O : > > % O O O $ $ : $ % : $ % : : O $ O $ O $ > > : $ $ $ $ O O O . O O O O . . O . $ O O O . . . .     . ",
"o q 1 O = - o = = o - = = o O - O = O O = o O O = O O = O = = = = - = - = : : - : : : : : O : = O : : = = : = : : : : : : : : : : : : : O : : : O O = : : 3 : : $ $ 3 $ 3 $ 3 $ $ 3 3 $ $ 3 3 : r h L N l < = v M l j l a z n l N >.^ v M ^ O.( ^ ( m [ ( ^ ^ H ^ ^ H J b ) ] O.| | @.#.y.q.@.( /.>XR.O.h h p c C.AXlXV.F < 1 1 q 1 ; ; ; p d i z x b n P I n n N c L @.| N | | ] X.#.O.#.5.O.] t.0XgX:XgXZ.v 5.^.M.' L c c I N j 2 3 : 3 r 3 , 3 3 $ 3 , 3 3 , 2 3 3 2 1 3 2 2 3 r 2 2 3 3 2 1 = - - - > - > > : 1 1 > 1 > : > : > > : : , : : : : : > : : : , > < : : : < : 1 > : > - : > : > : > : : : : $ : : $ : : : : : : : : = = : - - : - - O : > > > - - - = : > : = = : $ $ $ $ : : : $ 3 $ : : $ $ $ > = O - - O o     . O % $ O = - = = - > 1 > ; - > - > - - > = > = - : = = : > , 1 : = = = = > : : $ : : $ : : : : : O : : : 1 : $ $ : 3 : : : : : : : : $ : : : $ $ : : : $ $ $ : & $ $ $ : & : 3 $ $ $ & : $ $ $ $ $ $ $ 3 & $ $ $ $ $ $ $ $ $ $ & $ $ & : & : $ O $ $ $ = $ : : O O O $ : > $ O O : $ O $ % O > $ : $ : $ O > O $ O $ $ O O $ > > $ $ $ : % $ $ O O O $ : % $ X $ & O O O X O & . . O . . . . . .     ",
"= - - o = O o O - O = O o o - - o = = O = O = o = O = O = = = = = = = - : - : : < : : : : = = $ : = : : = : : : 3 : : : : : : = 3 : : = : : 3 : O O O O 3 3 : 3 3 $ $ 3 3 $ $ 3 3 , 3 3 3 2 2 3 n c I N i ; = p n j l l h l M l ^ >.L v v m +.) ) X.m ^ ( ^ ^ [ H ^ [ b m ^ ] O.@.@.O.#.q.y.@.@.^.R.V.>.2 h j 2 Z.FXfXr.> = 7 ; 1 p 1 ; p d s d b F d b L H b H N B N | N N | | X.O.O.O.#.5.O.] V.gXgX-X,XA.M O./.b.( N 3 N I c c 3 3 , 3 3 3 r 3 $ 3 3 , 3 $ 3 2 3 , 3 3 : : 2 2 2 3 3 : 2 3 : : > 1 1 1 - - 1 1 1 < 1 1 1 1 : : : : : : : : : : : : : : : : : : - : : : > > < : < : : : - : : : $ > : : > : : : $ $ $ : , : : > > - = = > = : : O = O = > - = = > - > = : = : : : : : : : : : $ $ $ $ $ $ $ O = O O = > - o   . . $ : $ $ = = > - 1 1 1 - > - > : > + : > = > O % $ > % : > $ > - = O O O : > : : $ : : : $ O : : O O $ : : : $ : : : : $ : : : : : : : : : : $ : : : : : 3 $ & : & & & $ : : $ $ $ & $ : : & $ $ $ 3 $ $ $ $ $ 3 3 $ 3 $ $ $ & & & & & : & : $ $ $ $ O : O : $ > $ $ $ $ > > : O O $ $ $ $ $ O $ O O O $ > > O $ O O O O O $ > > : $ $ O $ $ $ O O O $ > $ : $ $ $ O X . . O $ & O . .   . . . .     ",
"> 7 O o = o o o - - o o - O = o o O O = = = O o O = o = O O = = = = = = = > : : > : : : : : = : = : : : $ O = : : : : : < : : : : : : : : : : : : 3 : 3 : : : : $ 3 3 $ 3 $ 3 $ : 3 $ $ 3 3 2 2 n h I n : = = ; n h h l j l n x ) #.N v b ^ O.^ ^ ) m H ) ^ ^ H ^ J [ b b H ] O.| @.#.#.y.y.O.#.R.d.>.>.h i h 3 U.FX7X .o o 1 1 p 7 < q 1 a f d z f d b H H b L N B M | N N | [ X.X.X.X.O.5.#.] N.,XgX%X,XA.[ O./.b.( L c c N N c 2 , 3 r 3 3 2 , 3 3 , , 3 3 3 2 3 : : : : 3 2 3 r 2 : : : : : - 1 > 1 1 1 1 1 1 > 1 1 : 1 : : : 3 , : : , , : : $ : : : > > : > < : - - < : > : - 1 : : 1 : < > 3 > : : : : : : : : : : : : : > > - = > : - = = = = = O = = = = = : - > : > $ 3 : : : : : : : & : : $ $ $ $ $ : O O > > O . o   . O O > $ = = > 1 : - - 1 ; : > $ > : : > > > $ $ $ O > O % : - = = O O = = : $ : : : $ : : : : : $ $ $ : $ 3 $ $ : : : : : : $ : $ : : $ : : : : $ : : $ $ $ $ $ $ $ $ $ $ & & $ 3 $ : & & 3 & $ $ $ $ $ $ 3 , $ $ $ $ $ $ & $ $ & : & & : & $ $ $ $ : O : O > % : % O $ $ > $ > + : $ % O % $ $ $ $ $ > $ $ % $ : $ $ $ $ O > > > % > > % : $ O $ O $ % O O & $ & . . . O O $ O O   . . .   X . .   ",
"- 7 = o - - o = o o = = + - - O O o = ; = = O = = o o O O O = = = = = : - : - : : : : : = : O O O : : : = = : : : : : : : : : < $ : 3 : : : : = 3 : : : 3 : $ $ $ $ $ 3 $ 3 $ $ r 3 3 $ $ 3 , 3 l i L n : < < j n h l l l l c v / O.m d m ^ O.) [ ) m [ ( ^ ^ N ^ ^ H b m [ ] :.[ [ #.#.y.y.X.#.d.y.O.| l h < i %XLX:X..- = 1 a ; < ; ; ; d d d d d d b ^ L J H I h M | ^ [ | ( ] ] | @.O.#.O.] Z.=X,X-X,XA.[ #./.b.) N h c c c c r 2 3 2 3 $ , , 3 3 3 2 3 3 , , 3 : 1 : : : 3 2 2 2 3 : : < : 1 7 7 1 > 1 - > : 1 < , , : : : , : : , : , : , : > : , 1 : > : : > : : : : : 1 < - : 1 : : : : 3 > : > : : : : : , , 3 $ O $ : > : - = > = = = > - = - = = = > - > = > > : : : , : : : 3 3 3 $ : : : : > $ : $ > O O : > + . . . O $ : : > > > = = = - - - ; : > > : > $ > % : O O $ % $ $ % % = O = = : = = O $ : : : : : : $ : : : : : : : $ : $ $ : > : : $ : : : : : : $ : $ $ : $ $ $ $ $ : $ : & $ $ : & 3 & $ $ $ $ $ : $ $ $ $ $ : : : $ $ $ $ & $ 3 $ & & & & : & 3 : : $ & 3 : $ $ $ $ : > : : O % : $ O % : : % O $ $ O O $ : $ $ > $ > : $ > $ O $ % > $ > > > > > : $ $ $ $ $ O O O $ O X . . O $ O O O O . . .   + X . o ",
"o - O o o - @ O o o o = - - = = = O O = = O O o O O = o o = = O = = = - : : : : < > : ; : : : = = = : = = $ O : O = = : : : 3 : = = : : 3 : : O : $ $ : $ : $ $ $ 3 $ $ $ $ $ 3 3 3 , 3 3 3 , 3 x x L x < < 3 h I j j n l j c v ) 5.[ B v ^ >.] m ) m ^ ( N ^ N J ^ [ b f [ ] :.] ] O.#.N.y.#.X.y.f.o.N n l = c >XLX^./ a i ; 1 1 q 1 1 < d f s a a f b L H m m I h M | | [ ( ( / ( ] @.O.#.O.] Z.=X=X-X>XZ.M O.^.b.| | c c c c c i 3 2 r 3 3 3 3 3 , 3 r 3 3 , 2 3 : : : $ : 2 : 2 r < = : : : - 7 1 7 7 1 1 1 > 1 1 : : 1 : 3 : : : : : : : : : : : : : 1 3 > 1 < > : : : : : > : : : > : 1 > > : : > : > : : $ : 3 , : O $ : 1 > : = = > - - = > 1 > - > = : : - > = : > : $ : : : $ : : : $ : , , : : % : > > O O > , + o   . O : > > > > = = = = = ; - ; : : > > O : $ > > $ : $ : $ % % : O = : - : : O = : : O : $ $ : : $ $ : : : : O O : : O $ : : : $ : O O : $ $ : : : : : $ $ 3 $ 3 : & : : $ $ & 3 $ $ $ $ $ $ $ : $ $ $ $ $ : $ & $ $ $ $ $ $ $ $ $ & & & & & & & : & 3 $ : $ : : $ $ $ $ % % : > % : > % O > > : O $ $ $ % > : O > > > % $ $ > : O O : $ > : : > > % % > $ O O O X O O O . . O & . . O & O . . . @ X . @ ",
"  1 1 o o - = o o O - = o O = - O = = O = = = O = = = O = O O = = = ; : - : > - : : : : : = O : : = : : : O : : O : : $ 3 : 3 : : : : 3 : : : : : $ : $ : : 3 $ $ : 3 $ 3 3 3 3 $ 3 3 $ 3 3 , 3 n I L h < p ; p L h h x l h c c ) 5.^ B v ^ O.) ^ ( m m ^ N ^ N [ J H m m [ ] O.] ] #.#.q.N.#.X.0.f. .N l l : n :XLX{.T d - ; ; 7 p p p p s d d d d d v [ [ b m N h N @.N N ( ) ( [ @.@.O.O.O.O.Z.=X=X-X%XZ.[ #./.b.^ L h r h h c j 3 3 2 3 3 3 , 3 , , 3 3 $ 3 2 : : 3 3 : 3 2 : 3 3 : : : : : q - q 7 > - 1 1 , 1 2 1 2 : : 3 : , : : : , : : : : : , > : 1 : : 1 < : : : - < : : > : : : 3 : , > : 3 3 : : , $ $ 3 : : : $ : - : = O - - : : = - 1 > > = = = = : = > : : : : : : $ $ $ : 3 $ > > > : > $ : % > $ $ > > O .   . O % > > % : > : - - = = ; - : > > > % % > > > + : % > % : > : = - = > : > : = : $ : $ : : : $ $ $ 1 : : O : O O : O $ : : : : : : O $ $ $ $ $ : : $ $ $ $ : : : 3 : & : & $ 3 & $ $ $ $ $ $ $ $ $ $ $ $ $ $ & $ $ $ . $ $ $ $ $ & & & & : : & & & & $ $ $ : : $ O O O > > $ O % : $ $ $ $ > % : % $ > $ > O $ > > > > $ $ $ $ $ $ % > : > $ $ : $ $ % $ $ O   O X O X O O O $ . . . O . . . . .       ",
"O s s O O 1 - o o + - = o o O - = = O = O = O = = = = = o O = o = = = - - : < : : : : : : : = = O : : : = : = : : : : : 3 : : : : : : : : = 3 : : 3 : $ 3 3 : 3 3 $ $ 3 $ , 3 , $ 3 , 3 3 3 2 2 c n M : < p ; 2 n j h l l h l v ( 5.^ v v m O.( ) ( m m N M N N J [ H m [ [ ] #.X.X.#.#.q.N.X.] y.y.| n l l 3 / ^.FX>X..; o o 7 p d 7 ; 7 a p p z v d f H J b m M h L @.N M [ [ ( ( X.@.O.O.X.O.N.>X,X-X=XZ.( #.R.d.N I r h r r c 2 , 2 r 3 r 3 3 3 $ 3 , 3 $ 3 3 3 : 3 : : : 2 : 2 2 3 = = < > 1 1 7 1 > > : : 1 : : 1 1 : 1 : : : : : : : : : : : $ : : : : : 1 : : - : : - : 1 : : < : > : : 3 : , : > : > : $ $ $ $ : 2 : : - = = = > > > - O = , 1 > - = O - - : - : : : $ $ $ $ $ : $ 3 : : : $ $ : $ $ $ > : O > 1 O .     . $ : > : - = 1 1 : : = = ; - : $ > $ : $ % : > $ % : > : > > > > > = = : : : : $ : : : $ : : $ : : : = O O : : O O $ : : : $ O : : : $ : : $ : : $ $ $ $ : & 3 & : & 3 : : $ 3 $ $ $ $ $ $ $ $ $ $ $ $ $ $ $ $ $ $ $ . $ & $ & & $ & & : & : & $ $ $ $ $ $ 3 O O O O > > > O $ > O > > $ $ : O > > % : $ O O $ > : O > O O $ % : : > % $ O . O $ $ $ % $ $ O   . O $ & O O & $ . . . . . O O         ",
"o . O . o O = o O o o - ; o o ; O O o O o O = = O O o = o = O o o o = - 1 > = = = = O = = O = = = : : : : O = = O : : : : O = : < : $ = : < 3 : : : : : 3 3 : 3 : : : : : : : : : < 3 : : : 3 2 x i x n ; O p < n M l l M c l B N @./ M c N @./ / / N M ^ I N N [ J m f b ) X.O.] X.#.#.q.y.#.[ N.q.[ [ M p h | ^.lXeXb.3 3 3 3 d ; ; ; 1 < p d b d d b ) b v m m B n ^ ^ L ) ^ ) ) ] :.O.O.:.+.N.=X,X-X=XM.] #.R.N.N N h r c 2 j c 2 : r i 2 2 : : : 1 1 : 1 2 8 2 : : 3 : 2 3 2 2 3 : : : : 3 : 3 , 2 2 , : , : : 1 > 1 : : $ > > : 1 : $ $ $ $ $ O : : : : , : 3 : > : $ $ $ : > : : : $ : > , , : : , : : : : $ $ : $ , : : $ : > : : = : > > = O = > - > = O = = > = > = = > - = : = : > : : O $ $ $ $ $ $ $ O $ $ % O . .   . $ > O : 2 : : 1 : : : < : : : 1 : : : : $ : : : : : % : $ : = = = = O = : O > : : : $ : O : : = - : = - = : - : - : : : - : - > = : : : : : O : : : $ $ : 3 : $ $ : : $ $ $ $ $ $ $ $ $ $ $ $ $ : & O $ $ % $ $ $ : + : + $ $ $ $ & $ & $ : & : & $ $ $ $ $ $ $ $ $ = = = - > > > : > - = = O $ > % $ O $ : O O : % $ O O O , > O $ : % $ O > : $ % O O : % $ & . & . . . . O O X O . .   .         ",
"O - - = @ + O o = o o = - = o - = = = = O = o = = O O = = O O = = = = ; - > - = = = = = O = o = = : : = : = : O O : : : : O : : 3 $ = $ : : : O O = : O O O O O : : : : : 3 : : = : 2 2 : : 3 r x j F x : ; 3 : n c h l l M v l N @.[ M h N @.[ [ / N M [ I N N J [ H f b ) ] X.[ ] X.#.q.q.O.] y.q.[ M p 3 h O.%XgX0XZ.c r 3 3 a < ; < 1 p 1 d b d f b ) m f J H l b ^ ^ ^ ) ( ^ ^ ) ] ] O.5.] N.=X,X/.-XM.[ X./.V.../ h r x j c c 2 3 r 2 2 7 1 : > 1 1 > 1 7 2 2 2 : : : 3 , 2 3 3 , : 3 : 3 : , 3 1 3 : , : > 3 : > > 1 > $ : : : : : : : $ : : $ : : : : : > : > : : : : : : : : : : $ : : : : : : : : : $ : , : : : : : : : : 1 1 = O = : > > = = - > - - = > = > - = - = 1 : = = O = : > = : $ $ $ $ $ $ $ O $ > % .   o   . $ : O $ : $ = : : : : < < : 1 : : : : : $ $ : : : : : : : : = = - = : = = : : : : $ : $ : $ : - : O O = = > > = > - - : > = = = - O : : O = : : : : : $ $ $ $ $ $ $ : $ $ : $ $ $ $ O $ $ $ $ : : $ $ $ : > $ $ $ + $ $ : $ $ $ $ $ 3 $ $ $ : $ $ & & : $ $ 3 $ : : = = = O - - = > = = = O O % > : $ O O % $ > O > % $ $ O > $ O $ % : O O $ % : O $ $ : O $ . $ . . $ . O O X X   . .     @ .     ",
"O = > @ O - - o o o o = - = ; - = = = = = = O O O O = o = O = O = = O = = = = = = = = = O = = = : : : : : : = : O = = : : 3 : : 3 : : : : : : : 3 : : O = : = O : : : : : : : : O : 2 2 : : 3 j j c I c ; < p = l c i h B c v l N @.[ M h N @./ [ I N M ) ^ N I b m f f b ^ ] O.[ ] X.#.q.#.@.] 7.6.[ N h p 3 | :X>X:XV.n 3 $ 2 7 ; ; 1 p p p a b d p b ^ n l m L v b L H H ( ' ) ^ ) ] ] O.O.] N.=X=X/.-XM.[ ] A.Z.@./ h 3 c r j c 3 , 2 i 2 2 > : 1 , 1 > > 2 1 3 : : 3 : : 3 2 2 2 3 : : 3 : : : : , : : : : > : , 1 > > : : $ : : : : : : : : : : : : $ : : : : : : : : : : : > > : $ $ : 3 , : : : , : : : : : : : : : : : : : : : : O = : > - - - - > - - = : - = : = : O > - = O = = > > $ $ $ $ $ $ $ $ $ $ $ > : .   .   . $ $ O $ : O : : : : : : : : : : : : $ : : : > : : : : : > , - : - : = : = > : > : : : O O : : O > = : - $ = - = = = = - - : O O O = = O O O : : : : : O O : : $ $ $ $ $ $ $ $ $ $ $ $ $ $ $ $ , : , $ $ : > $ $ $ : $ % $ O 3 $ $ $ $ $ $ $ & : $ $ $ $ : $ : : $ $ = = O O = = = - = + = O $ : : % $ $ : % O $ $ > % : % $ > $ $ O $ O $ O $ > O $ $ O O $ $ $ $ & $ & O & . .   . . @ . @ .       ",
"  . O O O + = = o o o = ; - = - O = = = - = O O = = = = = o = = = = = O = = = ; - = = = = = = = = : : : = O : O : : O = : < : : O = : : : : : = : 3 3 : 3 < : : = : : : = : : : : : 3 3 : : 2 j i j c r = : < o n l h h B v c h N @./ h h N @.[ I N N M ) N N N [ J [ f b ) ] X.X.X.X.#.q.#.] @.O.#.[ M B p o L :X-X-XN.h $ $ 2 p < 1 p p 7 a a l d p v H n v n H v b L m H ) ( ) ) ] ' :.5.:.] q.=X,X/.-XM.[ ] Z.V.| I j , r 3 r r : 3 2 3 1 2 1 1 1 1 1 1 1 a : 2 2 3 > 1 3 : : 2 2 : : : : : : $ 3 : : : , : , : : : 1 > > = $ : 3 : , : 3 > : : : : $ : $ : : : $ : : : : : : : : : $ : : : , : : : : , : $ : : : : : : > : > : > : : : $ : : - - > - - - + > - : - - - = > > = > = - > = : : : : : : $ > : $ $ $ > - O     . . > > O $ 1 O : : < : = 3 < : : O : $ : : : : : : > : > : : : > - = > > : : : : : : : : : $ : > = = = - = = > : > = > > = > - = = = O O = = O : : : : : $ : $ $ $ $ $ $ $ $ $ $ $ $ $ $ $ $ $ $ % $ $ $ $ % % : + > O O $ % : $ $ $ : & $ $ $ 3 : $ $ $ & : & : $ $ $ o = O O = = = : > = = = O % $ $ $ O % : : $ $ $ % : > : : $ % : $ : O O $ O $ $ $ $ O O . $ . $ $ . O O . . . X X + + +         ",
". . . O - O = = = o o = o ; o - o O = = = = = O = O O = = o = O - = = o = = = o = = = = = = = ; : = : O = O = = : : = = : < : : : : : : : = : : = = : : O : : : : = : : : : : = : : = : : : 2 z j z c < O = < O n c l h l B h h N @.| M B N @.N [ N M N I N M N J ^ [ b m ^ ] +.@.@.] #.y.#.@.@.7.#.N h h h : O.:X].{.t.3 o < 2 < < 1 1 1 p i d l l i l L m l n n l b H m n ) ) ) ) ] ] ] 5.5.] q.-X,XQ.-XM.[ ] Z.b.^ N h r 2 3 j r 3 : 2 2 3 2 1 : , 1 1 > 1 2 , > 1 1 1 : : 2 : 2 , 1 > : : 1 : : : : : : : , 1 > > : > 1 - : : : , : : , : : : $ $ O : : : > : > : : : : : : : > : : $ : : , : : : : , : : : : $ : : : : : : : : : : : > - = = : > - - - - - 1 > > : = = > = > = - > > - - : $ : : : $ $ $ , > $ % > > .     . . $ > O : : O : < 3 O : < 3 = : $ : : : : > 3 $ : : : $ : : : O = = = : O O : : : : : : : $ : : + : = = O = - - > - : - : > = - : - > : : : > : $ : O : : : : $ $ $ $ $ $ $ $ $ $ $ $ $ $ $ $ $ $ $ $ O O $ $ $ > $ > > = $ $ $ $ $ $ $ $ $ $ & $ $ $ $ $ : : O O O = O = O = = O = = = = O = : $ $ $ $ O $ > % O $ % : > > > O > $ > $ $ % O O $ $ $ $ O O O $ . . . O & O O . . O @ O X + +         ",
"= O O O - . o O - = o ; - o o = o O = = O = = O o = = O = = O = = = o = = = = = = = = = = = : : = : ; : = = = O : : = : : : : ; O = : : : = : : O = O = : : : : = : = = = = = : 2 : O = : : 2 j z x j : = ; : 3 n c h l l c c h N o./ M B N @.| I N M N N N M N m H ^ m b ^ ] +.] ] @.#.q.#.#.@.5.O.N h M h : 6.>X:X{.y.2 O p < 1 < 1 ; ; p a a l d h l L H b n l a v L m n H ) ^ ^ ^ ) ] :.O.) #.-X=XA.-XZ.] ] Z.Z.| N c c j 2 c c 2 3 2 2 : 2 1 1 1 2 1 1 > 1 1 3 1 1 : , : 1 1 : : 1 < : : : : : , : : : : 3 1 1 : : - > > : , : : , : : : : $ : $ : $ : : : : : : : $ : : : : : 3 $ $ $ : : , : : : : , : : : : , : > : : : , : : : : > ; : = = > > > - - - > > - = - $ = > = = : - = : - : $ > , : $ $ > : > $ > 1 > .     . . : $ O $ 1 O : > < : = 3 : : : : : : : 1 : > : : $ : : : $ : O = = O = : : = : : : $ : O : O : - - O = - : = : = = > > - = = > > > > > 1 1 : O : O : : : : : $ $ $ $ $ $ : $ $ $ $ $ $ $ $ $ $ $ $ $ O O $ $ $ O $ O $ $ $ $ $ $ $ $ $ $ : $ 3 $ $ $ $ $ $ $ O : = = = = = = O = = = = - - : > $ O $ O > $ $ : > : $ % O $ > O % > > > $ O $ $ $ $ > > $ $ $ . O $ . O . . . % O @ + . .         @ . ",
"O O . = O . o O o o o o = ; ; - = = = O = = = = = = O = O O = O = = o o = = = = = = = = ; - - : : = : = = = = = < : : : = = : : O : : : : : = : : 3 : : : : : : = = = : = = = = 1 = = : : = : j A F j 3 : : < p n c l h B c v h N @.| M h N @.L [ N N I / N c I b ^ H b b [ ] +.[ ] ] #.q.#.#.] O.@.N M N h $ d.,X-X].8.2 O 2 ; - 1 1 ; ; i d d l z d v L H b n l i b I n b L ) J H J ^ ] O.O.) #.-X=XA./.Z.( / C.Z.( n c j 2 r c j 3 : 2 2 : 1 1 > 1 , > - > 1 2 , 1 : : : 2 1 1 1 : : 1 1 : ; 3 3 : : : : : : 1 1 > - - 1 > : : : : 3 , 3 : : : > : : : : : : : > : : : : : $ : : : : : $ : > , : : : : : : : : : $ : : : : > : : $ : > : : O = - 1 > - - - - 1 1 - = = = - > - > = > > = - : $ : , , $ $ $ > > : % > > . o   . . $ : O $ 1 $ = 1 : : : : < : : : : : : : : > : : : : : : : : = - : - : = : O : : : : : $ : $ = = > = = > = > - - : - O : - > - - : = - : : : : : $ $ : : : $ O 3 : $ : : : : $ $ $ $ $ $ $ : $ $ $ $ O O $ $ : O $ $ $ $ : O $ $ $ : $ : : $ & $ $ $ $ : : $ : = = = = + = = = = = : > = > = > $ O O : % : % > > O O O $ : $ O : : > $ $ $ : % : : > > > $ O O O O O . O . O + + X . . . . @ . @ @ . ",
". o . O O   o . ; o o = o o - - > > - = = = = = O O o = o = o = O o O = = = = O = - = = = - > > = : = : = = = = : 1 1 : O O = : O : 3 : = O O : : : : : : : = O = : = O : = : ; : = : 1 < O ; 8 F x j 3 < ; : p M c h B c M M c M @.^ B h N @.N N N N N / N N / b [ [ b b [ ] X.[ ] @.#.q.y.#.] 6.@.N M M 3 3 Z.lX-X^.6.< o i < : 1 < ; - 1 a d d l d l L L n n b l b I n b ) / ^ ^ ( ^ ( 5.5.) #.-X=XM.Q.Z.[ ^ b.C.| x c 3 3 , 2 3 : $ 2 2 : 2 1 : 1 1 1 - > 1 2 1 < > : : 1 2 1 : : : 1 2 : = : : : : : : , , , : : : > > ; > $ $ > : , > , 2 3 2 , , 3 $ : : > 3 : : $ : $ $ : : : : $ : $ 3 : , : : : , : $ : : : : : : : : , : : $ : : : = O - - 1 > - - - 1 > > > O = - : = : - : > - > = $ : : : $ $ $ : > $ : 1 > O o .     $ $ O : 1 $ : : : : : < 3 = : : : $ : : $ : : > : : > : : : > = - : > = : > $ : : $ : : = $ > = = = O = = > > = - : > = > = = = = = = = = = : : : $ : : : O O : 3 $ $ : : O $ $ $ $ $ $ $ $ $ $ $ $ $ O $ $ O > $ > O > O > $ $ $ $ $ : $ : 3 $ $ $ $ : & 3 > > > - = = O = = - - > - > = > > : O O O > $ > % $ O $ O O O $ . $ > > $ O O $ % > > > > > : $ & $ $ $ & . . O X O + @ @ + X + . X + . ",
"O   O > 7 5 o o 7 - = o o o - = 1 : - = O O = = o = o = = O = O = = = o = = - = = = = = = = = - = : : - = = : 1 : = : = : : : = : : : = : : : : : : : : : : : : : = : - : : > - : = = > = : 1 j n j 2 3 ; = < 3 M c h h l M M l N @.| B h L ^ | ) b v b P H H H f m [ b m b ] ] ) ] 5.O.#.q.#.] | >.) l v < < ~.AXUX^...: O : i a 1 > ; : : 2 a i l i h n n l l N l c n v x L ( / I / / ] >.O.] q.-X-XA.A.A.#.[ N.C.| a n 2 3 3 r 2 3 : , 2 2 : 1 1 : : 1 1 > 1 1 : : > : > > 2 1 > : > 1 > : = 3 : 3 : : > > 3 1 , , 1 1 > : : > : : 3 : : : : > : : : : : : : : : : : : $ $ $ $ : : : : : : : : : : , : : , : : : > : > : : : : : : : : : $ : 1 > = O = - > q - - = = = = : - = = = = = = O = $ $ $ $ $ > : > $ $ $ $ O O . O .   : 1 $ O > $ : : : : : < : : : $ : : : : : : : : : : $ : : : , = = - > : : > : : $ $ : : : : O = = = = O O = - = = = = O = = - : = > > : : : $ : 3 : $ $ : 3 = = O = : : : : : : : : : : = : : % % : % % O $ : % : % O $ : $ : $ : : % $ $ % : : $ $ $ : > > > = O = = - = = > > > > - : 1 > O $ $ $ > $ O O > $ $ $ O > $ : > $ O : > > : O O > : % O O O . . $ . $ . & & $ . . X @ @ + @ .   + + . ",
"O   . . . O o - > - = o - ; ; o - = = = O = o O = O = = = O = O - = o = = = = = > = = O = = = = O = : : = : > : : : = = : : = = : : : : : : : : : : : : : : : : - : : : > : : > : = - : > : 1 r A a : 3 < < : < n n M l l c M l n @.| B c ^ | ^ ) J v b H m m b b J J f v H ] X.] ] #.+.#.q.#.[ | O.^ h B ; < ^.AX-XK.o.O O ; : 1 < - ; : < 2 i d l j c L n l l n i c L n M L ) L n ) ^ ( >.:.X.q.-X-XZ./.A.] [ M.A.O.M L j j 2 j j 3 , 3 , 2 : : 1 1 > 1 > 1 , , : : 1 1 : : 1 1 1 : : : 1 : = , : , : 3 3 : , 1 1 1 , > 1 : > : > : > : > : : : : > : : : , > : : : : : : : $ : : : , : : : > : , : : : : : : : > : 3 > : : > $ : : : : 1 > : > - = O = - - > > : - = - - : > = = = - > O = : : : $ $ O $ : : $ % % $ + O O . . . > , $ $ 1 : = = : : : : : : : : : : : : > : $ $ $ $ $ : : : > = = > 1 > : : : $ : $ O : : : $ - : > : - - = : = - = > - = O = - : - = > O : : : : : : : : $ : : = : : : : : : = : : = = = $ = % : % : : $ O O O O % > O $ O $ > % $ $ : : % $ $ $ $ O $ > > : - = = = = = O > > : = - = = = : $ > > % : $ % $ + : % $ O % $ $ % $ $ : > % O $ $ $ > : $ O O . O $ $ $ . . $ + O O . . . .     + +   ",
".   O o . O o - = = o = = - - o = = = O o o = O = = O O o O O = ; O = o O = - = = = - = = = = - = : : - = = : : : = : = : > : = : : = : = : : : = $ = O = : = : : = = : - : : < : = > = = : 1 j x 2 = ; < < : = c n v l l l n M M @.| M M L ) L ) H v n m J b b f m b f v m ] O.] ] O.O.#.y.O.] X.+.H l l ; i %XFX:XV.>.O < 1 ; = = : < 1 1 1 1 i j i l n I l n c i l L n c N ) L b ) H ) o.+.X.N.-X-XM./.A.#.[ b.Z.o.I P j 2 2 j j 3 3 3 2 2 1 : 1 1 1 , 1 1 1 1 > > 1 1 : 1 1 1 < > : > : : ; : : 3 : : , > : $ > 1 1 1 > > > : : > 3 : : : , : , : > : : : : > : > : : : : : , : 3 : : : : : : : , : : : : , : : : : : : > : $ : : : : : : > = > : - - - - - - 1 > > - > > > - = > = > = = > , : $ $ $ $ $ $ $ : % : - O O O . . > , $ : 1 : : = : = < : < 3 : : $ : : : : : $ O $ : : : : : > = = = : = : = : : : : $ : $ : : = = : > > = = - > > = = > - > O = > = : = = = : $ O O : : : $ = = : O : : : ; : - : ; : O : = - O : % % O O $ O $ $ $ $ $ O O $ $ O $ O $ $ : $ O O O O $ $ : O = = = O O O = > : - = = O = O > > > $ > $ > : : O $ O O : % > > O $ $ $ % $ $ O : $ $ $ $ $ O . $ $ $ $ . . . + . . @ . .       + +   ",
"o   > O O = o = o o o ; ; - ; o = O o O = O O = = O = o o O = = = = O o = = = = = = = = = = = = ; - : : = : : : > : = ; : - : = : = : = = : = : = : : : : = : = = = : : ; : : > : = = : : = 2 e x 1 O = < 2 ; O h c l h h v n n M | | c M [ | L H m b n H [ I n m b m b v m ] O.X.] O.X.#.q.#.] O.@.m v B < l *XFX:Xy.#.d < 1 : = = = : < 1 : < i a i j N n M c c i l n n x I L H n / L L o.X.( N.-X-XZ./.A.] [ t.V.o.N P h 2 2 j j r 3 1 2 2 1 , : 1 , > 1 1 7 1 1 : : 1 > 1 2 , 1 > 1 : 1 : - 3 : , : : : : 3 : : : > > > > : > : : : > : > : : : : : : : > : , : , : : : : : 3 , : : : : $ : : : : : : : : : : : : : : : : : $ $ $ : > > > : = = 1 > - O - - > > > : : - 1 > : > = > - : - : > : : $ $ $ $ $ > > > > > = O @ . . $ , $ $ 1 $ = = : : < : : : = $ $ : $ : : : 3 : : $ $ : : : - o O O : = O O : $ $ : : : $ : = = - : - = = = > O = = > = : > = = O = : = : O : : $ : : 3 : : : = = : : < - : : : : : : = = : = % $ > % : $ $ $ O $ : > $ $ O $ $ : $ : % : O O $ O $ O O : O = - - = = O = = - - = = O = O = > > $ $ O $ $ $ > % : O $ % O : > > $ $ $ % > % O O O $ $ $ : $ O O & $ O . . . @ + @ . .         q X   ",
"o   O . . , o o o o o - - ; + o O = O = = O = O = O O O o = = = : = O O = = = = - = = = = = - = O = - > = ; - : - - = = - : - : = = : O = : = : : : : : : : : : = = = = = - = : > = : : : = 1 j z a : = ; < 3 3 h l c h h v M n M | ( B l ) ' / m n b b I I I L f H m b b m ) X.( ( X.#.q.y.O.] @.( x l p ; v %XAX{.0._ P ; o - : : - : O : - < i a i j N N x x n i h c n n I I n n / L )  .X.( N.=X-XM.Q.A.] [ y.M.O.F I r 8 3 3 j 2 , : 3 2 , 1 1 1 1 , 2 , 2 : = = = > - 1 1 1 1 > 1 - 1 1 : , : : : : : > , : : : > 1 ; > > : > : > > : > : : : : : : : : : : : , : : : : : : : : : : $ $ $ : : : : : : : : : : : : : : : : : O : : : > > < O : > 1 - - - > - - : > - : - > = O O > = = = : $ $ $ : > : $ O > > > > > + O .   . $ 1 O O > : : = : : : < : : = $ : : : : : : : $ : : : O : : : O O = : = O = $ : : : : : $ $ O = = = = O O = = = = = = = + = O = O > = O : : O O : : $ $ : : : : = ; : < < : < : : < : : = O O $ $ > > : O O $ $ $ > > $ O : % $ $ $ O % $ $ $ $ $ O O > $ % = - > > = O = : = = = O = = = > : % $ $ O $ O : $ O > O $ $ $ > > > > $ : % > 1 $ O O $ O : > $ $ $ O . O O O O O @ X O . . . . X % X   ",
"O         % o O o = o o - = ; o = O = = = = = = = = = o o = O = - = = o O = = = = = = O O = = = = = : - = - : - - = = = : - - ; : : : : = : : : : : : : : : : : = = = = - > = : - ; = - ; - 1 j z j 3 : < < 2 p x n M l h c M c B | ) v l ) ( / n n b b n N N n b m m m b m ] ] ( ( O.#.q.q.O.] X.( m v p ; f ^.gXJ.>.H _ = o < 1 1 - = = : ; : i l h c I L x n L 2 2 x N n N I n x L I ) O. .( N.=X-XM.A.A.] [ y.Z.5.I N j j 3 3 2 2 3 3 , 2 1 > 1 : 1 > 1 1 , = = = = > - > 1 7 7 1 : 1 > > 1 : : : : : : : : > > 1 1 > > 1 > > : : : : : : 3 : : : $ : : : : , : : : : : : $ > : : $ $ $ $ $ : $ : : : : : : : : $ : : $ : : $ = : : > : : - = - > - - - + - = = = = = - = = - = = = = O - O $ $ : , > : $ $ $ $ > > + O . o .   $ > O O : = = = : = : : : ; O : O : : $ : : : O O $ : : , : 1 = = - > : : : $ $ : : : : : O O = O = = = = O = O = = = O = = = - = = : = = O O : : : $ $ $ 3 ; : = = : : ; - ; : : - ; : ; : = $ O $ O > % : > % > > $ > > > : $ % : > : % : $ $ $ : $ $ > : > > 1 > > = - > O O = = = - > > $ O O O O O $ O : % $ $ O % > O : > > > $ > > > O O $ O $ O : % $ $   O O X % > + O + X + X @ X @ 4 .   ",
"=   .     - o = ; = o - - ; - o = = = = = = = O o = = O o = = O = = o = = = - = - = = = = = - = = = : - = = - 1 : = = = - : = = : : : : : : : : : : : : : : : ; = O = = = - - ; : = - : : - 1 k z j p : : < 3 < n n c B l M M c v | ( l v ) ) ) b m J b N N M M f J m m b m ] X.( ] O.#.#.q.#.X.] / L n p < h ~.>Xr. ._ F ; o 1 : : : = = : : 1 2 j j j I n M c x i j x x c n N H l L n L +.+.| q.=X-XM.A.A.] [ y.Z.6.n N c j : : 2 2 3 : 3 1 1 : 1 1 > 1 1 3 > 1 - - > < = - 1 2 1 > = - - : : 3 : : : : 3 : : 1 > 1 1 1 > - = > : 3 : : > > : : $ : $ O : : : : : : : : : : $ $ : $ : : $ : $ $ : : $ : $ : $ : : $ : $ : : $ : : : > : > > = > = O - - - - - = O = - > = = O = = - = - = : : : : : : : : $ O $ > > > > O o       : , O $ : : = O = : ; : : : = : : $ O : $ $ O O O : : : : : > = = = : : : : $ : : : : : : O = O O = = O = O : = - O - = - = = = > = : > : : : O : : = : $ : : ; = : : 1 : : - < ; : : ; : = O : > : % $ > $ > : : O $ $ $ > % > % : > $ > % $ : $ : % > $ > > : - - > = = = - = O = = = - : O O $ O > $ $ % > $ $ O $ : $ : $ $ > > $ $ $ > : $ O $ O $ % $ % & O O X % % X + + + @ O @ @ . + % @   ",
". o > o o - O - - = = o - - - = = O = = = O = o = O O = O = O = = = = o = = - = = = = = = = = - = = - : = : - : > = = : > : - = : : : = : : : : : = = : : O : : = = = = = : - : - - - : - - 1 d j 2 3 = : < < = l c h h l c M v v | | n v L ^ [ J H m m M N N M b m v f f [ ] O.^ ^ X.#.#.q.@.@./ / ^ n p < i R.|._ ) -.1 p o ; ; : - : : : : < 3 j i i x n l j c i l N x l x N ) b n n m  .X.( q.=X=XN.M.M.] [ 7.Z.6.c c c j : 3 r 8 , 3 : 1 : > < : 1 > > , , 1 > : < > = - 1 1 > - = = = - : $ $ 3 3 : : : : 1 , 1 1 > 1 > : : : > : > : : : : : : $ : O > : : : : : : $ $ $ : : : : : : : : : $ $ : $ : $ : O : : : $ : : $ : : : : > : = : > > = = - > > - = = : > - : = = > = > = : - - : , , , : O $ O $ $ $ : > - O     .   : : $ $ : : = = : O : : : : = O O : : : : : 3 $ : : $ : : : - O O = : = O = O $ : : : : : : O = - = = = = O - - : > : = > - - : - > : = : = : : O O : : : O : = = ; - : : ; : : : : : = = = = O O % : % $ $ > $ $ O O O $ > : > > > > > > > O O $ % : % : $ : = = = - > : O - = = = = = = - O O $ : $ > : > O $ % : O $ % $ . $ % : $ O O O : $ $ O O O $ $ , % $ $ % % O   O O X + + @ . o + 4 .   ",
"  o 7 - o - > - = O = = - - - = O = = = O = O = o = = = = o o O = = = o = = = = = = = O = = - - = = : = : : = O : = O O = ; : < : : : = : : = = = : = : = : = : : : = : O : : = O ; : ; = = 1 j x r : $ : 3 : $ x c h h l l n H m ) / m l v L ^ N N M M M N N N N N M M M N [ @.[ @.@.] #.y.@.] ) ) ) b ; < / t.8.F >.L a ; o i = : : 1 - < 1 1 i i 2 h L N j h j a i a n n L I N c M ^ N | | @.y.-X-XN.M.A.q.f #.M.N.f p b d p 2 2 7 1 2 2 2 1 : : : : 3 $ , 3 : : : : 1 : 1 : 1 : > > 1 > : = $ $ $ $ : , 3 , : , , , , > 1 - > > - : > - = = : = - : = = = : : $ : $ $ : : 1 : $ $ $ > : : $ $ : : : : 3 > , $ $ $ : $ : : : $ $ $ : $ : : $ : > : % - + > - : - - - ; : - > 1 1 1 1 1 > ; : : : : 3 : > - : 1 > > % > O     . O O $ $ $ $ : $ : $ O ; < : = : : : : : : : : : $ : : $ : : : = = O - : O : O > : : : $ : 3 : 3 $ $ $ $ $ $ : $ $ > > > > + = = > ; > - = - 1 a > ; = = ; : - : = $ O $ : $ : : O = = = O - O = = = = - : > > O $ $ $ O . $ & $ $ $ $ $ $ $ % > $ $ O O $ $ $ > = O O O $ $ > > $ O O O $ : > > $ $ O O : > $ O O O O : $ $ O : : O . O O O : . O O . O O O $ O O O . . O O $ > + + = - O     X     O ",
"=   - =       o o o o o o o o o o O O O = O O O = O = O = O o + = = = = = = = = - = = = = = = = = = = = = = : = : = = O O : : : : : : = = = : = : = : = : = : $ : $ : $ : : : : ; - : ; = ; i j r 3 : : : : : : n l j i i d l b b L ) m v n N ) N N M M M M M N N M h h M N @.@.[ ] #.@.#.y.#.@.^ ) ^ m p ; m O.' I 7.a o d ; o ; - : : : ; : 1 i a 2 l L F j l c a i l x x n n L N N L | N | | q.-X/.N.A.Q.N.[ #.M.N.[ f [ d p > 2 a 2 2 2 , : : 3 3 3 3 , : 3 , 3 : : : , , , 1 1 - 1 > > > $ $ $ $ 3 : : , : 3 $ : , < > ; - > : = = > : - = : = - O = > - : : : $ $ : : : : : $ : $ : : : : : : : : : : : > : $ : : : : : : $ $ $ $ $ $ $ $ % > $ $ + + + - - : ; 1 1 - ; - 1 ; - 1 ; ; > : : : : : > : : : - - : % + O .   . O $ $ $ $ $ : : $ O : : : ; O : : O $ : : : $ : : : O : $ $ : = = = : = : : : 3 : : : : : : : $ $ $ $ $ $ $ $ O $ : % > + - O : - 1 : ; = - ; 7 ; = = ; - : ; : $ O $ $ $ $ $ O : + + - + - O = > : - > - : O & $ $ $ $ $ $ $ $ O $ $ $ $ > $ > $ $ O O $ O : O > $ $ : % $ $ % : : $ $ $ O > $ O O . O $ $ . O O $ $ : > $ $ $ % $ O $ $ $ : $ O O $ O $ $ O $ $ O O O O O O o O O @       o + .     ",
"a   o - 1 7 o o > - - - = = - = O O O O O O O O = = = o o o = - = O = = = = o ; : - = O = = = = = = = : : = = = : = = = O = : : - ; : : : = = = : : ; : = = : : $ $ : : = : = : : : < ; = ; < j 2 2 3 : : $ : 3 n c l h l l l v n ^ ) H M N ) ) N M M M M M M N M M M M M M @.@.[ @.#.@.#.y.#.@.) H m b i p l L P P 6.; o d a o - : : = : : < 1 a j h c L N l c l i p c n l l n L N M n N | | | q.-X-XN.A.Q.q.[ ] M.N.[ n I a 1 = 2 a 8 1 1 1 : : : : , 3 , 3 3 3 : $ : , , 3 2 1 : : > > 1 : O 3 : $ $ $ 3 3 $ $ $ : : : ; ; O = - O = - > - - > = : = = = - : : : : : : : : : : : 3 : : : : : : : , : : : : : : : : : : : : : $ O $ $ $ $ $ $ : % $ $ + > > - < - ; : - - ; < ; > ; : - ; - ; ; : : : = : : : = = O O : O . o . . $ $ $ $ $ $ : < : : : < : O : : O : : $ $ $ : : : : $ : : : = = = - : = = > : : $ : : : : : $ $ $ $ $ $ $ : O $ O $ + - O O > 1 ; ; = ; = ; 1 1 - - = : - : : $ O $ $ $ $ $ % O > O + + + + - : > 1 > > O O $ > , & $ $ & % $ $ $ $ $ % $ $ > > : $ $ $ $ $ O $ % > > % O $ $ O $ $ % % O $ > : O O $ $ $ . $ $ $ $ % > $ O O $ $ > : > > $ > : $ $ $ O $ O $ $ O O O O . . . O - O o   o O + . . . ",
"} 9 =         o = O o o         O O O = = = O = O O = O o = - - = = = o O O = = - : - = O = = = = : = : = : = = = = = = = = : : < : : : : = : = = : : = : : ; : : $ : $ : : : = : 1 < : ; ; p i j r 2 : : 3 : O x c l l v n n b ^ / ' L n N ^ N N M h B M N N M M M M M M M ( @.[ @.#.#.#.y.@.@.^ m v d B d l F / b  .a ; 1 p < : > > : ; : < 2 l l c x L n l l x 1 1 x F l c n n x M h N @.@.N N.-X-XN.M.A.q.B B N.N.f l n i 1 : 2 a 2 1 1 : 1 3 : 3 3 3 : 3 3 , 3 3 : : : , , 1 1 1 : > - > $ & : : $ $ $ $ $ $ 3 : : 1 - = = > = = - : 1 : > = > = - = - : > : : : : : : : : : : , : : $ : : , 3 : $ $ : , > 3 : > : > : : > O O $ $ $ $ : : % : % $ % - > - : - - - < ; - - - ; - ; - > - < : : ; : : = : ; = = $ : + O .   . $ $ : $ $ : : 1 : : : : : ; = : O $ $ : : : $ O $ O : $ : : : : - > = : > = : : : : : : : : : $ $ $ $ $ $ $ $ O O : $ > + + - ; - - - = o = = - < ; ; - ; - : : O $ O $ : $ $ O : + + + - - + - - > > : > + : $ : $ $ $ % $ $ $ $ $ $ O : $ $ > > : $ $ O O O : O O : O $ : O $ O $ : : $ $ O $ > > O $ : : O > : $ $ $ $ O O O $ $ > % > > > $ $ : $ $ $ $ O O O $ O O O . O o       o .         + @ ",
"r.e.s. .i > a J a a 7 1 1 1 1 1 O O O $ = = O : o O = = - = O - = = = = = O = = = = - = = O = = = = = = : = : O = = = = = = : : : : : ; = = = = : = : : : = = : : : : $ $ : = : : < 1 : : : 3 r j r 3 $ 3 : : . c l l j l b n l N ( | L M n N N N M M v M M m m M N N M M M ( @.( @.#.#.q.y.O.@.^ m f p i v n F ) z _ l o o ; < 1 1 : : : < 1 2 i j j c N n h c z 1 p x F l l n n F M v N @.@.| q.-X-XN.M.A.q.[ ^ b.y.n b n 2 2 1 2 8 1 : : 1 2 : : 3 : : : 3 : 2 , : : : : : 3 , , : : : > > : $ & $ $ $ & $ 3 : : < > < 1 ; = = O = = - > > 1 > > : - ; : - : $ : $ $ : : $ : : 3 > : : $ : , , 3 : : $ : > : , , , : : : : : O $ $ $ $ % > > $ $ : % + > > > - ; : > > - : - = = = = ; : : : 1 < : < > : 1 - > > $ > > O .     O $ $ $ $ $ : : > 1 : : ; : = : : : : : : : : : : $ : : $ : 3 = > = > = > : > : : : : : : : : : $ $ $ $ $ $ $ $ $ > $ - + % - ; = = = = = = = - - : > - : - : $ $ O $ $ $ $ $ $ $ $ % % % $ $ > : = = = = O = $ $ $ $ $ $ $ $ : O $ % > O > $ $ $ $ $ $ O O O : $ $ O O O $ : O $ $ : : $ $ O . O $ O O $ $ O % $ $ O O $ O O O $ O O $ $ > > O O O $ $ $ O $ O O O $ O $ O O O     o 7 s 7 O   % 4 * ",
"c.V.~.s.G 1 O O o O = O O o o o = = : : = = : O o O = = + - o o = = = o = = = = = = ; : = = = O = : = : = = : = O = : : = = = : : : : : : = = : = : = : = : : = O $ : : : $ : = : : : ; : : 3 , 2 3 $ O $ 3 : O j x l h i l v f l L ) N M M N N N n v v M N N m c M N M B N ( @.[ @.@.@.#.y.@.@.| L l p a l b H L b ' d ; ; < = : 1 1 1 : : 1 1 p i 2 h n n i i d 1 1 l n x n n n n M l N | | N q.-X-XN.M.A.q.[ X.M.t.n l n i 2 2 2 2 1 : : , 2 : 3 3 , : 3 : , 2 3 : : $ : : $ , : : 1 > : : : & $ $ $ $ $ $ $ > > 1 : > ; - - - = = = : 1 - : > = - : > : > : : $ : O O O O : : : : : $ : : 3 > : : : : : : 3 : : : : : : > : $ $ $ $ > : : : : % + : + > - > > - : - : ; - < = = = = - - > - < - : < : > : > 1 > > > - O       O $ $ $ $ $ : : : : : : = ; = : : = : : : : : 3 : : $ : O O O = = - = : O = = $ : : : : : : : : $ $ $ $ $ $ $ O $ O > > > > > = = O = = ; = = = - < > > - = = : $ O $ O : $ $ : O O : X O $ O - - O O O O O = $ $ . $ $ & . $ % > $ : $ $ $ O O O $ O O O O O : $ O O O O $ > O $ $ O O $ O O O $ > $ O $ > $ $ O O O $ O $ O $ O O O O O $ $ O O O O O O $ $ O $ O O $ O $ $ -     O 9 D k 8 8 C ! *.",
"2 , z 5 o O O = = = - > : - = O O O O : : = = O O O = = o o O = = O = = O = o ; = = = - : - = = O : = : : = = = O = : : O = : : : : : = : = = = : = : = : ; = : : : $ : : O : : : = = = : : 3 3 2 , 3 O O 3 < = i c n l i l n v p n ) N l M m L N M h v M N N n c c c M M N @.@.[ [ ( @.q.q.X.] | ) x i i f l l K H ..x < ; 1 - : : > : < - : < i 2 2 j I n j h j 2 p a l n x n n n v l M ^ | ^ N.-X/.N.M.A.q.[ O.M.r.l l x 1 < 2 7 2 1 1 2 2 1 3 , 3 3 3 3 , 2 2 3 3 : $ : : : 2 : : : : > : > $ $ $ & $ & 3 3 : > 1 1 1 > - - : = = = > > > - > > - - = : - > : : : O O : O $ : : $ $ $ : : : : : : , : : : : $ $ : $ : : : : : : : $ : = : : > : - = - - - - - : - : > - - : - - - = - > - : - : : - - : < : : - > : = O .   O O $ $ $ $ $ : ; : : : = = ; : : : : O : : : : : 3 : : O $ O : - O > = : = : : : : : : : : : O : $ $ $ $ : $ $ : $ O > + % - > 1 : = = : - - = = = > 1 1 = : = $ O O O O : $ : $ $ $ $ $ $ $ $ - ; O O = O : % $ $ & $ : : $ . > $ $ O $ $ $ O O O O $ $ $ O O $ $ O O O $ $ O $ O O O O O $ $ : , 2 , > : > $ : $ O O O $ $ $ O O O $ $ O O O O O O O O $ $ $ $ $ O O O O O $         . = 4 0 e C ! r.",
"  $ T ,...z o o o O = ; > : = O O O : O O : O = - = = O = o o - = = = O = = = = O = = - - : = = = = = : = = : O O = < : = O ; : : - : : = : O : = : = : : : : = : : : : : : : $ : = = O : : 3 , 2 c j : O : < : p c n l i b H H p N ( L M M N ) N M h B M N m M M M M M M N ( @.[ [ @.@.y.t.O.@.( L b i i i i i J d P F 2 o - ; ; - > : : ; = : a i p l L N l j a i 2 p j l n n l l v M N L ^ | y.-X/.y.M.Q.y.[ @.b.7.l l n i 2 2 7 2 2 2 8 2 : , 2 3 2 3 , 3 3 3 : , 3 3 : 3 : 2 , > : : , > : 3 $ $ 3 : : $ $ > < > 1 ; < - = - = = = - 1 : - - : > - - > > : : : : : $ : : : , : O $ : : : $ $ : : : : , , : $ $ $ : : : : : : : O : : O = = > > > = = - + - : - > ; : - : - : : - - : - : > - ; : < - : = = = = O O > O . .   $ $ : $ $ $ : O : : ; = = : : : : O : : : $ O O O $ $ 3 : : : = : = = O : = O $ $ : : : $ : $ : $ $ $ $ $ $ $ O O O O + + > > 1 > - - - > = = o = 1 1 > = - = $ $ O O $ $ $ $ O $ O O $ O $ $ = = = = - = % : $ $ $ $ : & $ . > $ > + : % O : O O $ $ : $ $ O O O $ O $ $ O O $ $ O O O $ O $ > , 8 > $ $ O O $ $ O O $ : > : O O $ : $ $ O O $ $ : $ O O O O $ $ $ O O O O O O > > O     - s V % . 4 ",
"1 o a a = 1 p 1 ; ; : - ; = = = : O : $ = : : O = = O = - = @ + = = = o = = = = = = = = = - = = O = : : : : = = : : = = O : : : < : - = O : : : : : : : : : ; : $ $ : O : O : O : : : $ $ $ 3 r r r 3 3 : $ $ 3 c c v h i v l H h L | ^ M n L m N v M l m m f L N M M h h N ( @.( ) #.#.t.y.q.^ ' L l l l d 2 l F F n k 1 O = ; : 1 : - < : < 1 j l h c L n j a l a < 1 l l l n n n m N N / | [ N.-XQ.N.M.M.N.[ | Z.5.p ( c < : , 2 2 , 1 : : 1 3 3 : 3 3 : & 3 , 3 : $ : : , 3 : : 3 , , : : : & : & 3 3 : : : - : : : ; ; > > - = - : - > - > - > > = : - > 1 : : $ : : : > $ : : : $ : , 3 O $ $ : : : : : : : $ : $ : : : $ : = = = : = - : > = o = = - - - > - - : - = O = = = = : + = O : o O = = = O = = O = $ O + O . .   O $ : $ $ $ $ = = O = ; : : : : : : O : : : : : $ : : : $ : $ O = - > : : > O : O : $ : $ $ $ : $ $ 3 $ $ : $ $ $ $ $ > + + + > > > = = O = = = = = O O > > > $ $ O O O $ : > : > : $ $ $ $ $ : > : - = = O O O O $ % $ $ . . . O : > > $ O O : : % % $ $ > > O $ > : O O O $ O O O O O O O $ $ O O O O O O O $ O $ O O $ O O $ O   $ > $ $ > > > $ $ O $ O O O O O O O O . . O $ % % + o o + > - + . ",
"x O 1 - o : - = = = = ; - - = = = : O : : O = : O = O O o - ; = o = = = o = = ; = = = = = = = : : = = = = = = = : : = = = = : : : : = : = : = : = = : ; : = : : : : : : : O O : 3 : $ $ & $ : , 3 $ $ $ : : $ j c h c h i l l m v N | N l M N N n v M l b b i H M M N h h N ( @.m [ X.O.5.O.@.m | ) l i l i < i z x x a : ; - : : > > : < 1 < 1 i j j l I n h h a i < < l x c n n l n n n ^ | N N.-XQ.N.M.M.#.f ] M.>.; n j 2 i 1 , 1 1 : : 1 : $ & 3 3 3 3 : 3 3 3 $ 3 : 3 3 , : : : : $ 3 : : $ & 3 3 $ : : : : - - : > ; ; - : = : - = > : > : > = - - : > > : : : : : : : : $ 3 : $ : : : O : : : : 3 : : : : : : $ : $ : : O : : = : : : - - ; = = = - - - ; - = > : + = = > = - = = > - : ; = = = = = = O O = : O > O O .   O $ $ $ $ $ : O = : : : : ; ; : : : $ : : : 3 : : : $ : : : $ = = = = = > = : : : : : $ $ : $ $ $ $ $ $ $ $ $ $ $ $ $ + > - O = = = = O O O = : > = = = = = = $ O $ O O $ > $ $ $ > $ $ $ $ $ = = = = > O % : $ > $ % & $ $ $ O : $ $ $ > > $ > $ % : > % $ $ $ $ > % $ $ $ $ O $ O O $ O $ $ O $ $ O O O . . $ O $ O O $ $ $ : O O $ % $ O : $ $ $ O $ O O O $ O O O O O O .     . X O o O > X > 4 > ",
"P 7 p = o ; < O = ; = = : < ; O O : $ = : = O : = = = O = O - o = o = o O = = - = = = = O = = = : = = = O = = : ; : : = : : : : : : : : : ; = = = : : : : : : = : : = = O : O $ O $ $ $ $ $ & 3 . $ & $ 3 : : c c j c i i v d n M N | N l m ) L n n H f b m l J M N c M c c ( @.) ( 5.#.y.5.#.( ( L l j l i 2 i a x z 2 : : < 1 : : > : 1 1 1 1 2 l j l n c j h 2 a - p x b l n v l M M M ^ ( L #././.N.N.M.q.f ( N.7.p n i a 2 1 1 1 1 : : 1 1 3 $ & 3 3 , : 3 $ 3 & & 3 3 3 3 $ : : $ : : : : : : : : $ $ : : : - : - 1 ; < - = - = > = > - - - : : = > - > < O : $ : : : : > : : : : : 1 $ $ : : : > : $ : $ $ $ : : $ : $ : : ; : : : : > : - = = O - - - O = O : : % : % O > O : $ O : % = : ; ; : : = = = - : : > = O O . O O $ $ $ $ $ $ = = = = : : - : = : : : : > > : O : : : O : : : O = - : = : > : $ : : $ : : : : $ . $ . $ $ : $ $ $ $ $ + = - + > $ O O O O O O , > > : O $ O $ > + O O O $ O > $ $ O $ $ $ $ O = = = - : - > : $ > % % $ $ $ O $ $ O $ $ $ $ % > $ > $ O : $ $ : $ $ $ $ : $ O O $ $ O $ $ $ $ $ $ : > $ O . . $ $ O O $ O O $ $ $ O $ : O O O O : $ O O % $ O O $ $ $ $ O O O o   . O @ O - q X + % 4 ",
"I a i - o - 1 = ; = o = : : ; = = O : O O = : : O o O O o O o = = = = = = = = - = = - = - = = : : : O = = = : : : = : : ; : = = = ; : : : : = O = = = = = = = : O = = : : : : $ O $ $ $ & $ & & $ $ $ $ : : : j c h c h l v i v M N ) N v m / ) H L H l b ) b m N N N c M M @.#.^ ) O.O.q.#.O.( | P M i l c i l a x F 8 : : 1 = ; : - 1 : 1 < 1 p j j h n n h i p 1 < 1 l l l x n l n n n L ( L q./.-XN.M.A.N.m ] t.y.n n j h < : 1 > 1 1 : 1 1 3 $ , 3 3 3 & 3 3 : 3 3 & : : & : $ : $ $ : : : : & $ $ 3 $ : : : : : 1 - - - : : - O = > = > : : - - : - : - > = : : : : : > 3 , : > : : : : $ : : : > : : : $ : : $ : : : $ : = : = : : = : 1 - = = o = - - - O $ $ $ $ % : > $ $ + $ > O $ : : : : = : = : = > - > > - O O .   $ $ $ $ $ $ : = : = : : ; < : : = O : $ : : : : : $ $ : : $ : = = O > > : = = : : : : $ 3 : : $ $ $ $ $ $ : , $ > $ $ > + % O > $ % = $ $ $ O > > > > > O : O O : O O $ O $ > O $ $ O . $ O $ = O = : = = > > : % $ $ & $ $ $ > $ $ O O $ > > > > > $ : $ O $ % $ O O : $ O . $ $ O $ O $ $ $ $ $ > $ : $ O . : $ O $ O O : $ $ $ $ O $ O $ $ $ O $ $ : O $ $ $ O $ O $ O O O O O + = O o + 4 X + 4 + ",
"1 1 1 < = = < ; = = = ; : < : = O = O : O = : O = o O o O o o - = = o = = = = = = = = - = = = = = = : : = : = = : = = : = : = : : = : > : - O = : = = : = = = = = : = = : $ $ $ $ $ $ $ $ & & 3 $ $ $ $ $ $ $ i l l n l h x B v l m ^ N B n ) n H H J d n ) J b c N N M M N | O.^ ^ ] ] q.#.X.^ | / x j h j 2 j 2 x x j > > 1 O = = : : 1 < : < i j 2 i N I j p 2 p < p b x l v l l v l v [ ( [ q.-X/.N.M.A.N.[ ( r.y.n l l i : : > 1 2 3 , > 3 $ $ 3 3 3 , 3 , 3 , 3 3 3 3 & & $ $ : $ : : : $ : & : : $ : : : : ; : : - ; 1 - = - = > : : - > = - = - = > > : $ $ : $ > : > , : : : : : $ : : : > : : : : $ $ : : : $ : : $ : = = = : ; : : ; < - ; - - q ; - = O $ O > : % $ > $ $ > > O $ = : < : < : = = = : O $ > > . o o   O $ $ $ $ O : = = = : - ; : : = $ O : : : : $ : : : : : : : $ O = - > = : : = : $ : : : : : : $ . $ $ 3 $ : & $ $ % $ + > + > > $ O $ : > : $ : % : % : % > O + + + O - + $ $ : O $ O O $ $ O = = = = > O $ + % $ & $ $ O $ $ $ O : O $ $ > : : % > O $ O O O $ O O $ $ $ O . O O O O $ O $ $ $ $ : $ $ > : > $ $ O O $ $ O > $ $ $ $ O $ $ $ O $ : + $ O $ $ O O O $ O O O   > > - - @ . + 4 4 7 5 % ",
"o p 1 < ; o ; = = = ; : ; = ; = = O : O : O = = O = = o o = O - = = = O o = = = = - = = = = = = O = = : : = = O : : = = = = : : : : : : : ; = = = : = : : : : = = = : O O : $ $ $ $ $ & : $ : & & 3 $ $ 3 $ $ i n c c l l v i v M N | N M N L n m v f p b ) f n n c M h h N | @.) ] X.+.t.q.O.X.| / M 3 i i 3 < 1 k c a 1 > : = = = : : : : ; : i j i 2 n L l i i 1 : 1 l x l n b l v v v ^ ( ^ q./.Q.N.N.Z.q.f [ 7.0.B i c i 1 > 1 7 i 2 > 3 : $ $ $ 3 3 3 3 3 , , , & & : $ $ 3 3 3 $ : $ : 3 3 & $ & $ $ : $ > > : - ; : - : : - : - - - > : = = - : > = - : : $ : > : : : : : : : : : $ : , : : : > > : : : : O : : $ : $ : = = = ; = ; - - - - - < 1 1 ; - : O : > O > $ $ O $ $ O $ $ $ : : : - - = : : = > O O : + .   .   O $ $ $ $ : $ : : : = < : : : O $ : : : : $ : : O $ : O $ : : O - = = > : > = : O O : : : : : $ $ $ $ : $ : $ > $ : $ O + + > > : $ $ $ > > $ O O O $ $ > $ > + O O O + - % : $ $ $ $ $ O $ O : - = = > = $ $ > $ O O O O O & % : O $ $ $ % > : $ $ % : O $ O $ O O O $ O O O O O O O O O O $ % : O $ O $ > > $ $ $ $ $ $ > $ O $ $ O O $ : $ $ $ O $ $ $ $ : O O O O O O O O + O o + O O - > + > > X ",
"o a ; ; ; = ; o o ; : ; = = ; = O = $ = O = = O = O O O = o - o o = o = = = = = = = = = = = = = = : = : = = = = : : : = O = : 1 : : = = : = = : : = : : = = : = O = = : : : $ $ $ : : & & & : & $ : & $ $ $ : j n c c l d l d l N ^ | N M L ) L b d b f Z H f J N N M h h N [ @.^ ] @.@.t.#.] | | / c < 2 i 2 : a j k j : = = ; - : : > < : = = 1 j h i n n l d a 1 - < l l j v n l v M M ) ] [ #././.N.N.Z.q.M ^ q.r.i l x 2 p 1 2 1 , , : , , 3 $ $ 3 3 : 3 3 3 & 3 3 $ 3 3 $ : 3 $ $ $ $ $ $ $ $ $ & : : : : : - : : 1 ; ; > - = - : : > > - = = O > > = : : : : : : > : : : : $ : : $ $ : 3 $ : : 3 : : : : : $ $ : : : : $ ; : ; - : ; - < - - - < - 7 - - - $ > O % : O : % $ O : $ $ : : = : ; : : - = : : O O > 1 .   O . O $ $ $ $ : : = : : : < - : : = O $ : : : $ : : : : : : : : : = O > > = > = : O O : : : : : : $ $ $ $ $ $ $ $ $ $ $ O - + > + > > O O > > > O . O O : $ > O : O + - - + > O % $ O $ $ $ $ $ O = = = = = = > : : % $ $ $ O O $ O $ : O > > $ : + $ $ : $ $ O O O $ $ $ O O $ $ $ O O O $ O $ $ O $ $ O > $ > $ O $ : > > : O O O : > O O $ $ $ > $ : $ O $ O O $ O $ $ $ O O O o . O O o o + 4 @ > 4 % ",
"= i = = < = < O ; ; < : O o o ; O O O O = O O : = = = = = = = - = = = = = = = = = = - O = - = = : ; O = = = : : 1 : = O O = : < : < : = = = : : : : : ; : : : : = = = = = : $ $ $ : : $ & & & 3 : : $ 3 3 . : j n j l i i v i v v n N M h N ( L n v J b J b f ' I N M h M N / @.^ X.O.+.y.#.^ | P ) x 3 i j i a n x z j : O O : > : 1 1 1 : : ; < c c h l n c l i i < < l l a n l l l v l N ] ] ] A.Q.N.M.A.t.[ ^ y.t.n L I < 2 2 1 1 : : : : 3 , 3 $ 3 : & 3 3 & 3 : : : $ $ 3 3 : $ $ O $ & $ 3 3 & $ : : : : : : : : - : - : : = = - > ; - > O O = : - > = O : : : : : : : : : : O : : O : r $ : $ $ : : : : : : : : $ $ : : : : : < : : : < ; = ; - 1 ; - O : % $ > $ % O O : O > $ > O O : = O = = = = : : - O O 1 > . . : . O $ : $ $ $ $ : : : ; : : : 3 O = = $ : : $ $ : : O $ : : = : = = = = : : : = O : O : $ : : : $ $ $ $ $ $ $ $ > $ O $ O + > - > $ O O $ > $ $ O O = = : O = O + + + + - O : O : $ $ $ $ $ O $ O O = = - > > > > > $ $ & $ $ $ O O % > > O $ O O O $ O O $ $ > $ > 1 > $ $ O : $ O $ O O $ $ $ O > > > > $ O O O $ $ > > $ $ O $ > > $ . O O O > O % O $ O O O $ $ $ $ $ O $ O . . o O . o . > > 4 9 4 ",
"; a o 7 ; o a o o = = = ; : = . . O . O O O = = = = = O = ; o = = O = = o = = = - - = = = = O = = = = = O : = : = : : : = : : = = = = : : : > : : : = = = = : : - : - : = < : - - - = = - : = O $ : : $ : : : i l l h a f i l v M M [ N B m ) H [ m f m ^ b v b c ) ) b v ( +.X.X.@.#.X.N.q.@.[ m [ n h i i 2 < 2 F j z 8 O 2 O : : > : : - > 1 2 h j x I c h 2 i p < p p l b m v v l v b n L ) #.A./.N.y.Z.N.B [ #.q.m d d d ; 7 i i 1 1 1 1 1 < 2 : 3 3 3 , 3 : 3 $ 3 $ $ 3 3 : : = = : 3 3 : $ : 3 : : $ $ $ $ $ : 3 : , : : : , : > : $ O O 1 = O - - - - = - > > - - : = = > : = : - : O o I , $ 3 3 $ . : : : $ : : : : : ; : : : = : : = - = = = o - - = - > > - : = = = = - = = = O O O : : : : $ $ : $ $ $ O > % + O . . . $ $ $ $ $ $ $ $ $ $ $ 3 $ 3 $ $ = : > : O O = : > : = O = = - = - : : > > = = = : : > : : > $ O > O $ % : % $ O + : $ > > > % $ % % > $ = > = > ; > = = = = + % $ O O $ $ $ $ $ $ $ $ $ $ $ O = $ % > O $ > $ O $ O $ : > % O > : > > $ $ : > % : $ $ : $ $ . & $ $ $ & . . . . . $ . . O $ $ O O $ $ O O $ O % > : $ O $ % $ O O $ O $ $ O $ O O $ $ $ $ $ O . O - + = O @ > . . .   o + > > , 5 5 ",
"1 p o i < o a O o = = = : : = O O O O O O O O = o = = = = o = ; = = = = = = = = - - = = = = = = = = = = : = = = = = = O : : O : O O = = : : : < : : : = = = : : = - = > - - > 1 : > > 1 > - : = O $ = = : = - i l j l l i i l n M m [ N M m ^ ^ b v m m b b f v l n b i d N ) / @.O.O.| q.#.@.@.| | n i p 3 < 2 2 z z j 2 = ; O : - > : : : : 1 < 2 h j n c h h p 3 p p p v b n v v v d v m / ..7.R./.N.y.M.y.[ [ q.q.m p d a - < 7 7 ; ; - 1 : : 3 : 3 : 3 & 3 , : 3 $ 3 $ $ $ : : : : : : : : : : : : : $ $ : $ $ : : : : : $ : : > : : $ : O > : O - - - 4 - = > > - : - : = - = - : = - O . f. ., . O O : : : : : : > : : : : = : = : = = : : = = = - = - - = = = : - > - > O = = - - > - : : : : $ $ $ : $ : O $ $ O O O   . . $ $ $ $ $ $ $ $ $ $ $ $ $ $ $ $ O = > - = O O > > - = = O > : = > > - - = = = - > : = = = > : % : $ $ $ O $ > $ > $ % $ : > O $ $ $ O % = - - = 1 - = = ; = > $ O O $ $ $ $ $ $ $ & $ $ $ $ $ $ $ $ > $ $ O $ $ $ : O $ $ : $ $ % > $ $ $ $ $ $ $ : O O $ O . $ $ & $ $ $ $ $ $ $ . . . $ $ : % : O : % : $ $ $ > > $ O O : . $ O O O O O $ O O $ $ O O $ $ O O O + O O O O . O = + .   O 2 . : : > ",
"; - < < - ; ; ; o O : = O O = O : O $ $ = O O = = = = O o ; = o o ; o = = = o = = = = O = = = = = = = = = = = = = : = : = : : : = = O : > < : : ; : : = = : : : - : = = > - - : : 1 1 : > - = = . : = $ < = = 2 j j i l l l v n M M [ N v m ^ m f v b v m m b f N H n b n ) X.+.m | O.O.y.#.@.@.../ n j l i i c a a c a > < O = : 1 > : : : : : : 2 3 r c l i j p < < p d b b v l l B d d n ) X.y.A./.N.y.Z.N.[ [ #.q.f a z a ; ; i p 1 : < > : : : : , 3 $ $ $ 3 3 $ 3 $ $ 3 $ : : : : : : : : : : 3 : : : : : $ : : : 3 : : : : : : : > > : : > - - - > 1 1 > > > - : > = = = = = > - > = O = 2 , : : 3 : : : : : : : : : : % = : = : = = : = = - = = = - - - = = = = = = > > = = - - : > - : > : $ : $ : $ $ > $ $ O O O o   . $ $ $ $ $ $ $ $ . O $ $ $ $ : $ $ $ : > : - = = - > > = O = - - > > - = - = = > > > - = O = = > > > $ O $ O $ > : > % $ O O O O & O $ O $ = = = - 1 - ; = ; ; - + O O O $ $ $ $ $ $ $ $ . $ $ $ $ : > $ O O $ > O $ O $ % : $ O $ % > O $ $ : O $ $ O $ O O $ $ $ $ $ . . $ & , & $ . O O $ $ % > $ > % > : $ O > > $ $ O $ $ $ O $ O O $ O O $ O O O $ O O O O O + O O + O O o . > > O o O 0 O O > , ",
"; o 1 < o - o =   = : : = O = : O O O : : O O O = = ; o = = ; o = = = = = = = = = O = = = = - - = = = = = : : = : O : : : O O : : = : ; = - : : = : = : = : : ; = = : : ; - : - - - - : - : : = . $ : : 1 O ; 2 z l l l l l v m M N ^ [ M [ ^ [ p f m f v b H b n x v v l m ( O.B ( O.O.t.#.@.[ I n h h j < : i 2 1 x 1 = 2 O : > : > : = : = : 3 2 h j x j h l p p < p i v b l v B d d f b L ( #.A.A.N.y.Z.N.] B N.q.m a n l : ; 7 a 7 < 2 1 < : : : 3 3 $ 3 $ 3 , 3 $ 3 3 $ 3 3 : : : : : : = : : : : $ : : : : : : : : : : $ : : : : : : > : = = - - - q - > - : : - = = > = O = > : = O = =   O 3 : $ $ : : : $ : : : $ : : : = : = : : = : > = - = - = - - - > - - - = = = : > : : > = = = > > : $ $ $ $ $ > > $ $ = O . . . $ $ $ $ $ $ $ $ $ $ $ & $ $ $ $ $ $ : > > = = : - = = = = = = = = = = > : = = = - > - = = = = > % > O : $ O O % $ : $ % : $ O O $ $ % O : = = = - ; ; o = = ; - O $ O $ O $ $ $ $ $ $ $ $ $ $ O : O % > : : $ : O $ O $ O $ $ O $ : > $ O O $ O $ $ O $ O O $ $ $ $ $ . . . . , $ . $ $ $ & $ $ O % : $ O $ $ $ $ $ $ : O O $ O O O O O . O O $ O O O O O O O O o O O O O o O O O = > O   . , $ 1 , 8 ",
"p o 7 ; o ; o =   = - = O O = = . . O O = $ O = o = = = = o ; = O = = = o = = = o = O = = = = : = = = = = = : = = = : = O : : = : : : : : = = = : = : = : : : : = : = : = : : : = = = = = = = : = : : > 1 : O 2 x x l l l l l n m [ / ^ M [ ^ H p f v f b m [ b b b b b l l ) O.^ X.X.X.y.#.@.@.| L c h l 3 : p 1 1 c < O 1   = : : : > : $ : : 2 i h c I c j h p < ; < l v v f b l p i M N ^ N @.Z.A.Z.#.Z.N.[ v 0.q.n a F d > 1 i a i 1 1 1 < 3 : : : $ : $ 3 : : : : $ : 3 : , : 3 : : : : O $ : : : : $ : : : : : : $ : : $ $ $ $ : : : : : O = - - - : - - - > > - - = = > O ; : > = = = > r 2 : O : , 3 O : : : $ $ : $ : : = : : : = : = - - : = = - - > > = > = = O = O > > > : > = = = $ $ $ $ O $ $ $ 1 > : $ > + . . . . $ $ $ $ $ $ $ $ $ $ $ $ $ $ > = = - - 1 - = = : = - : = = = O = = = > = > > = = = = = = - - $ $ $ $ O > $ : O $ O : $ $ > $ $ $ $ $ = > - : = - : - ; o ; = = O % $ $ O $ O $ $ $ $ $ $ $ $ $ $ $ > $ O > $ % $ $ O $ O $ $ O $ : $ $ O $ $ : $ O $ O O O O & & : $ . . . $ $ . $ & > % % $ O O $ O $ O $ $ $ : O $ $ O $ O . O O O O O O O O $ O O O O . . O . + o . O O O > + O O O o . = > > 4 5 ",
"a ; p - o 1 o O o = - O O O = O . . O O O O = O = o = O ; o ; = = = = O = = = = = o = o = ; = = = = = = = : O : = : O : : = = : : : : : = = = = = : : : : ; = = = = = = : = - : = = O = = = : = = : > : < = = 2 x l l l l i v M B M [ [ v m m v v v v l b H b f H L L H b m ( O./ ( X.X.N.#.#.@.| | l p h 2 < p d j x 8 : < . O O : : : $ : : : = 3 : j N n i h p p < p p v l l v i d v n N | | O.Z.A.y.#.Z.N.[ M 0.q.n p d 1 < ; 7 1 < < > < : 3 3 : $ $ : 3 $ 3 3 : 3 : 3 $ 3 < : : : : : : = : : : : $ : : 3 : : : : : : $ : : $ : : : > : : = - > - - = O - : = > : : - = O = - : > = = > :   O : : 2 : : $ O : O : $ : : $ = : : = - : = : - : : ; - - - - O = O = : - = > O = - - : - > : $ $ O O O O $ $ > % > > > O . o . . $ $ $ 3 $ $ : 3 $ $ $ 3 $ $ > > = = - : = = > - = = - - = O O O O = - = = - O = - = O = > > O $ O : $ : > O O $ O $ $ > $ > $ $ $ $ : > > > = = ; = = = = = = $ : O $ O $ $ $ $ $ $ $ $ $ $ $ $ > O > $ $ O $ O : O O O $ O O O $ $ O $ O $ % O O $ $ O $ O : : & $ $ $ $ : . . . $ % > $ $ O $ O O O O O O > O $ O $ O O O $ O . $ O $ O O O O O O O O O O O O . O O o O O > O   o O . . O > , , 7 ",
"d - - - O < - o O = = O O O O O O O O O O O = O o = o = = = o = = = = = O = = = = = = o = o O = = = = - = = = = : = : : : : : = : : - ; : - : O = = : : : : = = = = = = = : : = : O = = = = : : : : : : : = ; 2 x l l l l d v n i M N m l M m l n f p f b b v v n n m v v H ) X.[ / X.#.N.5.@.[ N N 3 : 3 < ; : 2 z l j 2 ; : = = = : : O : 1 1 = : O < c x i p p p < < p i l b l l d l l n P | #.Z.A.V.y.Z.q.[ m 5.:.J a a 1 1 1 p 1 < ; : 1 : : , : : : : 3 3 , 3 : : : $ $ : : 3 : : : : : $ $ : : : : : : : : : : : : $ : : : : : : , : : : = : > > - = O = > - = - = > - : > - = = - > > = : 2 3 , O . : 2 : : : $ $ $ $ $ : = : = : = : : : - < - - - - - = O O - = = > = O = = = - - = : $ $ O $ $ $ $ : O $ % > > = .   . . $ $ $ $ $ $ : $ $ $ $ $ $ $ = = = O = > = = > = O = > = = = = = = = = = = O = O = = = = = = > O % $ $ $ $ O $ O $ O $ O $ O O = $ $ : > : > = O : = = o O = O $ O : $ $ $ $ $ $ $ $ $ $ $ : $ O O > > O $ $ $ $ O $ O $ O O O O O $ O O O O > O : % O $ : O $ $ : , $ $ $ $ O $ $ $ $ $ > : $ O $ $ $ O O $ $ $ O O $ : O O O O $ O O O O O O O O O O O O O O O O @ O O O O O . . O O O O + 4 4 4 , ",
"a ; o = = > < O = = = o O $ O . $ $ O $ O O = = = = o = = ; ; = = = o = = = = = o o = = O = = = = = = = = : = : O = : = = : = : = O = : : : : 3 = : ; : : : = = = O = : = : = : : = = = - : : : O > = O : O = 1 l j j l d l v m M M ) ) n L ) n m i p d b J b b b n b l n / X.X.[ ] @.@.y.O.X.[ | ..I l j c 3 = O a 2 2 1 . 1 o O O O = : : : < 2 < O < n x j 2 p p < < < i l b l l l l i l n | @.Z.A.Z.#.N.y.] v O.O.n d i < 1 1 p a 1 : 1 1 < : : 3 : 3 $ $ 3 r 3 3 3 : $ $ $ < : : : : : : : : : : $ $ : : 3 3 : : : : : : $ : : : : : : : $ : 1 , > > = = = > : > = > = = - > > = = - > = = 1 O O : 2 : O O : O : O : : $ : : : ; : - : ; - > - - = - - - > - - = = = = O = O - : = = = O O $ $ $ $ $ $ $ : . O O = > O .   . $ $ $ $ $ $ $ & 3 $ $ $ $ $ $ - = = O O = = = > - = = = > - O - > : - = = O O = > = > O = O = > > : > $ $ O O > $ > $ : O O O O O = O = - - > O = = = = O = O $ O $ $ $ $ $ & $ $ $ . $ $ $ $ $ $ $ : $ % : O $ > O O O O $ $ O O O $ O O O O : $ > $ $ $ $ $ O $ $ $ O O $ $ $ $ $ $ O O $ > $ $ O $ O $ $ O : $ O O O : $ . $ $ O $ O $ O O O O O O O $ $ $ O O o O . . O O   o = > - . - , > - > > ",
"- 7 - = - 1 o o   o - . O O X O . O O O . O O O = O O = o ; ; = o = = = o = = = = o = = O = = = O = = = = = O = : = = : = : : : = = = : = : = : : : = = = = : : : : - : ; : : = : : - ; : = = O : : > : - : < j x l d j i l f i l N / L n N ) n J f p v ) J d n F F v l n  .O.) ^ X.O.| q.@.#.[ / | N i 2 h 2 ; i 8 2 2 1 1 > : : 1 2 1 : $ O = 3 j j : j N c 3 < < < ; p l c l h i l n h c N L ] N./.N.#.N.N.] f q.O.a d z d = ; i 7 1 1 < : - $ 3 : : 3 $ 3 3 , 3 : : : : : O : : : = O : : O : 3 3 : : : : : 3 $ : $ 3 3 $ $ $ 3 $ $ $ $ $ $ : = O : , 2 , > > : - - > > > - < > : - > 1 - : : : : : : $ : : $ : : : O : : : = = : = : : : > ; > - - - O = ; O = = = = = O = > = = - > 1 = = $ $ $ : % : : : O O $ : % O .     O $ $ $ $ $ $ $ $ . $ $ $ $ $ = = = = - > = : O - > > = = = = > = = : : = = = 1 = = = = = > O O $ $ : : > > > $ : % % : % : % = = : = = = = O = = - O = = O : $ $ $ $ $ $ $ $ : $ $ $ O $ $ : O O : % $ : O O > $ O $ O $ O O $ $ $ O O O $ : O $ O $ $ : O O $ $ O O O O O O > > > > > > > > : $ % O > $ O : $ O : $ $ O $ $ . O O O . . O $ O O . O O $ O O O o . O - + .     O O o o . + > O 7 0 - ",
"z 7 - ; 7 o   =   o O O . - % % O O $ $ $ O = : ; o = o = ; ; o O = = = = o = O o = = = o = = O = - = = = = : = = O = O O : : : : : : : : = : = : : : = : = : : = : : - : : : : : : : : : : : O = $ > > ; O : a x l l i i i i d M ^ ) N l n H v n f p b P v f J L n n v b ( O.| / O.O.#.y.#.#.] N n c n n < = i n x z a a 2 : = : : 1 > : $ = : : h 2 3 c N c h p p < : < c l i a i l l l M I | ] N./.N.N.q.q.[ m 5.:.d p b a = - < p 1 < > < - $ & 3 3 $ $ 3 , 3 : : : : : : 3 : 3 3 : : : < 3 3 $ 3 : : : : : : : : : $ : : : $ 3 $ 3 : $ $ 3 O O O $ : , > : - - = = = > - - > = - > : > > = : : : : : , > : O $ : $ : O $ : O = = : = : > : > : : - - - - @ = = - : : O = = - = O > > > = = $ $ : $ : > $ $ O $ > > > % . . . $ $ $ $ $ $ $ $ $ $ $ $ $ $ $ O = = O O : = - - : = = = O O = > O O - > - = = > - = O = - = = O O O $ % $ $ $ > O % : > $ > = = = ; - : = = = = O = > - = - = $ $ $ $ $ $ $ $ $ $ $ $ $ : $ $ O $ O % > O $ O : > > O $ O O O $ $ : O $ $ O $ O O $ $ : $ $ $ > : > % : $ % : > > : > > $ > > % : : % $ O O $ O O $ % % : $ O O $ $ O . O O O O O O O O O $ O O . O O O O O . . O O O o . . = - 4 4 - ",
"  o o o - 7 - o   o O . . + - % O O $ $ O O = = O = = = o ; ; = = = = = = = o = o = o = = = = ; = = = : : = : = : = = $ : O : : ; = : = = : = : : ; : = = : = : : : : : - 1 : : : : : : : : = : $ : : : = = < 8 c l j h i i v v n N L n i n L n b p ; d J d d n n l H n p L O.( ^ @.O.#.y.@.@.( / ..( x l j i l j a 2 a j a 1 O O = : : $ O : : : 3 : 3 j c j j p p < : p l c h h i h l l c L | @.N.A.Z.q.#.q.] b ] q.b < n i : ; ; 1 1 : < < < 3 $ $ : $ 3 : , : : : : : : 3 < O : : 3 : 3 3 : $ $ : : : : : : : 3 3 $ : : : $ $ $ $ 3 : : : : : : : : 1 : : > > - = O = : - - > = = = > - : = 1 O . : 2 r , : = $ : : : O O : = = = = : : > < > ; - = - - = = O = : - = = = - > - = : > - : $ $ $ $ : > $ : $ $ > > , > : . . . . $ $ $ $ $ $ $ $ : , : : $ $ O = - = = = ; - > - = = O O O : = O = - > = O = > = O = = + : = O O O $ $ % $ $ % > $ > O > O > = - ; - = = O O = > : $ $ > $ : $ $ $ $ $ $ $ $ $ : $ $ O $ $ $ > $ : : : % $ > $ O $ O $ : O O O O $ $ O $ $ $ $ $ O O $ % $ O > > > : - > > : = = = - : - > = $ : % : $ $ $ $ O % $ $ $ : O $ $ $ $ O O . . $ O $ O $ $ O $ $ O + > % O O . O O + + O . O O = 4 4 7 s ",
"V G s o o 7 7 - O + + @ O . @ O . O O O O O O O = = = o = o = = = = ; O o o O o = = = O o = = - > = - - = : = : = : O = = : : : : : = : : : ; : : = : = : = : = : : : < : : : : ; : : : : : - : O O : > = O : i l j i i d v v m l M L n l H / P v < o p n d d J F d m H p m +./ ^ ( X.#.q.] @.[ P | L < : 3 < : : = : 1 2 1 1 : O = O O $ : : < : : $ 3 c h 3 j i p < < 3 i l i i h i j c h x I @.y.A.N.#.#.#.X.f [ 8.n ; x 1 1 - 1 p ; 1 - > : $ 3 3 $ 3 $ 3 , 3 3 : 3 : : $ : : 3 : : O : : 3 : $ : : : : : : : : $ $ : : $ $ $ $ $ 3 , : : : 3 2 2 , 1 > > : 1 1 : : - > < > > = = = = > = = : O O O 2 2 3 : : : : $ O $ O : = = : : = : : - - > - = - = + - = = = > = = = - = = = > = > = = $ $ $ $ : $ $ : : > > > > O . o . $ $ : $ $ $ $ $ $ : : : : $ $ = O - : - : : - : : > - = = = > - = O = > O = = > > : = - : - O O O $ $ $ : O $ : $ $ O : % $ = - - < - = = O = : = $ $ $ $ $ $ O $ $ $ $ $ $ $ $ $ O $ $ O $ : : % % % % % : $ $ O $ $ $ O $ > $ $ O O O O : O $ $ O O O $ > $ $ $ $ : = > O = O = O = O : = > > $ % O $ O > O : O $ + $ O O O . O O O . O O $ $ $ : $ $ O O O O - - + O . . o O O + - O . . O @ 4 s Z ",
"-     O 8 o   > - O . . X . X . . O O O O . O = = = = = ; o = ; = - = = = o O = = = o o o O = - = = = = = = = O = = : = = = : : : = : = = : : = : = : = = : = : : : : : = : : = : : = : : : : $ : O O : = = ; < a a h i i l n H v n L H n F ) H J p o p P H x F P l H ) d ) :.( ) | @.#.y.] X.X.N c h l l < o = 1 1 i 1 > : > > : = = = : : : : ; : ; 3 c M 3 h 3 2 < : < i j j i j j i h h j N #.y.Z.N.#.] #.O.f ) 0.L ; d = 1 1 a p 1 < : 3 : $ 3 $ 3 : : 3 3 2 2 , : 3 : : : : 3 : : O : $ : $ $ : : $ : : 3 : $ $ : : $ $ $ $ $ : 3 3 3 3 : : 3 , , 3 , : : 1 1 - > 1 1 > > > - = - > > > = : : O : : : : : : : : > : : $ : = = : = : - : : : : - ; - - = = = > = - = = - : O = = : - = = = $ $ $ $ $ $ O $ > % > : + O o     O $ $ $ $ $ 3 3 3 $ $ $ $ $ $ > > = > - : > > = > > > - - : - = = O : - = = = > = = - = > = O O $ $ $ $ $ $ O > $ $ > : $ : = - < - - ; o ; O $ O $ $ & $ . $ $ $ $ $ $ $ O $ $ $ O O O $ O % > % $ > $ > O > $ $ O % O $ $ $ O $ O O O O $ $ > O O O O O $ > = O O = = = O = = = = = > = = > > % > $ : $ $ $ $ : + : $ $ $ O . O O O O O $ $ $ O $ O O O O O . + - O o o o . O . O > - O O O + 4 > @ ",
"o = o O - O   o O @ . . O . O $ O $ : O O O O = = = = o o = o o = = = = = o = o = = = o = = = = = = O = = = = = : O O : $ : : : : : = : : = = : = : : : : = : = = O = O = = O = O : : = : : $ $ : O : : : O : , l c l l d d v m I L L I n H F l n p o ; b H n n P v m H b ) O.( ^ ( X.@.q.( ( @.| | I n n c < < 1 2 a 2 : = 1 2 : : : : : : : = : : 3 j M c i 2 3 3 < < 3 i h h i c i i x j h N #.y.Z.Z.N.] X.] H +.y.P p a ; 2 1 d a 1 1 : , : 3 $ 3 $ : : 3 3 > 3 3 : : : : 3 : : 3 : = : 3 : : : : $ : : : : : $ $ $ : : $ $ $ $ : : : : : : : $ : : : , , , > , > > > - > = : - = > > : : : $ : : : $ O $ : , : , : : : : : : = = : ; : - = - - = : - - - - = = > = O = - > O = > - = O O > $ $ $ $ : $ $ O O $ $ > O . .   . $ $ $ $ & $ $ : & $ $ $ $ $ : = = > - - > > > = - 1 > > : = = = O O = > = O O - : = = > = = = $ O : $ % = $ $ O : O $ O $ O = - ; ; - = = = = O O O O . . $ & $ $ $ $ $ $ $ $ $ O $ O O O % % O : $ $ $ $ % : O $ : O $ $ O $ $ $ O $ O $ O O > $ O O $ $ $ > O = = = : > = = - - : : = > - = O : $ $ + O : O $ $ $ $ O $ O O O O O O $ O $ : $ O O $ $ O O O O O O O . O O . .   O : > O o O S G g + ",
"J.I.s.s   o - @ + .   . O X . O = $ = O O O O = = = = O ; = ; = O = = o = o = = = o = o = = = = = = = = = = : = = = O : = : : : = : : = : = : = = = : : : : = : : : = = : = : : $ O $ : : : : : : O $ : : = : < l j l l i i l v n n L L n n n j a a ; ; a J x x H z v v l ^ X.X.m ^ ] @.q.@.( [ L @.P h 3 j < O ; : 1 1 > : > 1 = O = : : : = O : 2 3 < c c h 3 < < : : < 2 h j j x 2 < c v j P @.y.A.Z.y.O.] ^ ^ 5.5.P l a < 2 p 7 a 1 : : : : 3 $ $ $ : : 3 , : 3 > : 3 3 : : : : : = : : : $ : : $ $ : $ : : : $ : : : : : : $ $ $ 3 : : : : : : : : 3 : , $ 1 , > > 1 , - = : = = : - > - = : : : : $ $ : : : : : : : O O : : : : = : : - : - - : = - = - - - - > = = O > > = = - = = = O = $ : $ $ $ O $ O O $ : O O o . . . . $ $ $ $ $ $ $ $ $ $ $ $ $ $ = = = = = = > = = > = > = ; = = = O = = - = = = - = = : - : = O O $ $ O $ : O O $ O % O + $ O = ; ; - - ; ; = O $ O $ $ $ $ . $ $ $ $ $ $ $ $ $ O $ $ O O O O $ > $ $ O $ O O > $ $ $ $ $ O $ O O O O O O O O $ $ O O O $ : $ $ = = : 1 > > - = > - : > = = = = > $ : + > O O % $ % $ $ $ O O O $ O $ $ O O $ $ O $ O $ $ O = $ O O o . O . O O O o . > > @   o   q D S ",
"j.P.n.` - o = O 4 O . O O .   . O O = O O O o = = = = = ; o o ; o = = = = = o = O o = = = = = O = = = = : : = : = = : = O = ; : : = : : ; : = : : ; - : : : = O : : : : : : : : : : : : : 3 : : : $ $ 1 : = : < i i j B p d l M h j x n l n F l p d ; o 1 b I c n n v d l m | O./ @.@.#.y.@.@.[ c n c n n 3 ; 3 ; : : 1 < : = = = O O : : : = O : 2 3 < h c r 3 < : ; : < 3 i j c N i : l j h / ] #.Z.y.q.X.O.[ ^ q.| n b d 2 a < 1 1 < : 1 : 3 $ 3 $ 3 : $ 3 2 3 2 , 3 : : : : 3 O . O : < < O : : : $ $ $ $ $ : : : : : , 3 3 $ $ $ : : : : : 3 , : : , , 3 $ 1 1 7 2 2 1 > = - = = O = = = = : : : : : : : : : : 3 : : $ O : = : = : = : : : = : - = - - - - > : > = = - : > O = > : O O = : $ $ $ $ $ $ O O $ O O - O O O . . $ $ $ $ . $ $ . . $ $ : $ $ $ O = O = = O = = = - = O O o O = = O O O ; = o O > = - - : - = O O O $ O O O O O $ O $ : O $ O = = = ; = = = = = $ $ $ $ $ . $ & $ $ $ $ $ $ $ O $ $ O O O % O $ O $ $ O O O : $ : $ $ $ O $ O O $ O O O O $ O O : $ O O O % % : O O - > ; > = = 1 > - - = = = O % : % $ $ : O $ : $ $ $ $ $ O O $ $ $ $ O . O O O $ $ $ $ : = > O . O . O > = O O   . 1 >         G g._.",
"K A z 9 - + + - @ - + ; - o o = = = O O = = o = ; - ; O o ; = o = = = O = O = = o O = = = = O O = = = = O = = = = = = = O : : : = = : = O : : : = : = : : : : : $ : $ $ : : : : : $ : : : : : : $ $ $ 3 $ O : i c a l v l p B M M M c c I F x I k l   ; M c c N ^ m m m B [ @.@.[ ] #.#.#.] [ @.| N h c l h : : 3 3 3 r j i < 1 o O = : : < : ; 3 : 3 , 3 c c r = : : = 3 2 j j i x l l F p < ) [ #.N.N.#.#.] [ B ) ) f p 1 ; 1 i : 3 : : 3 : O : : : : 3 3 : 3 : 3 : 3 : : = O : : : $ O O O 3 3 $ $ $ : : : : 3 & $ : : , 3 : = : 3 : : = = : 2 , : : $ 3 , , 2 , , > 1 : : : = : : O $ : : $ $ $ . $ $ $ $ & $ $ $ : : & : $ 3 $ > : O O = = = = = - = > = = O = = > > : O O : $ $ . : & $ . $ O $ $ $ $ $ $ : $ O O + @ @ o   O : : O . O $ O O $ $ $ O $ $ $ O $ O O $ : $ > $ $ O O O $ O = = o ; ; = ; = - ; = = = = - : > = O = O O o = = O = = = = O = = = = O = o = = O = : > : = = : $ O $ $ O : : > O O $ O O O O O $ $ O : O $ $ $ O O O O O O O O O O O O O $ O $ $ $ $ O : O O O = O = O = : = O : O O $ : > = > , > > > $ O . O $ O $ O O O . O O O X $ O = + - . O - + > + O O @ O O . O o . . o . O O O - = O   V u.P.",
"1 = o o o   o o o @ o o + o o 1 = ; = ; ; o = ; - ; o = o = o = = O = o = o O = O = = = = O o = o = = = = = = = o = = = = = - : : : : : : : : = = $ : : : : : : $ $ : : : : : : : $ 3 $ $ : : : : $ & $ : $ : 2 a i d B p p B B c M c M N x c N I c O ; j c h 3 b b b b B B | @.[ [ #.] #.] ] #.N M B M h < : 3 , : : 3 2 2 < : = = O = O = : : O 3 2 2 r c r 3 : : 3 O : 3 2 i 1 a < 1 b a 2 ) [ #.Z.Z.@.] ] [ B ( O.) b i ; - : : O $ : 3 : O O : : : : = : 3 3 : : : : = : : = : 3 : : : : 3 $ $ $ 3 $ $ : : 3 3 : $ 3 , < : ; : : : : = = : 1 : : : $ $ $ , > 3 : : : : 1 3 : : : : : : : > $ $ $ $ $ $ $ $ $ $ : & : : $ $ , $ $ $ O : O = = = = = > = = > - = = = O = $ $ $ $ . $ : : $ . $ $ $ O : $ $ $ $ $ % O - + @     O $ > $ $ $ $ $ $ : O O O O $ > : $ $ $ O O $ : : $ O O O $ - = = = ; o = = = ; = ; ; = ; - = = = = O O = = O O = O = = = = O = = = = O o = = o O - - - = = > : > % O O $ $ : O $ O $ $ O O O O O O $ $ $ : $ O O $ O O $ O $ O O $ $ $ O $ O : $ $ > O $ $ $ - O O $ $ $ % O $ O O $ > > > > > $ O : $ O O O O $ $ O O O O O $ O O O O O O + O O O - + + O O O O o O O . . o O O O o O O .     @ 9 D ",
"d 1 = o q ; q q @ @ o o = o o - o ; = = ; o ; o ; = ; = o ; o = = = = O O = = O = = O O = O = = = = = = o = = = o = O = = ; - : : 3 3 : : = : : : : = : : : : : $ : : $ : $ $ $ $ $ $ $ : $ $ $ $ & $ $ : $ : < a l l h p p B B c N N c c c x K P i < : j M M i f p p f B N O.O.@.] #.] #.#.[ @.L N N x i : O : : $ $ 3 2 < : 1 < > = = = O : : $ 3 j h r N c 3 : 3 : : : < 2 2 a l : < l n x ^ [ #.Z.N.#.@.] [ v / >.:.I a - - 1 3 O : : 3 : = O 3 < : O O 3 2 2 3 3 O O : : 3 O 3 : 3 < : : O 3 $ $ $ $ 3 $ $ 3 $ 3 3 > < > - ; : : : < : : : : , > > $ , $ , : > 3 : $ : O O $ O : $ : : : 1 $ : $ $ $ $ $ . $ $ $ $ & $ : $ $ $ $ $ = = = > o = = > = > : - > : = O = = % > $ . $ . & : $ $ $ O $ $ $ $ : $ $ $ O + - @ o   . . O : > > > $ O $ O O O . O O $ : $ O O $ O O > $ $ O O $ $ : O ; = = ; = = = = ; - - < > ; O - = = O = = o = O = = = = o O = O - : O O = O = O o = = = = O = $ $ : $ O $ $ $ : $ $ $ $ O O $ O $ O $ $ $ $ O O O O O $ O O O $ O $ $ $ $ $ $ $ > : % : $ $ $ $ $ O $ : $ $ O O O % > > > > > $ O O $ $ O O $ O O O $ O $ $ $ $ X O O @ O O O O O O O O O O @ O + = O O O O O O = O . . O     - @ o   ",
"z s 7 - @ ; o o o ; o ; - O o = = ; o ; = = = o o = ; o = ; ; = o O = o = O o = = o o O o o = O = = o = = = o = = = o = = - : - : : : : : : = O O : : O = : = : : : : : : $ $ $ 3 3 $ $ : $ $ $ $ $ . & O . o O l b b i B v B B c N N h c n I I n : p < 3 I N M H b m m v M [ [ [ [ ] [ #.@.[ ] N N N M h : : : $ $ $ : : : < : : : 1 2 < 1 : O O r j 2 r c c 3 : = = = : 3 i j l n i : l b l m @.#.N.N.#.#.@.[ m m X.o.b ; < 1 2 2 < 3 2 3 : : $ : 3 : = $ : 3 2 2 : : = = = 3 : O : 3 : 3 : : $ $ & $ $ & 3 3 $ $ $ $ < : 1 < : ; : 1 1 2 1 = : : : , , : 3 $ $ 3 : , > : : : : : $ $ $ : : : : : $ $ $ $ $ $ $ $ $ $ $ $ & $ 3 : : $ = O = = O = = : > - = = 1 - - = O = : % $ : , & : $ & : + O $ $ $ : $ $ $ $ $ : - + o     . O $ : % $ $ O O $ O O O $ $ % O $ O O $ $ $ $ $ $ O $ O O - = = ; o = ; o ; = - - < - ; - = O = = - = O = O O o = O = O = O = = = = = o O = O = = O O O = O > > % O $ O O O O O $ O $ O $ O $ O $ O O $ O $ $ O $ O O O O $ O $ O O O $ $ $ $ > $ $ $ $ $ $ $ : O $ $ $ O $ $ : > : > % : $ : O O $ $ O O O $ $ O O $ $ O $ % O O O + O O + @ O O O O O O O O O O O O O o O O O O . O O . o @ @ + - ",
"k j 7 - o o o o @ - o o o - o ; = = = = = = = = o = = o ; = O = O = = O o = o O = = O o o O O = = = O = = = = = O o = o = = = = = : = = = : = = = = O : = = : : $ : : : O $ $ O $ $ $ $ $ $ $ O : & & $ $ $ O = j n x h p v M B M N N h l F J L d O p = ; N L I N M m m M N [ [ [ [ @.] q.#.@.#.M h h c h 3 3 3 $ $ : : < : < < - : 1 1 < : = O $ 3 r 3 , c c , 3 : $ $ : < i j c x i 1 2 i i i [ [ y.N.#.#.] [ [ M ] | l ; i a 2 3 2 2 : 3 : O : : : = = : : : : : : : : : O : : = O : : : : = $ $ $ 3 & 3 $ $ : = - : - ; : < < - ; < 1 2 : : : : : , , : $ $ O $ $ : : 3 , , : > : 1 : : : 3 : $ 3 $ $ & $ $ $ $ $ $ $ $ $ $ 1 1 > - - = = O - - - : - = = = = = - - : = O $ $ , & , $ $ & $ = + : $ $ : $ : O $ + - - + @     . $ > $ O O $ O O $ O O $ $ : O O $ O $ $ : > O $ $ O : O $ = = = = o = o o = : ; = = = = - - = O = = = = O = = o o = = O o = = = - O O = = = = o o O = O = = : : $ $ $ O O O O O O O O O O O O $ O $ O $ $ O $ O O O O $ O O O O O $ O $ O O O $ $ O $ O O O $ : $ $ O O $ O $ : : $ O O O $ > % $ % $ O O $ $ $ $ O O O O O O + + O O O O o @ O O + O O O O O o . . O O O O O - + O O + O   - + + + ",
"7 k s 1 @ - q q Z Z q o o o = - o O o = o = O o o O = o O = = = = O o = O = = O O o = O O = = O o = = o o = o o = ; = o = = = = = = = = = = : = O = = = = : = = : : $ $ : : $ $ $ $ $ $ $ $ $ O $ & $ & $ $ : 3 z x l h B B B h c N c h l I L J a ; ; = ; h M n p p p v M ( @.O.@.[ #.#.q.#.] ] N M l h h 3 3 $ $ : : 2 2 : : 1 > 1 : = O O = ; : 3 3 3 2 j c 3 < : = : = < 3 j i a a p p p d i @.#.N.N.#.#.[ [ ^ [ | | H a 7 1 : : : : : : : : : : = : : 3 : : : : : : : = : O : : O O O = : : 3 $ $ $ $ & 3 $ : < : : - = = = : : : : : : : ; : , : , , : 3 $ : : : $ : : $ : 3 : : $ : : $ O : , $ $ $ $ $ $ $ & $ $ $ $ $ $ 7 1 > > = O O = > > : - = = O O O = : ; : $ $ O $ $ $ $ . . . . + O O $ $ O $ $ $ O - + + +       . : % O     $ : $ $ $ O O O $ O O O $ O $ > > O $ O $ O $ % : = O = o o = = = = = o O o = = = O = = = = = O o O = = O O = O = + = = = O O O O = O = O O = = O $ $ $ $ $ O $ O . O O O O O O O $ O $ O O O O $ O O O O O O $ O O O O O O O $ $ O O $ O $ O O O O % $ $ $ O O $ $ $ % $ O . O $ > : : > : O O O $ $ $ O $ O O . + O O O + . O O O O O o O o O + O @ O O O O . O - > > O O + o   @ q 0 q ",
"1 2 1 O o q ; o J Z 7 o o o o = o = O = ; = = = = = = = = = O = o O = O O o = = = O = O O = o = o = = o = o = = = = O O o = = = = : : : : = = : = O = = O = = = O : = : $ O : $ $ $ $ $ $ $ $ : & $ 3 : $ $ , j x l h h h h h h c N l < x I F i b d = < h h c M m B B M B [ ] [ [ [ @.[ X.[ B m ( L n v h 3 : O : : : 2 < : < : 1 1 : : : : : : 2 3 : 3 j j j , 2 3 O : : : 1 j l i i j a d l l #.#.N.Z.#.] [ [ ^ ] ' _ _ b < - : : : : : = : : : : : 3 : : : = : = : : = : : : 3 : O O O : : : $ $ $ & 3 $ 3 3 : : : : = o = = : 1 : ; = = = : : : : : : & 3 & 2 , : : O O O O $ $ $ $ O O O O & 3 $ $ $ $ $ $ : : : : $ $ $ : > : = = = = - = > : = = O = = = = = O O $ O O O O $ & $ . . . . O + O O O $ $ $ : $ - + - @ @     . $ $ O O O O $ $ $ $ O O O $ $ $ $ O $ $ $ : O $ $ $ $ $ $ $ = ; O = = = = = O = ; O O O = O O = = = = O o = o o = = = O o O = = > O O = O = = O o = = = = O O O O $ $ O O O O O . O O O O O O O $ $ O O O O O O O $ O O O O O O O O $ O $ $ : O $ O O O $ O : > > $ O O O O $ % $ $ O O O > : $ $ $ $ O O $ $ : $ O O $ O O O + O O O O + + = + O O O O + O O O O O + O O + + > - O O O O     @ 7 q ",
"8 a 1 o o - @ o o @ o o = - = O = o = = O = = = = o = = = = = o = = O = = = = O o = = = = = = O = o = = O = o = = = = = = O o = : < > : : = = = = = O = : = = : O $ O O $ : $ : $ O $ $ $ : : $ $ $ $ : . . : c x a j l B h h B l n B p b P f ; n n o p P n N M [ m M m B [ [ [ [ [ #.@.O.[ [ ] m m M l 3 3 : 3 $ $ 3 2 3 ; - < 1 2 2 7 2 < : = r : $ 3 c j 3 3 < : O : : 3 2 j x p 2 l a l n x ] ] y.N.#.#.@.] ^ | ^ I ) H 1 = 2 2 3 2 3 3 : 3 O : : : 3 O O : 3 3 : O = : : : : : = = : : : : $ & $ 3 $ $ $ $ O = : = ; = ; ; 1 < < : O O = : : : , : : : $ : , 3 : $ : : : 2 : : O $ O : : : & $ , 3 $ $ $ , : : : : : : : $ O O = O O O = : > - = O O = - , = = O O O O $ $ $ O O $ $ & $ . O O O O O O $ $ : $ O + - @ o o     O $ $ $ $ O O O O O O O $ $ > : : $ O O O O O O O $ $ $ $ $ O o O o o O o = = = : - : ; = = O = = = = = O O O = O O o = = o = = O = = o = = = = o O O = = = O O $ $ $ $ O O O O O O O O $ O $ O O O O O O O $ O O O O $ O O $ O $ $ $ $ $ $ % $ : O $ O O $ O > > $ O O O $ O $ $ O . O > 2 $ . O $ $ O O $ $ O $ $ $ : $ : O O O O O + - O + O + O + + O - O + O + O + - + . + . O O + O o o - - + ",
"a 7 a - o o @ q o o ; - - ; o o O O O O O o = o O O = O O = O O O = = = o O O O = = = = = = O o O o = o ; = = o O = = = = O = - : : = : : : : - : O = O : : : ; : : : O O : : $ $ O O $ O O O $ : : : : : : : < a < n h i l 3 h 3 | h < l n n d L J p p n n h h v f p p < m @.@.^ M ] O.q.] X.#.M n 3 3 h h :   $ $ : 3 2 < : : = = : O = = : O 3 r 3 3 c c r 3 : : < : : : i c x : < < < d p i [ [ #.N.#.] [ [ [ [ B B b a 7 ; 1 2 2 2 3 : 3 < : : : : O : 3 3 : 3 : : : 3 : : = : : O O O O : : $ $ $ $ $ $ : - = o = = - ; < : = ; < 1 : = = 3 $ $ $ $ $ $ $ : : : O : 3 r r : 2 2 > : 3 : . $ $ $ $ O : : $ : $ O O $ : : $ > = = = O = = = O O O = = = O = = o O = = = O O $ $ $ $ . $ $ $ O + % $ $ $ O $ $ $ O O + o @ o   O O $ $ O $ $ O O O O O $ $ $ O O $ > > $ $ $ O > > O O $ O . O O O O O = O = = = = = : > = = O O o o O o o O O o O O O o O O = = = = . o O : = = > > > 1 : > $ $ $ $ $ $ $ $ O $ O $ $ O O : O $ $ O O O . O O O O O $ O $ O O $ $ O O O $ : > $ $ : $ O O $ O O $ O $ : $ % $ O O O $ $ $ > $ $ $ $ $ $ $ $   O > , $ O O $ . O + - + O O + O + O . O O = - O O O O - + + .   O > > = . . O @ + q + ",
"a a 7 - o @ ; o o @ @ ; + o = o O O = O = = O O = O = O = O O O o = O = O o = = = O = = O = O O = o o = = = = O o = = = o O O - - = : : - : - = = = O = : : : = $ $ O O O O O $ : $ : $ : : : O : : : = = - : : i a p i h h h h N @.c 3 n L P d d b a i l l h M B M M M B ^ @.[ ^ [ ] X.#.] ] ] M / M l h < 2 3 $ : : 3 < , < : : 1 : O O = = . 2 3 , r r r 3 : : 3 : : : : 3 i l 2 i 2 i n d l [ [ #.N.y.#.] [ ] ] ] ] H i d > : : : 3 : O O O : : : $ : O = : : : = : : : : : : : : : = = : : : : $ $ $ $ : : = = = = ; - - - ; O : : : : = : $ $ $ . $ $ $ O . $ : $ O : O . : : 1 : : > : O $ $ $ $ O : $ $ $ O $ O O $ $ : - - = O - : = O = = O = = = = O ; = = = = = O O . O $ . $ . . $ O + : : O O $ $ : $ O . + @ o     O O $ O $ O $ : $ $ $ O O O $ $ $ $ > > O O $ $ : $ $ O O O . = = = O O O O O = O O = : = = O = o = = = = O O o O = O = O = O = = O = = = = = O = : - - - - - $ O $ $ $ $ $ O $ O $ O O $ O O $ O $ O $ O $ O O . O O . $ O O $ $ $ $ $ O O $ > $ O : $ $ O : : % : $ O O $ $ > $ O $ : O O > $ $ O O $ $ $ $ O $ : $ $ O O $ - + > > - = + O - O . o O O + O + O O + - > > - O - 4 4 O . o . @ - q + ",
"8 a 1 o o o + o o @ o o o o o ; . O O O O O O O = O : $ O O O O O = = O O = = = O O = = = = = o = o o = = = = O = = = = = o = = = : : = ; : = = = = O = = : = = 3 : O O : : : : : : : : : : : : : : : = = o = 1 x H < l h h N h M N p p l L ) d d J m d M M B M M M N B B [ @.| [ ^ O.X.O.] ] ^ M ( N l 3 O 3 3 : : : 3 : < 1 1 ; < : = O : = O 3 3 $ 3 3 r 3 $ 3 : O O : < 1 3 < i i ; i v i l ] @.y.N.#.#.] [ ^ [ [ ] b 1 d 1 : : 3 : O = = : : : : : : : : = : 3 : O O O 3 : : = : : : : O : $ $ $ $ $ $ : = = = : 1 1 1 - ; ; = = < 1 : : : : $ $ $ $ : : $ : 2 j 2 2 2 3 . O : : O $ $ : $ . O $ . O $ : O O $ $ $ O O $ > : = = O = O O = - : > = = = O O = = O = = = O . . $ . . . . $ $ O + : $ $ O $ $ > $ O + o @ o     O O O $ $ O $ $ $ $ O $ $ $ $ $ O $ : > O O $ O : $ O O $ $ O = O : % = O O O . . O O O : O O O = O = = = = > = O = - = = = = - O o O = = = O O O = = = = = = $ $ $ $ $ > O $ O $ $ O $ O O $ O O O $ O $ O $ O . O O . O $ O O $ $ $ $ O O O O O O $ $ $ $ : $ % $ $ % : $ $ , > O $ $ O O $ $ $ O O O $ $ $ $ O O O O O O $ . O + O . . . O - + . O O + O O O O . + + > > > > > , > > .   o O - 4 + ",
"> a 7 o o o o o @ ; o o o o O = O O O O O . O O O = O : O = O $ = o O o = O = = = = = O o O = O = o = = O = = o = = = = O ; = : = = = = = O O = : = = = = : = : : : O : 3 : : : : : : : : : : : : $ : = = o < 8 x x 1 i h 3 h h B M p h l H ) d p p < < i M h p [ m M B p B ( X.[ [ ] ] #.] ] ^ v N h p p : : O $ $ : : < < 1 < - : : = ; : < 1 $ $ 3 3 j h 2 3 : : O O 3 < 2 2 ; i i o 1 l < b @.@.#.#.#.#.@.[ B p M [ i ; s ; 1 < 2 : 3 3 : : : : : 3 3 : 3 : : : : 3 : : : 3 : = O : 3 3 : O $ $ $ $ $ $ : O = = : > - ; - - : ; - 1 : : = : , : : : : , : $ : : : $ : : : : : $ : $ $ $ $ $ $ $ $ $ O $ O $ O $ $ $ O O $ : > = = = = = - = > - : - - = = = O = O O O = O O . $ $ $ & . & $ O % $ $ $ $ O $ : $ + O - @       O O $ O O $ $ O O O O $ $ > > O O O $ : $ O $ $ $ O O O $ $ O O O O $ : : $ $ . O o . O O O O = O = = = = = = = = = = = = = O O = O O = : : O = = = = = = = O O O $ $ $ O $ O $ O $ O O O O O O . O O O O $ $ O O $ O $ $ O $ $ $ $ $ $ O O O O . . O $ O O $ $ O $ O > % : : , > : > $ O O O O O O O O $ O O O O . . O $ O O . O O O o O O . > . O . O - O . O O . O + - + + - - O O O > = O . - - + ",
"- k 8 o o o o o o @ ; o o o = = O O O O O O O O $ O $ $ O O O O = = O O O o = = O = o = O O O o = O O o = = ; o - ; = = = : = = = = = = = O = = = = = = = = = = = O . = : = O O O : = = : O : : O = : : = O < j c j M h 3 h 3 3 N N M N n b J p n p < < i m M h ( [ N [ M B [ [ / M ^ ] q.+.] ] v v < < h 3 3 : O $ : : : : < = ; : : = : : : $ $ $ : 2 c c j j : : : : O ; 3 2 < c a o p a 1 n @.[ @.y.#.#.@.[ m M m ^ b d z 1 : 3 3 : 3 O : = : : 3 : 1 3 3 : : : 3 : : : 3 : O O = = : : : O : $ $ $ : O : : - > - - ; - - ; 1 < > : : : : $ $ : $ $ $ O $ : : : O . O : : : : : $ $ $ $ $ : $ $ $ $ $ $ $ $ : $ O O $ : O $ - = = O = = = O = = = - > = = : o O o = : - : O $ . $ & $ . O O O - : % $ O $ $ : : + + + o o     O O O O $ O O O O O O $ $ : > . . O : % $ $ % O $ O O O $ : $ O O O : $ $ $ $ . . O O $ O $ O = = O = O = O = = = O = = = o o O O = = O = = ; O = = - > = = O O O O $ $ $ O O O $ O O O O O . . O . O O O O O $ O $ $ $ $ $ $ O $ O O O O $ $ O O O O $ O . $ > $ O : $ $ O $ $ $ O $ $ O O O $ O O O O O $ O . . . O $ $ $ O O O O - O > + > - O O O + + O o - + O O + + O + + . . O + > + O o - > + ",
"- J z O o ; o @ @ @ - - o = o O O O O O O O O O O $ O O $ O O O = = = O = O O o = = = O o = = = = = = = = = = O : - = = ; - = = O = = O = = = = = - : = = O = = = O = 1 : O O = : O : O = = O : = = = < ; O < a c j I c j M 3 M n N c n J f v d ' J H m v p M M ( M B N B B [ @.] m ^ O.0.] ] ] N ^ h h h : 3 : $ $ : 1 2 3 : = - : : O O O : O $ $ 3 3 3 r 2 3 O : : O O O 3 j i a i : < p p n @.[ #.N.q.@.@.[ [ [ f m J a i - > : : : : 3 : O O = 3 : : $ : : : : : 3 < : : : = O O : : : : O $ $ $ $ O = O = - - 1 - O = - 1 : 1 < : : : : $ . $ $ 3 $ $ $ , : : : : , : : , 3 : : $ $ $ $ : $ $ $ > % $ O $ > $ O O O > : O > = = O = = = = O O = = : - - - = = O = : > > > . . $ $ $ $ O O + + > $ $ O $ $ O O O + + @ o     O O O O O O $ $ O $ O O O $ O . . . O : O O : O $ $ O O O $ O : $ $ $ $ $ O O O O O O $ : $ O O = = o O O o o = = O O O = o o o = : = = O o - = = = = = = = O O O O $ O O O O $ O O O O O . O O . . O . O O O O $ O O $ O $ $ $ O O O O O $ : $ O O $ O O O O > > > $ $ O O . O O O $ $ O O $ $ O O . $ $ O O .   . O $ $ $ O O O O O O O > > O + + O O O O O > > + - > - - O + + O O O - . . @ - - + ",
"1 K s o q q @ @ ; ; - o o = ; = . O O O O O O O $ O : $ O O O O = O o o O = = o = = o = o = o = = = = O = = = o = = O O = = = = = = = = = = = = = = ; : = O = = : > 5 j 7 : O : = O O = O O O = : O = : < = : 2 j 2 h 3 3 h 3 h B M p B J f f v H d b m p ; < B [ M B B h M @.@.] [ ] X.5.] ] X.^ / l h h O $ $ : 3 : : : < < - ; : : O O = $ O O 3 : , 3 3 3 $ = : : : = : c n i < 2 < 1 p < v ] ] q.N.#.@.] [ f M < < n i ; - 1 : : : : 3 : : O : 3 : $ O = : : : = : : : : O = : : : = O $ : $ $ $ O O O = O - : - - o = - ; - < < : = : , : $ $ $ : $ $ : : $ O $ 3 : O O : : $ $ : $ $ $ : $ $ $ : : O O $ : $ $ O O : O O > = = = O = - O O = = = = = = O = = O = : : > $ . $ $ . . . O O O + O > O $ O $ O O O - - @ o       O O O O $ O $ O O O O O O O O . . $ $ O O O O $ $ O O $ $ O $ $ O O O O O O O O O O $ $ O O O = = o o = O O - O o o O = = O = O = - = O O = O = = = = = O O O O O O O O O O $ O $ O O O . O $ O $ $ O O O O O O O O O O $ O O O $ O O O O $ O O O O $ O O : $ $ O O O O O O $ O O % $ O O O $ O O O O $ O O O O O O $ $ O O . . . . . o @ O . O + O O . O + = O O O O + O O > + + - + O O .   O + O ",
"7 J a   ; q o ; @ @ @ - o o = = O O O O O O O O % : % : $ : = O = = o O O = = = = O O O O o O O = = = = = = = o = = O o o = = O = = = = = = = = = > - - = O = - = : 2 j 2 O   : = : O : : = : = < = O < : = = , n N r c M 3 N 3 L ^ p i ^ b f J d ; p b p < i n [ [ [ M B [ [ B m [ ] ] ] ^ | X.M v ; < h 3 3 $ 3 3 3 : < : < < - : : = = = : $ : 3 3 r j r 3 < O = : 3 : j I _ d = 1 a i p < l [ #.y.q.@.@.@.[ B [ ; < J d - < : 3 : : : : O O : < 2 : O . O 3 : = O O = : : : : : 3 : = O $ : $ O $ O O O = = = - 1 7 ; o = ; ; : : = : 1 , : : 3 $ $ O O O . 3 O $ : : $ : 3 $ O $ : : $ $ : $ $ O $ > O . = O : > : O O O : - = O = = = O = = = = O O = O O O o O O = = O . . . . $ $ . O O O O % : $ $ O : O . . - - + @       O $ O O O O O O . O O O O $ O O O $ $ O . . O $ : $ O $ O O O O O O O O $ $ O O O O O O O . = o O O = = = = = O   o O : - = = = O = = = = o O O O = O O O o O O O $ O O O O O $ O O . O O . $ $ $ $ $ $ $ $ . . O . O O O O O O $ $ O O . O O . . $ $ $ $ >   . O O $ $ $ $ $ O $ : : O O $ $ $ O O O $ $ $ $ $ O O   O O $ > - - O o o O O   O > = O @ O > . . o . . O O . O O + - - + = O   O + O ",
"8 Y s   o o   - o o @ o - o + o = O o = = = O = = O = = O O = O = = = = = = = = = = = = = O = = o = = > = - > = o = = > = = = = = = = = o = = O = O = ; = = : > = O = = = = - - = = = - = = = = = O O : O o = j b c n j i M h = M ( 3 < N N v n b ; d ^ f b ^ m M 3 @.N < [ m [ ] M X.O.N.[ p X.| ) i < h 3 O = : : : = ; : : < = > 1 = = : ; O = 3 2 j j c 3 O $ O O : 3 2 j k : o : < < < : 3 [ [ #.y.O.O.@.c p H ; ; b J v o 2 3 : : 3 < : : : $ $ $ : $ $ $ : = O = = = : = ; = O O ; 3 : : = O O O O O = = : = - - - ; = O = = - = O O O = = . . : > O O $ $ $ : $ $ $ $ $ $ $ $ . $ $ $ $ ; : = = = = : : . = : ; = = O = . O > > $ O O O $ : $ $ O . . O o . . O O + O . > + @ O O O @ o O O . O $ O O O O O O O O . . o   . O = + O O + - O + + = + = + = O O O - + O O @ - - O O > - + : O . O + > + O O O - O + O O O @ O o O O + - - . . O + O + + - > = O . O O O O O O O + > - X . O - - O . . O O O O @ o O O O O $ O $ O $ O $ O : O O O O O O O : > + O O O + % > .   O > > O - . . O > - . + 4 > - O . O O + + O O O O O O O O . O O O O O $ $ , > - O . . + 1 + . O O - + + O > O . . . O O . . 1 ,     > -   . $ : $ ",
"S J 1   o o   o = O = = - - o - o O o O o O = o O = O = = = = = O = = = = O = = = = - O O = = = O = O = = = = O o O : = = O o = = O = = = = o = = = = o o O = ; = = = = = = = = = = = = = = = = : = ; : ; O : l 1 ; 3 ; = h < o h | N M ( l a v b ^ J p p b N v [ h @.M p [ [ [ ] X.] ] q.X.] [ m m p ; < 3 = O O = : : = ; ; : = : > = O ; : O O : 2 r j j : . $ $ $ $ O : 1 a 1 1 l 7 = ; : v @.[ #.y.6.#.o.n f n f z ) Z p ; i 2 < : : : O = $ $ . $ $ $ : : : : = = ; 3 : 3 = = = = : = = = = = $ : : O O O O = = - - ; ; ; = ; ; ; O o = : : = O 1 > $ $ $ $ $ , : : $ 3 $ $ $ $ & $ $ $ $ : : : : : : = ; = = = = ; : = = O $ $ $ $ . O $ $ O $ $ O . . $ = O O O O + - O + O O + O = O O $ $ $ $ $ O O     . O O - O @ o . . O O O + O + + + = + + + O % O O O + O + O O O = % O . - + + O O O O O . O = o O O + + O O O O O O O O + + - O O O O + O O O O = . O . O + + O O o + - + O O + O O O O = + O o O O O . O O O O $ O $ $ O $ O O $ $ $ $ O O O $ % + O O O - - , .   o o . . > > > > > > O + > > + O . O . o O O O $ O O O $ O O O $ O O O   O + + = O + - > 4 - O . O O - > + > + O = + > - + O O O . . O O O . $ > : ",
"S P V O o o = - o o o O @ = o = O o = O = = = o = = O = = O O = O = = O = = O O = = = = O o O = = = = = = O O o o = = = O = o O o o = = = o = = = = = = O o O O o = O = = = O = = = - = = = - = = = ; : = = < z j i c h i n i ; p [ M B / v ; ; J f d f v p ; N M M B h p M [ B ] #.] [ #.#.O.[ m n i ; : < : 3 . : : : ; O o = = ; - = O = = = = 1 2 2 2 2 : . $ : 1 3 O : 5 z ; - s 1 ; = : v | / O.y.6.@./ / p a s b P b ; 1 1 2 : ; : : O : O O $ $ $ : $ $ = = : : ; : : < = = : : : : : = : $ : $ O $ O O = = = = ; - = - O = - ; = o = ; > = $ 1 1 $ $ 1 $ : > , , : $ : $ , $ $ . $ $ $ = : : < < : : = ; O O = : : ; O O : $ $ O . O $ O O O : $ O O $ > > = O O > - + . O O O O + $ : $ $ > > O O O O   O X > - @ o   . . O O O o O O - + - + O > - + O @ . O O = O O O > > + O + > -   O > - .   . > O O O O O O O o O + O O + O O + + O O + O . O O O . . . O O O - o O + O O O O . O . o . O > - . O O O O O O O O O O O O $ $ O O O $ O $ $ $ O O O + + O . O + - - + . O . . O - : + - : + O O > = O O o O O O O O O O O O O O O O $ $ $ O O   $ o o . . O + % , - O O . . O > - + O O O + - + : >     - -   o > O : > > ",
"7 T K .     - o o o o o o O o o o = o = o O O = O = = o O = = o o = o = O O O O O O = O = o O O = O = = = = O O = O O = O o O o = = = o = = = o O = = O o = o ; = = o = O = = = = = = = - = = = = O O = O = 2 x j i n x c n i = h M p h H f p < p m Z p p d v v m M 3 p v v [ B [ O.[ ] q.] ] ] ( n p p i : = 3 o O < : = o ; = - = = = O = O o : < 3 2 j 2 3 : O : , : = : j Z o o < 1 3 p : i N [ @.6.6.@.N ..l d f p z b ; i = < : O : 3 : : : : $ $ : : $ $ O = ; : O = = : < : : : : < : : O O $ : > = = = = = = = = = ; = = ; ; - = = - - = O $ $ $ $ O $ $ : : : $ $ $ $ $ $ 3 $ $ $ $ $ : ; ; - < : : ; : ; = = ; : = = O : $ $ O O O $ $ O O $ O O O $ > - + O O + % O O O = + O O + >   $ : > $ O O $ o . + + = . o   o . O - O O + + O O O + + O + O O O O O + + . . + % - . . + % > . O > + O   O - O . O O + O + O + O + O o O O O O O O O . o o @ . o O . o . O O   . + - O O O + O O . O + - O O + O + O O @ O o O O $ $ $ O O O . O $ $ O O O . . O O O . O O > . O > > > = . . o .   . o . O - O O . . O O + O O O : O $ $ O $ O $ $ $ $ $ $ $ O O O O . . O O O O O . O + O . . o O . O O O O >     : O     + . % > > ",
"P ` G =   o o   o o o o o o o o = O O = O o O O o = = = = = = O o O = O o = O O = = O O O O = = = O = O = = = O O O o = O O = O o O o = o O o = = o ; = O = O ; o = O = = o = = - = = = O = = - = O O O = - a x i : c l l n l i M L B B m d v J J f J d ; i L l N M ; M [ M ^ m [ ] ] O.#.] B #.O.d ; v l : = : O $ : = O o ; = - = = o = = O O = : 2 2 r 2 3 : O $ $ O O 1 a a o o 1 1 1 i 3 l | N N #.t.>.N I L n b - j F - - O = = o < : : 2 : : $ $ $ $ $ O = = : = O . O = : : : : = : : : O . O : $ : : = = ; = = ; ; = = - ; : - - - - 1 = O O : $ O O $ $ & $ $ $ $ $ $ , $ $ $ $ . $ $ : = O O = = = : : : : = O O O = O : : > O O O O : O O $ $ O O O - + O O + - % + . O O - O . O = . O $ : $ O O $ O O + o + @ .     . + O O O + = + O O + O O - O + O O + O - O O o O . o   . O + . + + - = - + + . . O O O O O O - + + O o O O O O O O O O . . O . O O . . O . O . O > + O O O > @ O O O . . O O - O O O @ O o O O O O $ O O O . O O $ $ $ O O O O O . O O O O - . + > , > - O .   . . . . O + + - O O O + + = + $ $ O $ O $ $ O O O $ $ $ $ $ $ - > > : = O O = O . O O > O O . O = O O O O . O O O O . . . . O . = > > ",
"u.;.V - 1 - o o o o O = - O = o O = o = O = = o = O O o o O = o O = o = = o = o O = = = = O O O o o = = = = = = O O O o = = = = ; = = o = = = = o O = = = = = = o = = o = = = = O = = = = = = = : = = o o : 2 z n i x j i l l N N N i v L m J v f ; d P p p m v B p < N n B [ B p [ #.X.] [ p [ X.< o i h = O : O : = = = ; - 1 ; = O o = O O = . O : 2 2 3 3 : O $ O . O 1 7 : = ; a 1 O ; 3 n | / / 6.t.O.N N x b i = x I 1 = = < ; = : : = 1 $ $ $ $ $ $ $ $ = = : : = = O = : : ; = O = = : O O O O O $ = : O = o O = - < 1 ; - : ; : - > > : = O > > $ : O $ $ $ 3 $ $ $ $ $ $ $ $ $ $ $ $ : = O O O O = = = : : : = . = O o O > $ $ O O O > $ O $ $ O . O O . O . + + - O O O + O O . O . $ $ : $ O   O O - O O o o o o . o O O O + O O O O + O O O + + O - O O + - + - O O + - O . = > = > O O + > , - O o . O O + + O O = + O + O O O . + + O O = O O O > > - - - O - O O = O - + O + - . O > > O   o O O O O . O O O O O O O O O O O $ $ $ $ $ $ $ O O O O - + + O + + = - O O O O - O > - = O - > > O + + O + - O O O O O O O O O O O O O O O . O . O . O . O @ O O - + O + > - - O . @ O O O O @ o . o O O   . = = O . + > - ",
"V.s.K   o O   o = o o - = + O = = = O = O o = O O o O O o = O o O o O O O = o = = - = = o o = = O = = = O = O = = O o = = = = O = O = = o = o = o = = = = o = = = = = = = = = = = = = - = = = = = : : : ; : < 1 x 2 c i : < p c L B = p L L H p ; p v ; o b P p p < p M p B N p f ] ] O.] [ p [ ) < = p p = ; = : : = : < 1 ; 1 1 O o = = : O : O O : 3 2 : O : $ 3 3 O : 2 7 > ; - a < o o ; x / @.#.6.y...I / a j o O Z F i . : 2 : : : O $ : $ $ O $ $ $ $ $ O = = = : : = = = = ; = O O O = = O O O O O O = = O O = ; - - 1 - - = ; ; : = = - > > > $ > O $ $ 3 , & $ 3 $ $ $ $ $ $ $ $ $ $ : = = O O O : : O = ; : : $ $ $ O O $ O O O O $ : O O $ $ $ $ O O O . O > + O . - O O O O O O O : $ $ $ O O $ O O + + O . o o o   O O O O O O + O + O + O + O O + O O O + + O . O > > + = > > - O O . - > > > . . . @ O o O O + + + O O + O O O O O O O O O O O = + + > % + - O O O . O O O + + . O O O O . o . O . O . O O O O $ O O . . O O $ O O $ O O O O O + O - + O O + O - + . . . > > . > > > . O > - . > O O + O O O . O O $ O O O $ O O O O O O     O . . .   o . + > > - O + + + O +   o . . o   o .   O + o . - > O . - > > ",
"~.|.s.= o - o o o O o o = o = o o = O o o = o O O = = o = O O = = o = = = O = O - = > O = = = = o = O = O O O o : ; O o O = O o = = = = = = = = O o = = = o o o = = = = = ; = = = = = = = - = = = : 1 : = ; = = < ; l h < : < M c h ; 1 z f b a _ P p o ; p b | v B ) ^ p N | v m X.[ q.q.] [ ] ^ p p i ; : < O O O O : 1 2 1 ; 1 o o o = ; = : = = 3 j j 3 $ : . : : O : 8 a 1 > ; 1 1 ; < < h N N ..>.>.o./ I I n o ; A j 2 O : 2 < ; : $ O $ , : $ $ $ $ $ O . o o O = : ; O O O 3 : = = = O : : O . . . . O = = = = = ; - - ; ; = = O = = O = > : O $ $ O O $ $ 3 $ $ $ $ $ $ $ . $ $ . $ $ = = = = = = = ; O O . = : : $ O : > : O . . $ : $ O . $ : $ $ $ + + - - > O O o - O . . - > O O $ $ O O $ $ $ $ O O + + O o       . O = + O O + O O O + O O O + O O . O + O O o   O . O . O . . O . . + > > - O o o O o O + O + O O O O @ O O - o   o o . . o O O . O + O O O O O O o . + - O O o o . . - : O   O o O o O O O O $ O O . . . O $ O O . . . . . . + - > + - O O + O + - O > 7 > . . . o   o > > . O + O O + O @ o O O O O O O O O . O $ $ $ $ $ $ > > - O O X - , 4 > - O O O - > o . O : O . O O - O O O O O O + . - > > ",
"3X:Xr.$ .   > . O o o o o o o O O = o O = = = = = O = = > O O = O O = = = o O O - : - O O o O O = = O = = o = = = O O o o = = = = = O = = = = = = = o = = = O O = O = O = = = = O = o = = = o = = = : ; O = 2 x j c n c < < l n h M h c H i = p s p K ' l - i l l v v < h v ^ M [ f +.7.X.M m 5.) d ; p ; - = o - O O - 1 - ; ; o o = - ; = = : : ; r c 2 3 : 2 $ $ $ $ O 2 s > < ; - 1 1 : 3 h / @.I @.#.@...c n x 2 > z x < : a 1 = = O = = : 2 2 > : % : $ O O = O = = : : 1 $ > : . O O : = $ O O . O O O = - - = = ; - ; ; o ; 1 ; = = = = : O O O : > $ O $ $ $ $ $ $ $ $ $ $ 3 & $ . . $ O O O : $ O $ O $ : $ O O O O $ , O . . O O O O : $ O O $ O O $ O + = + + O O O O . . . O O O o 2 $ O O $ O $ $   . - - O       o   . .   O > O - + - + O O O . O o + O @ O O O . o   o . O + - O O O O O O O O . . O O O . O . O O O O O O O O     o .     . O @ O o . O . o . + + + O O . . o . O O O - + O O O O + O O O @ O O O . . . O $ $ $ $ . . . O O O O . O - > > O o > O O O = > + . . O O O O + O o o . O O O O . o $ O O O O $ $ $ $ $ O O $ O $ $ - O O O + > + = O O O + O O . . - + O O   o . O , O o . O > O o + + k V ",
"K T >   : o 1 - = = O O O = = = = = = = O = O = = o O : = = O O = O = O = = = O = = - = O o = = = = O = = O O o = O = = = O O = = = = o = = = O = O o O = = = = = ; o = = = = ; = = = = = = = = o O O = O o : a l i j i O O h I | N h h H z ; a ; p F d ; d H x n M i = i M | L p ( q.] B f m ] ] p ; p < < : O ; O = - 1 1 ; ; ; O o = O O . = : O 3 j 3 O : : : : : : : 2 a , = o 1 i 2 < i c / @...@.o...I c l a : < k x 8 1 1 < = < - = = = : ; $ $ $ $ $ $ 1 : : : : O : = O : = O O $ = O : : O O O O = = = = = o = - ; : o ; 1 1 = = = = > : O O $ : O O . $ $ $ $ $ $ . $ . . $ . $ $ $ O = $ O O : : : O $ O O $ O O O > O . O $ O O $ $ O $ % $ O O $ + O + O O O . O + . o . O O O O $ O . O O O . O o + % + O o o . o . O O . . - . o O + + > O O O O O O O O O O @ O O O O O O . O o . O + + O . o O O O . O o o O O O . O O O o @ . O + O O . O = O O O O O O O O O O O O O . . o . . o o O O . . O O + O O O O . $ O $ O O $ $ $ % : $ $ $ O $ O - + O = + > O . - . . . O - O . . O - O O + O O . O O + + O O O $ $ O O O O $ $ $ $ $ $ $ $ $ $ O . o o O O . . O O O O O . O o > = O . O . O O + . . o O O O + - - s G ",
"o =   . k o o O = O O O O o O O O = = O O o = o = o = = = = = = O = = = = = = = O = = = = = = : = O = O O = = O = = = o o = O O = O = o = ; = o = = = = = - = = = = O = O = = o = = = = = = = = = O = = ; = ; 2 n c l i = o h n L M 3 3 b d ; ; a ; ; 1 p d F L n b l < v n H d ; v 5.:.m f m O.] d ; p p 1 1 : : O = - 7 1 - q ; O = = O O O : = = 3 2 : $ 3 2 $ $ : : $ 2 a 1 o o 1 7 p : i x I @.@.6.6.../ N z 1 ; ; i k a ; 1 1 - 1 1 ; O o . O . O O O O O O O O O $ $ $ > O O O O O O $ $ > $ % $ $ : : > = o O = = ; > - = = ; 1 - = = - 1 > $ O . O $ $ $ $ $ $ . $ $ . . $ $ $ $ $ $ $ : $ O O O $ $ : . $ $ $ $ $ O $ $ O O > : O O O $ $ $ > > $ O O - O + O O + O O - O . o . O O : O O . O O O . O + + - + o o o - . . O - . O - . . . O - O + O O . O o O O o O + O = O + O O . . . . + - + O . o O @ o O . O o O O @ O . O o O O O = - > O O O O - + O O O O O O - + - O O O O O O O . . O O O O - O O - O + O O $ $ $ O O $ $ $ > : $ $ O O O O > . . . . - - + + . . o O + O . . - - . O + + . > O + O - + O + $ $ O O O O O O O O O O O O O O . O   . . O . . + O o + - + O @ O O O O . . . O . O O o o . + > o     o ",
"O . .   a o o - O = o = O O = O = o O = o O o O O o o = = O = = = = O = = O = O = O O = O O = - = = = = = O = O = = = O O = o = = = = = o = = = = = o = = - : : = = = = = = = O = = O = o O = = : : : ; : : < 2 n l c l p p l n c n l j P f 1 p J p ; 1 z d a F l l l < v x v p p B ] O.H f v q.b < o ; 1 1 ; = O O = - ; - ; - = O = : : = ; : = : 2 j 3 $ 3 2 O O : $ O 1 8 2 o = < 1 < = < l N @.>.6.6.@.I c b < < p 1 a d o < - ; 1 : = O O = O O O : $ $ O   . . O O $ : : O : O . O O : O > $ : O $ O = = = = = o o ; = = ; - > 1 = = = = > = $ $ O O O $ $ $ $ $ $ $ $ $ $ $ $ $ $ $ $ $ $ $ $ $ $ $ $ : . O $ $ $ : $ $ O $ : > $ O O $ $ O $ : : $ O O O O o + O O + O % O O . O O % O O O O O $ O O O + - + O . o O O . O > =   O = . o O O O + O + O O O + O O O O O . O + O - O O O O O + - > - O O O O O O O O O + + = O - O O + O O O O . . o O . O O O O O o o . O O O O O O O O = O . . . + O = + + + O O + + O $ $ $ O $ $ $ $ O O O . . . . . - + O O . O O = O O O O O = O O O > % + O - > O % - - + O O + - $ $ $ O O O $ O . . . . . . . . . . . . O O - > > - O + > > = O O .   o o O . o O O O O O . . . + @ q @ ",
". o O o = . : : = = = O = = = = o O O o o = O o = O o o O = O - = = O = = = = = = O O o o = = O = = = = = = = > = = = = o = o o o = o = = o = = = = = o ; : - ; = = = = = O = O o = o = = = = = - O O = = = 1 i j 1 i c l l c n c N c h I c o o d g ; o p J x a l a l < l l L L a | O.p < n H ( p ; ; d p o O o O o O - ; @ ; ; o o = ; = O o = O : j r : O 3 : $ $ : : . 1 7 1 ; o < 1 ; O < l N @.@.6.6.N c r p ; ; p ; d f < 7 ; ; ; = = = = > > : > , : $ $ $ : $ $ $ $ O $ O $ O . O $ $ $ O $ O $ = O = = ; = o = ; = = = = ; - ; - = - - O = = O $ O O $ $ $ $ $ $ $ . $ $ $ $ $ $ $ & $ O $ $ $ $ $ $ $ $ $ $ $ $ : $ 3 $ $ O $ $ O $ : $ O O O O O O O + + O O O O + O + + O - + O . . . . O $ O O O . . O = O O @ o o     = O   O = O o . O O + O O @ O @ O O O O O O O O + - + O O O O O O O O O - + O O o + O O O o O O O O O O O O O O O . O o o   O O O . . o O . o . o . o . . O O . . o . O . . O + + O O + - % O O O . O O O O O O $ $ O O O $ O O O = O O O O + + O O + + O O + > + O O - - + + - + O O O O O $ O $ O O $ $ $ O O O O O O O O O = O O + O - % + O O + - > + O . . . o . O O . . O O O O O o   o 7 V + ",
"O O 8 o = O O   o o o O O . . o o o o O O O = O O o O = = o = = = O = = = = O O = O = o O o o o = = = = - = = = = O O = = O = O o = = = = = o = - = = O = = = = O = = = ; O O = = = O o o o o = = O O O o = : j F a i l j h c M c l ; = n F < o o ; ; o 1 b J d i i n i n v P L ; X.5.f f ] ( ^ p ; < d p ; = = - = - 1 1 1 1 7 = o = - = O o O O : j j : = 3 : : : : : O , 2 : = ; < 1 < ; < M c / / >.#...c r p < ; < < d a ; d < = o . O = - = : O O O O O . O $ $ $ : O $ O O O $ . . O : O O O O O O O O = = = O = ; - ; - 1 < 1 - > > < > O = = > > % $ O $ $ $ $ . . $ $ . $ $ . $ . . $ O O $ $ $ $ $ $ $ O . O $ $ $ : $ O O $ $ O $ % $ O O O O . O O o O O + + O O + O O > - - . o . . O O O . O . . . . O + = .         % -   . O . . O O O O - O O O O O O O O o O O + O O O O o o O . . . o O O + O O O O + O O O o . . o O . . O O O o O O O O . O O O O O O O O . O O O O O O O - = O . O O = O + O O O O O + + O . O . . . O . O O $ $ $ O $ $ . . + > O O O @ O O + - O - + + O > - O O + > O O O O O O . O . O O O O $ $ $ $ $ O O $ O O O O = O - O . . o O o . O . O . O O - . O . + + - O o o . + > = O   - V Y 4 ",
"    1 . O O o     o o . . . o o = o O = = o O O = o O = O O O = = = = O O = O = = = O o O O O O O = O = O O = = O = O O = O o o o O = = o o = = - = O = O = O = o = = - ; = = = = = = o o = = = = : : ; = O < j L c l c h 2 l n c c 3 : I ..Z a ; o o 1 1 i F P : p n x H l n v ; ^ :.' ] ] J X.f < < a < = ; : 1 1 - 1 ; - 1 s < - = - = O O : : 2 c c : : : : 3 : : : O 1 7 ; ; = - 1 : : 2 n c @.@.#.#.@./ c p d ; ; p 1 ; o a - o o = O = = O O . . O . O . . O O $ $ % $ $ O $ O . . O : O O O O $ O O O O O o o = = ; - ; - ; ; - - : - : : O O $ > : : . . . . . $ $ $ $ . $ $ $ . $ $ $ O O O $ O $ $ $ O O O O $ $ $ $ $ . . O : $ O O $ O O O $ O . = O O O O + = O O o . O O O O O O . O : O . O O o . o O o O o       o > > o . = . O O + % - + O O o O O . O O O O O O O . O O O . o o . o . O O O O O + + O o + + O . O . O . O . O o . . O O O . . . . . O O O O O O O - - > > > > > = > > - + O O O o o o O + + O O O O O O . .   O $ $ O . O $ . O O + O O o O O + + O O O O O . = > + + > + O O + + + O O . o O O $ O O O $ O . O . O O O . O O O O . . o . O   . = O . o O O O O . O % > > O o . O O O O O O     4   ",
"1   7 O O O O = O O O = = O O O = O = O = o O o = = o O O o o = o O = = = O = O = = o = = = O . . O o = O = = O O O = = = O = O = = = o = o O = - ; = O O = o o o O = = - = = o = = = o O o = = O : < : = o : 2 c 2 l n h 3 l N B N j < b J d 1 ; ; 7 ; o d ) F = ; i < d a H n d +.:.^ d p ; ) f ; o ; o o o o O o o O o o ; 1 = = o O o o = : : 1 j i O O : : O . O O O 2 a - : ; o = = ; 3 x M @.#.#.#.@.N r < p ; o 7 p o ; 1 > = = = o = O 1 : $ $ $ : $ $ > > : > > O O O $ $ O . . O O . O $ O O O O = O = = O o = O = O = = O o = = = O 1 : O O $ : O . $ $ $ . & $ $ $ $ $ $ $ $ $ $ $ $ $ . O O $ O $ O O $ $ $ $ $ O O . . $ , : O . O O $ > : O . O O O o + O O + =   . O O . . . : O : : O . O O . O O @ + . o o     . 4 >   . O   O - + - O O O o + O O O + o O O . . . o . . - +   . . O O O O O O O O O O + O O O + O = O = O O . o   o O = O .     o   o o . O   o   . . O . O . . o . O O     O O . O . O = - $ O $ $ $ $ O O O $ $ $ O . . O . . - + O @ O O O O O + o O O + . O - + O + - . O O O > - O . o $ $ $ $ $ O O O O . O   . . . .   o O O O O = > o O > > O . O > O . o O - > = . O > , O o   . > O   @ . ",
", . : . O O : O O . o = O = = = = = = = o o O = = O = O = O = = o = = o = ; = - = O = = $ $ O O o O O = = = = = - = = = O = = = - O . o o o = = = = = = = O O = = o ; = o ; ; = = o = ; - = = - : 3 : = O O < a x h 3 h p : M N p b f d f d 1 ; o p < ; - / L L p < c h v c M i n :.X.>.^ o f { f ; p a 2 p = o = o   o ; > o - O o o = O o O = O 2 j 2 : O : : : O O o o : 2 = ; o . : : O 2 n [ / @.6.6.L h < a p : ; < j 1   = > = O O . O O = O O : $ > $ O o .     . . O O % - O O O + O . . O $ $ $ $ $ $ O O . . = = O O o . O O O O = O - + O O O o O O . O O O $ $ $ $ O O $ $ : $ $ O O $ . O O O $ $ . O > : $ O O O $ $ O O O $ $ $ O O O O - O @   @ O O O o O O @ O O o . o o O > > . . O O O O O O O + o + o o   O O . O > = . . O + + O . o . O o . + + @ @ o O o . O O o o O - - O O > > O O = O . . . O . . o - + > O O O O = . . O + O O O o O O o O o . o . O O O o O o       o O O . o o . O O O @ o   . O O O $ O $ O $ O O O O $ O O O $ = + $ O O O . O - O O . + O O O O . . . - > - O . O O + + O O O = O . O . O $ , & $ $ $ $ $ & . . + + . O + % > - + + + % > % % . . O . . . . .   . $ $     . O > + 0 @ ",
"c . $ , . $   . . o O O = o O = O = O O O o = O = = = = O = O = ; o = ; O = = = = = $ O O $ O O = = = O O = O o = O O o o o O O = = = O = = O O O O O = = = = O ; = ; o = = = = ; ; ; o ; = ; < = O O . O ; 3 h N x c n h 3 n L p b b d f J d ; ; o o - ; l p P p 3 n h c n m i ) ' H +.] ; f :.f ; O ; < 1 ; o - ; o = 7 1 - > o O = - = = O =   1 8 8 : : , 2 = = = = O < 1 O : O O : : ; 2 x N ( @.6.7.) x 2 x a : ; 1 j 2 O > > > O O O O O . O O $ > $ O . O O O O = + > - O + + > > > - O O O O $ $ $ O O $ O O O O $ O O - + = - + - O = + + O . @ O O = O O O O O O O O O O O O O O O O $ O O $ O O . O . O $ $ $ O O O O O O $ $ O $ $ . O O X o + o o O O O O + O O O O . . O . . . $ = . O O O . O $ O + + + + o     o o o . O O . o O O O - + O O - O O > + O O O - O . o @ O . O O O . o O O O . O O O . o o O . O . - + O O . o O > > - = O . . . O O O . . O . O O O O + O O O =   o O O . . . . O O O + O O O O O $ O $ $ $ O O O O $ $ O O O O O - + - O = + O - + O O O + O O > + O - + O O O O + + = - O . O O = O . O O X & & $ . & . & . & @ . . + . @ X + X . . . . X @ O > . . . . . . O . O & O X O . O X O +   ",
"r .   $   :   . O . o = o = = = = o o o = = = O = = O o o o o o = = ; = = O = = = = O O O O O O = = = = = O O O = O o O o O o = = O = = : = O o o O o O O = = = ; ; = = o ; o = 1 - = = = ; = - : : = = = = = = c j i h 3 < l n p f f d Z J z d ; ; o ; < l i ( < < M < l L L i d >.P f b f [ ] Z ; = ; - : O o = - o = 7 - = > o o O - - O o O : 2 j 8 2 3 : : = = : : = 1 1   : = O ; : 1 8 c N | @.6.,./ l ; b a = o : a 2 O : > > $ . . O O . . O : > $ O   = + + > - + = O + O + - - > > O $ $ $ O $ O $ O $ O O O $ : O O O - + O O . O O + - O O O O + = $ $ $ O O O O . . . . O O O . O O O $ $ O O . .   . $ $ O O O O . O O O O $ O O o . O + + o O @ O o O . O O O O . O . + O O . : . O O O O   O : = + O + + o @ o     . . . O . . . O O - O O + > O - - - + - + + o o o . O o o o . o @ O O o o . O o o   o . O + o O O . . o o . > - + . . . O O O O o O O O O O O O O O O + + > . O O O O . . O . = > > > O O O $ O O $ $ O O O O $ $ O O O O O + O O + O O O O + + O O = O . @ > + - + + - O . O % + O O O . o o - $ O . . . O O O & . . . & . o . . . . . . . O @ .   . . . O % O .     O & O . O & O O . O O X @ +   ",
": . $ $   % . $ O O O o = O = o O O o o O = O o o O o O O O O = ; = = = = = O = : : O O O O $ $ o O O = = = = = = = = O = = = O O = = = > = = o : ; = = = o o = = o = ; ; = ; = ; - = ; ; o = - : ; : - : : = o 3 h 3 j < ; l l f v d d b J d 1 ; 1 1 o < H n F p < h = h L ) l f +.^ f m ; p ] p ; a d < ; o ; = = = = > - o - - = O - = = o O O , 2 1 : $ O : O O : : = 2 2 = = = O O = < 2 l c ..@.6.O.L l o l a = o = 2 1 O = $ $ O O O O O O $ $ : : $ O O O O + % - O O O . O . . O + O O : $ $ O O O O $ O $ O $ O O $ O O O . . o . . . + + O O . O O O $ $ $ O O O O . . O O $ O $ O O O O $ O O O O .   O O $ $ O O $ O O $ O O O O O . . O O O + + + O O O + O o O O O O O - = . O = O O O . O O $ $ o + + + o + O o . . O = > - O = O O + O O o . . o + @ O @ o O o O @ O O O + + @ O . O O O O . O . . O . . . O = . . O O . O . O O O . o o O O O O O . O O O O - O . o o . O + - O O O O O O + O . - > > + - O . O O $ O O $ $ O O O $ $ $ O O O O O . O O . . . > O - + + O O o O O O + > O + + + + - O O O O . o o O O O . . . . . . . . & . & . . O . . . . . + % . . .   X O % O .   O O O . . . $ O . X . O + @ *   ",
", r W & . O O O . O O O = o = = o O O O o o o O O = O = = = - - = = o = = = = = O = O O O O $ $ O o = O = = O = = = = = O = O = = = O O = = o o = - = O O = O O O = = = = = = = = = = - = O o = = O = = 5 a d j c c j x i < H L [ b f f P b 1 ; o ; 1 o - H n p N < h < N L L p p 5.:.^ f ; ; +.1 ; d l 1 < . = > > = = > - - > 8 1 = - - = O = . : : : O $ : : = = : = O 2 8 : O = O o O : 2 j N | @.6.o./ l ; i 2 ; O > a 2 O O O O : $ O $ $ : $ $ $ $ O $ O O O - + O O O . O O . O O + @ o : $ O O O O $ $ O O O $ O O O O O + O O O O + > = O + O O O O . O O O O $ O O O O O $ $ : O $ O O O . O O O O $ . O O $ O $ O $ $ $ O O . O O $ O O O + + - + + O O O O O O O O . O + > = O . O $ O   . O $ $ O . O = + O O . . . . O O O = O - . O O O .   . . . o . o O . o O O @ O O + O O   . O O O O O O O o . O = O O O O O O O O O O . o O . O O O O O + O O o O o O O O + . o . o . O O = O O O O O - + . - - O . O = O O O O O O O O O . O O $ $ O $ $ - O . . . . . o % - O + - % O . O O + O O = O O O O O - + O O O o o O - O O X O . . . . . . & . . . + . . . . O % + + + . . O & . .   O O O O   . . . . . . . . @ . >   ",
"r C I . O . O O O O O = o = O = o = = = O o o O o O o O O = = = = = ; ; = = = = = O O O O $ O : = O = = O = o o = O O O = o o = = O o o o O O O O . o O o = = = = = = o = = - - o O = - - = O o = = o o O 1 z J i j d l < < n F b p ; p P H p q o o ; o l H n n N p c l I N i O ; 7.0.[ p p d ' l O = : 1 1 = O = = o O - - o , 7 - O o O o o o 2 j k 2 : : 1 , : : : = = < 2 O O = = = O O 1 c / @.o.6.>.N i O 1 < = = : a 1 . O O : O O O $ $ $ $ $ O O . O $ + O + O + + O @ - O O + O O O o $ O O O . . O O O O O O O . O O + + - O + + > > + + O O O O O + O O O O O O $ $ . . O O O O O O O . . . . O $ $ O O O $ $ $ $ $ $ $ O O O O $ $ o O O O + + - - O O @ O + @ o O O O O - O O . O : O   . O $ $   o O O O O O o o   o . O . . . . o O O O O O = + O O . . O o O @ + . o o + O o o . O O . . O . .   O O - O . o . O . O O O - O O O + - > > O O . . O . . . O O O - O . O . O O O + O O + + O O O O > >     O + O O O O O $ O O O O O $ $ $ $ : > > > - O O O O . > - O O O + - O O O - > = .   o O O O + + O + O O = O + % O O O O . . . & . . & O + + . . . O X . + + X . . . $   .   O . . .   . . . . . . . . + + 4 . ",
"r r , . - +   O O O O o O O = o O O = = = = O = O o O o o o O O - ; ; o = o = = O = O O : O $ $ = = = O O o o o O O O = O O O o = O O O O = = O O O o o o O O = O O = = = - ; : = o = = - = = = - - o o o o 1 a 2 a p 7 ; o v v f p ; ; J ) b - o o ; = n x m ..h < M h m m v < b ] ' ' ^ < ;  .n = = = = < O o = = o o O @ . 2 > = o o O o o   2 k x j : : : : : ; : : = 1 1 O = O = : = O 1 c @.@.o.6.>.c 2 O < < = o : 2 : . O $ $ $ $ O O O O $ $ O O . O O - + O O O O O O O . O O O - O . O O O . . O O O O O $ O O O O $ O O O . . O O - O + = + + O o o O O O $ O $ O $ . . . O O O O . . . O . O O O $ O O O $ O $ O O $ O O O O . O O . . O . o O O + O o o + O . O O O O O O O o o O $ $ .   O $ $   . O @ O @ o .     o . O o o . . . O O O O O O : - O o o + o O O - . o o o + . @   . O o   O . o . O > + O o @ O O . . O - > . O . O O : O O o o O o . . . O . O . . O O O O + + + O O + + - O . . > +     O - O O O O O O O O O O $ $ $ $ O $ O + - O O O O - - > + O O O - > + O - > > % . @ . O O + O + O O O O - - + O O O O . . . $ . . & . O O . . . O % % . O > O O . . &   . $ O . . . $ O . . . . . . . @ X 5 @ ",
"W r   & , 8   O O O O = O O = = O o o O - : = O 1 1 : = = = O = ; ; - = = = O O O O O = $ $ $ O o o O o = O = O = = = = = = O O = = = = = = o O = = = O o O O = o = = = = - : > = O o = = o = = - - 1 1 - ; ; - x J z z 1 ; n J ^ m ; o x ..J o ; o < o a < j ) = < n p l ) ( m ) ' :.) ^ ^ n I l = 1 : O O o o > : . o O = > e 1 @ o = = = O O   O 8 2 $ O : : . O = : : 2 2 o = O = < =   > n I / | >.#.c 3 3 i a < = 1 2 1 O = % : : O O . O O : > > O O O O O O O . . O O = . . o o O O O . . . . . O . O O O $ $ $ O O O $ - = O . o O o O O + O + + O O O O O O O O $ O O . . O O O O . O . O O $ O O . . $ O . O O O O O O O O O O O . . O o o o @ o O o O O O O O O O O O . O O O     O $ $ $ . . O O . o . o O . o o   O O > O O O O O . O O . o o o . O @ o @ o + + o - O   @ o O . o o O . o o O O   . - > O .   . O o o O O + + O .     o . . O .   O O .   o o . o o . . O O = - O O o O O > = O o . > > . o O + . . O O O O O O O $ $ > $ O O O O . O . . O O - > - + . . O + > > @ + > > > O O O + - + O O O . o - > - > $ O . & $ $ . & & . . . O O .     . % >   @ % > & . $ $   O $ X . . O & $ . . . . . . $   . 4 @ ",
"=.5   %       O O O o O O = = O = o o O = = O = O O = = = = O = o ; = ; O = = = . = $ O O O $ O O O O = = = O O = = = = = = = = = = = = = O O o ; O O o O = = = = = > : = O O = o O O > = = O o - o q 7 - o - s f Z f s < ; 1 ) H f ; ; d Z 1 7 C 1 o a I ; o / l ; < v ) m ) p f o.o.; p d L H : 8 : 2 1 O :   1 = . $ > 4 > X - 1 > - = = O 1   : a 1 O : 2 : = o ; : ; 2 j : = : = O : = : l ) n | 5.O.n ; < z 1 1 O O j 1 . 1 : O . . . O O O $ $ : $ O . . . O O O O O O O   . O O . . O O . O $ O O   . O $ O O O O O O . O O o o o . O O O O O O O . o O O O . O . o O O O + O + O O . o $ $ $ $ . . . O O . . . O O . .   . O $ O . O O   o . @   o o + @ o . .     O = . . O O O o . O O O O O O O O O $ O . . o . o o o O O O O O = + - O . O O O .   O o o O + @ o O   @ = + + @ O - O O   . O . O o . . O o . O O O O O . O O + + O o   . O O . o   O O + - . . . O . O + O . O - > > - + . O O O . > + O + + O O > O O O O O $ $ : : $ $ > % O O : . . O > + O O . O + . O > > O O . = > O . O + > > % > + O O O . o - + > + O O O O . O O . & $ . .   . $ . . . $ . $ $ $ . . . $ . O O $ O $ O O . . . . O . . . . . @ . ",
"*.r     @ 4 k . O o o . O O = o : O O = = = o O o = = = = O = o = ; = o = = ; o . O $ $ O O O O = = = = = O = o O = O = = O = = o O = = O = = = O = O O o o o = O = - = O O O = o = = > - = O O o o o ; ; o ; F a s 7 p ; ; 1 F m b ; ; n f 1 = z 5 o o x n i c | M p p B l ^ < p :.7.p ; i I H ; 1 : 2 1 = : O : > $ : $ $ % % o - O o O o o =   : 8 , . : 2 : O O : = = 1 2 : = : = = : = : x ) L O.0.:.M o < d < p O o a 2 O O = O O O O O : O O O O $ O .   O O O O O O O + o . O O . o . + . O O $ O O . O O O .   O O O . @ O . . O . . O O O o O o O + O O O O O O O + O o O + O + O O @ O $ $ O O . . . O . . . O O O $ . O : : O O O : o O O O O @ O O O O O O . o . O O O O . O . O O O . O O O O $ O $ O O . O . o     . O O . O O O . . O O O > - + O @ O O O . o O O = + + o + O o o O O > > = .   o O O O . o O O O O O o O o O O O O = = + + O O O O O + O . . = > + > > + + + > O . O O - % > > > = O - > . . - $ $ $ O O O O O O O O : $ $ O > : - + . . O > > > > O . - O . - . O O O . = > + + - O + O O . . o O > + O + X + .   . & . . & . O O $ $ $ . . $ . & . . . . $ , O . . . O & . . O . O O O . & . . @ . . ",
"R X X % 4       = O o O O = O O - = o O O o o O O o = O = O O O = o o = = - = O o O $ : $ O O . = = = = O = = O = O O = o O = = o o = = O = = O O o o O O o O = . O O . o . O O = O > : : O O O + o o ; o o - Z a s i 1 p 1 p J d H < o ' z d O j a 1 , x I F x L N B p v m ) < i 5.6.1 ; i ' P : < : 1 1 O : O . $ > $ O   . O o + o o O o o = . 1 j 1 . : 2 : O O : = O : 1 O = : O = : : 1 x L / 5.r.O.z o ; 1 < 2 = o 2 1 = . O $ % $ O . O O O $ $ O O O . O O O @ . O - + o . O O o o . : . O O O O . . . O O O O $ $ $ $ O O . O O O O O O O O @ O O O + . . O O o + @ O + + + + + @ = O $ $ $ O O . . O . . . . O O O O . O $ $ O O $ :   . O - O O . . o O O O . o . . O O O O O O . O . O . O O O O O + O O @ O o o o   . O . o . O O o o O O O O = > O o @ O O o o O = O O + + + O O   o O > O O . o o . O O . o O = O O O O @ O O O o O = . . > > . - . O + O o . O > - = O = O O O   o O O O O - > O O O - O O O > O $ $ $ $ $ . O . O O $ : $ > , + O O . @ O + > + > + . O O . >   O + + O + + O - % + = - O O O o o - - + + O % . O & $ . . & . O O O $ $ . . $ . . . $ . $ . $ % . . . O & .   & O & O O O O . > + @ @ ",
"E Q G.L.p.+ + O O O O O O O o = O o o o = O O = = O O = o = O o ; ; o = = = = = O O O $ $ O . O = O O O = o = = = = O O O = = = O O O O O = o = O o = o = O O o O O O . . O O $ = : $ $ $ = O O > = = - ; o ; z z b a 7 d < i H d ( p o  .k z = O . 2 x j ; 3 N p B B v ^ ) ) p H X...< : l _ H : 1 = 1 : O : .   . O O     . $   = = o = O . - O 2 a , . $ , : o O : = O : 2 = = = O = : : , x H L :.5.| c = < 1 - 2 ; . 2 1 : O $ > : O . . . $ $ $ : $ $ O O + O . O O . - - O O O O O O O O . O O O . O O O O O O O $ $ $ $ . O O = O O . o + O O O . O O O X O O O + o + O o + o + - + - + O O $ O . O . O O . . . . . O . $ $ $ O . . . O   o o o O @ o o . o O O O . o   O O o O O O O O O O . O O O O O O O o O . o       o O . o O O . . + O O .   o O O @ o O O @ o O @ @ o o + - - = . O O .   o . O O O . . O O O . o + O O . O O O   . .     O = . O . + - = O . O O .   o O + O . o . > - O . . + .   . + - . . O $ O O O $ : > $ O . O $ $ O $ , O + - > - = - >   > - . O O O >   O - + - > - O > > + > - + + = O O = + O O . O   O % $ . . & $ . . O . . . & $ $ $ . . $ & . . $ &       O . . O . O O . . . . X O . @ ",
"W 4.U.l.Q   -   O + = O O O O = o o o O = o O = = = o O O o O O o ; ; ; = o = 1 - = . O O O O O = o O O o O = = = = = O o O O O = O O o o O O o o = = = = = O O O O . . O O $ $ O $ $ O O O O O O o = : - o 1 x z b d 1 ; o < n H X.p o  .a s = o   d Y 2   < ( M v ; p f M J m ) ) | i i i H x : 1 O 3 > . O O     . . O & & $   o o o = o o = : 2 k 2 . O : $ O o : = O < 2 : = = = = ; = 1 n H H +.+./ x = ; i : 3 = = 8 1 O = : > $ . . . O $ O $ $ : $ O O - O O O O - > > = . o . O % $ . . O . . O O $ O O . . . . O   . o . O O = O O o O O O @ O O o + o - @ O + + @ = O + o - + + X % O O O O O O O O . O O O O . O O O $ O . . O O O . o   . @ o . o . . O O O O o   O @ O O O O O O . . O O . O O O O O o . O . o     o O o o . O o = > - . o   . . O o o O O o o O o o o o O - O @ > > > O . . O = = .     O + O o O O + O O . O O   O . o o O : . O O + > > O o . + + @ O + + O . O > > , - O O + . o . = O O O O $ $ . O O > , 2 $ O $ $ $ O O > - > > 4 , > 4 7 . 4 , O - + + - . - > > > , > O > > + + + O - + O - + - O . . . . . $ & . . & . . . . . . & $ $ $ $ . . & $ . . X O O .     . . . . . .         .     . ",
"=.W E 6 @   7 0 . O = = = = o o O o O = O O o = = = = O o = o = o = - < = o = 2 1 = O = $ O O $ O = O O O = O = = = = O = = o o = = = = = o O = O O O = O O = O : O O O O O $ $ O O O $ $ O O O = O = - = o ; j d s a 1 ; o ; n v H ; = _ a j a < O x K : O I | [ v ; f m f f ^ L ) -./ l : x L O : . 1 : . $ : O O . O $ > , > o - = O = = O : : 5 k 2 . : , $ O = = = : 2 2 = O = O = : O : x ) ^ O. .) v ; ; a ; 1 = O i : : O $ $ O . . O : O O O O O O O O + O O O O + - > > O   . % $ O   O .   O . O O $ O O . . O O O O O O O O O O . O + o O O O . O O + O O O o O o O + O + o O + O O O O O . O $ O . O O O O O O $ $ . O O O O O : : : O . o . o O o o . . O O O .   O O . O o O O O . O . O . O . O o o o O O O o     o O . o . O . + O O O O . O O O o @ O - . @ O O . O @ . @ o   . + - : = . .   O O   o + % O o O O + O . . O = o . . . o . O . O . O - > O O . > > > > > > - + o O O O . . O O O . O O O O . O > $ O O & $ , > > $ $ $ O O O > > + O O . = > 8 , s 8 > > > + + O + > > > 0 > + + + O O . O O + - = + + O . . O     . &   . & . . . . . . $ $ $ $ . & & $ $ $ $ . O O O     . O . . . . .   . . + + * 4 ",
"=.@ @ w V @ . > O - = = O o O O o o = : = o O O = = = O o = = O = o = 1 = o = 5 2 = O : : O O > ; : = = = = = o O = = - - = = O = O O O O O = = O = O O O O O = : O O O $ $ $ . . O O % : $ O O < O O ; o o = j d l a i i < i L p d < 1 L z 8 z O   a c o ; F n p B ; [ ^ M B m P | 1.| l ; n T = O   < 1 . : : $ $ $ O O & $ & o > - O = O o - O 1 j 2 O 3 1 : ; O = = : 8 2 O = = O O : = : c ) ' >.+.L l ; ; i = 1 = . , 2 1 = O O O O O O $ O O O O O O . O o . O . O + + > O . O . . O O   O O . O O O O O O O O $ O $ $ O o . . . o . O @ O . O O O O O O o + O O + + + o + + o O O O O O O . . O O $ $ O . O O O O O $ > O O . O O O O O O . . O o + o o .   . O O + o o o . . o . . O . . . O . O O O O . . o o o @ o     . . . . O O O O O O . O = > - O o . + O o o O O = + O . o   o o     . . o     . O . . . O O O o + - O . o . - .     O O     O , O . O O O O + > > > > > > + =       o . . O O + O O O O . . O > $ O O : $ $ $ > > $ % : O O , + O . o o . > 5 a V 8 O > > + O - > + > 4 7 , + > + + O O O + % o O O O O . O O .   . .   . & . . . . . . $ $ $ . & & & $ $ $ .   . O & . . . . O . .     . . . + 0 9 g ",
"4.0   g 9 q - 4 . - = = = O O O o o O > - = O : : = = O = O O = ; o o 1 : = O 2 1 : O > , $ . O > 1 1 : - = O O o O = : : : - = O = = o = = = = = = . . o o O O $ $ O O $ O O . . O $ > > : : O ; o o = ; o 1 I a d i d b l l L v i a b K z : 8 O   k P = O x c p B ; v [ B < f L ( o.n = o P ' : : . : : . = O > % $     . . .   O = o O o   o o : j 5 = : 2 : : = = O ; 2 i   = = = O ; . : l H ] 5.o.L l < < < = < = o 1 1 2 : : = O O O . . O $ O O = O O O . o o . O . + + o O O . .     O $ O O . O O .   O     O O $ $ $ O O O . o . O O O O O o o O O O O @ o O @ o O O - O O O . @ O O O O . . O $ O O . O O O . . . O $ O O . . .     . o o O O O     o o   . O O O O o . . O o . o . . . . O . . . O   . . O + o @     o O . . O O . + .   o . O O . @ o . = + @ o . @ O - + O o . O O .     o O O O   O = O o   . > o O + O . . O = > . . 7 2 O   - 5 = o o @ O - >   . + - + O - > > O O O = O + - > O O O O O O $ $ O $ $ > $ $   > > : > : O > , $ $ > 1 > > , 5 9 j 7   . > > - O + > - > 7 4 + > > - - + - > > o o O O . O O % O . & O . & : . $ $ & . . & $ & $ $ $ $ $ . . . . . . O O O . . . . . .   . . .   @ 4 6 ",
"R <.E   X 4 4 . = > - O o = = = O o O o O = : : : : : : : : $ $ 3 3 = = : : =   = . o o   . O O 2 : = O : : = = : = : = : = = O $ $ O . .       . . O $ X % & O   O $ $ & . . $ O O : : = = = o o ; ; o o p J ) d l v p p p B N f f f H n d i 1 = o j | i ; n n p l p v H i i b ) -.,.^ ; ; ) ' o o 1 7 1 - =   - o o > $ . . .     o   o O o o 1 1 2 1 . $ , 3 O O = = 1 1 < o o = = = ; ; 1 a J ' :.O.J p p ; ; > : = o : 1 2 $ 2 2 : O . O : = : : : = O O O   O > O . . O O $ .   . O O O . . . . . . . . $ . $ . . . . . . o O O O O O O . O O O O O O O . . O = = O O O = . O = O o o . O O o O O O O O O o o o O o o O = O = = o o o o o o o o o o = = o = o       o o   o   o O = O O = o o o o o o = o o o @ @ @ - - o . . . . . . $ $ $ & . . . . . . $ O   O % % + O . . .   .   . . . .   O % % + . O X X O O X O . 1 : O O O = O O : - = - : > = O , = O O 1 , > O . . O O O O . . : 1 1 : . . = 1 1 : O O O O O O : O : = : > 1 : 1 : $ . . O : 2 O O : : O = > 8 2 2 > O = > 1 > . O > 1 , - = = o > a 8 > O = > O O $ & $ . . . . . . . . $ . & & : $ . . . . . . $ . $ . $ . O - + o O O @ O O $ O . . . & $ , &   D y ",
"S 3.<.% O   O , O + - O O - - = 1 1 < - ; : 1 : = : : 3 $ $ : 3 : : : < < 3 1 < O O O O O = : : = . o O : : : : = = = : = = : : : : $ O O O . . $ O O $ % %     . $ . $ . & $ . O O O O O . O o ; ; ; ; o p f n < p B B M B B m m p p f f a a i < O i I < ; n l p M h M ) l l L P -.q.J o q ' { o o i 8 o o = = , = O : & . $ : : : O O = o = ; a 2 8 2 O $ , $ = = ; : < i < = ; = ; ; ; ; 7 p b ( 5.] b f p ; ; < : ; : 1 2 : : 1 2 : = = = 3 : : : : : : : : O 1 , > O O O . $ O O O $ : O . . .   O . . . & . $ & $ $ . $ & . . O O O O O O O O O O O O O O . O O : O O O = . . O = = O = . O = o = = O = o O = O O = O O = = - - - = = = - O o o O O O O = = O o . O o O O O o O O O . o O = = o = - = @ o o @ ; @ - - @   . . . . $ . $ $ : $ . $ $ $ . O X     O + % . . . . O O O . .   $ O O O O O . . O O O O % % $ O O O . o O o o   : = - : > > = O O . O 1 , 2 $ O O O : : > > : $ O : > 1 : : : 2 1 > $ O O = = = > : : > : > : : 1 $ = = $ : : 1 = O $ 1 : . = : r 2 1 : = : > : 1 : = > , 1 1 , O = : > = = O O & , , > $ O $ $ $ . . & $ . . . $ . . . . . . . . . $ . $ & O & - - - 4 = o O > r , $ $ & & & $ . . Q W ",
"A E S . O       O + = o o - - - < > - - $ = : : O : O : $ : : $ ; : : : < 3 1 2 : O $ $ : 1 > , : = O O : : $ $ O O O O O $ : : > > : : 3 : $ : O O O O . .     . . . . . . . . = = = O O o O O o ; ; ; o p d d d v d p p p p m ) f p p l b x c p = = i o ; N c 3 B p M ) v n L ^  .5.J ; p ' ) p ; - ; = = > = > O . O $ O & 3 > $ O = = o = - a 1 2 , O $ : $ = = = ; < 2 ; = = o = o o ; 1 p f ' :.] H n d ; p p 1 1 2 8 2 : O 3 3 O O = = O : : = O : : : : $ : , $ O . . . . . . O $ $ . . . . O $ $ . O O . $ . . . . . . : .   O O . O $ O O O O O O O O O O $ O O . O O . . . O : > O . . O O O O . O . O O . O O O O O . O + + . O + +   o o . . .   o o . O O o . . O O O O : O O . O o O o @ O o @ @ o @ @ - q + @   . . & $ & $ O . $ . . . . . . O $     . + + . . . . O % O . .   . O X O @ + + , .   . . + X O X O . . O O . .   O $ $ > > : O O : O . . O : , 8 . . . . O O . . O O $ : : $ $ O > $ $ O O % : : : $ $ $ > > O O : $ O $ : > : $ O O : , > $ O : r r , > : > 1 > , 1 > > , 4 5 , 1 > O O O : O . $ $ $ $ . . . $ & $ $ $ . . . . & . . & . $ & $ & . $ & $ $ $ $ > 4 7 7 O o O > , $ . . $ & $ &   & =.Q ",
"! A %   e 8 7 > . O o o o = - o O = O O O : : : 3 :   . 3 r 3 O 3 : : = : O : O $ $ $ $ : O $ : = = O O O O O O : : O O O = O : > : : : : : : : $ $ O O = - - - . . $ . O O O . = O = O = = = ; o ; ; ; ; p a p b b p < p p p M m p < 3 x l 2 1 : O o O o : I n < B p l L l M L ' +. .f ; f ) b a o ; 1 1 1 1 = = o . O O O $ $ $ O . = = = > j a i 3 , $ $ $ . = ; ; : < p < = ; ; ; ; - ; 7 a J ' q.:.^ J l ; 1 1 ; > 2 2 1 = $ : O O . O O . : : = O O : O . . O : O O O : $ O O O : : $ O . $ $ O O O $ O $ & . . . . & . . : . . > $ O O > O O O O O O O O = O O O O O O O O O O $ : > $ O . . o O O . O . O O O O O O O = o @ O . o + @ = o o O o o o   o o . O O O . O = O O O O = O O $ O O + + O + + + o + + q - @ o     . . $ . . . . . . . . $ &   O $ X . O - X + + . O X + X O . .     . . . + > 5 .     . O O . . O $ $ O O = : O O O O : $ : O O : O .     O , r O $ : : $ $ $ $ > > $ $ $ O O . : $ $ O : : $ : O : O $ : : O . $ : $ $ O $ $ $ O O : 2 , $ $ 1 8 r 2 > > , , 1 O > , , 2 , 1 > 8 , : $ : $ O o . . O O . . . . $ $ $ . . . O O $ : $ $ $ $ $ . $ $ $ $ $ $ & $ . o - > > + % 4 : . . . $ & $ &   * 4.~ ",
"S ,     & . O + - O o o o = o o O = O = : 1 , , 1 $ $ O : 2 3 O < : O O = : : . $ O O   . . . O O O O O : : : > > : = O O O = O = : : : = = = = : 1 ; 1 q 7 q 1 . $ , 2 $ O O O o o o O = ; o = ; ; ; - ; a a a p l h p B v v M B l p i M c 3 j : O O O . < I I < M p B L M M N ' X. .H p v ) F ; ; i j 1 O : : O O O : 3 $ . $ $ . O $ : : p c a 2 a 7 , , , $ : < 3 < 2 i 1 : = ; ; = - < a d ) ] q.:.) b d ; < < < : ; 3 : : > 1 $ O O : = O 1 : : O : 1 : . o O O O O > > > > - + + - > > - & O O . . O O & $ & O & $ $ & $ > . o : - O . > O O X O O O O O $ $ O O O O $ O > > , > $ $ $ > = O > O > O O = O $ O $ = = > O O + - - - + + + . O - + + @ O + . = : > O O $ > O O - O $ $ O O O O - + O o + - - @ - @ + + @       O O & . . . $ . . : O X O $ % O . . X O . O + + . . . . O X % .       . O @ + O . . + + . . $ O O O . O O % . . O + + O . .   o O = O O O . - + - $ O : = = 2 > $ $ > > % $ > : % O $ $ O O $ $ $ $ : $ O O O $ % $ . . O > $ O $ > : % > , , 8 , : $ $ $ O . , 2 , - > > + % > % % O . . .   O & % % % $ % . $ . . .   . O $ , , $ & $ $ & $ $ & $ $ $ $ .       - 4 8 5 5 & & $ $ & . . . . & *.~ ",
"W r r , k $ , > > - = o O - - = = > : > > 1 : 1 O 1 8 : O : : : 3 = O : 2 2 2 : > $ $ $ O $ & O : : > : 1 : 1 : 1 : : $ = O O = O O O = = O O O 7 > - - ; - - ;   O 1 : $ O O O o o = = = - ; ; 7 1 ; 1 a z d i 1 d i < p B n L c N i i x c j x 3 3 $ 3 3 h I N p M h v L n n n H ( :.) p p P ) 1 o > a 2 : $ O O = = : $ $ $ . O O $ O . O < 7 1 : 2 2 $ $ $ & : < 3 : < 1 1 = = = = = = 1 a a ^ ' +.' ( b l p p p 2 ; : < i 2 1 > : $ O : = . O 1 1 : O : $ . . O . o . O O O - O O O . O O O O O O     . . O O O O O . $ $ & O . . O O . . - O O O O O O O O O O . O O = $ $ $ $ : O . . O $ O O . O O O O . . . . O . O O O . O + + + O + + @ O + - + O O + . . . . . . . O = > > + X O O . O + + O O . @ - - - - @ @ X + o     . . . . . O . . . . .     O X . . . .   o X X O .       . O + .     . + X . O @ . . . . .   O O . .     . . . O . O O . O . . O . O . O . O O . .       . . O O   O $ > , > % % $ % > O O O > > $ > % > > % O $ > $ . . $ > 8 , > > > : > , 5 5 , $ O O O O O > > O . + > >   @ > > + O = > O $ % , 4 4 % % $ . . . . . O   $ $ $ . . & $ & $ $ $ $ $ $ $ . 7 - O - 5 4 % % & , & $ . . . . . & ~ W ",
"C $ O . 8 O % . > > = O - 1 - = - O O $ O O O O O 2 r : O O $ $ $ O $ : 2 2 1 $ $ $ , 5 , , , , 2 , 1 $ $ O O O : > % $ $ $ O $ = : : - : + + @ 1 - + @ o ; o o . . O O O o o . = = = ; - ; ; > 1 o - 1 d z s 1 1 a 1 = ; < h n M N j 3 x M , c j r $ 2 r c N I i n h h L N n n I )  .( i i m I j O o 1 2 , : O O $ $ : $ & & . & : : .   : 1 : : : 8 i $ $ $ . : 1 1 : : > : = = O = = > 1 0 d ^ J ' :.( J v z i i < < < p j 2 : : $ $ O : > $ O , , $ O O $ O . O . . . O + O . O . . . O . O O O O O . O   .   . . . . . O . . o . O O . O O O O O O . O O O $ O . . . % $ % X O X . .   . . . . . . . . . . . .       . . . . @ X + @ @ . .     X + @ . . @ . .     . . . . % > > X O O O   . + + @   . + + @ - # + + q @     . . O O . O & O O . & .     . + @ + @ + @ . + @ . .           .     . . + q % .       . . .     . O .         . O O O . . O % > = .     . O 1 , > > O O > - >     . . O $ % $ + % % % % > % O % % X O + % % % O X % % : > $ O 5 > % % % % % > r 8 %     $ % , + + .   X 5 8 >   O % > % $ + > O X X $ O X O . . . . & , r & $ & , & . . $ , & & & & $ $ $ $ $ 9 0 > q * % O + $ .   . . . & $     Q W ",
"r O O . % O 8 e > + O @ - q 1 - - O $ $ $ $ O O 2 8 % O $ , :   : : > 1 : O .       & & , 4 % & O O O O O O O $ : $ : : : : O : : > , , > > + # 4 - - + - 1 ; 7 > : O . O = = = > : = = o = o = o o o 1 V z a 1 c P P I I I P ....o.I x ../ c c c 3 $ 3 c c x c h L c M ) L H m  .( ..X.I m L I j : : 2 : $ 3 8 3 , , $ $ 3 $ 3 $ r , $ O 2 8 2 2 2 k c , : , $ , 2 2 1 1 2 1 : ; > 1 : 1 7 s z :.' ' 5.' b d l < ; = O = 2 2 : O > > % : 1 2 5 $ 8 8 : O $ 1 > > , > - > 4 7 > . O > - > - = O . & O & & $ O . O . . . . . O O   O = . O - O o   O O . O . . O O . . . O % > % O O O O $ % O . O O % % + + + % O O O O O O + + @ + q % + O @ @   o + + + . @ > , % O O O + $ + X % > O X $ O . . O + .     @ - @ @ # + + - @     . . O O O $ % > & $ $ O . O 4 4 4 % > + X + 4 . .             + + X @ . . X @ .   . . @ + @ .   O % > O .     O O + O . O % > = . . O O + O O = O .     o . O % > > > & $ X O X O % % 4 > % % % O . . . O + + % $ O > 5 5 %   O .   . O . . O e r , O   , e k . . . . 5 C k $ O O O O . .     O O O     . .   . . $ r C C r 5 $ , $ & & $ , , . & & $ & & $ & + + @ + * + * 8 , & . . & & & & .   W D ",
"V $ k , k V 8 > > 0 s z s 7 - -   O O . O > 1 > , 4 , +   4 8 + : 5 j , $ O & O . . . . . . . . .   . O   O $ O O $ $ $ O $ $ > = O : =     # * # #   0 7 o , % - . . O O . . O 8 >     O 7 > o > k $ e K F T T .. ...' _ _ .. . .X._ I L ......c r r c x c I ..P N n L _ | I n o.o.o. .( I ) ..x z x Z j 2 5 2 $ $ $ $ $ $ $ & $ & $ $ : : , 2 1 i j 8 , : . $ $ 1 : $ , : > , 2 1 = = - s Z F -.>.6.,...F I P j z x x z a 1 : : > > > - + O > > , O : > > 5 , 7 > + + - > - - + - + @ O - - @ . O + @ O .     O X . X O . . % O O + O o - > 4 Z 8 - O - - O   O O % X X . @ O   . + + . @ + O . . . . + . + X X O . O @ O O X   . @ . . . . . . X + @ X . @ @ + .   O X . O > O   . X $ % X . O % $ X   . O + X + @ . + 0 X   . O O X O X - > . O + + + + O . @ X + 4 4 + X +     . X .       . . . . . .         . . @ + + X     . O % X + . O . . . . + + X +   O - @ O > 4 7 > 4 - o O - @ 4 4 > + + > 4 4 4 > . . . @ + % %     + 4 % + 4 * 4 4 4 4 % % % % 4 5 5 X . , 9 G U C O . C T U >   X e C K e e > @ % 5 5 O     . 4 8 % 4 e V 5 r 8 V k V C e k e , , r > & , 5 $ & % % & . . & % X   + 0 4 % 0 6 6 X X 6 6 X X & & 6 & ",
"e X r   $ % O . O O - = O o o   O       . . . . O + - .   + -   . : O     .     . .   . . . & & $ O O O . O $ .     . .         .   . .     @ @   @ @ # q   .                     .     o - = o O ,   O 8 > r , . O o o     o = < ; ; = $ : , , , $ $ $ : . $ 2 2 : ; i a i 2 1 j i a a 2 < i x k , = O     O . $ . . . . . . . . . .   . O O $ o o O > $   . . O $ O   O $ O 1 . .         o O A I _ P F z x I 2 8 a d j 5 1 1 . . O . . o o     .     .   -   O o         @ o . O O o @ + O         .                         o o o       o @ 7 > @   @ + o         .       . .   .                                               .       X     . @   .   .                           . .                 X .     .   @ 4 4 X + O + @ . . . X     . . @ .           @ .     @ . @ + + + @ @ . @ @ + @ + + + @ @ . + @ X . . .       . + . . .       . + + + .     + 4 + o O o o   @ +     > + - + X . @ X X + + O     . . + %     X e V 8 + . . % 5 8 0 * + . % 5 D S C 5 4 4 S U W e e W R E V % e S W R A S e 4 4 e V 9 4 % 6 C A V k W K D W A U S A A e C e 5 5 r 5 5 5 4 , , , & $ . . . 4 0 4 0 r * X * & * # X & & # * & & * & ",
"$   %           . . O o   o o o O   . . O     .     . @           . . % , $ . & . X X . & . & r & . .       .       O O O . $ O     X @ X @ # @ @ # @ @     X   . .   X . . & $   X - - X . O O . >     O       o O o o o o O = o o o   . O O   , & O O O     O o o o o o o o o o o o . o . ; : a = o o   . O .         . . . . . .           o   o o @   .                   O . . O X o           o o         O O = O O . . .                                                           o         . . . .     X . .   .   . .     o           @         o   o       + X                                                                     @                                           .               . . .           + * * .   . . .   . @                         @     .                                                         .             X X .         o - o                   @ o                 @             @     X * 4 @         # # + X           + @           . .   X + * +   X % % & X &         X         . X .   . X . + . % .         .     X         . . . . . . .     + + X @       X # X @ @   @ X     X   ",
"> X e r k 8 j 8 o   o     o o = r $ & r e 5 8 k . @ 4 0 > 0 4 X > $ X % & & , y & & r y y y 6 r r > > > $ $ : $ O .       . O , . * + @   @ @ # # # # @ @ # & & & .   . . . . & % 4 8 4 % . + & % 4 O   $       . . O = = o = = o ; o o . O .   . & O O     .   O o o o = O = ; = : : : = O $ :       o   . .           . . . . . . .   o   o o   o         . . O $ $ > r , $ >   . . .         . > > . o O $   o                               + +             o   o o   o           o o       .   . . @ .   .                       o o o o o               .     % 0 0 +   X                                                                                                 X . .               .     . .             @ q #                                                 @   . @ .     @ X . @ . @         . @ @ . @ + @             .         . X .     +             @ @ o @ o     o                     X             @ . X X                       X X             *             @ & .   + .       . X       @ X . X .     . .     .     X         . .   . .     X X .           .     + X   X X * 9 6 X @   @ # & @ X X & . ",
"5 & 5 r C r A r s 9 k k z Z Z A S r C I T U U E V V S U W U E W t S *.u.u.! W E W S W ~ ~ E u C r & $ , & & $ $ r r 5 , O & & >   X   @ u u u u ~ z.z.z.v.v.v.z.r & & & , & & & 4 5 , & & & , 4 4 r 6 , 4 4 O * . O + 4 4 4 4 q j e 8 , , , & & , & , , , , , , 0 q - + - 4 4 > 4 8 r r 8 1 > O     q > O - q .       X X + X . X X @ @ @ o     @ o @       . .   . . . $ .   . > % % % % % X O . X O           > X O . . X > @ + + + + + X + @ 4 4         .   o   o @ O o         o @ @ o o o .     . .     .           @ + .       o       o   o @ o   o   @ X q 0 9 6 0 * 4 X @       @                                 .             X           @               X                                         . X +   @ + 4 * .         . @ X . .         . .       . @     .                                                                                 s + @ - @ o - q 7 - q 0 - 4 0 9 @ @     . @ X @ X X + X     X X   X * * + + @   * * + X & * * 5 q * 6 w 6 * 4 9 t 0 6 e e * 4 e 4 * 9 6 & & & r y e e e e e e t e r r t D C C S W W E A C W C D X . X X   @ # * # * X X X X & X X & X   & # # 6 6 # # # y Q U & X   #   ",
"} T K K R A } U T ` ..$.%.} } _ ! U U ! $.$.$.$.E E R { $.=.4.4.$.! ! =.! C W *.~ E E ~ *.~ Q W W A A W A A S S W U E I K A C k y u * Q v.$X$X@X@Xv.v.z.z.l.z.u E y y y W W C y 5 & X & 5 r e y t t y e C C 4 8 V V D G U Y U G U P F A C c K C C C C W W W C k s 0 # + 4 9 9 4 > r k k r 5 , > s V S V 7 s V 6 * * % 5 * & + X X X q + + O o o + > > + X X . X r , , , r , 5 k W A V e t z 9 5 + + + X % * 4 & 0 4 * 4 8 9 e e 5 0 4 4 5 4 0 % 8 0         4 4 @ o o @ + - o     o o o @ o @ - @ .   X X . . + @ q + % 4 6 9 0 - - + @ @ o   @ o @ - - + . o   9 t y 9 6 V D D 9 0 * * * + X @ + # % @ + . . X               .   @ @ @ X X @         @ X X @         X + X . . X X .       X O           X % X X % # * # 4 0 0 6 0 % @ . + > > + X @       . @ @     + @ @ @ @ X q 4 4 4 * q * q q + 4 6 9 6 0 0 0 0 0 0 0 6 6 t S S C t C D D C V t e V D D S S 0 0 s 0 - 4 7 4 + 4 g V S R ` $.E E E Q ! ! ~ R R ~ ! R Q $.=.R Q R E R ~ =.=.4.*.4.4.<.<.4.<.*.<.2.2.4.=.~ 4.4.=.4.2.2.4.~ ~ R E =.$.E ! =.<.<.<.<.<.<.<.<.<.2.<.3.2.z.2.2.3.! R $.R ! =.! ! Q R Q W 6 6 C D 9 # & * 5 * 9 y U E W W E y 6 w @ X * w y z.z.~ W y y * "
};
