/* XPM */
static char * red_north_txture_xpm[] = {
"64 64 71 1",
" 	c #333333",
".	c #DB4437",
"+	c #000000",
"@	c #7B221A",
"#	c #310805",
"$	c #D24134",
"%	c #9C2E24",
"&	c #922A21",
"*	c #962C23",
"=	c #230403",
"-	c #CF4033",
";	c #8D2920",
">	c #170201",
",	c #CB3E32",
"'	c #84251D",
")	c #C63D31",
"!	c #79221A",
"~	c #942B22",
"{	c #110101",
"]	c #C13B2F",
"^	c #AD3429",
"/	c #8A271F",
"(	c #6E1E17",
"_	c #CE3F33",
":	c #1F0402",
"<	c #BA382D",
"[	c #631A13",
"}	c #DA4437",
"|	c #D14134",
"1	c #2C0704",
"2	c #B4362B",
"3	c #9B2D24",
"4	c #571510",
"5	c #D94336",
"6	c #D44235",
"7	c #3A0B07",
"8	c #A33026",
"9	c #4C120D",
"0	c #D84336",
"a	c #D74336",
"b	c #46100B",
"c	c #A63127",
"d	c #AA3329",
"e	c #3F0D09",
"f	c #D54235",
"g	c #52140E",
"h	c #9F2F25",
"i	c #B1352B",
"j	c #330906",
"k	c #5F1812",
"l	c #B8382D",
"m	c #691C15",
"n	c #8E2920",
"o	c #BE3A2E",
"p	c #752019",
"q	c #C43C30",
"r	c #090100",
"s	c #7F241C",
"t	c #7A221A",
"u	c #C93E32",
"v	c #6F1E17",
"w	c #CD3F33",
"x	c #BB392D",
"y	c #D14034",
"z	c #9A2D24",
"A	c #581610",
"B	c #D64236",
"C	c #AA3328",
"D	c #5E1812",
"E	c #B7372C",
"F	c #742019",
"                                                                ",
" .............................................................. ",
" .............................................................. ",
" .............................................................. ",
" .............................................................. ",
" ....+++....................................................... ",
" ...+++++...................................................... ",
" ...+++++.....@+++++++#$...................%+++++&............. ",
" ...+++++.....@++++++++*...................%+++++&............. ",
" ....+++......@++++++++=-..................%+++++&............. ",
" .............@+++++++++;..................%+++++&............. ",
" .............@+++++++++>,.................%+++++&............. ",
" .............@++++++++++'.................%+++++&............. ",
" .............@+++++++++++)................%+++++&............. ",
" .............@+++++=+++++!................%+++++&............. ",
" .............@+++++~{+++++]...............%+++++&............. ",
" .............@+++++^/+++++(...............%+++++&............. ",
" .............@+++++^_:+++++<..............%+++++&............. ",
" .............@+++++^.&+++++[}.............%+++++&............. ",
" .............@+++++^.|1+++++2.............%+++++&............. ",
" .............@+++++^..3+++++45............%+++++&............. ",
" .............@+++++^..67+++++^............%+++++&............. ",
" .............@+++++^...8+++++90...........%+++++&............. ",
" .............@+++++^...ab+++++c...........%+++++&............. ",
" .............@+++++^....d+++++ef..........%+++++&............. ",
" .............@+++++^....5g+++++h..........%+++++&............. ",
" .............@+++++^.....i+++++j$.........%+++++&............. ",
" .............@+++++^.....}k+++++*.........%+++++&............. ",
" .............@+++++^......l+++++=-........%+++++&............. ",
" .............@+++++^.......m+++++n........%+++++&............. ",
" .............@+++++^.......o+++++>,.......%+++++&............. ",
" .............@+++++^........p+++++'.......%+++++&............. ",
" .............@+++++^........q+++++r)......%+++++&............. ",
" .............@+++++^.........s+++++t......%+++++&............. ",
" .............@+++++^.........u{+++++].....%+++++&............. ",
" .............@+++++^........../+++++v.....%+++++&............. ",
" .............@+++++^..........w:+++++x....%+++++&............. ",
" .............@+++++^...........&+++++[}...%+++++&............. ",
" .............@+++++^...........y1+++++2...%+++++&............. ",
" .............@+++++^............z+++++A5..%+++++&............. ",
" .............@+++++^............67+++++^..%+++++&............. ",
" .............@+++++^.............8+++++90.%+++++&............. ",
" .............@+++++^.............Bb+++++c.%+++++&............. ",
" .............@+++++^..............C+++++ef%+++++&............. ",
" .............@+++++^..............0g+++++h%+++++&............. ",
" .............@+++++^...............i+++++jn+++++&............. ",
" .............@+++++^...............}D+++++=+++++&............. ",
" .............@+++++^................E+++++++++++&............. ",
" .............@+++++^.................m++++++++++&............. ",
" .............@+++++^.................o++++++++++&............. ",
" .............@+++++^..................F+++++++++&............. ",
" .............@+++++^..................q+++++++++&............. ",
" .............@+++++^...................s++++++++&............. ",
" .............@+++++^...................u{+++++++&............. ",
" .............................................................. ",
" .............................................................. ",
" .............................................................. ",
" .............................................................. ",
" .............................................................. ",
" .............................................................. ",
" .............................................................. ",
" .............................................................. ",
" .............................................................. ",
"                                                                "};
