/* XPM */
static char * street3_xpm[] = {
"256 256 373 2",
"  	c #968A7A",
". 	c #9F9485",
"+ 	c #928677",
"@ 	c #948878",
"# 	c #938778",
"$ 	c #9B9083",
"% 	c #938777",
"& 	c #948879",
"* 	c #958979",
"= 	c #9E7264",
"- 	c #705147",
"; 	c #000000",
"> 	c #95897A",
", 	c #9E3D38",
"' 	c #A21212",
") 	c #9D3D38",
"! 	c #9E1111",
"~ 	c #9A3D37",
"{ 	c #9B3D37",
"] 	c #A11212",
"^ 	c #941010",
"/ 	c #981111",
"( 	c #A31212",
"_ 	c #AC1313",
": 	c #A81212",
"< 	c #AA1313",
"[ 	c #9D1111",
"} 	c #A41212",
"| 	c #B01313",
"1 	c #953C36",
"2 	c #B61414",
"3 	c #A61212",
"4 	c #AF1313",
"5 	c #A73E38",
"6 	c #A15950",
"7 	c #973D37",
"8 	c #B21414",
"9 	c #A03D38",
"0 	c #A83F39",
"a 	c #A23D38",
"b 	c #9B5950",
"c 	c #95584F",
"d 	c #A13D37",
"e 	c #A71212",
"f 	c #A03C36",
"g 	c #943B35",
"h 	c #A13D38",
"i 	c #9D5950",
"j 	c #A33E38",
"k 	c #9C1111",
"l 	c #9E403B",
"m 	c #A1413B",
"n 	c #A01111",
"o 	c #99594F",
"p 	c #B41414",
"q 	c #A23E38",
"r 	c #AA3F39",
"s 	c #A43E38",
"t 	c #9E3C36",
"u 	c #933B35",
"v 	c #A5413B",
"w 	c #98403A",
"x 	c #A05F56",
"y 	c #A51212",
"z 	c #9E5950",
"A 	c #A3413B",
"B 	c #98594F",
"C 	c #A03C37",
"D 	c #993C36",
"E 	c #A13C37",
"F 	c #9A3B36",
"G 	c #983B36",
"H 	c #9A5950",
"I 	c #95584E",
"J 	c #9F3D38",
"K 	c #993D37",
"L 	c #9B1111",
"M 	c #991111",
"N 	c #983D37",
"O 	c #943B36",
"P 	c #9C3D37",
"Q 	c #9B574E",
"R 	c #9D3C36",
"S 	c #93564D",
"T 	c #A53C37",
"U 	c #A33C37",
"V 	c #963B36",
"W 	c #9B5E55",
"X 	c #9F5950",
"Y 	c #9C584E",
"Z 	c #A35F56",
"` 	c #A65F57",
" .	c #9B403B",
"..	c #9C403B",
"+.	c #A93F39",
"@.	c #A15A50",
"#.	c #93675C",
"$.	c #9B3B36",
"%.	c #96564D",
"&.	c #98685D",
"*.	c #9B6B5F",
"=.	c #A2413B",
"-.	c #99574E",
";.	c #AA423C",
">.	c #8D2A28",
",.	c #A9A49C",
"'.	c #7B756E",
").	c #A39E96",
"!.	c #AD6B67",
"~.	c #A96864",
"{.	c #A8A099",
"].	c #716C67",
"^.	c #A59E97",
"/.	c #716D69",
"(.	c #706C67",
"_.	c #79413E",
":.	c #A7A099",
"<.	c #A59D97",
"[.	c #9D3C37",
"}.	c #842E2C",
"|.	c #994340",
"1.	c #726E68",
"2.	c #696560",
"3.	c #66625D",
"4.	c #B3ABA4",
"5.	c #56524E",
"6.	c #832E2C",
"7.	c #9F9992",
"8.	c #AAA59F",
"9.	c #A19C96",
"0.	c #9C4644",
"a.	c #B4B0A9",
"b.	c #8D8781",
"c.	c #8B3432",
"d.	c #9C4543",
"e.	c #A84744",
"f.	c #A64542",
"g.	c #9D645F",
"h.	c #B1A9A2",
"i.	c #A56560",
"j.	c #8A3432",
"k.	c #A16865",
"l.	c #B2AAA3",
"m.	c #983633",
"n.	c #A64745",
"o.	c #AEA9A4",
"p.	c #873230",
"q.	c #AB4846",
"r.	c #973332",
"s.	c #6F3735",
"t.	c #9C635F",
"u.	c #ACA59E",
"v.	c #9D3634",
"w.	c #AE4846",
"x.	c #7E2826",
"y.	c #A19C94",
"z.	c #AE4643",
"A.	c #993332",
"B.	c #A94745",
"C.	c #953633",
"D.	c #AD4643",
"E.	c #97918A",
"F.	c #716C66",
"G.	c #6B6661",
"H.	c #9F3734",
"I.	c #9E9791",
"J.	c #77716B",
"K.	c #9F4845",
"L.	c #5E5955",
"M.	c #76716C",
"N.	c #A54442",
"O.	c #57534F",
"P.	c #67635E",
"Q.	c #912F2D",
"R.	c #902F2D",
"S.	c #AC4946",
"T.	c #703835",
"U.	c #A9A29B",
"V.	c #ABA39D",
"W.	c #605B57",
"X.	c #605C58",
"Y.	c #7E2827",
"Z.	c #ABA49D",
"`.	c #675E58",
" +	c #5D554F",
".+	c #7B736E",
"++	c #AFABA4",
"@+	c #79756F",
"#+	c #B0A8A2",
"$+	c #8E8881",
"%+	c #585450",
"&+	c #B0A8A1",
"*+	c #837E78",
"=+	c #68645F",
"-+	c #842C2A",
";+	c #842E2D",
">+	c #913B39",
",+	c #A29B94",
"'+	c #A19A94",
")+	c #9D9790",
"!+	c #7F7B75",
"~+	c #848079",
"{+	c #9B948E",
"]+	c #9A958E",
"^+	c #85817A",
"/+	c #AEA7A0",
"(+	c #A09992",
"_+	c #5A5551",
":+	c #AFA7A0",
"<+	c #9F9892",
"[+	c #9A948D",
"}+	c #65615C",
"|+	c #ADA69F",
"1+	c #ADA59E",
"2+	c #A79F99",
"3+	c #9B958E",
"4+	c #A49F97",
"5+	c #8E8984",
"6+	c #A9A19B",
"7+	c #98938C",
"8+	c #8C8782",
"9+	c #9E9992",
"0+	c #98948E",
"a+	c #6B6763",
"b+	c #908B84",
"c+	c #9C978F",
"d+	c #767069",
"e+	c #746F68",
"f+	c #605D58",
"g+	c #A8A19A",
"h+	c #514E4A",
"i+	c #85807A",
"j+	c #88837C",
"k+	c #89847D",
"l+	c #9F9B93",
"m+	c #918C85",
"n+	c #8F8983",
"o+	c #9A958F",
"p+	c #53504C",
"q+	c #8D8883",
"r+	c #96938B",
"s+	c #9D9690",
"t+	c #6A6661",
"u+	c #A49D96",
"v+	c #959189",
"w+	c #A69F97",
"x+	c #6C6864",
"y+	c #524E4B",
"z+	c #524F4B",
"A+	c #69655F",
"B+	c #63605A",
"C+	c #625F5A",
"D+	c #A69E97",
"E+	c #A69F98",
"F+	c #A7A19A",
"G+	c #B0A9A2",
"H+	c #595551",
"I+	c #55514D",
"J+	c #54504D",
"K+	c #53504B",
"L+	c #55504D",
"M+	c #A29A94",
"N+	c #A29B95",
"O+	c #6C6863",
"P+	c #5D5954",
"Q+	c #ABA39C",
"R+	c #ACA49E",
"S+	c #A39B95",
"T+	c #6D6963",
"U+	c #726E69",
"V+	c #A59E98",
"W+	c #A79F98",
"X+	c #9A948E",
"Y+	c #9C9792",
"Z+	c #A6A29B",
"`+	c #AAA39C",
" @	c #A7A098",
".@	c #A8A29B",
"+@	c #A49C96",
"@@	c #A49C95",
"#@	c #938C86",
"$@	c #9B9691",
"%@	c #716D68",
"&@	c #9E9691",
"*@	c #928C85",
"=@	c #948F89",
"-@	c #908A83",
";@	c #95908A",
">@	c #8B8680",
",@	c #8F8B84",
"'@	c #95918B",
")@	c #69635E",
"!@	c #605D59",
"~@	c #918C87",
"{@	c #898580",
"]@	c #928B86",
"^@	c #5C5753",
"/@	c #85807B",
"(@	c #494642",
"_@	c #98918B",
":@	c #968F8A",
"<@	c #4F4C48",
"[@	c #96908A",
"}@	c #8E8782",
"|@	c #615E58",
"1@	c #585551",
"2@	c #817C76",
"3@	c #918B86",
"4@	c #817C77",
"5@	c #908B85",
"6@	c #959089",
"7@	c #958E88",
"8@	c #938D87",
"9@	c #97918B",
"0@	c #87847D",
"a@	c #88837D",
"b@	c #89847E",
"c@	c #8A867F",
"d@	c #86827B",
"e@	c #86807B",
"f@	c #86817B",
"g@	c #87837E",
"h@	c #807C77",
"i@	c #55524E",
"j@	c #807B75",
"k@	c #86827C",
"l@	c #968F89",
"m@	c #87827C",
"n@	c #A19B96",
"o@	c #5F5B57",
"p@	c #5F5752",
"q@	c #5E5A57",
"r@	c #847F79",
"s@	c #4C433C",
"t@	c #453C36",
"u@	c #625E5A",
"v@	c #615D59",
"w@	c #8C8681",
"x@	c #76726E",
"y@	c #77736F",
"z@	c #595652",
"A@	c #A09993",
"B@	c #97938B",
"C@	c #483F39",
"D@	c #615D58",
"E@	c #908B86",
"F@	c #595651",
"G@	c #625E59",
"H@	c #6E6962",
"I@	c #50473F",
"J@	c #827D78",
"K@	c #4E4A47",
"L@	c #4D4946",
"M@	c #928D86",
"N@	c #5E5A55",
"O@	c #5B5853",
"P@	c #76716A",
"Q@	c #8A857F",
"R@	c #8D8882",
"S@	c #8C8882",
"T@	c #7A7672",
"U@	c #635F59",
"V@	c #645F59",
"W@	c #7B7772",
"X@	c #85827C",
"Y@	c #84807B",
"Z@	c #807B77",
"`@	c #817D78",
" #	c #5D5955",
".#	c #64615B",
"+#	c #8B8781",
"@#	c #6A655F",
"##	c #4D453F",
"  .                             . . . . . . .           + +         + @ . . . . . . . . . . .                                                                                                                         . . . . . . . . . . . . . . . . . . .             . . . . . . . . . . . . . . . . . .                                                                                                                                                                                                                     ",
"  .                                                                 + @ .                                                                                                                                         + .                                                                                           # + .                                                                                                                                                                                                           ",
"  .                                                                 + # .                                                                                                                                         + .                                                                                           # + .                                                           #                                                                                                                                               ",
"  .                                                                 + @ .                                                                                                                                         + .                                                                                             + .                                                                                                                                           .                                                               ",
"  .                                                                 + @ .                                                                                                                                           .                                                                                             + .                                                           #                                                                             . .                                                               ",
"  .                                                                 + # .                                                                                                                                           .                                                                                             + .                                                           # $                                                                         . .                                                                 ",
"  .                                                                 + @ .                                                                                                                                           .                                                                                             + .                                                           # $                                                                           .                                                                 ",
"  .                                                                 + @ .                                                                                                                                           .                                                                                           # + .                                                           # $                                                                           .                                                                 ",
"                                                                    + @ .                                                                                                                                                                                                                                       # + .                                                           # $                                                                           .                                                                 ",
"                                                                    + @ .                                                                                                                                       + +                                                                                             # + .                                                           # $                                                                           . .                                                               ",
"                                                                    + @ .                                                                                                                                       + +                                                                                             # + .                                                           # $                                                                           . .                                                               ",
"                                                                    + @                                                                                                                                         + +                                                                                             # + .                                                           # $                                                                             .                                                               ",
"                                                                    + @                                                                                                                                         + +                                                                                             # + .                                                           # $                                                                             .                                                               ",
"                                                                    + @                                                                                                                                         + +                       .                                                                     # + .                                                           # $                                                                             .                                                               ",
"                    . . . .                                         + @                                                                                                                                         + +                       .                                                                     # + .                                                           # $                                                                             .                                                               ",
"                                                                    + @                                                                                                                                         + +                     . .                                                                     # + .                                                           # $                                                                             .                                                               ",
"                                                                    + @                                                                                                                                         +                       .                                                                           .                                                           # +                                                                             .                                                               ",
"                                                                    + @                                                                                                                                         +                                                                                                   .                                                           # +                                                                                                                                             ",
"                                                                    + @                                                                                                                                                                                                                                                                                                         # +                                                                                                                                             ",
"                                                            # + +                       % # # % %     # # # # # % # # % # %                                                                                 # #                                                 # # # # # # # % #             # % #       # #             # # # # % # # % # % #                                 + + % # # % # # % % # #                                                                                                                         ",
"                                                                                        + + + +               + + + +                                                                                       + +                                                 + + + + + + + + + + + + + + + + + + + + + + +             + + + + + + + + + + + + +                             + + + + + + + + + + + + +                                                                                                                       ",
"                                                                                      . . . . . . . . . . . .       . . . . . . .                                 . .                                           # @                                                                                                                   # #                                                         & +                                                                       . . . . . . . . . . .                               ",
"                                                                                      . .                                         . .                       . .               . . . . . . . . . .                                                                                                                                     + +                                                         & +                                                                   #                                                       ",
"                                                                                        .                                                                 .                                                                             + #                                                                                           + +                                                         & +                                                                   # +                                                     ",
"                                                                                        .                                                                 .                                                                             + #                                                                                           + +                                                                                                                               # $                                                     ",
"                                                                                        .                                                                                                                                               + #                                                                                           + +                                                                                                                               # $                                                     ",
"                                                                                          .                                                               .                                                                             + #                                                                                                                                                                                                                             # $                                                     ",
"                                                                                          .                                         . . .                 .                                                                             + #                                                                                                                                                                                                                             # $                                                     ",
"                                                                                          .                                             . .             . .                                                                             + #                                                                                                                                                       & +                                                                   # $                                                     ",
"                                                                                          .                                                                                                                                             + #                                                                                                                                                       & +                                                                   # $                                                     ",
"                                                                                                                                                  +                                                                                     + #                                                                                                                                                       & +                                                                   # $                                                     ",
"                                                                                                                                                  +                                                                                     + #                                                                                                                                                       & +                                                                   # $                                                     ",
"                                                                                                                                                                                                                                          #                                                                                                                                                       & +                                                                   # $                                                     ",
"                                                                                                                                                                                                                                                                                                                                      + +                                                         * +                                                                   # $                                                     ",
"                                                                                                                                                                                                                                                                                                                                      + +                                                           + #                                                                 # $                                                     ",
"                                                                                                                                                                                                                                                                                                                                      + +                                                           + #                                                                 # +                                                     ",
"                                                                                                                                                                                                                                          #                                                                                           + +                                                         & + *                                                                 # +                                                     ",
"                                                                                                                                      = =                                                                                                   + + + + + + + + + +                               + + + + + + + + + + + + + + + + + + + + + + + + + + + + + + + + + + + + + + + + + + + + + + + + + + + + + + + +       + + + + + + + + + + + + + + + + + + + + + + + + + + + + + + + + + + + + + + + + + + + + +                   ",
"                                                                                                                                      = =                                                                                                                                                                           + @                                                                                                                                                                                                         ",
"                                                                                                  . . . . . . .                   = = = = =                           . . . . . . .                                                                                   + +                                           + @                                                                                                                                                                                                         ",
"                                                                                                                    . . . . . . . = = . = = . .                                                         . . . . . . . . . . . . . .                                   + +                                           + @                                                                                                                                                                                                         ",
"                                                                                                  .                                   = = =                                                                                                                           + +                                           + @                                                                                                                                                                                                         ",
"                                                                                                  .                                 = = - -                                                                                                                                                                         + @                                                                                                                                                                                                         ",
"                                                                                                  .                                 = - - -                                                                                                                                 . . . . .                               + @                                                                                                                                                                                                 #       ",
"                                                                                                  .                                 = - - -                                                                                                                                                                           @                                                                                             + +                                                                                                 #       ",
"                                                                                                  .                               = - ; - -                                                                                                                                                                           @                                                                                             + +                                                                                                 # +     ",
"                                                                                                  .                               = - ; ; - =                                                                                                                                                                         @                                                                                             + +                                                                                                 # +     ",
"                                                                                                                                  = - ; ; - =                                                                                                                                                                                                                                                                       + +                                                                                                 & +     ",
"                                                                                                                                  = - ; ; = =                                                                                                                                                                                                                                                                       + +                                                                                                 * +     ",
"                                                                                                                                  = - - ; = =                                                                                                                                                                                                                                                                       + +                                                                                                 & +     ",
"                                                                                                                                  = - - - = =                                                                                                                                                                                                                                                                       + +                                                                                                 # +     ",
"                                                                                                                                  = - - - =                                                                                                                                                                         + @                                                                                             + +                                                                                                 # +     ",
"+ + +                                     + + + +                                                 .                               = - - =                   + + + + + +                                                                                                                                         + + + + + + + + + +       + + + + + + + + + +                                             + + + + + + + + + + + + + +                                                                   + + + + + + + + + + + + ",
"                                          * * > *                                                 .                               = = = =               * * > * # + * *                                                                                                                                         * * # * > * * * * *                 * * +     *                                           * * * * * * * * * > * * *                                                                             *     * * *     ",
"                                                                                                                                    = = =                       % +                                                         .                           . . . . . . . . . . . . . . .                                                   , ' '               . . . . . . . . . . . .                                                                                                                                             ",
"                                                                                                  .                                                             % $                                                                                     .                                                                             ) ) , ! '             .                                                                       +   .                                                                                       ",
"                                                                                                  .                                                             % $                                                                                   + .                                                                           ~ { = = = ' '           .                                                                       + + .                                                                                       ",
"                                                        + +                                       .                                                             % $                                                                                   + .                                                                         ! = = = = = , '           .                                                                       + + .                                                                                       ",
"                                                        + +                                                                                                     % $                                                                                   + .                                                                         ! = = = = { , ' '         .                                                                       + + .                                                                                       ",
"                                                        + +                                                                                                     % $                                                                                   + .                                                                   = = ) ] = = = = ' , , '     + @ .                                                                       + + .                                                                                       ",
"                                                        + +                                                                                                     % $                                                                                   + .                                                                   = = , ] = = = = ' , , ,     + @ .                                                                       + + .                                                                                       ",
"                                                        + +                                                                                                     % $                                                                                   + .                                                                   = = , ) = - - = = , , ' '                                                                               + + .                                                                                       ",
"                                                        + +                                                                                                     % $                     ^ / /                                                           .                                                                   = = ~ { = - - = = ' ] ' '                                                                               + + .                                                                                       ",
"                                                        + +                                                                                                     % $                     ! ^ /                 ^           ( _ : :                                                                                         ] = = = { - ; ; = = ] ' ' '                         ' < <                                                 + +                                                                                         ",
"                                                        + +                                                                                                     % $                     : ^ ^               ^ ^ ^         ( [ } ]                       | | |                                                           ^ ! = = = 1 - ; ; = = , ' ' ,                                                                                                                                                                           ",
"                                                        + +                                                                                                     % $                       ^ ^               : ^           [ [ ) )                   2 2 | | |                                                           ^ ! = = = ~ - ; ; = = ) ' , ,                                                                                                                                                                           ",
"                                                                                                                                                              = %                                                         3 3 , ,   <             ' 4 < | | | 5                                                       1 1 1 = = = = - - - = = , ' , , ,                                                                                                                                                                         ",
"                                                                                                                                                            = =                                                                                 ' ' < < | | 5 5 6                                                       7 { = ; ; - = - - = 3 3 ' ' , ,                                                                                                                                                                         ",
"                                                                                                                                                          8 = =                                                                 9 5 <             ' < < | | 5 5 5 5                                                     ) ) - ; ; - = - - = 3 ' ' ' ' '                                                                                                                                                                         ",
"                                                                    , , ,                                                                               5 0 = =                                                               ] ] ' <                   5 | 5 5 5                                                     ) ) = - ; ; - - = - ' ' ' ' ' , '         '                                                                                                                                                               ",
"                                                                  , , , , 1                                                                             a 0 = - =         3                                           2 2   : ] ] ! _                   5 5 5 5 |                                                     , , = = = ; - - = ' ' ' , , , , ,       ' ' '                                                                                                                                                             ",
"*                                                               1 1 , b c c d * * * * * * * * * *             *                                         a a - - =       _ 3 e     }                     * * * * * * : : : : : ] ] ! } *       2 | | |   5 5 5 |     | | | | |                                         ' , = = = - - - = b b , = = , , ,         ' '           ]                                                                                                                 * *           * * * * * * * * * ",
"+ + + + + + $ $ $ $ $ $ $ $ $ $ $ $ $ $ $ $ $ + + + + +       a 1 1 1 c c c f # # # #       # # #                                                         - - ; - 5     _ | 3         } <             + + + + + + + : : : : : : : : : + +   2 | | 3 3 ,             9 < < | |                                           { { { = - - - ' b b = = = = , , ,                     ' '                                                                                                                 +     +             + + + + + ",
"      * +                                                     a a a = = c c g 1         . .       . . . . . . . . . . . . .             . . . . . . . . . - ; ; - . . .   _           h _                           ( : : : : : : : :     | | | | 3 3 '     < |     , ' < < |                                           { , , = = = = { b b = = = = , , ,                           +                                                                                                                                           ",
"                                                            a a a a = = i i 1 1                 . .                                     .                 - ; ; ; =                   j e                   ^ 1     ( | | | | ( ( _ _   : | | | | 3 3 ' ' < < | 9   ' ' < <                                             { , , = = = = { , = = = - - = , ,                         + +   . . . . . . . . . . . . . . .                                                                                                           ",
"      *   .                                               a a a a a = = a a a 1                                                         .                 - - - - =                                       ^ ^ ^ : _ _ _ _ _ _ k : : _ | | | | | | 3 3 ' ' < < | 3 3 ' ' <                                             { l m m = = = ' ' m = = = - - = , ,                         + +   .                                                                                                                                       ",
"          .                                               a a a a a a a a a a a 1                                                       .             | | = - - = = : : ^                                 ^ ^ ^ : : _ 8 8 8 _ = = : _ _ _ _ _ | | | | | 5 5 6 5                                                       {     , = = = ' ' , = = - ; ; = , , ,                             .                                                                                                                                       ",
"          .                                               a a a a = = = a a a a 1                                                       .           | | |   - - = = a : 1                               k ^ ^ ^ ] } } : : : : = = = : : _ _ | | | | 5 5 5 6 6 6                                                     { {     , = = ' ' , , , , - ; ; ' , , ,                             .                                                                                                                                       ",
"          .                                           a a a a a a = = = = a a a a                                                       .           | |     = =   a a : a           ~ k               ( ^ ^ ^ ^ ^ ^ ^ ^ :   a = = = : | | | | | | | 5 5 5 6                                                       { { {     b = = ' , , , , { - ; ; ' , , , , ,                         .                                                                                                                                       ",
"          .                                           a a a a a a = - - = a a a a                                   .                   .           _ a 5   = = | | | : a           ~ k               k ^ ^ ^ ^ ^ ^ n | |   3 9 = = = _ _ _ | | | | 5 9 9 ,           | | |                                       { { {     o o { , , , , , , - - - ' ' , , , , ,                       .                                                                                                                                       ",
"                                                    a a a a a a a = - - - a f a a                               . .                     .             a a a = = 8 8 ( |           1 1 ^ k           _ k ^ ^ ^ ^ ^ ( n | |   3 = = = = | | = = | | | 3 9 , ,           3 ' < < |                                   { { {     o o   , , , , , , - - = , , , , , , ,   , ,     , , {       .                                                                                                                                       ",
"                                                  a a a a a a a a = - - - a f a a a                                                     .             a a 5 = = _ : ( ( :     1   1 1 ( (       _ : | 8 k k ^ ^ ^ ( ( | + | , = = = = | | = = = | 3 3 , , , ,         3 ' < <                                     { { { {   { ,   , , , , , = - - = , , , , ' ' ' ' ' , ,     )         .                                                                                                                                       ",
"                                                    a a a a a a a = - ; - a f a a a                                                     .                   = = ( ^ ^ ^ ^   1 1 1 1             _ : 8 _ ( k ^ ^     ( + ( , a = - - = | | = = = 3 3 ' ' ' ' '                                                               , ,   , , , , , = = = = , , , , , , ' , , , ) )       + +   .                                                                                                                                       ",
"                          . . . .                       a a a a a - ; ; = a f a a a                                                   > .                   = = _ ^ ^ ^ ^   5 5 ,           : 8 _ : k : _ ( ^ ^ ( ( ( ( | 5 h = - - = | _ = = = 3 3 ' ' ' ' ' <     5 5 5                                           , ,   , , ,   , , , , = = = = = , , , , , , , , , , ' '   ,   + +   .                                                                                                                                       ",
"                                  . .                   a a a a a - ; ; = a f a a a                                                     .                     p ( k 1 1 ~ n < | 0           : : ^ ^ k _ : ( ^ ^ ( ( ( ( | 5 q - - - = e : _ - - 3 3 ' ' ' < <         5 5                           5 5                   , , ,   , , , , = = = = = , , , , , , , , , , ) ) ~ ~   + +   .                                                                                                                                       ",
"      * +                             .               a a a a a a - ; ; = a a a a 1                                                     .                     2 ( k ~ 9 9 ' < <       8 : : ( k ^ ^ k : : ( ^ ( ( ( ( [ | < q - - - = : : : - - _ | | | 5 5 |         5 r                           5 5 5               ' ' ' ,   , , , , , = = = , , , , , , , , , ) , , , ) ,   + +   .                                                                                                                                       ",
"      * +                               .             a a a a a a - - - = a a 1 1 1                                         : :                               _ _ ( c 6 9 | < | |     | ( k k _ : : ^ k ^ ^ ^ ( ( ( [ [ k < } - ; ; } ( ( : - - _ | | 2 r 5 |                                         5 5 5             ' ' ' ,   , , , , , , , , , , , , , , ' ' )   ] , ,       + +   .                       ! ! ~ ~ {                                                                                                       ",
"        + *                               .           a a a a a a - - = a a a a a 1 1                                       : : :       # &                   | | k 1 a 5 | | : _   _ k k k k : : : ^ ^ ^ ^ ^ ( ( ( [ [ k n = - ; ; = = = = - - _ _ | 2 2 | |                                                     9     , ' ' ,   , , , , , , , , , , , , , ' ' ' ]   ] ] , , )   + +                           ] ! k ! ] ! / /                                                                                                 ",
"        + *                                 .           a a a a a = = a a a a a a 1 1                                       : :         #                     _ _ s a a a : : : _   _ k k ^ : : : : : : : : ^ ^ ( ( ( [ ( n = = ; ; = = = - ; ; : _ | | | | |                                                     5 9   , ' ' ,   , , , , , , , j j 5 9 9 ' ' ' ' ! ] } e | } ] } / [                           ! k k ] ] ] k / ^                                   + +                                                         ",
"                                                        a     a a = = = = a 1 a 1 1 1                                                     + + + + + + + + + + k k : f f f : ^ ^ ( ( | : + ^ : : | | : : : : : ^ ^ ( | | ( ( = = ; ; = = = - ; ; : _ _ | | | |                                                   5 _ 9       , ,     , , , , , j j 5 5 | 3 3 ' ' ' ] ! ! < < } ] + / ! + + +                     { ~ ] ! ! k k / / 1               + + + + + + + + + + + + + +   + + + + +                                       ",
"                                                        a       a = = = = a 1 1 1 1 1                                                           + + + + + + + + k : ] : } : ^ ^ ' < < | + ^ : | | | | : : : ^ ^ ^     : ^ ^ = = - - = = - - ; ; ( : _ | | | | | + +                                           5 } 3 ' ' ,   , , ,   , , , , j j 9 9 ' ' '   ' '   t t ] e < + + + + + + + +                     { { 7 k ! ! = = = k u u +       + + + + + + + + + + + + + + + + + + + + + + +                                   ",
"  . . . . . . . . . . . . . . . . . . . . . .     +     a       a a = = a a 1 1 1 1 1 a                                                                         ^ : ] : } ] ^ ^ ' ' < n   ^ + | | ( ( : : k k k ^ ^   ^ ^ = = = = = = = = - - - ( _ | | | | | | |                                               ' ' ' ' , , , , ,   ' , , j j 5 9 9 , , , , ' '     9 } e e                                     ~ 1 7 k k k = = = k k ^                                           # +                                           ",
"                                                * +     . v . . v v v v v v w w w w w 1                                                                         : : ] : } ] ] ! ' ' < n     ^ + ( ( ( ^ k ( (   ^ ^ ^   ^ = = = = = = ^ = - - = _ _ | | | | | | |           }                                     '     , m m m m . ' m m x x x m m , , , , ' '     9 y ] '                                     1 7 { ! ! ! = = k k k ^                                           + +                                           ",
"                                                          a     a a a a a a   1 1 1 1 1 1                                                                       : : ^ : : : ] ] ! } } :     ^   ( ( ( ^ k ( (   ^ ^ ^     = = = = ^ ( ( = - - _ _ _ | | | |     | |                                               ,     , m , , , '     , b b b b , , b b , ' <       y ' '                                     1 1 ~ ! ! ! = =   k k /                                           + +                                           ",
"                                                      . a a     a a a a a a   a     1 1 1                                                                       : : : : : : : : : : : :     ^   ^ ^ ^ ^ ( ( _   ^ ^ ^     ^ ^   ^ ( ( = = - - _ | | | | | |     | 5                                               z     , m , , ' '     , b b b b , b b b ,           ) )                                       1 1 k k k k = = = = ! k                                           + +                                           ",
"                                                      .         a a a a a a         1 1 1                                                                       : : : : : : : : : : : :     +   . ^ ^ ^ k _ _   ^ ^ ^     ^ ^ ^ ^ ( : = = = = | | | _ | | |       5                                               z     3 A , ' ' '     , b b b , , b b b , j       9 , ,     ! ! k ]                           ^ ^ ^ k k = - - - =                                               + +                                           ",
"                                                      .       a a a a a a a           a a                                                                       : : : : : : : : : ^ ( (     +   . ^ ^ ^ k k :   ^ ^ ^     ^ n ( ( : _ = = = = _ | a s s _ | |                                                     |       | | 3 3 '     , , , , , , , b b           9 , ,     { { { '                           ^ ^ ^ k ! = - - - / k                                             + +                                           ",
"                                                      .       a a a a a a a               a                       a                                             ^ ^ ^ ^ ^ ^ ^ ^ ^ ( ( (     + +   ( ( ( ^ ^ ^   ^ 1 1     ( ( ( ( : _ s a = = s : a a a _ _ _     |       |       2                           |   | | |   | 3 3   '     , , , , , , , , ,             ! {       { { {                           1 ^ ^ k ! - ; ; - ^ k                                             + +                                           ",
"                                                      .       a a a a a a a             f a               %                                                     ^ ^ ^ ^ ^ ^ ^ ^ | | | (     + +     n n ^ ^ ^   ^ 1 1   ^   ( ( ( _ _ s , = = a : ( : : : : :             |       |                         = = =   | |   3 3 '   '     , , , , , , , , ' , , ' 9       '                                         ^ ^ ^   - ; ; ; / 7                                             + +                                           ",
"                                                      .       a a a a a a a   s           a               %                                                     : : ^ ^ ^ ^ ^ | | | | |     + +           ^     ^ 1 1 1 ^   ( ( ( : k ~ , , , a ( ( ( ( :     |           5       |                         = = = | | |   3 ' '   '     j j 9 9 , , b b ' ' ' ' ' ' ' '                                         1 ^ ^     = ; ; = 1                                               + +                                           ",
"                                                      $       a   a a a a a                                                                                 | | :   ^ ^ ^ ^ : | | | | |     + + = =           ^ ^ ^ ^ ^ ^   (     a ~ ~ 1 , , , ( ( ( (         |                             | 3         = - - - |   3   ' ' '   '     < , 9 , , b b , ' '       ' ' '                                         7 ^ ^     = - - = B c                                             + +                                           ",
"                                                      .     +   a a a a a a                                                                                 | | |   ^ ^ ^ : : | | | |   :   + = = =           ^ ^ ^ ^ ^ ^   ^     ~   ~ 1 1 1 , ( ( ( (         |                 | |         | 3         = ; ; - =   3   ' ' '   '     < , 9 , , b , , ' ' ' ' ! '                                         ~ ~ 7   ^     = - - = B c                                             + +                                           ",
"                                                      .         a a a a a a                                                                                       : ^ ^ ^ : :   : : ^ ^ ^   + = = =             ^ ^ ^   :   ^     ,   ~ ~ 1 ^ ( ( ( ( :           |               | |                   = = ; ; - = | 3   ' '   '       ' ' ' ' ' ' ' ' ' < ' 3 ! !                                         ) ) /   k     = = = =       ~ k                                       + +                                           ",
"                                                      .         a a a a a a                                                                                       : ^ ^   : :   : ^ ^ ^ ^   + = = =             ^ ^ ^   :   ^     ,   , ~ ~ ^ ^ ( ( ( :           |               | | 3                 = = ; - = = | |   | |   |       3 3 ' ' ' ' ' ' < ' 3           , { o o                                   ^ k       = = =     1 k k                                       +                                             ",
"                                                                a a a a a a a   s                                         + +                                     : ^ ^         ^ ^ 1       = = = = =           ^ ^ ^   _   k     ,   , , 1 ^ ^ ( ( ( _                   |       5 5 9               | = = - - = = | |   | |   |       ' ' ' ' ' ' ' ' < ' 3 ' ' ! !   = { o {                                   k k       = = =     ^ ^ k                                       +                                             ",
"# # # # # #                                                     a a a a a a a a s s                                       +                 # # # # # # # # # # # # # # # #   # ^ C C # # # = = = = = # # # # # ^ ^ ^ # ( # k ^   k   ( ^ ^ ^ ^ ^ ( (                     | |                         : = = - - = | | | + # | # | # # # ' ' ' ' ' ' < < | | 3 | < ] 3 = = { !       { { ~ # # # # # # # # # # # # D ~       = = =   # # # # # # # # # # # # # # # # # # # # # # # +                                     # # # # ",
"+ + + + + +                                                 a a a a a a a a a : a                                                         + + + + + + + + + + + : ^ ^ + + + + + ^ f f + + + = = - - = + + + + + ^ ^ ^ + k + k ^     k k k ^ ^ ^ ^ ( ( = =                 5 a : :                         = - - =   | + + + ' + ' + + + ' ' ' ' ' , E ' 3 ' ' ' ' ' ! = = = + + + + + F F G + + + + + + + + + + +           = =   + + + + + + + + + + + + + + + + + + + + + + + +                                     + + + + + ",
"                                                            a a a   a a a a a :                                                                               + : ^ ^ . . . . . ^ : : . . = = = - - = . . . .   ^ ^ ^   (   ^       k k ^           = = =           #                                     = = = =           '   3       ' ' ' ' ' j j 9 3 '   ' ' '   = = =           { ~ ~ H                   ~ ~ 7                                       & +                                                                 ",
"                                                            a a a   a a a a a :       a a                                                                     + I v             ^ ^       = = ; ; ; =           ^ ^ ^           ^   ^ ^ ^           = = =         + # . . . . . . . . . . . . . .         = = =           3 '   3       ' ' < < | 5 5 9 3 ' ' ' ' , - - - - '         { { o o                   ~ ~ 7                                       @ +                                                                 ",
"                                                                    : : a a : :       a a                                                                     + * .             ^ ^       = = ; ; ; = =           : ^         1 1   ^ ^ ^         = - - =             .                 _ s               = = =                 2         < < | |   9 9 ' ' ' ' , j - - - - =           { o {                   k k                                         @ +                                                                 ",
"                                                                    : : : : : :       a a       a                                                             + * . ^ :         ^ 1       = = - ; ; = =                       ^ ^   1 1 ^         = - - =             .                 | 5               = =             | |             ' ' '       ' ' ' '     j - - - - =           ! {                                                                 @ +                                                                 ",
"                                                          a         : : : : : a       a a       a                 a                                           + * k ^ ^         1 1         = - - = ^                         ^ (   a ~ k (       = - ; =             .                                                   |   |   |       ' ' '       ' ' ' '     5 - - ; ; =                                                                               @ +                                                                 ",
"                                                        a a         : : : : a a a               a                 :                           : :         ^ ( + * .             ^ 1         = - - =                           ^ :     , 1 ^ (     = ; ; - : : : :                                                         <       |       , ' '             '     j = - ; ; =                                     1                                         @ +                                                                 ",
"                                                        a a         : : : : a a a                         {                                   : :         : k + k .     ^     ^ ^ ^ ^       = - - =                     k   ^ ^       c 1 ^ ^     - ; ; - _ ( : (                                                       '                 , , '               = = + = - - - =                 k !         / /                     ^       = = =             @ +                                                                 ",
"                                                                      a :   5 5 |                         {                                         = =       k k ^ ^         ^ ^ ^ ^         = = =                     (   ^ ^       ~ 1 ^ k   = - ; ; = 8 p : : [ #                                                                       ,                 = = + = - - - =                 ! ]         / /   ^       ~     ^ ^ ^ ^     = = =             @ +                                                                 ",
"                                                                      a a :   | |       a                                                 :         = = =     ^ 1 w a   : : : ^ ^ : :         = = =                     (   ^ ^       1 1 k (   = - - ; =   _ _ : [ #                                                   3 3         5                       = - - + + = - - =                                 ^ ^             ^ / /       = = = ^           @ +                                                                 ",
"                                                                    + : : :   | |                                                                   = = = ^   ^ 1 w 1 a : : : 1 1 : : : :     = =                       :             1 1 k ,   = - - - =     _ : [ #                                                                                       = - = + + = - -               !             = =   ^ ^       ~ k ^ / k /       = = = ^           @ +                                                                 ",
"                                                                    : : : :   | |                                                                 = = = = 1 1 1 c w 1 1 ^ ^ 1 1 a : : : : ^   = =             a : k     (             ^ ^ , a     = - - -         + #                                                                                       = - - =   = - - ,                       : = = = = ^       ^ ^ ^ ^ / k k   ^ 1   = =                                                                                 ",
"                                                                    + ^ : :   | |   _                             J           a 1 a             = = ; ; = c 1 a 1 ^ ^ ^ ^ ^ 1 i i i a       ^ = =               : k     k             ^ 1 b B       = - - =       + #                                                                                     = - - - = 3   = = 3 ' ' '                 a = = = = ^       ^ ^ ^ ^ k k / 1 1 1 1 - - ^             ^ ^ ^                                                             ",
"                                                                    + # : :     _                                             a a 1 a         ^ = = ; ; = c a a a w 1 ^ ^ ^ 1 c c i i   5 ^ ^ ^ ^       : a a         k k             ( 1 B B ^       - - =       + #                                                                                     = - - ; -     = = 3 ' ' ' !               - - - = = ^ ^ ^ 1 1 1 1 1 / / / 1       - - =               ^ ^                                                             ",
"                                                          a         + # : :     _                                             : : ^ ^ : :       = = ; ; = a a a i v 1 1 ^ ^ c   c c c 1   ^ ^ ^         ^ ^ : ^ ^     ( (             ^ 1 ~ 1 ^       = = =       + %                                                                                     = - ; ; ;     = = 3 3 ' ] !         } 5   - - - = = 1 1 c c 1 1 1 1 K L k 1   = = - - =       M ^ ^                                                                   ",
"                                                          :         + # ^ :     |                                             : : : : : : : : ^ = = ; ; = ^ : : a w c   1 ^         c 1   1 1 1 ^     1 ^ ^ ^ ^ ^ ^                       ^ ^ ^         = =       + +                                                                                     = - ; ; ; =   = = 3 ' ' ] k k k           - - ; - = 1 1 c c 1 1 1 1   ^ 1 1 1 = = - - =       N 1 O ^ ^                                                               ",
"                                                                    + % : :               a                                   : : : : : a a a : : = ; ; ^ ^ ^ ^ ^   1 1 1 ^   c c c c ^ ^ 1 1       1 1 1 ^ ^ ^ ^ ^                         ^ ^                                                                                                             - - - - =   = ' ' ' ' k k k } e 3 ] ' = - ; ; ; = , ( c 1   1 1         1 c = - ; ; =     ^ 1 1 O ^ ^ ^                                                             ",
"                                                                    + # : : :         i                   !             } : : a a a a a : a   : : = - - = 1 ^ ^ ^   1 c     1 1 1 1 ^ ^ ^ 1         a 1 1 ^ ^ ^ ^ ^ ^                       ^ ^                                                                                                             - - - = =         ' ] k ~ P J : 3 ] ! = - ; ; - = , (   1 1 1 1   1 1 1 c c = - ; ; =   1 1 ^ 1 ^ ^ ^ ^                                                             ",
"+ + +   + + + + + + +                                             + + + : : : + + + + + + + + + + + + + + + + + + + + } } : f f f f f f : + + + + = - - = u f : + : Q Q c 1 1 1 1   : : : ^           1 ^ ^ ^ ^ ^ ^ ^                       ^ ^                                                                               + + + + + +                 = = - - = =   ! ] ] ] ! G t t f _ + ] ! = - ; - - R R R + S u +   ~ ~ ~ ~ c c = - ; - =   1 1 ^ ^ ^ ^ ^ ^ / + + + + + +                                 + + + + + + + ",
"              + + +                           +                 + + + + : : : + + + + + + + + + + + + + + + + + + + + } } : f f f f f + + + + + + = = = = T | | + + f f u 1 1 1     : : : ^       + : ^ ^ ^ ^ ^ ^ ^ ^ + + + + +                   1 1                                                           6 6 5 + + + + + + + + +                   = = - = P [   ! ! } } ( : U f U + + + + = - - - - u u + S S S V G P P ,   c W = = ; - = .   1 1 u ^ ^ ^ ^ k + + + + +                                     + + + +     ",
"                                                                      : : : :                                         } :   f d a a a             = = ^ ^ | 5       a a 1 1 c 1     : : : ^       ^ 1 ^ ^ ^ ^ ^ ^ ^ ^ + + + + + + + + + +           c                                                         s b X : a                                     = - = P ,     : : : ^ : s             = - - - - 1 1     c 1 V 7 ~ P     1 1 = = = = =   1 1       ^ ^ ^ k                                               + +         ",
"                                                                      a a : :         a                               : :   Q Y Z v . . : . . . . . : ^ ^ ( | ` v v v v w w . . . . : : . ^ . . w w W W w ^ ^ ^ 1 1 1   ^                                                                                   : : : : : , ,                                   = - = P ,       ( ( 1 a 5               = = = = c       c 1 V ~ ~ J . . 1 1 = = = =   ~ 1 1       1 1 ^ k                                               + +         ",
"                                                                    a a a a a :     : :           :                   : : : f Y Z a   a a :               ^ a a a a a : 1 c   c ^ ^ : a                 1 ^ ^ ^ 1 , ,   k                                                                                 k k k : : ( , ,                                   - - = , 1       [ [ ) J     (           k = = = c ^ ^ ^ ^ 1 V  .. .     1 1 = = = = ~ ~ P 1       1 1 1 ^                                               + +         ",
"                                                                          a a :     : : :         :         a a   a a : : : f d v : : a a a         a a   : a a a i i a a a   1 ^ ^ :                   1     ^ , ,                                     ^                             +                   k ^ k : a , , ~ ~                                 = = = ~ 1     | 3 ) ~ s   , k ^         = = = = k k ^ ^ 1 1 u ..  ~ ~ 1 1 1 = = = =               1 1 1 1                                               + +         ",
"                                                                          a : : :   : : : :                 a a   i a : : : : : . : : a a     : : : a i i i : a s   i a a                       =             1 b                                                                                       ^ ^ k ( _ a ~ ~ ~ {                                   = =           3 ) 9 s j k k ^         = = = = ( ^ ^ 1 1 1 u w   ~ ~ 1 1   = =                   1 1 1                                                 + +         ",
"                + +                                                       : : :     : : : : :                     a : : : : : : : : : a a     : : : a i c 1 : s 6     ) )   1                 = =             1 ,                                                                                     k k ( : } } { ~ ~ ~ ~                                 =           ' ' n     +.s k (     ] e n = = = k ^ ^ ^   1 1 u .                                   c c                                                   + +         ",
"                + +                                                         : :       : : : :       :           : : : : : : : : : : : a a   a a   : :                                         = =   , 1         1                     ^                                                               n L : 3 } k k B B B k /                               =           k k n J ) h { 1 k     ] ) P n   ( k k ^ ^     1 u . P                                 c c                                                               ",
"                + +                                                         : :       : : : :       :           _ : : : : : : : : : a       a a               5 5                             = =   , 1       1 1                   k k                                                               P h = = = ! { o o B H k                                               ( a   ) 1 1 ~   ! ,   J J                   + .                     P   , ,         1                                                               ",
"                + +                                                         : |       : : : : :               5 a : : : : : : : : : a a a   a a           : 1 s s a     1 1 1                 = - =   1                             ( k                                                           r r s ) = = = = ) ) {     P                                           ( (                 ] ,               1 1       + .                         , ,       1 1                                                               ",
"                + +                                                         : | 5     a : : : :             0 a a : : : : : : : : : a a a i a a             1 s   1 1   1 a                   - - =                               k k ^                                                           r +.0 ) ) = = = ! { ~                                                 ( _                 } ]           c 1 1 1 1     u w 1                         1                                                                         ",
"                  +                                                         : |       a : : : : : :         X s : : : : : : : : : : s X X i i     :               1 a   a a a a             - - ; -                                       (                                                     0 0 5 0 ) ) = = = } } (                                                 : _   _             : _             1 ^   ^ ^   u w                                                                                                     ",
"                + +                                                         : |       : : : : : :             a : : : = = : : : : | 5 6 X X i a : :                 a a a a a a     1       - ; ; -                           = = =                                                           , 0 0 0 5 , ~ - - = = } (                                                 a _             (   ]     :               ^ ^   u w ~ ,                                                                                                 ",
"                + +                                                         : :       : : : : : :               : : = = = = : : _ | 5 6 6 X i a : : a i a           a a a 1 1 1   1 1 1     - ; ; ; =                         = = =                                         + + + # +           a 0 0 , , = - - = = ( (                                                 a _         c b o       } :                 1 1 u 1 ~ (                                                                                     + +         ",
"+ + +       + + + + + + + + + + + + + + + + + + + + + + + + + + + +         : ^       : : : : : :               : = - - - = i a _ 8 8 @.6 X i ^ : : a f f ^ + ^ u + u u u + + + + u u u + + - - - - = + + + + + + + + + + + +   = =                         + + + + + + + + + + + + + + + + + + + + f R R = - - ; - ( ^                               + + + + + + + + + + : U + + #.#.#.+ + + $.: ( + + + + + + + + u u u + k ( + + + + + + + + + +                                             + + + + + + + + + + + + + + + + ",
"+ + + + + + + + + +     + + + + + + + + + + + + + + + + + + + + +             :       : : : : :                 : = - ; ; = i a | 5 0 8 8 _ : ^ ^ : : f u u + k k G u f f + + + + u u u + + = - - = = + + + + + + + + + + + + - - -                     + + + + + + + + + + + + + + + + + + + + + + R R R = - ; ; ; S ^                       + + + + + + + + + + + + + + + %.+ Q &.#.#.+ + + + R R + + + + + + + + u R R + + + + + + + + + + + + +                                             + + + + + + + + + + + + + + + + ",
". . . . . . . . .                       +                           . .       : :     : : : : :                 : = - ; ; = *.i _ , 5 | | : : : ^ ^ 1 1 1 1   ( ( k 1 a   1 1           + + . - - = = . . . . .               - - - =                                     . . . . . . . . . . . . v =.=.=.= = ; ; ; W . . . . . .             . . . . . . . .     = = =         i -.+ . . . . . . . . . . . . =.k . ^ ( =.. . . .   # + . . . . . . . . . . . . . . . . . . . . . . . . .         . . . . . . . . . . . . . . . ",
"                                        +                               . .   : :     a : : : :   :             : = - ; ; = : a s k _ _ _ : : ^ ^ ^ 1 1 1 a s , , k ^ ^ ^ ^             + + . = =                             - ; ; ; ;                                                           a , , , = = ; ; ; c                                             = = =         b + + .                         ~ ~   ^             # + .                                                         .                             ",
"                                        +                                     : :     a : : : :   :           a : - - ; ; = a a a ~ _ _ _ : : : ^ ^ 1 1 1 = 5 5 a ~ ^ 1 1 1           1 S S . = =                           = = ; ; ;                                                             1 1 1 1 = = ; ; ; =                                             = =             + + .     c                   , ~ 1               #   .                                                         .                             ",
"                                            .                                 a :       : : : :   :           a a - - ; ; : a a a 1 : : : : : : : ^ ^ : a = = ;.=.1 1 c c       1 1     + + . = =     1                     = - - ; ;                         a a ~               .                 1 1 1 = = - ; ; =     1                                       = =             + + .             ,           , 1 c                   .                                                         .                             ",
"                                            .                                 1 :       a ^ ^                 a a - - = = a a a a a : : : : : : : ^ ^ : = - - s ~ 1 c c c   1 1 1 1 1 1 c   . = =                           = - - ; ;                         , , 1               .                 1 1 1 = = - - - =     c                                       = = = b b X X i + + .                             1 b ,               .                                                         .                             ",
"                                            .                                             1                   a a - - = = a : : : : : : : : : : : ^ ^ = - - - 0 ~ ^ c c c c c 1 1 1   1 1   . = =                           = - - - =                                                               1 1 1 , , - - - =     c                                         = = i i 6 X   S + .     b i i         a a a ~ 1 ~ , b               .                                                         .                             ",
"                                        +   .                                                                 a a - - = = a : : : : ^ : : : : : ^ ^ ^ = - - - = ^   ^ 1 c c   1   1 1 1 1 + . = =                           = - - - =                                                               P 1 1 , , = = = =     c                                         = = i i i     S S   c , i X           , , ~ 1 1                     .                                                         .                             ",
"                                        +   .                                                                     - - = a a a a : : : : : : : ^ ^ ^ ^ = - - ; = ^   ^ ^ 1 1   1 1 ^ ^ 1 u u w 1 1 1                           = - - =                                                                 , , 1 = = = = 1     b b                               . .     = = i         1 +   1 , a s         B B B ~ 1                   # + .                                                     +                                 ",
"                                        +   .                                                                     - - = a a a a >.a : : : : : ^ ^ ^ ^ = - ; ; = : ^ ^ ^ 1 1 c c c 1 1 c S u w 1 1 c                           = = =                         = =                                       , , 1 = = , , 1     b b       c                 . . .       = = = i                       b b b   B B B 1 c                   # + .                                                     + +                             ,.",
"                                        +   .                                                       ,               = = = 1 1 1 a a : : : :   ^ ^ ^ : = - ; ; = a a ^ ^ 1 c c c c 1 1 c S u W c c                               = =                         = =                                     c c 1 c c b b b c     b         1             . .             = - - - = i               a   b b b     c c 1 c c c               # + .                                                     + +                               ",
",.                                          .                                                       1               = = = 1 1 1 1 : : : :     ^ ^ ^ : = - ; ; = i i c ^ 1 1 c     1 1 c S u W c c                               = =                     = = = =                                       c c c c c c c c               1                           = = - - - = i B   1 1             c c     c c 1 c c c               # + .                                                     + +                         ,.,.,.",
",.                                                                '.'.                              1 1 1               ^ 1   1 , ( ( : :     ^ ^ ^ ^ = - - - = i i a 1 ^ 1 c 1   1 1 c S u W c                         ).      = =                   1 = = = =                                     c c 1 c c c c c c               1                           = = ; ; ; = i i c 1 1             1           c 1 1                 # + .                                                     + +                         ,.,.,.",
"                                                                  '.'.                              1 1 1         ^           , ( ( ( ( ^     : : 1 1 = - - - a i a a 1 1 1 1 1 1 1 a i Q f Z c           c           ).).).).).= =                 1 ~ = = = = =                                   c c 1 1 c c c 1 1                 1                         = - ; ; ; =   b b 1               1 1 c c     c 1 1         P       # + .                                                     + +                       ,.  ,.,.",
"                                                                                                                  ^ ^ ^         ( ( ( ( ^     : : a 1 - - - = : a a 1 1 1 1 1 1 1       + f Z c                       ).).).).).).).                ~ , b = = = =                                       1 1 1 1 1 1                   1                         = - ; ; ; =     1 c   1 1           , b b     c 1 1         n       # +                                                       + +                               ",
"                                                                                                                  : : : ^       ( ( ( ( ^     : : : : - - = = a a a 1 1 1 1 1           + +                   1 b     ).).).).).).).).            ~ , ,   = ; ; - =                                       1 1 1 1 1       P           1                           - ; ; ; =           c 1         1 , b       1 1 1 1       ^                                                                 + +                         ,.    ",
"        ,.,.,.,.                                                              ^                                 : : : : : ^     ( , , ,       a : a a 1 = = = , 1 1 1 1 1   ^             !.~.c   c           1 1     ).).).).).).).,.,.          , a a   = ; ; ; = a                                     1   1 1 1                                               = - - = =                         , ,       1 1 1 1       ,.  ,.,.              & *         ,.,.                            @ +                           ,.,.",
"{.# # ].^.^.^.^.# # # # # #                           /././././.            ^ ^             (.                    : : : : ^       1 1 1 ^     a a a 1 1   = = , 1 1 1 1 1 ^ ^             _.c c   c           # # # # :.:.:.:.:.:.<.^.^.# # # # # [.C C   = - ; ; }.1                                         1 1 1 1 1                   # # #   #             = = = = = =                                   1 1 |.^     1.1.  1.1.2.3.:.:.# # # + + # # # # ^.^.:.# # # # :.{.:.{.:.# # # # + + + # # # # # # # # # # # # {.:.",
"4.4.4.+ 4.4.4.4.+ + + 4.      5.5.5.                /././.3./.              : 1                                       : ^ ^       1 1 1 1     a ^ 1 1 + + R = ( ^ ^ :     ^ ^             3.                        4.4.4.4.4.4.4.4.4.+ + + + + + + f , B = - ; ; = 6.3.                                    1 1 1 1 1 1                     + +                 = = = = = = =                                   1 1 ^   ).      3.3.3.3.4.4.4.+ + + + + + 4.+ 4.4.4.4.+ + + 4.4.4.4.4.+ + + + + + + + + + + + +     +       3.4.",
",.7.4.  ).).).          8.  ).8.8.8.8.            8.8.8.9./.9.                1                                       = ^ ^ ^     ^ ^ 1 1     a ^ ^ 1     : | | : : ^   ^ ^         1 1 1       1 1   1 1           ,.,.,.,.).).).).,.                ~ ~ = - - - = 0.^ 8.8.8.8.8.                          1 1 1 1 1 1                                 +   9.9.= = = = = = =                                   1 1   ).).).    ).).).).,.,.,.,.,.+ + . . a.a.a.a.a.a.a.a.a.. . a.a.. . .                                 9.9.,.",
",.# +   ).).              8.8.9.9.9.9.9.          9.9.8.9.9.9.                1 1                                     = ^ ^ ^ ^ ^ ^ ^ 1 1   1 1 ^ ^ ^     : : : : : ^ ^ ^     ^   ^ 1 1 1 1   1 1 1 1 1 1 1           ,.,.,.,.).).).,.                ~ 1 = - - = = ^ 0.8.8.8.8.8.8.                        1 1 1 1 1 1 1             ,.                    9.9.9.  b b               .                         1 1   ).).).).).).).).).,.,.,.,.,.4.+ . .           ).,.,.).                                              9.9.9.",
"      ).).9.9.      8.8.9.9.9.9.9.9.9.  . . . . . '.8.8.8.9.b.. . . . . .                 . . . . .         . . . . = = = ^ c.c.^ ^ ^ c W   1 1 ^ ^ ^     : : : : : ^ ^ ^       1 1 1 ^ 1 1 1 1 1 1 1 1 1 1     1     ,.,.,.,.,.).,.,.  b                 = - - = = ^ 0.8.    8.8.                          1 1     1 1 c c                           + +           b ,               .                         1 ,   ).).).).).).).  ).,.,.,.,.,.4.+ .               ).).                                            9.9.9.    ",
"    3.8.8.8.        9.9.9.9.9.9.9.      .       '.'./.8.8./.'.                      . . . .       '.'.              = = = c.c.c.c.^ ^ c W   1 1 ^ ^ ^     : : : : : ^ ^ ^ ^ ^ 1 1 1 1 1 ,.d.1 1 1 1 1 1         1 1 ,.,.,.,.      ,.    b                 = - - = = 1 1 c                             c 1 c c       1 1 c W . . . . . .                                               .                           ,   ).).).).).).    ).).,.,.).).4.+ .                                                           ,.,.9.9.9.    ",
"    3.8.8.8.    8.8.9.9.9.9.9.9.9.      .       8.8./.8./.'.'.'.  '.'.'.            .             '.'.'.          '.= - = c.c.c.c.1 ^ a Z   ^ ^ ^ ^ ^       : : : : 1 1 1 ^ ^ 1 1 1 1 1 d.e.e.e.e.c c   + #   8.8.8.8.).                B c 5     1 1     = - - = = 1 1 1                             c c c c       1 1 c c                                                           .                               ).).).).).).      ).).).).).4.+ .                       ).                        9.    ,.  ,.,.9.9.9.9.  ",
"    5.8.).    8.8.9.9.9.9.9.9.9.9.      . '.'.'./././.'.'.'.'.'.'.'.'.        '.    . a           '.'.'.      '.'.^ = - - c.c.c.c.^ : : :   ^ ^ ^ ^ ^       : : ^ ^ ^ ^ ^ ^ ^ ^ 1 1   ,.f.f.f.f.f.g.c   f C 1 1 8.8.8.8.  , , ,           c X       1     = - - = 1 1 1 1       8.              + +   c c 1 c       1 c c c                                                           .                                 ).).).            ).).).).4.h..                 ).).).).).).                  ).).9.9.9.9.,.9.9.9.9.9.9.",
"              8.8.9.9.9.9.9.9.9.9.8.8.8.b.'.'.'.'././.'.'.'.              '.'.'.3.  . a             '.'.'.    '.'.^ = - - c.c.c.c.^ : : :   : ^ ^ ^ ^       : ^ ^ ^ ^ ^ ^ ^ ^ ^ 1 1 1 d.).).).).f.i.g.c u O 1 0.8.8.0.      , ,   c c c c c X s     1     = = = = ~ ~ 1 1       8.8.            + +   c             1 c c c             '.'.).).                9.      9.9.9.9.                                        ).).).).).  ).).).).1   ).4.h.).                  ).).).).          ).        ).).9.9.9.9.).).9.8.).).9.",
"              /./.).)./.9.9.8.8.8.8.8.'.8.'.'.'.'.'.'.'.'.9.        '.    '.'.'.3.  . 1 1       '.'.'.'.'.      '.= - - - = '.c.^ ^ ^ : :   : : ^ ^ ^       ^ ^ ^ 1 1 1 1 1 1   1 1 |.|.).f.).).f.g.g.g.6.j.0.0.8.k.k.,         1 1 c c c c a f.    1     = =       ~ ^                       8.3.l.  c             c c c c           '.'.'.'.'.                        9.9.9.9.9.9.9.9.9.  ).).    ).    ).                  ).).).).).).).).).).4.h.).                    ).).).        ).).).      9.9.9.9.9.8.).).8.).).).  ",
"            /././.8.8././.8.8.8.8.8.8.8.'.'.'.'.'.'.'.'.'.'.  '.'.'.'.    '.'.'.3.  . a m.'.'.'.'.'.'.'.'.'.    '.= - ; - = ^ ^ ^ ^ ^ ^ : '.: ^ ^ ^ ^       ^ ^ 1 a a a a 1 1 1 1 |.|.|.|.f.f.f.).).|.|.6.j.8.8.8.8.8.        1     1 1 1   |.|.8.8.0.8.8.n.: ( 8.8.~ ~                       8.5.l.  c     9.9.    c c c c         '.'.'.'.'.'.                  9.9.9.9.9.9.9.9.9.9.9.9.9.    ).).).                          ).    ).).      ).4.l.).          ).).        ).).).      ).).).).).).).9.9.9.9.8.8.).).).).8.  ",
"            8.8.8.8.8.8.8.8.8.o.o.o.9.9.9.9.'.'.'.'.'.'.9.9.'.'.'.'.'.'.'.'.'.'.5.  b.'.: '.'.'.'.'.'.^ c.'.'.'.'.= - ; ; = ^ ^ ^ ^ ^ ^ ^ '.'.  ^ 1 1 ^     ^ ^ 1 a a a a a 1 1 1 |.|.|.).|.|.|.  |.|.p.6.j.8.8.k.8.8.8.                    p.p././.p.8.8.q.q.r.      ~                     8.9.5.l.s.|.9.9.9.9.9.9.t.c c c c   '.'.'.'.'.'.'.'.                  9.9.9.9.9.9.9.9.9.9.9.9.9.).).).).).).).).          ).                        ).u.4.).).            ).).        ).).).).).).).).).).).).9.9.8.8.8.).).).).    ",
"        8.8.8.8.8.8.8.8.8.8.8.9.9.9.9.9.9.9.9.9.9.9.9.'.9.'.'.'.'.'.'.'.'.'.'.5.5.3.b.'.^ ^ '.'.'.'.'.c.c.'.'.'.'.- - ; ; = ^ ^ ^ ^ ^ ^ ^ '.'.'.^ 1 1 ^     ^ ^ a a a a a   1 1 |.|.|.|.|.|.).).1 1 p.p.6.j.0.8.8.8./.8.                  1 0.|.'.'.v././.r.q.w.:       8.                      5.5.x.x.5.9.9.9.9.9.|.t.c c c '.'.'.'.'.'.'.'.                    '.9.9.9.9.9.9.9.9.9.9.9.9.).).).).).).).).).).).).).).).).        ).          ).y.4.).).).).).).).).).).).        ).).).).).).).).).).).).).).).).).).).).    ",
"        8.8.8.8.8.8.8.8.8.8.8.9.9.9.9.9.9.9.9.      9.9.9.'.'.'.'.'.'.'.'.'.'.5.5.3.b.'.^ ^ '.'.'.'.'.'.'.'.'.'.^ - - ; ; = c.c.^ ^ ^ ^ ^ '.^ ^ ^ ^ 1 1     ^ 1 a a a a a ).).|.|.|.|.|.|.|.).).1 1 1 p.p.j.0.8.  8./.).).          ).).8.c.c.c.'.'.z.).'./.A.5 a a                               5.5.5.5.9.9.  9.).9.9.c       '.'.'.'.'.'.'.                    '.9.|.|.9.9.9.9.9.9.9.).).).).).).).).).).).).).).).).).).).                  ).y.4.).).).).).).).).).).).).      ).).).).).).).).).).).).).).8.8.8.          ",
"      8.8.8.8.8.8.8.8.8.8.8.8.8.9.9.9.9.9.9.              9.'.'.'.'.'.'.'.'.'.'./.3.b.'.^ ^ '.'.'.'.'.'.'.'.'.'.^ - - - - = '.'.^ ^ ^ ^ ^ ^ '.^ ^ ^ 1 1           a a a B.a f.).).).).).|.|.|.        |.p././.1 c 8.'.).).        ).).).).|.|.C.).).D.'.'.. ;.v v v . . . . . . .                   5.5.5.9.      '.b.b.b.      '.'.  '.'.'.'.                    '.'.|.0.9.9.9.9.9.).).).).).).).).).).).).).).).).).).).).).).).).            ).E.4.).  ).).).).).).).).).).).).).).).).).  ).).).).).).).).8.8.8.            ",
"8.    8.8.8.8.9.9.9.9.8.8.8.8.8.8.8.    8.8.              9.9.'.'.  '.'.'.'.'.'.F./.b.'.^ ^ '.'.'.'.'.'.'.'.'.'.^ - = = - '.'.'.'.: : 3.G.'.'.^ ^ ^ 1 1         m.a a B.B.B.8.).|.).).).|.|.|.1     1 |.4.|.0.1 1 c /.'.8.            ).).|.|.).).).H.'.'.a a a a                                   5.5.5.          '.'.'.  '.'.'.'.'.'.'.'.            5.          8.0.0.9.9.9.9.).).).).).).).).).).).).).).).).).).).).).).).).).      ).).).).I.+               ).).).).).).).).).).).).      ).).).).).).8.      8.8.8.  8.",
"      8.8.8.9.9.9.9.9.8.8.9.9.        8.8.8.              '.'.'.'.  '.'.'.'.'.'././.5.5.^ ^ '.'.'.  '.'.'.          = = = '.'.'.'.: J.  : '.'.^ ^ ^ ^ ^       |.B.a a B.B.B.1 ).|.f.).).).).|.|.|.).|.|.K.O 1   1 1 9.8.'.              ).).).).      '.'., , ,               '.'.                5.5.5.            '.'.'.  '.'.'.'.'.'.'.'.            5.L.'.      8.k.0.9.9.9.9.).).).).).).).).).).).).).).).).).).).).).).).).).    ).).).).).:.4.).                  ).).).).).).).).      ).).).).8.8.8.      8.8.8.8.    ",
"8.M.5.8.8.8.9.9.9.9.9.8.9.9.          9.9.9.                  '.    '.'.'.'.'.'.5.5.5.5.^ ^ '.'.'.'.'.                = = = '.'.: :   3.: '.'.^ ^ ^ ^ ^ 9.9.9.|.|.a N.a N.f.|.9.8.).).).).).).|.|.|.|.|.K.      1   8.'.'.              1                                     '.'.                5.5.5.            '.'.'.'.'.'.|.|.'.'.'.'.                          k.t.9.9.9.9.).).).).).).).).).).).).).).).).).).).).).).).).    ).).).).).).h.4.).).                  ).).).).).).).).).).).).).).).8.8.8.      8.8.8.    ",
"O.O.5.O.O.O.O.O.O.O.O.O.O.O.          O.O.O.                        5.5.5.5.5.5.5.5.5.5.^ ^ 3.3.5.5.                  3.= = 3.P.P.P.3.3.: 3.3.^ ^ ^ ^ P.P.P.P.}.}.Q.Q.Q.Q.}.}.P.Q.R.S.l.l.K.K.K.K.K.K.l.+ u         P.P.P.          , , 1 1 + + +                             3.                5.5.5.5.5.5.5.5.O.5.5.5.5.5.5.5.5.^ 5.5.5.5.                          T.T.O.O.3.P.l.l.l.O.O.P.P.P.l.P.P.P.P.P.P.P.P.P.O.O.O.O.O.P.    O.O.O.l.l.l.4.4.l.l.+ + + + + + + + + + U.U.U.U.U.U.V.U.U.V.V.U.U.W.W.W.X.        W.    W.",
"O.O.5.O.O.O.O.O.O.O.O.O.O.O.          5.O.                          O.5.5././././././.^ ^ ^ 3.3.                    3.3.3.3.3.3.3.3.3.3.3.3.3.3.6.^ ^ P.P.P.P.^ }.}.}.}.P.p.p.p.P.6.6.6.K.K.K.K.K.K.+ + + 1       P.P.P.P.            , 1                                                     5.5.5.5.x.5.O.O.O.5.5.5.5.5.5.5.5.5.5.5.5.5.5.5.  5.5.                  Y.Y.O.O.3.P.P.O.O.O.O.O.P.P.P.P.P.P.P.P.P.P.3.3.O.O.O.O.O.P.  O.O.O.O.l.l.l.l.l.l.+ + + + + + + + + + U.U.U.U.U.U.U.U.h.Z.U.U.U.U.W.W.U.U.W.W.      + U.W.",
"8.8.8.8.8.8.8.9.9.9.9.8.8.8.8.                                        /.b.b.b.b.b.b.b.^ ^ ^ b..                     `.`./././././././.: /././././.p.^ ^ /././.^ ^ /./././.P.^ ^ '.'.'.c.c.c.|.|.  1 1 1   1     9.'.= /./.9.. . b.b.b.b.. . .         . . . b.. . . . . . . . . .           /.'.'.'.5.x.5.8.8.8.5.5.5./.5.5.5././././.     +.+                      '.9.9.9.9.'.9.++).).).).).).).).).).).).).).).@+3.++++++++++).).).).).).).).).).).).).                  ).).).).).).).).h.E.++++++++++).).).8.8.      ).).8.",
"8.8.8.8.8.9.9.9.9.8.8.8.8.8.8.                                      9.8./.8.b.'.'.'.'.^ ^ ^                   .+.+.+`.`.`.`..+.+.+`..+: : .+.+.+.+.+^ ^ `. +`.).).)./.).#+4.^ ^ ).'.'.c.c.c.c.c.1 1 1 1         9.'.= = 9.          '.'.'.'.'.'.3.$++ .     '.'.'.                        '.'.'.= = 9.9.9.9.9.8.8.5./..+.+  .+.+`.`.`.c    +.+`.                  `.`.`.9.9.'.'.9.++).).).).).).).).).).).).  ).  @+3.++).).).).).).).).).).).).    ).).                ).).).).).).).).).).%+E.++).).).).).).).).).).8.8.8.8.9.",
"9.9.9.9.9.9.9.9.8.8.8.8.8.8.8.                                  /./././././.b.'.'.'.'.^ ^ ^ ^             /.`.`.`.`.`.`.`.`.`.`.`.`.`..+^ `.`.`.`.`.^ ^  + +`.).).).).).&+4.).'.'.).).).).).).).|.c.c.1 1 c.  c.|.9.= = /.'.        '.'.  '.'.    3.3.b.'.    '.'.                '.'.'.  '.'.= = = /.5.9.9.9.9.8.5./..+`.    `.`.`.`.`.   + +`.                `.`.`.`.`. + +).9.++).).).      ).).).).).).      @+3.++).).).).).).      ).).    ).).                ).).).).).).).).).).).%+*+++).).).).).).).).).).).8.8.8.8.",
").9.9.9.9.9.9.8.8.8.8.8.8.8.8.8.8.        9.        . . .   . b.b.b.b.b.b.b.'.'.'.'.'.^ ^ ^ ^         /./..+`.`.`.`.`.`.`.`.`.`.`.`.`.`.`.`.`.`.`.`..+.+ +`.`.`.`.`. +).=+4.).'.'.'.).).).).).).).|.c.c.|.|.).|.c.'.= = /.8.          '.  '.'.'.      '.'.'.  '.'.          '.'.'.'.'.'.'.'.= = = = /.5.5.9.9.9.9.5..+`.        `.`.`.`.`.`. + +              `.`.`.`.`. + +).'.9.).).).      ).).).).).).).      # 4.++).).).).).).    ).        ).).              ).).).).).).).).).).).).%+*+++).).).).).).).).).).).).).).).",
").9.9.9.9.9.9.9.8.8.8.8.9.9.9.8.8.8.5.              b.'.).).'.      '.'.'.'.'.'.'.'.'.^ ^ 1 1       5././..+`.`.`.`.`.`.`.`.`.`.`.`.`.`.`.`.`.`.`.`..+ +`.`.`.`.`.`.8.8.#+3.'.'.'.'.'.c.'.).).).'.).).'.'.'.'.'.'.= - = =           '.'.  '.'.        3.'.'.'.'.'.'.        '.'.'.'.'.'.'.'.- - = = /.5.5.9.9.9.9.5.|.`.        `.`.`.`.`.`.`. +              `.`.`.`.`. + +9.9.).).).      ).).).).).).).        # 4.++).).).).).).  ).).).        ).).).).).).).).).).).).).).).).    ).).%+*+).).).).).).).).).).).).).).).).",
").9.9.8.8.8.8.8.9.9.9.9.9.9.9.9.9.9.5.O.9.          b.'.'.'.).'.  '.'.'.'.'.'.'.'.'.'.'.c.1 1         5..+`.^ `.`.`.).).`.`.`.`.`.`.`.`.`.`.`.`.`.`. + +`.`.`.`.`.`.8.9.#+3.^ b.'.'.'.c.c.'.  8.'.'.'.'.'.'.8.8.'.- - - =           '.'.'.'.'.            '.'.'.'.'.      '.'.'.'.'.'.'.'.'.- - = = 5.            x.|.`.        `.`.`.`.`.`.`. +              `.`.`.).).). +).++++).).      ).).).).).).).        # 4.++).).).).).).    ).  ).).).    ).).).).).).).).).).).).).).).).  ).).%+*+).).).).).).).).).).).).).).).).",
").8.8.8.8.8.8.8.8.9.8.8.8.8.9.9.9.9.5.O.9.        9.b.o.'.'.'.).'.'.'.'.'.'.'.).'.'.'.'.c.1 1         5..+`.-+`.`.`.).`.`.`.`.`.`.`.`.`.).`.`.`.9.`. +.+.+`.`.`.`.`. +9.=+3.8.b.'.'.'.'.c.c.'.'.c.c.'.'.'.'.'.'.'.- - ; -         '.'.'.'.'.'.'.3.          '.'.'.'.'.  '.'.'.'.'.'.'.'.'.'.- ; ; - =             1 |./.          `.`.`.`.`.`.`.              `.`.`. + + +9.).).).).).).  ).).).).).).).).        # 4.++).).).).).).).      ).).).).).).).).).).).).).).).).).).).).).  ).).%+*+).).).).).).).).).).).).).).).).",
").8.8.8.8.8.8.8.8.8.8.8.8.8.8.  9.9.5.O.9.      '.'.9.9.'.'.'.'.'.'.'.'.'.'.).).'.'.'.'.^ ^ 1             `.`.`.`.`.).`.`.`.`.`.`.`.`.`.`.`.`.`.`.`. +.+`.`.`.`.`.`. +8.;+3.0.>+'.'.'.'.c.c.c.0.c.c.'.'.'.'.8.9.'.- ; ; - /.'.    '.'.'.'.'.'.'.3.3.3.'.'.'.'.'.'.'.'.  '.'.'.'.'.'.'.'.'.'.- ; ; - =           1 1 ^             `.`.`.`.`.`.`.                `.`. + + +++++).).).).).    ).).).).).).          ,+4.++).).).).).).).).).).).).).).).).).).).).).).).).).).).).).).).).).).h.E.).).).).).).).).).).).).).).).).",
").8.8.8.8.8.8.8.8.8.8.8.8.8.8.9.9.9.5.O.9.    9.9.b.'.'.'.'.'.'.'.'.'.'.'.'.).'.'.'.'.'.^ ^ ^ '.      5..+`.`.`.`.).`.`.`.`.`.`.`.`.`.`.`.`.`.`.`.    9.9.`.`.`.`.`. +/.2.= = . '.c.'.'.c.c.0.0.c.c.c.c.'.'.8.8.'.- ; ; - = '.  '.'.'.'.'.'.'.'.3.3.3.'.'.'.'.'.'.'.        '.'.'.'.'.'.'.'.- ; ; -                     ^          + + +).). + + + + +           + + +).++).9.9.  ).).).      ).).).).        ).).'+4.).    ).).).).).).).).).).).).).).).).).).).).).).).).).).).).).).).).h.E.).).).).).).).).).).).).).).).).",
").8.8.8.8.8.8.8.8.8.8.8.8.8.8.9.9.9.5.O.9.  9.9.9.b.'.'.'.'.'.'.'.'.'.'.'.'.).'.'.).'.'.^ ^ ^ ).'.5.5.5..+`.`.`.`.`.`.`.`.`.`.`.`.`.`.`.`.`.`.`.`.  ^ ^ `.`.`.`.`.`. +/.= = = = =   ^ c.c.c.c.c.c.c.c.c.'.'.8.8.'.- ; ; = '.'.'.'.'.'.'.'.'.'.'.'.3.3.'.'.'.'.'.'.                '.'.  '.'.- - - -                                + + + + + + +     +             + + + +9.8.8.    ).).        ).).          ).).)+3.).    ).).).).).).).).).).).).).).).).).).).).).).).).).).).).).).).).h.E.).).).).).).).).).).).).).).).).",
").8.8.8.8.8.8.8.8.8.8.8.8.8.9.9.9.9.5.O.9.9.9.9.9.b.'.'.'.'.'.'.  '.'.'.'.'.'.'.'.'.'.'.^ '.^ '.'.^ ^ 5..+`.`.`.`.`.`.`.`.`.`.`.`.`.`.`.`.`.`.`.      `.`.`.`.`.`.`. + += = = = =   ^ ^ c.c.c.c.c.c.c.c.'.'.8.8.'.= - - = '.'.'.'.'.'.'.'.'.'.'.'.3.3.3.'.'.'.'.'.'.        '.'.'.        '.- - - -               +               /./././././././.8.8.8.            9.`.).).).).      ).                      ).).!+3.        ).).).).).).).).).).).).).).).).).).).).).).).).).).).).).).).h.E.).).).).).).).).).).).).).).).).",
").8.8.8.8.8.8.8.8.8.8.8.9.9.9.9.9.9.5.O.9.9.9.9.9.b.'.'.'.'.'.    '.'.'.'.'.'.'.'.'.'.'.'.'.^ ).'.^ ^   '.`.`.`.`.`.  `.`.`.`.`.`.`.`.`.`.`.`.  `.    `.`.`.`.`.`.      = = ; = =   ^ ^ ^ ^ c.c.c.c.c.1   1 c.8.8.= - - = '.'.'.'.'.'.'.  '.'.'.'.3.3.3.'.'.'.'.'.'.'.'.'.'.'.'.'.'.        - - - -               +                 8.8.8.8.8.8.8.8.8.8.8.                ).).).                            ).).).~+3.        ).).).).).).).).).).).).).).).).).).).).).).).).).).).).).).).&+{+).).).).).).).).).).).).).).).).",
"/./.8.8.9.9.8.8.8.8.9.9.9.9.9.9.9.9.5.O.9.9.9.9.9.b.'.'.'.'.'.      '.'.'.'.'.'.'.'.'.'.'.'.^ '.).3.  +   `.`.`.`.    `.`.`.`.`.`.`.`.`.`.  `.`.`.  `.`.`.`.`.`.`.  = = - ; ; - = ^ ^ ^ ^ ^ c.c.c.c.1     1 1 8.'.= - - = '.'.'.'.'.'.'.'.'.'.'.3.3.3.3.'.'.'.'.'.).'.'.'.'.'.'.'.'.'.      - - - - =             +                   8.8.8.8.8.8.8.8.8.).                  ).                            ).).).).]+5.^+      ).).).).).).).).).).).).).).).).).).).).).).).).).).).).).).)./+(+).).).).).).).).).).).).).).).).",
")./.9.9.9.9.9.9.).9.9.9.9.9.9.9.9.9.5._+9.9.9.9.9.9.'.'.'.'.'.      '.'.'.'.'.  '.'.'.'.'.'.^ '.'.'.3.               + + + + + +`.`.`.`.  `.`.`.`.  `.`.`.`.`. +    = = - ; ; - = '.^ ^ ^ ^ ^ c.c.8.'.          '.'.- - '.'.'.'.'.'.'.3.3.3.3.3.3.3.3.3.'.'.'.'.  '.'.'.'.'.'.'.'.9.9.      - - - - =             +                   8.8.8.8.8.8.8.8.8.).                                              ).).).).).).5.^+).    ).).).).).).).).).).).).).).).).).).).).).).).      ).).).).).:+<+).).).).).).).).).).).).).).).).",
")./.9.9.9.9.9.9.9.).9.9.9.9.9.9.9.9.5.%+9.9.9.9.9.9.'.'.'.'.'.    9.9.9.9.9.9.      '.'.'.'.'.'.'.'.3.               +5.5. + + + + + + + +`.`. +     + + + + +3.    = = - ; ; - 3.3.3.^ ^ ^ ^ '.'.8.'.          '.'.= = '.'.'.'.'.'.3.3.3.3.3.3.3.3.3.3.3.'.'.'.  5.5.5.    '.'.    ).      ).= = =               +                   8.8.8.8.8.8.8.8.8.8.                                    ).).    ).).).).).).).).).).).).).).).).).).).).).).).).).).).).).).).).).).).).).).).).).).).+ [+).).).).).).).).).).).).).).).).",
")./././././.9.9.9.9.9.9.9.9.9.9.9.9.5.O.9.9.9.9.9.9.9.'.'.9.9.  9.9.9.9.9.9.9.          ^ '.).'.'.).3.}+ +5.        5.5.5.5. + + + + + + + + + +  3.3.3.3.3.3.3.3.5.5.5.- - - - '.3.3.^ ^ '.'.'.'.'.'.'.'.'.'.'.'.'.= = '.'.'.'.'.    '.'.'.'.'.3.3.3.3.3.'.'.5.5.3.5.5.    ).).).).).      ).= = =               +                 8.8.8.8.8.8.8.8.8.8.8.).                              ).).).).  ).).).).).).).).).).).).).).).).).).).).).).).).).).).).).).).).).).).).).).).        ).h.E.).).).).).).).).).).).).).).).).",
"4./.4./././.5.5.5.5.5.5.5.5.5.5.5.5.5.5.5.5.5.5.5.5.5./.5.5.5.  5.5.5.5.5.5.            ^ ^ ^ +       3.5.        5.5.5.5.5.5.5.3.3.3.3.3.3.3.3.3.  3.3.3.3.3.3.3.5.5.5.- - = = = 3.3.3.3.3.3.3.3.3.3.  3.3.3.3.3.3.3.3.3.3.3.          3.3.3.3.3.3.3.    5.5.      5.5.+ + 4.4.4.4.4.+ + + = = = =   + + + + + + + + + +             5.5.5.5.5.5.5.5.5.5.4.+ + + 4.4.+ + + + + + + + l.l.l.4.4.4.4.).).).).).).).).).).    ).).).).    ).).).).).).l.l.+ ).).).l.l.l.l.l.l.l.l.l.+ + + + + + |+1+1+1+1+1+1+1+1+1+1+1+1+1+1+1+1+",
"h.h.%+%+%+%+%+%+%+%+%+h.4.      %+%+%+%+%+%+%+%+%+%+%+%+%+%+/.  /./././.                ^ ^ ^                     5.O.O.5.5.5.5.3.3./././././././././.3.3.3.3.3.3.3.5.O.- - = = = =+3.3.3.3.3.3.3.3.3.3.3.  3.3.3.3.3.3.3.3.3.          3.3.3.3.3.3.3.5.  O.O.    h.h.h.+ + h.h.h.h.h.+ + + = = = = P.  + + + + + + + + +         %+%+%+%+%+%+%+%+%+%+%+%+h.h.h.h.:+:+:+:+:+:+:+:+:+:+:+:+:+:+l.l.l.).).).).).).).).).).    ).).).).    ).).).).).).).    ).).).h.h.h.h.h.h.h.h.h.h.% % % % % % 2+2+2+2+2+2+2+2+2+2+2+2+2+2+2+2+",
").).9.9.9.9.9.9.9.9.9.9.5.    9.9.9.9.9.9.9.9.9.9.9.9.9.9.9.                            ^ ^ ^             ^     /./.3.'.'.5.5.5.3./.b.b.b.b.b.b.b.b./././.b.b.b.b.b.b.b.- - = = 8.8././.3./.'.'.'./././.    /.'.3.3.3.3.3.3.3.          '.'.'.'.3.3.3.'.  '.'.'.  ).'.'.    ).).).).).      ).= = =                               8.8.8.8.8.8.8.8.).8.8.8.).).).).).3+4.).).).).).).).).).).).).).).).).).).).).).).).        ).).      ).).).).).).).).).  ).).).).).4+4.++++++++++++++++. . . . . ++++++++++++++++++++).).).).",
").9.9.9.9.9.9.9.9.9.9.9.5.  ).9.9.9.9././././.9.9.9.9.9.9.9.  . . . . . .             . b.^ ^             ^   '.3././././.5.5.5.3./.b.'.'.'.'.'.'.'.'.'.'.'.'.'.'.'.'.'.= = = = /./.'.'.'.'.'.'.'.'.'.'.'.'.'.3.3.3.3.3.3.              '.).).'.'.'.'.'.).  '.'.  '.).      ).).        ).).    + % .                           8.8.8.8.8.8.8.8.8.8.8.8.8.= ).).).  * 4.).).).).).).).).).).).).).).).).).).).).).).            ).).    ).).).    ).).    ).).).).).).4+4.++).).).).).).).            ).).).).).).).).).).).).9.",
"9.9.9.9.9.9.9.9.9.9.9.9.5.5+  /./.9././.).)././././.9.9.9.9.                            '.^ ^ b.                '.).'.'.'.5.5.5.3.b.'.'.'.).).  '.'.'.'.'.'.'.'.'.'.'.'.'.= = = '.'.'.'.'.'.'.'.'.'.'.'.'.'.'.3.3.3.'.3.                  '.      '.'.).).  '.'.'.).).          ).).  ).).).    + % .                           8.8.8.8.8.8.8.8.8.8.8.8.= = = ).).).3+4.).).).).).).).).).).).).).).).).).).).).).).            ).).      ).              ).).).).).  4+4.++).).).).).).).          ).).).).).).).).).).).).9.9.",
"9.9.9.9.9.9.9.9.9.9.9.9.5./.).)././././.).).).)././././.9.9.    .                         ^ ^ '.'.            '.'.'.'.'.'.'./.5.3.b.'.).).).).'.  '.'.'.'.'.'.'.'.'.'.'.'.= = = '.'.'.'.'.'.'.'.'.'.'.'.'.'.'.3.3.3.3.3.                              '.'.    ).'.'.'.      ).).).  ).).).).).).4.6+.                           8.8.8.8.8.8.8.).8.8.8.8.= - = ).).).3+4.).).).).).).).).).).).).).).).).).).).).).).            ).).      ).                            + ).).).).).).).).    ).).).).).).).).).).).).).).).9.9.",
"9./.9.9.9.).9.9.9.9.9.9././.).).).)././.).).).).).)./././.9.9.9.b.'.          ^         '.^ ^ '.'.'.'.      '.'.'.).'.'.'.).l.5.3.b.'.'.).  ).'.'.'.'.'.'.  '.'.'.'.'.'.'.'.'.'.'.'.'.'.'.'.'.'.'.'.'.'.'.'.'.'.3.3.3.3.    3.'.                '.    '.'.    '.'.'.'.).).).).).).  ).).).).).).4.U.++                          8.8.8.8.8.8.8.    8.8.= = - = ).).).E.4.).).).).).).).).).).).).).).).  ).).).).).).            ).        ).                ).).).  ).  4.).).).).).).).).).).).).).).).).).).).).).).).).).).).",
"9.9.9.9.9.9.9.  9.9.9.9.4.7+).).).).).).).).).).).).).)././.9.9.b.'.'.        ^         '.^ '.'.'.'.'.'.'.  '.'.'.'.).).)./.5.5.3.).'.'.'.'.'.'.'.'.'.'.'.'.'.'.'.'.'.'.'.'.'.'.'.'.'.'.'.'.'.'.'.'.'.'.'.'.'.'.'.3.3.3.    3.3.5.'.          '.'.'.'.'.'.    '.'.'.).).).).).).).  ).).).).).).4.6+++).).).).      ).).      8.8.8.8.8.8.8.      8.8.= = - = 8.).8.8+5.8.).).).).).).).).).).).).).      ).).).).              ).  ).).  ).              ).).).).).  9+4.).).).).).).).).).).).).).).).).).).).).).).).).).).).",
"]+0+]+0+0+0+    0+0+0+a+U.b+]+]+]+]+]+]+]+]+]+]+]+c+c+c+)./.    b.'.'.          '.        ^ '.d+d+d+d+d+d+d+e+e+e+e+e+e+e+f+  +       e+e+e+e+e+e+e+e+e+e+e+e+e+e+e+e+e+e+e+e+e+'.'.'.'.'.'.'.'.'.'.    '.'.'.'.3.3.3.3.  3.3.5.5.'.'.          '.'.'.'.'.  '.).).'.).).).).).).).    ).).).).).4.U.++).).).).).).).).).).).8.8.8.8.8.8.8.      8.8.8.= - - - =     8+5.).).).).).).).).).).).).          ).).).).                    ).                    ).).).).).9+4.).).).).).).).).).).).).).).).).).).).]+]+]+]+]+]+]+]+",
"]+]+]+]+a+a+    0+0+a+a+U.b+]+]+]+]+]+]+]+]+]+]+c+c+c+c+).).    '.'.'.        '.'.    '.'.^ '.d+d+d+d+d+d+e+e+e+e+e+e+e+f+  + g+]+    e+e+e+e+e+e+e+e+e+e+e+e+e+e+e+e+e+e+e+e+e+e+e+e+e+e+e+e+e+e+e+e+  e+e+'.'.3.3.5.O.5.5.5.'.'.'.'.        '.'.'.'.'.'.'.'.'.).'.).).).).).).).      ).).).  + % .     ).).).).).).).).).).8.8.8.8.8.8.8.8.8.8.8.8.- - ; ; = 8.8.8+4.).).).).).).      ).            ).).).).).          ).).).  ).  ).                  ).).).).    + ).).).).).).).).).).).).]+]+]+]+]+]+]+]+]+]+]+]+]+]+]+",
"]+a+0+0+a+a+a+a+a+a+a+]+U.b+]+]+]+]+]+]+]+]+]+]+c+c+c+).).).).'.'.'.'.'.'.'.'.'.'.      '.^ '.d+d+d+d+d+d+e+e+e+e+e+e+e+a+h+h+h+i+e+e+e+e+e+e+e+e+e+e+e+e+e+e+e+e+e+e+e+  e+e+e+e+e+e+e+        e+e+e+e+e+e+e+e+e+h+h+  h+h+h+e+e+e+'.      '.'.'.'.'.'.'.'.'.'.).).).).).).).).).      ).).    + % .         ).).).).).).).).8.8.).).8.8.8.8.8.8.8.8.- ; ; ; = 8.8.j+5.).).                            ).).).).).).).  ).).).).).).).).).                              4.).).).).).]+]+]+]+]+]+]+]+]+]+]+]+]+]+]+]+]+]+]+]+]+]+",
"]+a+0+0+a+a+]+a+]+]+]+]+U.b+]+]+]+]+]+]+]+]+]+c+c+c+c+).).).).).'.'.'.'.'.'.'.'.'.  '.'.).^ '.d+^ d+d+d+d+e+e+e+e+e+e+e+e+a+h+  i+e+e+  e+e+e+e+e+e+e+e+e+e+e+e+e+e+  e+e+e+e+e+e+e+e+      e+e+e+e+e+e+e+e+e+e+e+h+h+h+h+h+h+e+e+e+'.      '.'.).).).'.'.'.'.).).).).).).).).).).        ).    + % .         ).).).]+).).).).8.8.8.8.8.8.8.8.8.8.8.8.- ; ; ; - 9.9.k+5.).9.9.9.                  ).).).).).).).).).).).).).).).).).).).).).                    ).).).l+4.).).).]+]+]+]+]+]+]+]+]+]+]+]+]+]+]+]+]+]+]+]+]+]+]+]+",
"]+a+a+0+a+]+]+]+]+]+]+]+U.m+]+]+]+]+]+]+]+]+]+c+c+c+c+).).).).).).).'.'.'.'.'.'.'.  '.'.'.^ ).c+^ c+d+d+e+e+e+e+e+e+e+e+e+e+a+  . e+e+e+e+e+e+e+e+e+e+e+e+e+e+e+e+e+e+e+e+e+e+e+e+e+e+    e+e+e+e+    e+e+e+e+e+]+]+  :.g+h+h+e+e+e+        ).).).).).).).).).).).).).).).).).).          ).    + # .       ).).).).]+]+]+]+]+]+]+]+]+0+0+0+0+9.9.9.9.= - ; - - 9.9.j+5.).9.9.).                  ).).).).).).).).).).).).).).).).).).).).).                  ).).).).l+4.).]+]+]+]+]+]+]+]+]+]+]+]+]+]+]+]+]+]+]+]+]+]+]+]+]+]+",
"]+]+a+a+]+]+]+]+]+]+]+]+U.n+]+]+]+]+]+]+]+]+]+c+c+c+c+).).).).).).).).9.9.9.9.8.8.8.'.).).'.'.).^ c+c+d+e+]+]+]+]+]+e+e+e+e+h+h+i+e+e+e+e+e+e+e+e+e+e+e+e+e+e+e+e+e+e+e+e+e+e+e+e+e+e+      e+e+e+e+    e+e+e+e+]+]+  :.g+h+h+]+]+).      ).).).).).).).).).).).).).).).).).).).      ).).).    + # .       ).).).).]+]+]+]+]+]+]+]+]+]+  0+9.9.9.9.9.= - ; - - 9.9.8+3.9.9.).).).).).).        ).]+]+]+]+]+]+]+]+]+]+]+]+]+]+]+]+]+]+).).).              ).).).).).).l+4.).]+]+]+]+]+]+]+]+]+]+]+]+]+]+]+]+]+]+]+]+]+]+]+]+]+]+",
"]+]+]+]+]+]+]+]+]+]+]+]+g+[+]+]+]+]+]+]+]+]+]+]+c+c+).).).9.9.9.).9.9.9.9.9.9.9.9.).).).).).9.^ ^ o+o+o+9.9.9.9.9.9.9.e+e+e+p+h+e+e+e+e+e+e+e+e+e+e+e+e+e+e+e+e+e+e+e+e+e+e+e+e+e+e+  e+e+e+e+e+e+    e+  e+e+e+]+    :.g+h+h+]+]+        ).).).).).    ).).).).).).).).).).).).).).).).).).).).+ # .       ).).).).]+]+]+]+]+]+]+]+        9.9.9.9.9.= = - - - 9.9.q+3.9.).).).).).).        ).]+]+]+]+]+]+]+]+]+]+]+]+      ]+]+]+]+]+]+]+              ]+]+]+]+]+]+r+U.]+]+]+]+]+]+]+]+]+]+]+]+]+]+]+    ]+]+]+]+]+]+]+]+]+]+",
"]+]+]+]+]+]+]+]+]+]+]+]+g+s+]+]+]+]+]+]+]+]+]+c+c+        9.9.9.9.9.9.9.9.9.9.9.9.9.9.).).).).^ ^ o+o+o+0+0+0+0+0+0+0+0+0+a+t+h+9.9.0+9.9.9.9.9.e+e+e+e+e+e+e+e+e+e+e+e+e+e+e+e+e+e+e+e+9.9.e+e+e+e+  e+    e+]+]+    + g+]+]+]+]+          ).).).            ).          ).).).).).).).).).).).l.u+).).    ).).).]+]+]+]+]+]+]+]+                  9.9.= = - 9.9.9.8+3.9.).).).).).).  ).).).]+]+]+]+]+]+]+]+]+]+]+]+]+]+  ]+]+]+]+]+]+]+]+      ]+]+]+]+]+]+]+]+]+]+v+f+]+]+]+]+]+]+]+]+]+]+]+]+]+]+  ]+    ]+]+]+]+]+]+]+]+]+",
"]+]+]+]+]+]+]+]+]+]+]+]+U.{+]+]+]+]+]+]+]+]+]+c+c+                  9.9.9.9.9.9.9.9.9.9.9.).9.^ o+o+c+c+]+0+0+9.9.9.9.9.9.9.f+h+  9.9.9.9.9.9.9.9.e+e+e+e+a+a+e+e+e+e+e+e+e+e+e+e+e+e+e+9.9.e+e+e+e+          f+]+]+  + g+  ]+]+                              ).).        ).).).).).).).).).).).l.u+).).).          ]+]+]+]+]+]+]+).                9.9.= = = = 9.9.8+3.9.9.).).).9.).  ).).).]+]+]+]+]+]+]+]+]+]+]+]+]+]+]+]+]+]+]+]+]+]+]+      ]+]+]+]+]+]+]+]+]+]+v+f+]+]+]+]+]+]+]+]+]+]+]+]+  ]+]+]+]+  ]+]+]+]+]+]+]+]+]+",
"]+]+]+]+]+]+]+]+]+]+]+]+U.w+]+]+]+]+]+]+]+]+c+c+c+                    /./././.9.9.9.9.9.9.9.9.^ x+x+c+c+9.9.9.9.9.9.9.9.9.9.5.h+9.9.9.9.9.9.9.9.9.9.e+e+a+a+a+a+a+e+a+a+h+h+e+e+e+e+  e+9.9.9.f+e+e+e+          ]+]+]++ +                                     ).).        ).).).).).).).).).).).l.u+).).).          ]+]+]+]+]+]+).).).            9.8.8.= = = = 8.8.3+4.).8.8.).8.).).).).).]+]+]+]+]+]+]+]+]+]+]+]+]+]+]+]+]+]+]+]+]+]+]+        ]+]+]+]+]+]+]+]+]+]+]+]+]+]+]+]+]+]+]+]+]+]+]+    ]+]+]+]+]+]+]+]+]+]+]+]+]+]+",
"U.U.]+]+]+]+]+]+]+]+]+]+]+]+]+]+]+]+]+]+]+c+c+Z.Z.+ + + + + + + +   + 4.4.4.5.5.5.5.5.5.5.5.  ^ y+x+x+x+a+h+h+h+h+h+U.U.U.h+h+h+h+h+U.h+a+a+h+h+h+h+a+a+a+a+a+a+h+h+a+a+a+h+h+h+h+h+h+h+z+f+f+f+h+h+h+h+        + g+g++ + g+g+g++ +                           3.3.        3.3.3.l.l.l.l.l.l.l.l.4.4.l.l.l.+ + + + + + g+g+g+g+g+l.l.3.l.+         P.P.P.P.= P.P.P.P.l.3.3.3.3.3.A+=+A+A+B+B+B+B+B+B+B+B+C+B+B+]+]+]+g+g+g+g+g+]+]+]+]+g+]+]+  ]+  ]+]+]+]+]+]+]+]+]+]+]+]+]+]+]+]+]+]+]+]+]+]+      ]+g+g+g+g+g+g+D+D+D+D+E+g+g+",
"F+g+]+]+]+]+]+]+]+]+]+]+]+]+]+]+]+]+]+]+]+c+c+c+c++ + + + + + +     &+G+:+G+/.H+H+H+H+H+H+H+/.x+x+x+x+x+a+a+a+E+E+D+D+E+D+a+a+z+I+    J+J+J+J+J+J+K+K+K+h+h+h+h+h+h+h+L+h+h+h+h+h+h+h+h+h+f+P.f+h+  h+h+      a+  M+M+g+g+N+M+M++ + +                         O+            O+O+P+Q+Z.Q+Q+Q+Q+Q+Q+R+1+R++ + + + + + + M+M+S+S+S+S+R+O+1++       T+T+T+T+T+T+O+T+O+O+O+O+O+R+U+V+V+U+O+T+T+T+T+T+O+T+T+O+O+T+T+]+]+]+g+U.W+W+W+W+W+]+]+W+]+]+]+]+  ]+]+]+]+]+]+]+]+]+]+]+]+]+]+]+]+]+]+]+]+]+]+    ]+]+]+]+]+W+W+W+[+[+[+[+X+W+W+",
"]+]+]+]+]+]+]+]+]+]+]+]+]+]+]+]+]+]+]+]+c+c+c+c+c+                  ).).).)././././././././.^ c+c+^ c+S+b+]+  ]+^ ]+]+]+a+a+a+0+0+0+a+a+a+a+a+0+0+i+i+i+e+e+e+e+h+h+h+e+e+h+h+h+e+h+h+h+h+f+f+Y+h+h+h+h+h+f+a+      a+]+]+Z+Z+Z+. . . . . . . . . . . . . . . . . ++++++. . ++++).).).).).).).).).).).                  ]+]+]+  ]+]+`+3+).9.).  9.9.9.9.9.9.9.9.  9.9.9.9.9.).).).]+]+]+]+]+]+]+]+]+]+]+]+]+]+]+]+]+ @.@]+]+]+]+]+]+]+]+]+]+]+]+]+]+]+]+]+]+]+]+]+]+]+]+]+]+]+]+]+]+]+]+]+]+]+]+]+]+]+]+]+]+]+]+]+  ]+]+]++@@@]+",
"]+]+]+]+]+]+]+]+]+]+]+]+]+]+]+]+]+]+c+]+c+c+c+c+c+                ).).).).).).).)./././././.^ c+c+^ c+h+#@]+  ]+^ ]+  ]+a+a+a+a+a+e+e+a+0+0+a+a+a+e+e+e+e+e+e+e+e+e+e+e+e+e+e+9.9.9.9.9.h+f+f+$@h+h+h+h+h+f+        a+a+a+]+]+]+]+]+                      ).).                ).).).).).).).).).).                        ]+      ]+U.(+++).).              ).      ).).).).).).).]+]+]+]+]+]+]+]+]+]+]+]+]+]+]+]+]+s+2+]+]+]+]+]+  ]+]+  ]+]+]+]+]+]+]+]+]+]+]+]+]+]+]+]+]+]+]+]+]+]+]+]+]+]+]+]+]+]+]+]+]+]+]+]+  ]+]+]+S+@@]+",
"]+]+]+]+]+]+]+]+]+]+]+]+]+]+]+]+]+c+c+c+c+c+c+c+c+c+              ).).).).).).).).).).).).).).c+c+^ o+h+%@]+]+]+]+    ]+i+i+i+i+i+i+i+i+i+i+i+i+i+e+e+e+e+e+e+e+e+e+e+e+e+e+9.9.9.9.9.9.9.9.9.$@h+0+0+0+f+f+0+  f+f+a+a+a+a+a+a+]+]+]+]+                ]+]+).).              ).).).).).).).).      ).                          ]+]+U.E.++).).).  ).).).              ).).).).).]+]+]+]+]+]+]+]+      ]+]+]+]+]+]+]+s+2+]+]+]+]+]+          ]+]+]+  ]+]+]+]+]+]+]+]+]+]+]+]+]+]+]+]+]+]+]+]+]+]+]+]+]+]+]+]+]+]+]+]+]+]+  S+N+]+",
"]+]+]+]+]+]+]+]+]+]+    ]+]+]+]+]+c+c+c+c+c+c+c+c+c+c+          ).).).).).).).).).).).).).).).c+^ ^ c+U.%@]+]+]+]+          e+e+e+e+e+e+e+e+e+e+e+e+e+e+e+e+e+e+e+e+e+e+e+e+9.9.9.9.9.9.9.9.9.$@h+0+0+0+h+f+f+0+f+f+a+a+a+a+a+f+a+]+a+        ]+        ]+]+]+]+                ).).).              ).).                        ]+]+U.E.Z+).).).).).).).).    ).      ).).).).]+]+]+]+]+]+]+              ]+]+]+]+]+&@2+]+]+]+]+]+          ]+      ]+]+]+]+]+]+]+      ]+]+]+]+]+]+]+]+]+]+]+]+]+]+]+]+]+]+]+]+]+]+]+]+  S+N+]+",
"]+]+]+]+]+]+]+]+]+]+    ]+]+]+]+]+c+c+c+c+c+c+c+c+c+c+c+        ).).).).).).).).).).  ).).).).c+^ ^ c+h+%@9.]+]+]+            e+  e+e+e+e+e+e+e+e+e+e+e+e+e+e+e+e+e+e+e+e+9.9.9.9.9.9.9.9.9.9.$@h+0+0+0+0+f+f+f+f+f+f+f+f+f+f+a+a+a+a+        ]+]+    ]+]+]+]+]+]+                  ]+).).            ).                      ]+]+]+U.E.Z+]+).).).).).).).).).).    ).  ).).]+]+]+]+]+]+]+                      ]+]+&@2+]+]+]+                            ]+          ]+]+]+]+]+]+]+]+]+]+]+]+]+]+]+]+]+]+]+]+]+    ]+]+]+S+N+]+",
"]+]+]+]+]+]+]+]+  ]+  ]+]+]+]+]+]+]+c+c+c+c+c+c+c+c+c+c+      ).).).).).).).).).).).      ).).).c+c+c+U.*@9.]+]+]+]+]+]+]+]+e+e+e+  e+e+e+e+e+e+e+e+e+e+e+e+e+e+e+e+e+e+e+9.9.9.9.9.9.9.9.0+0+=@h+0+0+0+0+f+f+f+f+f+0+0+0+0+h+f+f+a+a+a+f+f+f+h+]+]+]+]+]+  ]+]+]+                    ]+]+]+).        ).).).).]+              ]+]+]+f+E.Z+]+]+).).).).).).).).).).).).).).).]+]+]+]+]+]+                        ]+]+s+2+]+]+                ]+                    ]+]+]+]+]+]+]+]+]+]+]+]+]+]+      ]+]+]+]+]+]+        ]+S+N+]+",
"]+]+]+]+]+]+]+]+      ]+]+]+]+]+]+]+]+]+c+c+c+c+c+c+c+c+c+    ).).).).).).).).).).        ).).).).c+c+Z.#@]+]+]+]+]+]+]+]+]+e+e+e+e+e+e+e+e+e+e+e+e+e+e+e+e+e+e+e+e+e+e+e+9.9.9.9.9.9.0+0+0+0+=@h+  0+0+0+f+f+f+0+0+0+0+0+h+h+h+f+f+f+f+f+f+f+h+]+]+]+]+]+]+              ]+]+        ]+]+]+]+]+    ).).).).).]+]+              ]+]+U.E.Z+]+]+]+).).).).).).).).).).).).).).]+]+]+]+]+]+                        ]+]+&@2+]+]+]+]+            ]+]+]+          ]+      ]+]+]+]+]+]+]+]+]+]+]+]+        ]+]+]+]+]+          ]+S+N+]+",
"]+]+]+]+]+]+]+]+    ]+]+]+]+]+]+]+]+]+]+]+c+c+c+c+c+c+c+).    ).).).).).).).).).      ).      ).).c+c+Z.-@Z+]+]+]+]+]+]+]+]+e+e+e+e+e+e+e+e+e+e+e+e+e+e+e+e+e+e+e+e+e+e+e+e+e+9.9.9.0+0+0+0+0+=@  0+  0+0+0+  0+0+0+0+0+h+h+h+h+h+f+f+f+f+f+f+]+]+]+]+]+]+]+]+          ]+]+]+]+      ]+]+]+]+]+]+]+]+).).).]+]+]+          ]+]+]+]+U.E.Z+]+]+]+]+).).  ).).).).).).).).).]+]+]+]+]+]+                          ]+]+&@2+]+]+]+]+]+]+          ]+]+]+                ]+]+]+]+]+]+]+]+]+]+]+]+        ]+]+]+]+]+]+]+]+    ]+S+N+]+",
"]+]+]+]+]+]+]+]+  ]+]+]+]+]+]+]+]+]+]+]+]+]+]+c+c+c+c+c+        ).).).).).).).).).).  ).  ).).).).c+c+Z.-@Z+]+]+]+]+]+]+]+]+e+e+e+e+e+e+e+e+e+e+e+e+e+e+e+e+e+e+e+e+e+e+e+e+a+9.9.0+0+0+      ;@  0+0+    0+0+0+0+0+0+0+h+h+h+0+h+f+f+f+0+0+    ]+]+]+]+]+]+]+]+]+]+          ]+    ]+]+]+]+]+]+]+]+]+]+).).]+]+]+    ]+]+]+]+]+]+]+U.E.Z+]+]+]+]+]+).).).).).).).).).).]+]+]+]+]+]+]+                ]+        ]+]+s+2+]+]+]+]+]+]+]+]+]+]+]+]+]+]+    ]+]+]+        ]+]+]+]+]+]+]+]+]+]+]+]+]+    ]+]+]+]+]+]+]+]+  ]+]+S+N+]+",
"]+]+]+]+]+]+]+]+]+]+]+]+]+]+]+]+]+]+]+]+]+]+]+]+]+c+c+c+      ).).).).).).).).).).).      ).).).c+c+c+Z.-@Z+]+]+]+]+]+]+]+]+e+e+]+]+]+]+]+]+]+]+e+e+e+e+e+e+e+e+e+e+e+e+e+e+a+9.0+0+0+0+0+        0+0+0+0+0+0+0+0+0+0+0+0+h+h+h+h+f+f+0+0+0+]+          ]+]+]+]+]+]+]+]+]+          ]+]+]+]+]+]+]+]+]+]+]+]+]+]+]+]+]+]+]+]+]+]+]+]+U.E.Z+]+]+]+]+]+]+).).).).).).).).]+]+]+]+]+]+]+          ]+    ]+]+]+    ]+]+]+s+2+]+]+]+]+]+]+]+]+]+]+]+  ]+]+]+]+]+]+]+]+]+  ]+  ]+]+]+]+]+>@]+]+]+]+]+]+]+]+]+]+]+]+      ]+]+]+]+S+N+]+",
">@>@>@>@>@>@>@>@>@>@>@>@>@>@>@>@>@>@>@>@>@>@>@>@>@,@,@,@).    ).).).).).).).).).).).).).).).).).).,@,@s+@ '@>@>@>@>@>@>@>@>@>@>@>@>@>@>@>@>@>@>@)@)@)@)@)@)@)@)@)@)@)@)@)@)@!@~@{@{@{@{@{@{@{@  O.{@{@{@{@{@{@{@{@{@{@{@{@{@{@{@{@{@{@{@{@{@>@>@            >@>@>@>@>@              ]+]+      ]+]+]+]+]+]+]+]+]+]+]+]+]+]+]+]+]+]+]+U.E.Z+]+]+]+]+]+]+]+).).).).).).).]+]+]+]+]+]+        ]+]+]+    ]+]+]+]+]+]+]+]+&@2+]+]+]+]+]+]+]+]+]+        >@>@>@>@>@>@>@>@>@>@>@>@>@>@>@>@>@>@>@>@>@>@>@>@>@>@>@>@>@      >@>@>@>@]@^@>@",
">@>@>@>@>@>@>@>@>@>@>@>@>@>@>@>@>@>@>@>@>@>@>@>@>@>@>@,@    ).).).).).).).).).).).).).).).).).).).).,@+ @ . >@>@  >@>@>@>@>@>@>@>@>@>@>@>@>@>@>@)@)@)@)@)@)@)@)@)@)@)@)@)@)@!@!@!@!@!@{@{@{@{@/@(@{@{@{@{@{@{@{@{@{@{@{@{@{@{@{@{@{@{@{@{@{@{@>@                                    >@>@        >@>@>@>@>@>@>@>@>@>@>@>@>@>@>@>@>@>@_@i+'@>@>@>@>@>@>@>@>@).).).).).).]+]+]+]+]+]+    ]+]+]+]+]+  ]+]+]+]+]+]+]+]+]+s+:@>@>@>@>@      >@          >@>@>@>@>@>@>@>@>@>@>@>@>@>@>@>@>@>@>@>@>@>@>@>@>@>@>@>@>@>@>@>@>@>@>@>@]@<@>@",
">@>@>@>@>@>@>@>@>@>@>@>@>@>@>@>@>@>@>@>@>@>@>@>@>@>@>@>@    ).).).).).).).).).).).).).).).).).).).).).+ @ . >@>@>@  >@>@>@>@>@>@>@>@>@>@>@>@>@>@)@)@)@)@)@)@)@)@)@)@)@)@)@)@>@{@{@!@!@>@{@{@{@/@(@{@{@{@{@{@{@{@{@{@{@{@{@{@{@{@{@>@>@>@>@>@>@>@  >@>@                              >@>@          >@>@>@>@>@>@>@>@>@>@>@>@>@>@>@>@>@[@i+              >@>@>@).).).).).>@>@>@>@>@>@>@>@>@>@>@>@>@>@>@>@>@>@>@>@>@>@>@b.:@>@>@>@                  >@>@>@>@>@>@>@>@>@>@>@>@>@>@>@>@>@>@>@>@>@>@>@>@>@>@>@>@>@>@>@>@>@>@>@>@>@]@<@>@",
">@>@>@>@>@>@>@>@>@>@>@>@>@>@>@>@>@>@>@>@>@>@>@>@>@>@>@).          ).).).).    ).).).).).).).).).  ).  + @ . >@>@>@    >@>@>@>@>@>@>@>@>@>@>@>@>@)@)@)@)@)@)@)@)@)@)@)@)@{@>@{@{@{@{@!@!@!@!@{@/@(@{@{@{@{@{@{@{@{@{@{@{@>@{@>@>@>@>@>@>@>@>@>@>@  >@>@      >@                      >@>@>@>@    >@>@>@>@>@>@>@>@>@    >@>@>@>@>@>@>@[@@                 >@>@>@).>@>@>@>@>@>@    >@>@>@>@>@>@>@>@>@>@>@>@>@>@>@>@>@>@}@:@>@>@>@                >@>@>@>@>@>@>@>@>@>@>@>@>@>@>@>@>@>@>@>@>@>@>@>@>@>@>@>@>@>@>@>@>@>@>@>@>@>@]@<@>@",
">@>@>@>@>@>@>@>@>@>@>@>@>@>@>@>@>@>@>@>@>@>@>@>@>@>@>@).).).).).).).).).).    ).).).).).).).).).      + @ . >@>@>@    >@>@>@>@>@>@>@>@>@>@>@>@>@>@)@)@)@)@>@>@  )@)@{@{@{@{@{@~@{@{@!@!@{@>@!@!@(@{@{@{@{@{@{@{@>@>@>@>@>@>@>@>@>@>@>@>@>@>@>@>@  >@>@>@>@  >@>@                      >@>@>@>@>@>@>@>@>@>@>@>@>@      >@>@>@>@>@>@>@+ @                     >@>@>@>@>@>@>@>@  >@>@>@>@>@>@>@>@>@>@>@>@>@>@>@>@>@>@>@|@1@>@>@>@        >@>@>@>@>@>@>@>@>@>@>@>@>@>@>@>@>@>@>@>@>@>@>@>@>@>@>@>@>@>@>@>@>@>@>@>@>@>@>@>@>@>@]@<@>@",
">@>@>@>@>@>@>@>@>@>@>@>@>@>@>@>@>@>@>@>@>@>@>@>@>@>@,@).).).).).).).).).).    ).).).).).).).,@,@>@    + @ . >@>@>@  >@>@>@>@>@>@>@>@>@>@>@>@>@>@>@>@>@>@>@>@>@    >@>@>@>@{@~@~@~@{@!@!@~@{@{@/@(@{@{@>@{@{@{@{@>@>@>@>@>@>@>@>@  >@>@>@>@>@>@    >@>@>@>@  >@>@>@                    >@>@>@>@    >@>@>@>@>@>@>@        >@>@>@>@    + @                         >@>@>@>@>@>@  >@>@>@>@>@>@>@>@>@>@>@>@>@>@>@>@>@>@>@|@1@>@>@>@        >@>@>@>@>@>@>@>@>@>@    >@>@>@>@>@>@>@>@>@>@>@>@>@>@>@>@>@>@>@>@>@>@>@>@>@>@>@    >@]@<@>@",
">@>@>@>@>@>@>@>@>@>@>@>@>@>@>@>@>@>@>@>@>@>@>@>@>@>@,@,@,@,@,@,@,@,@,@,@,@    ,@,@,@,@,@,@,@,@        _@2@'@>@>@>@>@>@>@>@>@>@>@>@>@>@>@>@>@>@>@>@>@>@>@>@>@>@>@>@>@>@>@>@>@>@~@~@~@~@{@{@{@{@/@(@{@>@>@>@>@>@>@>@>@>@>@>@>@>@>@  >@>@>@>@>@    >@>@>@>@>@  >@  >@                                >@>@>@>@>@>@>@        >@>@      >@[@@                   >@    >@>@>@>@>@>@  >@>@>@>@>@>@>@>@>@>@>@>@>@>@>@>@>@>@>@f+1@>@>@>@              >@>@>@>@>@>@>@      >@>@>@>@>@>@>@>@>@>@>@>@>@>@>@>@>@>@>@>@>@>@>@>@>@>@>@>@>@]@3@>@",
">@>@>@>@>@>@>@>@>@>@>@>@>@>@>@>@>@>@>@>@>@>@>@>@>@>@,@,@,@,@,@,@,@,@,@,@      ,@,@,@,@,@,@,@,@        + 4@'@>@>@>@>@>@>@>@>@>@>@>@>@>@>@>@>@>@>@>@>@>@>@>@>@>@>@>@>@>@>@>@>@>@>@>@>@~@{@{@{@{@/@(@{@{@>@>@>@>@>@>@>@>@>@>@>@>@    >@>@>@>@>@          >@>@>@                                    >@>@>@>@>@>@>@>@                    [@@                 >@>@>@  >@>@>@>@>@>@>@>@>@>@>@>@>@    >@>@>@>@>@>@>@>@>@>@>@f+1@>@>@>@                      >@>@        >@>@>@>@>@>@>@>@>@>@  >@>@>@>@>@>@>@>@>@>@>@      >@>@>@>@]@#@>@",
">@>@>@>@>@>@>@>@>@>@>@>@>@>@>@>@>@>@>@5@5@5@5@>@>@>@>@>@>@6@,@,@,@,@,@        ,@,@,@,@,@,@,@,@,@,@  >@+ 7@>@>@>@>@>@    >@>@>@>@>@>@>@>@>@>@>@>@>@>@>@>@>@>@>@>@>@>@>@>@>@>@>@>@>@>@>@{@{@{@{@/@(@{@{@>@>@>@>@>@>@>@>@>@>@>@>@>@>@>@>@>@>@>@>@            >@                                    >@>@>@>@>@>@                        + @               >@>@>@>@>@>@>@>@>@>@>@>@>@>@>@>@>@      >@>@>@>@>@>@>@>@>@>@>@|@1@>@>@>@                      >@>@        >@>@>@>@>@>@>@>@>@>@>@  >@>@>@>@>@  >@>@>@>@      >@>@>@>@8@#@>@",
">@>@>@>@>@>@>@>@>@>@>@>@>@>@>@>@>@>@5@5@5@5@5@5@5@5@5@5@    5@5@5@            6@6@6@6@,@,@    ,@,@,@>@_@# >@>@>@>@>@>@>@>@>@>@>@>@>@>@  >@>@>@>@>@>@>@>@>@>@>@>@>@>@>@>@>@>@>@>@>@>@{@{@{@{@{@/@(@>@{@>@>@>@>@>@>@>@>@>@>@>@>@>@>@>@>@>@>@>@>@            >@                                      >@>@>@>@>@    >@>@                [@i+      >@>@    >@>@>@>@>@>@>@>@>@>@>@>@>@>@>@>@>@>@  >@>@>@>@>@>@>@>@>@>@>@>@}@:@>@>@>@>@                    >@>@        >@>@>@>@>@>@>@>@>@>@>@  >@>@>@>@>@>@>@>@>@        >@>@>@>@8@#@>@",
"_@_@_@_@_@9@_@_@_@_@_@_@_@_@_@_@_@_@_@_@_@_@_@_@_@_@+ + + + _@+ _@+ + + + + + _@_@_@_@_@_@_@+ + + _@_@_@_@_@+ _@_@_@_@_@_@_@_@_@_@_@_@+ _@_@_@_@_@_@_@_@_@_@_@_@_@_@_@_@_@_@_@_@_@_@(@(@(@(@(@(@(@_@_@_@_@_@_@_@_@_@_@_@_@_@_@_@_@_@_@_@_@_@_@_@+ + + _@_@_@+ + + + + _@_@_@+ + + + + + + + + + + + _@_@_@O.O.O.O.O._@_@+ + + + + _@9@9@+ + + _@_@_@+ 9@9@+ _@_@_@_@_@_@_@_@_@_@_@_@_@_@_@_@_@_@_@_@_@_@_@_@_@_@_@_@9@_@_@_@_@_@+ + +               O.O._@+ + + + 9@O.O.O.O.O.O.O.O.O.    _@_@_@_@_@_@  + + + + + + _@_@_@_@_@_@",
"0@a@0@0@0@[@_@_@_@_@_@_@_@_@      _@_@_@_@  _@_@_@_@      _@  _@  _@_@_@        b@b@b@c@b@b@> > > > > > i+i+i+i+i+i+i+i+i+i+i+i+i+i+d@> d@i+i+i+i+i+i+i+i+i+i+i+i+i+i+e@_@i+i+i+f@i+g@g@g@g@h@h@i@g@g@i+i+i+i+i+i+i+i+i+i+i+f@i+i+i+i+f@j@_@d@d@> i+i+i+i+d@d@i+i+> > i+i+d@> > > > > > > > + + > > d@d@~+~+d@d@d@d@d@k@d@d@      0@0@0@            0@l@#   0@0@0@0@0@0@0@0@0@0@a@0@0@0@0@0@0@0@0@0@0@0@0@a@0@0@0@0@m@f@0@0@0@0@                    0@0@0@            O.O.O.O.O.O.O.O.O.O.    O.O.O.P+              0@0@0@f@d@0@",
"  >@    >@[@_@_@_@_@_@_@_@_@    _@_@_@_@_@  _@_@_@_@_@      _@_@_@_@_@_@_@      5@5@5@5@5@5@5@      >@>@>@>@>@>@>@>@>@>@>@>@>@>@>@>@  >@  >@{@{@{@~@~@~@>@>@>@>@>@>@>@e@_@>@>@>@>@>@~@~@~@~@{@{@{@~@~@{@>@>@>@>@>@>@>@>@>@>@>@>@>@>@>@>@j@n@'@'@'@'@'@'@'@'@'@'@'@'@. . '@'@'@. . . . . . . + +       >@>@>@>@>@>@>@>@>@>@>@>@    >@>@>@>@>@>@>@>@>@>@+ # . '@'@'@'@'@'@'@'@'@'@'@'@'@'@'@'@'@'@'@'@'@>@>@>@>@>@>@>@>@>@>@>@>@>@>@          >@        >@>@      O.O.  O.O.O.O.O.O.O.O.O.O.O.  O.O.O.O.O.O.            >@>@>@>@  ",
">@>@      [@_@_@_@_@_@_@_@_@_@  _@_@_@_@_@  _@_@_@_@_@_@_@  _@_@_@_@_@_@_@_@_@_@5@5@5@5@5@5@5@5@5@5@>@>@>@5@>@>@>@>@>@>@>@>@>@>@>@>@      ~@{@{@{@~@~@~@~@~@{@{@{@{@{@o@(@~@~@~@~@~@{@{@{@{@~@~@~@~@{@{@{@{@>@>@>@>@>@>@>@>@>@>@>@>@>@>@j@n@>@>@>@>@>@>@>@>@>@>@>@>@>@                      + + . . . '@'@'@'@'@'@'@'@>@>@>@>@>@>@>@>@>@>@>@>@>@>@>@  + # .   >@>@>@>@>@>@>@>@>@>@>@>@>@>@>@>@>@>@>@>@>@>@>@>@>@>@>@>@>@>@>@>@>@>@                                O.O.O.O.)@p@p@O.O.O.O.O.O.O.O.O.p@p@O.O.O.          >@>@>@    ",
">@>@>@>@            _@_@_@_@_@_@_@_@_@      _@_@_@_@_@_@_@_@_@_@_@_@_@_@_@_@_@3@5@5@5@    5@5@5@5@5@>@>@>@5@>@>@>@>@>@>@>@>@>@>@>@>@~@~@~@~@~@~@~@~@~@~@~@{@{@{@    {@q@(@~@~@~@~@~@~@~@{@{@{@{@{@{@{@{@{@{@{@~@~@>@>@>@>@>@>@>@>@>@>@>@r@n@>@>@>@>@>@>@>@>@>@>@>@>@>@>@                    + + .     >@>@>@>@>@>@>@>@>@>@>@>@>@>@>@>@>@>@>@>@>@>@>@  + # .     >@>@>@>@>@>@>@>@>@>@>@>@>@>@>@>@>@>@>@>@>@>@>@>@>@>@>@>@>@>@>@>@>@                >@>@          O.O.O.O.)@s@s@p@t@t@O.O.O.O.O.p@p@s@s@p@p@p@        >@>@>@      ",
">@>@>@>@      _@_@_@_@_@_@_@_@_@_@_@        _@_@_@_@_@_@_@_@_@_@_@_@_@_@_@_@_@]@5@5@          5@5@5@>@>@>@5@>@>@>@>@{@>@>@>@>@{@{@~@~@~@~@{@{@~@{@~@~@~@~@{@{@{@{@  {@u@(@~@~@~@  ~@~@~@~@{@{@{@{@{@{@{@{@{@{@~@~@~@~@{@>@>@>@>@>@>@>@>@r@n@>@>@>@>@>@>@>@>@>@>@>@>@>@                      + + .       >@>@>@>@>@>@>@>@>@>@>@>@>@>@>@>@>@>@>@>@>@>@  + # .       >@>@    >@>@>@>@>@>@>@>@>@>@>@>@>@>@>@>@>@>@>@>@>@>@>@>@>@>@>@>@>@        >@>@>@>@>@>@        O.O.O.O.O.s@s@s@s@t@t@p@p@p@p@s@s@s@s@s@    s@s@s@s@s@s@p@t@s@s@",
"t@p@p@p@      _@_@_@_@_@_@_@_@_@_@          _@_@_@_@_@_@_@_@_@_@_@_@_@_@_@_@9@]@5@            5@5@5@5@>@5@5@>@>@>@{@{@>@>@>@{@{@~@~@~@~@{@{@{@{@{@~@~@    ~@  {@{@{@{@q@(@~@~@      ~@~@~@{@  {@{@{@{@{@{@{@{@~@~@~@~@{@{@{@{@{@>@>@>@>@j@n@>@>@>@>@>@>@>@>@>@>@>@>@                        + + . >@    >@>@>@>@>@>@>@>@>@>@  >@>@>@>@>@>@>@>@>@>@>@>@+ # .             >@>@>@>@>@>@>@>@>@>@>@>@>@>@>@>@>@>@>@>@>@>@>@          >@>@>@>@>@>@>@>@>@>@>@>@>@      O.O.O.O.p@s@s@s@s@s@s@t@s@s@s@s@s@s@s@      s@s@s@s@s@s@p@t@t@t@",
"t@p@s@s@s@      _@_@_@_@_@_@_@_@_@        _@_@_@_@_@_@_@_@_@_@_@_@_@_@_@_@_@_@_@5@5@          5@5@5@5@5@5@5@>@>@5@5@5@5@>@>@>@>@~@~@{@{@{@{@{@{@{@{@{@~@      {@{@{@{@q@(@~@~@    ~@~@~@~@{@    {@{@{@~@~@{@{@~@~@~@~@{@{@{@{@{@{@>@>@>@j@n@>@>@>@>@>@>@>@>@>@>@>@                          + + . >@      >@>@>@>@>@>@>@>@>@>@>@>@>@>@>@>@>@>@>@>@>@  + # .           >@>@>@    >@>@>@>@>@>@>@>@>@>@>@>@>@>@>@>@>@>@            >@>@>@>@>@>@>@>@>@>@>@>@>@    O.O.O.O.p@s@s@s@s@s@s@s@t@s@s@s@s@s@s@s@      s@s@s@s@s@s@s@p@t@t@",
"t@p@s@s@t@[@    _@_@_@_@_@_@_@_@_@_@        _@_@_@_@_@_@_@_@_@_@_@_@_@_@_@_@_@_@5@5@5@      5@5@5@5@5@5@5@5@5@5@5@5@5@5@5@5@5@5@>@~@{@{@{@{@{@{@{@{@~@~@~@  ~@{@~@~@~@v@(@~@~@        ~@~@{@{@  {@{@~@~@~@{@{@~@~@~@~@{@{@{@~@~@{@>@>@>@j@n@>@>@>@>@>@>@>@>@>@>@                            + + .   >@>@>@>@>@>@>@>@>@>@>@  >@>@>@>@>@>@>@>@>@>@  >@  + # .           >@>@>@>@>@>@>@>@>@>@>@>@>@>@>@>@>@>@>@>@>@>@>@>@>@>@>@    >@>@>@>@>@>@>@>@>@>@>@>@>@    O.O.O.O.p@s@s@s@s@s@s@s@t@s@s@s@s@s@s@s@    s@s@s@s@s@s@s@s@s@p@t@",
"t@p@s@s@t@[@_@_@_@_@_@_@_@_@_@_@_@_@          _@_@_@_@_@_@_@_@_@_@_@_@_@_@_@_@_@5@5@5@5@5@5@5@5@5@5@5@5@5@5@5@5@5@5@5@5@5@5@5@5@>@{@{@{@{@{@{@  {@{@~@        {@{@{@{@q@(@{@            ~@~@{@{@~@~@~@~@~@~@{@~@~@~@~@{@{@~@~@~@~@~@>@>@j@n@>@>@>@>@>@>@>@>@>@                              + %       >@>@>@>@>@>@>@>@>@>@  >@>@>@>@>@>@>@>@>@  >@  >@+ # .           >@>@>@>@>@>@>@>@>@>@>@>@>@>@>@>@>@>@>@>@>@>@>@>@>@>@>@>@>@>@>@>@>@>@>@>@>@>@>@        O.O.O.O.O.p@s@s@s@s@s@s@s@t@p@s@s@s@s@s@s@      s@s@s@s@s@s@s@s@p@t@",
"t@s@s@s@t@[@_@_@_@_@        _@      _@_@_@_@_@_@_@_@_@_@_@_@_@_@_@_@_@_@_@_@_@_@_@5@5@5@5@5@5@5@5@5@5@5@5@5@5@5@5@5@5@5@5@5@5@5@5@{@{@{@{@{@{@  ~@~@~@        ~@~@~@                ~@  ~@~@~@~@~@~@~@~@~@~@{@{@{@~@~@{@{@~@~@~@~@~@  >@j@_@>@>@>@>@>@>@>@                                  + %         >@>@>@>@>@>@>@>@>@  >@>@>@            >@>@>@>@l@#                                 >@>@>@>@>@>@>@>@>@>@>@>@>@>@>@>@>@>@>@>@>@>@>@>@>@>@>@>@          O.O.O.O.O.p@s@s@s@s@s@s@s@t@p@s@s@s@s@s@        s@s@s@s@s@s@s@s@p@t@",
"t@t@t@)@)@[@_@_@              _@_@_@_@_@_@_@_@_@_@_@_@_@_@_@  _@_@_@_@_@_@_@_@_@_@5@5@5@5@5@5@5@5@5@5@5@5@5@5@5@5@5@5@5@5@5@5@5@5@{@{@{@~@~@~@  ~@~@~@~@          ~@                          ~@~@~@~@~@~@{@{@{@~@~@~@~@{@~@~@~@~@~@{@{@j@_@>@>@>@>@>@>@>@                      >@>@        + %             >@>@>@>@>@>@>@                    >@>@>@>@l@#                                 >@>@>@>@>@>@>@>@>@>@>@>@>@>@>@>@>@>@>@>@>@>@>@>@>@>@>@>@          O.O.O.O.O.s@s@s@s@s@s@s@s@t@p@s@s@s@s@        s@s@s@s@s@s@s@s@s@s@s@",
"s@s@t@)@)@[@_@_@            _@_@_@_@_@_@_@_@_@_@_@_@_@_@_@    _@_@_@_@_@_@_@_@_@_@5@5@5@5@5@5@5@5@5@5@5@5@5@5@5@5@5@5@5@5@5@5@5@5@{@{@{@~@~@~@~@~@~@~@~@                            ~@~@~@~@  ~@~@~@~@~@~@~@~@~@~@~@~@~@~@~@~@~@~@~@{@{@j@_@>@>@>@>@>@>@>@>@                    >@>@                            >@>@>@>@                      >@>@>@>@l@w@                              >@>@>@>@>@>@>@>@>@'@'@'@'@'@'@'@'@>@>@>@>@>@>@>@>@>@>@>@)@        O.O.O.O.O.O.O.s@s@s@s@s@  s@t@p@s@s@s@s@s@s@        s@s@s@s@s@s@    s@",
"  s@s@t@)@[@_@_@              _@_@_@_@_@_@_@_@_@                  _@_@_@_@_@_@_@_@5@5@5@5@5@5@5@5@5@5@5@5@5@5@5@  5@5@5@    5@5@{@~@~@~@~@~@{@{@{@{@~@~@  ~@~@~@                  ~@~@~@~@~@~@~@~@~@~@~@~@~@~@~@~@~@~@~@~@~@~@~@~@~@{@{@x@_@>@>@>@>@>@>@>@>@  >@                >@>@                              >@>@          >@            >@>@>@>@l@w@>@                          >@>@>@>@>@>@>@>@>@>@)@)@)@)@)@)@)@)@)@)@)@)@)@)@)@)@)@)@)@)@)@    )@O.O.)@)@O.O.O.s@s@s@s@    s@t@t@s@s@s@s@s@s@s@        s@s@s@s@s@s@    ",
"  s@s@t@t@_@_@_@_@_@            _@_@_@_@  _@_@_@_@_@  _@          _@_@_@_@_@_@_@_@5@5@5@5@5@5@5@5@5@5@5@5@5@5@    {@{@{@        {@~@~@~@~@{@{@{@{@{@{@{@{@{@~@~@~@~@      ~@~@~@~@~@~@~@~@~@~@~@~@~@~@~@~@~@~@~@~@~@~@~@~@~@~@~@~@~@{@{@y@O.  >@>@>@>@>@>@                      >@>@                >@                        >@>@>@>@          >@>@>@l@w@>@                >@>@>@>@>@  >@>@>@)@)@)@)@)@)@)@)@)@)@)@)@)@)@)@)@)@)@)@)@)@)@)@)@  )@)@)@)@)@)@)@)@)@z@O.O.s@s@s@s@    s@t@t@t@s@s@s@s@s@s@        s@s@s@s@s@s@s@s@",
"s@s@s@s@t@_@_@_@_@_@_@_@_@      _@  _@_@  _@_@_@_@_@_@              A@A@A@A@A@A@5@5@5@5@5@5@5@5@5@5@5@5@5@5@5@5@5@{@{@{@{@        ~@~@~@~@{@{@{@{@{@{@{@{@{@{@{@{@      (@~@~@~@~@~@~@~@~@~@~@~@~@~@~@~@~@~@~@~@~@~@~@~@~@~@~@~@~@~@{@{@x@    >@>@5@>@>@                        >@>@              >@>@>@                      >@>@>@>@>@          >@>@l@w@>@>@                >@>@>@      )@)@)@)@)@)@)@)@)@)@)@)@)@)@)@)@)@)@)@)@)@)@          )@)@)@)@)@)@)@)@)@z@O.O.      s@s@s@t@t@t@t@t@t@s@s@s@s@        s@s@s@s@s@s@s@s@",
"s@    s@t@_@_@_@_@_@_@_@_@                A@A@A@A@A@A@              A@A@A@A@A@A@B@B@B@B@B@B@B@B@B@B@B@B@B@B@5@5@5@5@~@~@{@{@~@~@~@~@~@{@{@{@{@{@{@{@{@{@{@{@{@{@        (@~@~@~@~@~@~@~@~@~@~@~@~@~@~@        ~@~@~@~@~@~@~@~@~@~@~@{@{@/._@5@{@5@5@5@                        >@>@>@              >@>@>@          >@            >@>@>@>@>@          >@l@w@>@>@                  >@>@        )@)@)@)@)@)@)@)@)@)@)@)@)@)@)@)@    )@            )@)@)@)@)@)@)@)@)@  O.O.        s@s@s@t@      p@t@t@s@s@s@s@s@s@s@s@s@s@s@s@s@s@s@",
"        C@A@A@A@A@A@A@A@A@            A@A@A@A@A@A@A@A@                A@A@A@A@D@B@B@B@B@B@B@B@B@B@B@B@B@B@B@B@B@B@B@E@E@E@E@0+0+0+E@E@E@E@{@{@{@{@{@{@{@{@{@~@~@~@          ~@~@~@~@~@~@~@~@~@~@~@~@~@~@~@~@~@~@~@~@~@~@~@~@~@~@~@~@{@{@r@_@5@5@5@5@                        5@5@>@>@                                          >@>@>@>@>@>@          >@F@G@>@>@>@      >@          >@        )@)@)@)@)@)@)@)@)@)@)@)@)@)@)@)@H@                  )@)@)@)@H@)@                  s@s@s@t@            C@C@I@C@I@I@I@I@I@I@I@I@I@I@I@",
"              A@A@A@A@              A@A@A@A@A@A@A@A@A@              A@A@A@A@A@p+B@B@B@B@B@B@B@B@B@B@B@B@B@B@B@B@B@B@E@E@E@E@E@E@E@E@E@E@E@E@E@E@E@E@E@E@E@0+0+0+0+E@          ~@~@~@~@~@~@~@~@~@~@~@~@~@~@~@~@~@~@~@~@~@~@~@~@~@~@~@{@{@  + J@5@5@5@                        5@5@5@5@5@      + %                         >@>@>@>@>@>@>@>@>@>@>@>@>@>@>@F@G@>@>@>@>@>@>@>@>@>@>@>@>@          )@)@)@)@)@)@)@)@)@H@H@  H@H@H@H@H@                  H@H@H@H@H@                C@C@C@C@C@I@I@          I@C@C@C@C@C@I@I@I@I@  I@I@I@I@",
"                A@A@A@            A@A@A@A@A@A@A@A@              A@A@A@A@A@B@K@p+B@B@B@B@B@B@B@B@B@B@B@B@B@B@B@B@B@E@    E@E@E@E@E@E@E@E@E@E@E@E@E@E@E@0+0+0+0+0+0+          0+0+0+0+0+0+0+0+0+0+0+0+0+0+0+0+0+~@~@~@~@~@  ~@~@~@~@~@{@{@  + f@5@5@5@                        5@5@5@5@5@      + %                         >@>@>@>@>@>@>@>@>@>@>@>@>@>@>@F@G@>@>@>@>@>@>@>@>@>@>@              )@(@L@L@L@H@H@H@H@H@  H@H@H@H@H@H@H@                                        C@C@C@  C@C@C@C@C@        C@C@C@C@C@C@    C@C@C@C@C@C@C@",
"        C@A@  A@A@A@A@A@          A@A@A@A@A@A@A@  A@          A@A@A@A@A@A@B@K@p+B@B@B@B@B@B@E@E@B@B@B@B@B@B@B@B@B@E@    E@E@0+0+E@E@E@E@E@E@E@E@E@E@0+0+0+0+0+0+0+        E@E@0+0+0+0+0+0+0+0+0+0+0+0+0+0+0+0+0+0+0+0+0+  B@B@B@B@B@B@    + @ B@B@B@                              B@B@                                    M@M@M@M@M@M@M@M@M@M@M@M@M@M@N@P.M@M@M@M@M@M@M@M@M@M@              H@L@L@L@L@L@O@H@O@O@H@H@H@O@O@O@O@O@O@                                      O@O@O@C@C@C@C@O@C@C@C@C@C@C@C@C@            O@          ",
"* * *   P@<+A@  A@A@A@A@          A@A@A@A@  A@A@A@A@        A@A@A@A@A@A@A@2@K@h+2@2@Q@Q@R@S@T@  U@V@U@U@U@W@Q@S@X@Y@Z@Z@Z@Z@Z@Z@`@T@T@T@T@T@T@T@Z@Z@Z@Z@`@Z@Z@Y@Y@X@    O@Y@Y@Y@Y@Y@Z@Z@Z@Z@Z@`@Z@`@Z@Z@Z@Z@Z@Z@Z@Z@Z@Z@2@  !+!+!+Q@Q@* & + & !+!+!+                                                                        >@>@>@* * * * * * * *   ^+ #.#>@>@>@>@>@+#+#>@>@>@              O@L@L@  L@L@O@O@O@O@O@O@O@O@O@O@O@O@O@        O@O@@#                          O@O@O@O@O@O@O@O@O@######                              ",
"+ + + + <+A@A@A@A@A@A@A@+ + + + + + + + + + + + + + + + + + + A@A@A@A@O@L@L@L@L@L@A@A@A@A@A@+ + +     L@L@L@O@  O@O@O@L@L@L@L@L@L@L@L@L@L@L@L@L@L@L@L@L@O@O@O@O@O@O@O@  O@O@O@O@O@O@O@L@L@L@L@L@L@L@L@L@L@L@L@L@L@L@L@L@A@L@L@L@A@A@A@+ + + <+K@K@  K@                                                                      + <+<+<+<++ <+<+<++ + + + A@<+<+<+<+<+<+<+<+<+<++             O@O@L@    L@O@O@O@O@O@O@O@O@O@O@O@O@O@          O@O@O@O@O@O@                  K@O@O@O@O@O@O@O@O@O@                                    "};
