/* XPM */
static char * street_1_xpm[] = {
"256 256 383 2",
"  	c #A39E96",
". 	c #ABA69F",
"+ 	c #96938E",
"@ 	c #9B9791",
"# 	c #97948F",
"$ 	c #999590",
"% 	c #999690",
"& 	c #9F9C98",
"* 	c #797979",
"= 	c #686867",
"- 	c #98958F",
"; 	c #97948E",
"> 	c #9A9690",
", 	c #9C9891",
"' 	c #9E9A93",
") 	c #97938E",
"! 	c #9D9992",
"~ 	c #737373",
"{ 	c #696968",
"] 	c #6A6A69",
"^ 	c #6B6B6B",
"/ 	c #6C6C6C",
"( 	c #6E6E6D",
"_ 	c #9F9A93",
": 	c #A29D95",
"< 	c #A29D96",
"[ 	c #A09C94",
"} 	c #9C9892",
"| 	c #B0A892",
"1 	c #B2A88F",
"2 	c #B1A78D",
"3 	c #B0A68C",
"4 	c #AEA489",
"5 	c #AAA188",
"6 	c #757573",
"7 	c #7D7A76",
"8 	c #8C8983",
"9 	c #B0A58B",
"0 	c #AEA388",
"a 	c #ADA287",
"b 	c #ACA186",
"c 	c #A4997E",
"d 	c #968E7A",
"e 	c #ABA186",
"f 	c #837A69",
"g 	c #908772",
"h 	c #AA9F83",
"i 	c #9A9077",
"j 	c #837A65",
"k 	c #6A6358",
"l 	c #918872",
"m 	c #7C7463",
"n 	c #827A64",
"o 	c #6E675B",
"p 	c #9B9179",
"q 	c #857D6A",
"r 	c #928873",
"s 	c #9C9279",
"t 	c #978D74",
"u 	c #A19C95",
"v 	c #464646",
"w 	c #383838",
"x 	c #131313",
"y 	c #B3ABA4",
"z 	c #56524E",
"A 	c #66625D",
"B 	c #0F0F0F",
"C 	c #9A9791",
"D 	c #A09B94",
"E 	c #9A968E",
"F 	c #5B5753",
"G 	c #7B7670",
"H 	c #959189",
"I 	c #98938C",
"J 	c #7B7771",
"K 	c #AFABA4",
"L 	c #6F6B66",
"M 	c #7B756E",
"N 	c #6B6762",
"O 	c #ADA59F",
"P 	c #0D0D0D",
"Q 	c #8C8273",
"R 	c #998F7E",
"S 	c #C2B5A0",
"T 	c #C4B7A2",
"U 	c #C7BAA6",
"V 	c #675E58",
"W 	c #636363",
"X 	c #7B736E",
"Y 	c #AAA59F",
"Z 	c #5D554F",
"` 	c #C8BCA8",
" .	c #747474",
"..	c #777777",
"+.	c #736C66",
"@.	c #A89D82",
"#.	c #928971",
"$.	c #59534E",
"%.	c #9F957B",
"&.	c #857C66",
"*.	c #948F88",
"=.	c #A7A199",
"-.	c #9C968F",
";.	c #ADA388",
">.	c #A49A7F",
",.	c #988E75",
"'.	c #978E75",
").	c #938971",
"!.	c #6F6A64",
"~.	c #706A64",
"{.	c #726D66",
"].	c #605953",
"^.	c #746F69",
"/.	c #95908A",
"(.	c #9B958E",
"_.	c #9F9B93",
":.	c #9F9B94",
"<.	c #BDB6B0",
"[.	c #98948F",
"}.	c #938C86",
"|.	c #9E947B",
"1.	c #8B826B",
"2.	c #B5B1AC",
"3.	c #B0A9A2",
"4.	c #6B6761",
"5.	c #B2AAA3",
"6.	c #B1A9A2",
"7.	c #67635E",
"8.	c #88837C",
"9.	c #9B917A",
"0.	c #787265",
"a.	c #726B61",
"b.	c #716A60",
"c.	c #756D61",
"d.	c #978E76",
"e.	c #8D8983",
"f.	c #6E675D",
"g.	c #6B6459",
"h.	c #615A50",
"i.	c #5E5E5D",
"j.	c #8C8782",
"k.	c #544E45",
"l.	c #7B7873",
"m.	c #534D45",
"n.	c #69645F",
"o.	c #A79F99",
"p.	c #615B52",
"q.	c #3F3D39",
"r.	c #2B2A2A",
"s.	c #262625",
"t.	c #34322F",
"u.	c #5E584E",
"v.	c #57534F",
"w.	c #625D59",
"x.	c #615B51",
"y.	c #313030",
"z.	c #272727",
"A.	c #202020",
"B.	c #1B1B1B",
"C.	c #171717",
"D.	c #181716",
"E.	c #5C564D",
"F.	c #616259",
"G.	c #585450",
"H.	c #5B5752",
"I.	c #7A7773",
"J.	c #1D1D1D",
"K.	c #161616",
"L.	c #141414",
"M.	c #111111",
"N.	c #2C2A26",
"O.	c #6C6762",
"P.	c #121211",
"Q.	c #121212",
"R.	c #5B5B5B",
"S.	c #0E0E0E",
"T.	c #2C2926",
"U.	c #5D574D",
"V.	c #141313",
"W.	c #5C564C",
"X.	c #9D9993",
"Y.	c #131212",
"Z.	c #A19C94",
"`.	c #77726C",
" +	c #98928B",
".+	c #696257",
"++	c #524D44",
"@+	c #AEA69F",
"#+	c #5F5A56",
"$+	c #5C5854",
"%+	c #6C6863",
"&+	c #6D6964",
"*+	c #5E5A55",
"=+	c #B1AAA3",
"-+	c #ACA49D",
";+	c #686257",
">+	c #5E574E",
",+	c #575046",
"'+	c #AFA7A0",
")+	c #B0A8A1",
"!+	c #696560",
"~+	c #978D76",
"{+	c #615A4F",
"]+	c #524C44",
"^+	c #585147",
"/+	c #8F8670",
"(+	c #9D9892",
"_+	c #AFA8A1",
":+	c #5A4F47",
"<+	c #A59E98",
"[+	c #97928B",
"}+	c #706660",
"|+	c #8D8781",
"1+	c #908C86",
"2+	c #514740",
"3+	c #574F48",
"4+	c #8B8780",
"5+	c #564E47",
"6+	c #8A867F",
"7+	c #524A44",
"8+	c #736E69",
"9+	c #6F6B65",
"0+	c #817C76",
"a+	c #A9A49C",
"b+	c #A29B94",
"c+	c #9F9891",
"d+	c #9E9791",
"e+	c #6D6863",
"f+	c #6E6A65",
"g+	c #797570",
"h+	c #6F6A66",
"i+	c #B1AAA2",
"j+	c #B0A9A1",
"k+	c #676767",
"l+	c #55504B",
"m+	c #625D57",
"n+	c #625D58",
"o+	c #69655F",
"p+	c #A69F98",
"q+	c #726E68",
"r+	c #716D68",
"s+	c #7A7C6E",
"t+	c #736F69",
"u+	c #736F6A",
"v+	c #6A6660",
"w+	c #5D5A58",
"x+	c #9C927A",
"y+	c #928973",
"z+	c #686561",
"A+	c #918772",
"B+	c #857D69",
"C+	c #797262",
"D+	c #9D9690",
"E+	c #AEA48A",
"F+	c #A99F83",
"G+	c #8F8671",
"H+	c #7F7666",
"I+	c #827A65",
"J+	c #AAA28F",
"K+	c #817B6E",
"L+	c #A9A49B",
"M+	c #9C9584",
"N+	c #857D68",
"O+	c #817B6D",
"P+	c #807D79",
"Q+	c #85817D",
"R+	c #7C7975",
"S+	c #868480",
"T+	c #5A5A56",
"U+	c #918D87",
"V+	c #7A7873",
"W+	c #6E6E6E",
"X+	c #9D9991",
"Y+	c #B4B0A9",
"Z+	c #858585",
"`+	c #7B7B7B",
" @	c #626262",
".@	c #4D4D4D",
"+@	c #9E9891",
"@@	c #4B4B4B",
"#@	c #535353",
"$@	c #9F9892",
"%@	c #3B3B3B",
"&@	c #ADA69F",
"*@	c #B0A8A2",
"=@	c #3D3D3D",
"-@	c #5A5A5A",
";@	c #B2ABA4",
">@	c #68645F",
",@	c #9D9790",
"'@	c #AFA8A0",
")@	c #ABA49D",
"!@	c #A19C96",
"~@	c #000000",
"{@	c #C3C3C3",
"]@	c #BEBEBE",
"^@	c #B0B0B0",
"/@	c #78726B",
"(@	c #B2B2B2",
"_@	c #8B8B8B",
":@	c #ACA49E",
"<@	c #AEA6A0",
"[@	c #837F7B",
"}@	c #6B6B6A",
"|@	c #6C6C6B",
"1@	c #716D69",
"2@	c #79736C",
"3@	c #7F7F7F",
"4@	c #6F6F6E",
"5@	c #707070",
"6@	c #6D6D6D",
"7@	c #6D6963",
"8@	c #6F6F6F",
"9@	c #6D6D6C",
"0@	c #9E9991",
"a@	c #A29D97",
"b@	c #A49D96",
"c@	c #A49F99",
"d@	c #A49D97",
"e@	c #7C7976",
"f@	c #787878",
"g@	c #A09B95",
"h@	c #A8A099",
"i@	c #A7A099",
"j@	c #716C67",
"k@	c #A59E97",
"l@	c #726E69",
"m@	c #6D6965",
"n@	c #706C67",
"o@	c #6A6560",
"p@	c #64605B",
"q@	c #66615C",
"r@	c #62605D",
"s@	c #545454",
"t@	c #9F9992",
"u@	c #9A958F",
"v@	c #7C7772",
"w@	c #7C7872",
"x@	c #706C68",
"y@	c #686868",
"z@	c #817E7B",
"A@	c #545250",
"B@	c #716E6B",
"C@	c #5E5C59",
"D@	c #918E8A",
"E@	c #5D5B58",
"F@	c #8B8783",
"G@	c #726D69",
"H@	c #76716C",
"I@	c #78746E",
"J@	c #AEA9A4",
"K@	c #77736E",
"L@	c #58544F",
"M@	c #807B76",
"N@	c #6D6862",
"O@	c #6B6661",
"P@	c #5C5853",
"Q@	c #77716B",
"R@	c #756F69",
"S@	c #5E5955",
"T@	c #6A6661",
"U@	c #5D5854",
"V@	c #736E67",
"W@	c #727272",
"X@	c #A9A29B",
"Y@	c #8E8881",
"Z@	c #686361",
"`@	c #717171",
" #	c #696969",
".#	c #5D5855",
"+#	c #6A6A6A",
"@#	c #757575",
"##	c #595551",
"$#	c #848079",
"%#	c #9A958E",
"&#	c #606060",
"*#	c #60605F",
"=#	c #767676",
"-#	c #717170",
";#	c #70706F",
">#	c #5F5F5F",
",#	c #5F5F5E",
"'#	c #727271",
"  .                             . . . . . . .           + +         + @ . . . . . . . . . . .                                                                                                                         . . . . . . . . . . . . . . . . . . .             . . . . . . . . . . . . . . . . . .                                                                                                                                                                                                                     ",
"  .                                                                 + @ .                                                                                                                                         # .                                                                                           $ + .                                                                                                                                                                                                           ",
"  .                                                                 + @ .                                                                                                                                         # .                                                                                           $ + .                                                           %                                                                                                                                               ",
"  .                                                                 + @ .                                                                                                                                         # .                                                                                             + .                                                                                                                                           .                                                               ",
"  .                                                                 + @ .                                                                                                                                           .                                                                                             + .                                                           %                                                                             . .                                                               ",
"  .                                                                 + @ .                                                                                                                                           .                                                                                             + .                                                           % &                                                                         . .                                                                 ",
"  .                                                                 + @ .                                                                                                                                           .                                                                                             + .                                                           % &                                                                           .                                                                 ",
"  .                                                                 + @ .                                                                                                                                           .                                                                                           $ + .                                                           % &                                                                           .                                                                 ",
"                                                                    + @ .                                                                                                                                                                                                                                       $ + .                                                           % &                                                                           .                                                                 ",
"                                                                    + @ .                                                                                                                                       + #                                                                                             $ + .                                                           % &                                                                           . .                                                               ",
"                                                                    + @ .                                                                                                                                       + #                                                                                             $ + .                                                           % &                                                                           . .                                                               ",
"                                                                    + @                                                                                                                                         + #                                               * = =                                         $ + .                                                           % &                                                                             .                                                               ",
"                                                                    + @                                                                                                                                         + #                                             * * * * *                                       $ + .                                                           % &                                                                             .                                                               ",
"                                                                    + @                                                                                                                                         + #                       .                   * * * * = * =                                     $ + .                                                           % &                                                                             .                                                               ",
"                    . . . .                                         + @                                                                                                                                         + #                       .                   * = * * * * = =                                   $ + .                                                           % &                                                                             .                                                               ",
"                                                                    + @                                                                                                                                         + #                     . .                   = * = * * * * =                                   $ + .                                                           % &                                                                             .                                                               ",
"                                                                    + @                                                                                                                                         +                       .                       * * = * * * *                                       .                                                           % +                                                                             .                                                               ",
"                                                                    + @                                                                                                                                         +                                               = = = = = * =                                       .                                                           % +                                                                                                                                             ",
"                                                                    + @                                                                                                                                                                                         = = = = = = =                                                                                                   % +                                                                                                                                             ",
"                                                            - # #                       - - - - -     - - - - - - - - - - -                                                                                 - -                                               = = = = = = = = - -             - - -       - -             - - - - - - - - - - -                                 ; + - - - - - - - - - -                                                                                                                         ",
"                                                                                        + + + +               + + + +                                                                                       + +                                             = = = = = = = = = + + + + + + + + + + + + + + + +             + + + + + + + + + + + + +                             + + + + + + + + + + + + +                                                                                                                       ",
"                                                                                      . . . . . . . . . . . .       . . . . . . .                                 . .                                           > ,                                         = = = = = = = =                                                           > %                                                         ' +                                                                       . . . . . . . . . . .                               ",
"                                                                                      . .                                         . .                       . .               . . . . . . . . . .                                                         = = = = = = = =                                                             ) +                                                         ! +                                                                   >                                                       ",
"                                                                                        .                                                                 .                                                                             + %               = = = = = = =                                                               ) +                                                         ! +                                                                   > +                                                     ",
"                                                                                        .                                                                 .                                                                             + %           = = = = = = = = =                                                               ) +                                                                                                                               > &                                                     ",
"                                                                                        .                                                                                                                                               + %           = = = = = = = = = = =                                                           ) +                                                                                                                               > &                                                     ",
"                                                                                          .                                                               .                                                                     ~ ~ ~   + %   ~       = = = = = = = = = = =                                                                                                                                                                                             > &                                                     ",
"                                                                                          .                                         . . .                 .                                                                     ~ ~ ~   + % ~ ~       * = = = = = = = = = =                                                                                                                                                                                             > &                                                     ",
"                                                                                          .                                             . .             . .                                                                     ~ ~ ~ ~ + % ~ ~         * * * * = = = = = =                                                                                                                       ! +                                                                   > &                                                     ",
"                                                                                          .                                                                                                                                     ~ ~ ~ ~ ~ % ~ ~           * * = = = = = = = =                                                                                                                     ! +                                                                   > &                                                     ",
"                                                                                                                                                  +                                                                               ~ ~ ~ ~ %   ~ ~           * = = = = * * = *                                                                                                                     ! +                                                                   > &                                                     ",
"                                                                                                                                                  +                                                                                 ~ ~ ~ % ~ * ~ ~         * = = = { * * * * *                                                                                                                   ! +                                                                   > &                                                     ",
"                                                                                                                                                                                                                                    ~ ~ ~ % ~ ~ ~ ~         * * * * { { ] ^ / *                                                                                                                   ! +                                                                   > &                                                     ",
"                                                                                                                                                                                                                                        ~ ~ ~ ~ ~ ~         * * * * * * * * * ( *                                                     ) +                                                         _ +                                                                   > &                                                     ",
"                                                                                                                                                                                                                                      ~ ~     ~ ~ ~ ~       * * * * * * * * * * *                                                     ) +                                                         : + @                                                                 > &                                                     ",
"                                                                                                                                                                                                                                    ~ ~ ~ ~ ~ ~ ~ ~ ~ ~     * * * * * * * * * * *                                                     ) +                                                           + @                                                                 > +                                                     ",
"                                                                                                                                                                                                                                    ~ ~ ~ ~ ~ ~ ~ ~ * * * * * * * * * * * * * *               < < < < < < < < < < < < < < < < < < < < ) + < < < < < < < < < < < < < < < < < < < < < < < < < < < < ! + [ < < < < < < < < < < < < < < < < < < < < < < < < < < < < < < < < % + < < < < < < < < < < < < < < < <                     ",
"                                                                                                                                                                                                                                    ~ ~ ~ ~ ~ * * * * * * * * * * * * * * * *                 + + + + + + + + + + + + + + + + + + + + + + + + + + + + + + + + + + + + + + + + + + + + + + + + + + + + + + + +       + + + + + + + + + + + + + + + + + + + + + + + + + + + + + + + + + + + + + + + + + + + + +                   ",
"                                                                                                                                                                                                                                          * * * * * * * * * * * * * * * * * * *                                     + }                                                                                                                                                                                                         ",
"                                                                                                  . . . . . . .                                                       . . . . . . .                                                         ~ * * * * * * * * * * * * * * * * *                                     + ,                                                                                                                                                                                                         ",
"                                                                                                                    . . . . . . . . . . . . . .                                                         . . . . . . . . . . . . . .           * ~ * * * * * * * * * * * * * * *                                     + ,                                                                                                                                                                                                         ",
"                                                                                                  .                                                                                                                                             ~ * * * * * * * * * * * * * * *                                     + ,                                                                                                                                                                                                         ",
"                                                                                                  .                                                                                                                                             * * * * * * * * * * * * * * * *                                     + ,                                                                                                                                                                                                         ",
"                                                                                                  .                                                     | 1 2 3 3 3 3 3 3 3 3 3 3 3 3 3 3 3 3 3 3 3 3 3 3 3 3 3 3 3 3 3 3 3 3 3 3 3 3 4 5 6 7 8   ~ ~ ~ ~ ~ ~ * * * * * * * * * * . .                               + ,                                                                                                                                                                                                 @       ",
"                                                                                                  .                                                   | 1 9 0 a a a a a a a a a a a a a a a a a a a a a a a a a a a a a a a a a a a a b c d 7 7   ~ ~ ~ ~ ~ ~ ~ ~ ~ * * * * * * *                                     ,                                                                                             + #                                                                                                 @       ",
"                                                                                                  .                                                   1 9 e f g h h h h h h h h h h h h h h h h h h h h h h h h h h h h h h h h h h g f i j 7 7     ~ * ~ * ~ ~ ~ ~ ~ ~ ~ ~ ~ ~ ~                                     ,                                                                                             + #                                                                                                 @ +     ",
"                                                                                                  .                                                   2 0 f k k l h h h h h h h h h h h h h h h h h h h h h h h h h h h h h h h h l k k m n 7 7       ~ ~ ~ ~ ~ ~ ~ ~ ~ ~ ~ ~ ~ ~                                     ,                                                                                             + #                                                                                                 @ +     ",
"                                                                                                                                                      3 a g k o p h h h h h h h h h h h h h h h h h h h h h h h h h h h h h h h h p o k q n 7 7       ~ ~ ~ ~ ~ ~ ~ ~ ~ ~ ~ ~ ~ ~                                                                                                                                   + #                                                                                                 ' +     ",
"                                                                                                                                                      3 a h r s h h h h h h h h h h h h h h h h h h h h h h h h h h h h h h h h h h p r t n 7 7         * * ~ ~ ~ ~ ~ ~ ~ ~ ~ ~ ~                                                                                                                                   + #                                                                                                 u +     ",
"                                                                                                                                                      3 a h h h h h h h h h h h h h h h h h h h h h h h h h h h h h h h h h h h h h h h t n 7 7           ~ ~ * * ~ ~ ~ ~ ~ ~ ~ ~                                                                                                                                   + #                                                                                                 ! +     ",
"                                                                                                                                                      3 a h h h h h h h h h h h h h h h h h h h h h h h h h h h h h h h h h h h h h h h t n 7 7             ~ ~ ~ ~ ~ ~ ~ ~ * ~ ~                                                                                                                                   + #                                                                                                 > +     ",
"                                                                                                                                                      3 a h h h h h h h h h h h h h h h h h h h h h h h h h h h h h h h h h h h h h h h t n 7 7               * * * ~ ~ ~ ~ ~ ~ ~                                   + ,                                                                                             + #                                                                                                 % +     ",
"+ + +                                     + + + +                                                 .                                                   3 a h h h h h h v w w w w w w w w w w w w w w w w w w w w w w w w w w x h h h h h t n 7 7               ~ ~ ~ ~ ~ * ~ ~       *                           + + + + + + + + + +       + + + + + + + + + +                                             + + + + + + + + + + + + + y z z A A A A z z                                                   + + + + + + + + + + + + ",
"                                          u u u u                                                 .                                                   3 a h h h h h h w x x x x x x x x x x x x x x x x x x x x x x x x x x B h h h h h t n 7 7     ~         ~ ~ * ~ ~ ~ ~ ~       ~                           u u C D u u u u u u                 u u +     u                                           u u u u u [ u u u u u u E F G H I   I I H H                                                           D     D D D     ",
"                                                                                                                                                      3 a h h h h h h w x x x x x x x x x x x x x x x x x x x x x x x x x x B h h h h h t n 7 7     ~ ~ ~ ~ ~ ~ ~ * * ~ ~ ~ ~ . . . ~                                                                   z J K . . . . . . . . . . .                                                 A L             M M                                                                         ",
"                                                                                                  .                                                   3 a h h h h h h w x x x x x x x x x x x x x x x x x x x x x x x x x x B h h h h h t n 7 7     ~ ~ ~ ~ ~ ~ ~ ~ ~ ~ ~ ~ ~       ~ ~                                                                 z J K                                                                       y N K                                                                                       ",
"                                                                                                  .                                                   3 a h h h h h h w x x x x x x x x x x x x x x x x x x x x x x x x x x B h h h h h t n 7 7   ~ ~ ~ ~ ~ ~ ~ ~ ~ ~ ~ ~ ~ ~       ~ ~                                                                 z J K                                                                       y O K                       M                                                               ",
"                                                        ; +                                       .                                                   3 a h h h h h h w x x x x x x x x x x x x x x x x x x x x x x x x x x B h h h h h t n 7 7   ~ ~ ~ ~ ~ ~ ~ ~ * ~ ~ ~ ~ ~       * * *                                                               z G K                                                                       + # K                                                                                       ",
"                                                        ; +                                                                                           3 a h h h h h h x B B B B B B B B B B B B B B B B B B B B B B B B B B P h h h h h t n 7 7 ~ * * ~ ~ ~ ~ ~ ~ ~         ~       ~ ~ *                                                               z J K                                                                       + # K                                                                                       ",
"                                                        ; +                                                                                           3 a h h h h h h Q R R R R R R R R R R R R R R R R R R R R R R R R R R S h h h h h t n 7 7 ~ ~ ~ * * * ~ ~ * *         *       ~ ~ *                                                               + } .                                                                       + # K                                                                                       ",
"                                                        ; +                                                                                           3 a h h h h h h R T T T T T T T T T T T T T T T T T T T T T T T T T T U h h h h h t n 7 7 ~ ~ ~ ~ ~ ~ ~ ~ ~ *           ~ ~ * * * *                                                           A   + } .         V                                                             + # K                                                                                       ",
"                                                        ; +                                                                                           3 a h h h h h h R T T T T T T T T T T T T T T T T T T T T T T T T T T U h h h h h t n 7 7 ~ ~ ~ ~ ~ ~ ~ ~ ~ ~ ~           ~       *                                                         A A A         V V V V V                                                           + # K                       M     M                                                         ",
"                                                        ; +                                                                                           3 a h h h h h h R T T T T T T T T T T T T T T T T T T T T T T T T T T U h h h h h t n 7 7 ~ ~ ~ ~ ~ ~ ~ ~ ~ ~                                                                         M   M A A M z z     V V V V V                                                           + # .                   M M M M   M                                                         ",
"                                                        ; +                                                                                           3 a h h h h h h R T T T T T T T T T T T T T T T T T T T T T T T T T T U h h h h h t n 7 W ~ ~ ~ ~ ~ ~ ~ ~ ~ ~         M                                   M M M M M   M             M M M   A M M z z     V V V X V V                                                         + #     M M M M M M M M M M   M M M M     M M M M Y Y Y Y                                   ",
"                                                        ; +                                                                                           3 a h h h h h h R T T T T T T T T T T T T T T T T T T T T T T T T T T U h h h h h t n 7 7 ~ ~ ~ ~ ~ ~ ~ ~ ~ ~         M         M M M M M M M M M         M M M M M M M M     M M M M M M     A M z z     V V Z X X V V                                           V V Z Z Z             M M M M M M M M M M M M M M   M M M M M Y Y Y Y                                   ",
"                                                        ; +                                                                                           3 a h h h h h h S U U U U U U U U U U U U U U U U U U U U U U U U U U ` h h h h h t n 7 7 ~  ...~ ~ ~ * * * ~         ~   M M M M M M M M M M M M M       M M M M M M M M       M M M M M A               V V Z Z X V V V                               V V       V V Z Z A A A             M M M M M   M M M M M M   M M M M M Y Y Y Y Y                                 ",
"                                                                                                                                                      3 a h h h h h h h h h h h h h h h h h h h h h h h h h h h h h h h h h h h h h h h t n 7 7 ~ ~ ..* * * * * ~ ~ *         ~ M M M M M M M M M M M   M M M M M M M M M M M M M M     M M M z M A             V V V Z Z Z X X                                 V V V V V V Z Z A A A A           M M M M M   M M M M M M M M M M M M Y Y Y Y                                   ",
"                                                                                                                                                      3 a h h h h h h h h h h h h h h h h h h h h h h h h h h h h h h h h h h h h h h h t n 7 7 * ~ ~ ~ ~ * ~ ~ ~ ~ ~           M M M M M M M M M M M M   M M M M M M M M M M M M M M M     M M M z M           V V V Z Z Z Z X X                                 V V V V V Z Z A A A A M M         M M M M   M M M M M M M M M M M Y Y Y Y Y                                   ",
"                                                                                                                                                      3 a h h h h h h h h h h h h h h h h h h h h h h h h h h h h h h h h h h h h h h h t n 7 7 ~ * * * ~ * ~ ~ ~ ~ * *         M M M M M M M M M M M M M M M M M M M M M M   M M M     M M M M z z z z         Z V V Z Z Z Z Z +.              V V V V V V         V V V V Z Z A A A A M A M               M M M M M M M M M M M M M Y Y Y Y                                   ",
"                                                                                                                                                      3 a h h h h h h h h h h h h h h h h h h h h h h h h h h h h h h h h h h h h h h @.#.n W W ~ ~ ~ ~ ~ ~ ~ ~ ~ ~ ~ ~       M M M M M M M M M M M M M M M M M M M   M M M               M M z z z z z z $.    z z Z Z Z Z Z Z Z Z Z Z         V V V V V V         V V Z Z Z Z A A A A A A z A M M M M M M M M M M M M M M M M M M M M Y Y Y                                   ",
"                                                                                                                                                      4 b h h h h h h h h h h h h h h h h h h h h h h h h h h h h h h h h h h h h h @.%.&.n W W ~ ~ ~ ~ ~ ~ ~ ~ ~ ~ ~ ~ M   M M M M       M z z z M M M M M M         M M M               M z z z z z z z z z z z z z z A A Z Z Z Z Z Z Z       Z Z Z Z Z Z           Z Z A A A A A A A A A A A A M M M M M M M M M M M M M M M M M M M M Y Y Y Y                               ",
"D             *.*.                  *.*.*.*.                                D D D D =.-.-.-.-.D D             D                                       ;.>.i ,.'.t t t t t t t t t t t t t t t t t t t t t t t t t t t t t t t t t t ).&.n n W W ~ ~ ~ ~ ~ ~ ~ ~ ~ ~ ~ ~ ~ !.!.~.!.!.z z z !.z z z   z z z z z             z z z z         !.{.{.z z z z z z z z z z z z z A A A z z z z z A                           ].].A A A A A A A A A A A A A A A A A A A A A A A A A A A A ^././././././.(.(./././././._._._._._._._._.:.",
"+ + + + + + & <.<.& & & & & & & & & <.<.<.<.<.+ + + + +                     [.@ @ @ @   z z }.@ @                                                     3 |.&.n n n n n n n n n n n n n n n n n n n n n n n n n n n n n n n n n n n n n &.1.n W W ~ ~ ~ ~ ~ ~ ~ ~ ~ ~ ~ ~ ~     z z z z z z z z z z     z z z z                 z z z z z A z z z z z z z z z z z z z z z z A A A z z z z z A                           A A A A A A A A A A A A A A A A A A A A A A A A A A A A A A A A A A A A A A y A A y A A         + + + + + ",
"      _ +                                                                   [.          2.2.      . . . . . . . . . . . . .             . . . . . . . 3 a h h h h h h h h h h h h h h h h h h h h h h h h h h h h h h h h h h h h h h h t n W W ~ ~ * ~ ~ ~ * * ~ ~ * ~ ~ z z z z z z z z z z z z         z z z                   z z z A z z z M M M M z z z z z z z z z A A A z z 3.z z A A               A A A       A A A A A A A A A A A A A A A A   A M M M M 4.A A A A A A A A A Y Y Y Y Y Y Y Y Y Y Y                   ",
"                                                                            z       Y Y Y       . .                                     .             3 a h h h h h h h h h h h h h h h h h h h h h h h h h h h h h h h h h h h h h h h t n W W ~ ~ ~ ~ * ~ * * ~ ~ ~ ~ ~ ~ z z z z z z z z z z z z       M M M M                 z z z Y Y Y Y                                   5.6.  K K K K . . . K . . K K K K .       A A A A M M A A A A A A A A A A M M M M 7.A M A A A A A A A Y Y Y Y Y Y Y Y Y Y Y Y                 ",
"      _ z K                                                                 z 8.  Y Y Y Y Y                                             .             3 a h h h h h h h h h h h h h h h h h h h h h h h h h h h h h h h h h h h h h h h t n W W ~ ~ * ~ ~ ~ * * ~ ~ ~ ~ ~ ~ M M M z z     z z z z z z     M M M M M     K . . . . K K K K K K K K K                               y y   K                                                                   M M M M A A A A A A M Y Y Y Y Y Y Y Y Y Y Y Y Y                     ",
"        z K                                                                 z 8.Y Y Y Y Y Y Y Y Y                                       .     Y       3 a h h h 9.0.a.b.b.b.b.b.c.d.h h 9.0.a.b.b.b.b.b.c.d.h h 9.0.a.b.b.b.b.b.c.d.h h t n W W ~ ~ ~ ~ ~ ~ ~ ~ ~ ~ ~ ~ ~ ~ M M M M z z     z M M M M M M   M M M M                                                                     K                                                                   M M M M A A A A A A M Y Y Y Y Y Y Y Y Y Y Y Y Y                     ",
"          K                                                               M z e.Y   Y Y Y     Y Y Y                                     .     Y Y Y Y 3 a h h h 0.f.g.k k k k k k h.h h 0.f.g.k k k k k k h.h h 0.f.g.k k k k k k h.h h t n i.W ~ ~ ~ ~ ~ ~ ~ ~ ~ ~ ~ ~ ~     M M M M M         M M M M M M M M M M M                                                                   K                                                                   M M M M A A A A A A M M M M M M M Y Y Y   Y Y Y                     ",
"          K                                                           M   M z j.    Y Y Y Y Y Y Y Y                                     . Y Y Y Y Y Y 3 a h h h a.g.k k k k k k k k.h h a.g.k k k k k k k k.h h a.g.k k k k k k k k.h h t n i.i.= = ~ = = ~ ~ ~ ~ ~ ~ ~ ~ M M M M M M z z z M   M M M M M M M M M M M M       M M M                                                     K                                                                   M M M M A A A A A A M M M M M M M M M M M Y Y Y Y Y Y               ",
"          K                                                                 z j.Y Y Y Y Y Y Y Y Y Y                 .                   l.Y Y Y Y   Y 3 a h h h b.k k k k k k k k m.h h b.k k k k k k k k m.h h b.k k k k k k k k m.h h t n W i.= = ~ ~ = = ~ = ~ = ~ ~ ~ M M M M A z   z n.M M M M M M M M M M M M M M   M M M M M                                                     K                                                                   M M M M A A A A A A M M M M M M M M M M M Y Y Y Y                   ",
"                                                                            o.8.    Y Y Y Y Y Y Y Y Y Y Y       . .       Y Y Y Y Y Y   l.Y Y Y   Y Y 3 a h h h b.k p.q.r.s.t.u.k m.h h b.k p.q.r.s.t.u.k m.h h b.k p.q.r.s.t.u.k m.h h t n W W ~ ~ ~ ~ = = = = ~ ~ ~ ~ ~ M M M M z z z z z M M M M M     M M M M M M M   M       M M                                             v.    K                                                                   Y Y M M A A A A A A A M M M M M M M M M M M M Y Y Y                 ",
"                                                                            o.8.        Y Y Y Y Y Y Y Y Y Y Y Y           Y Y Y Y Y Y w.l.Y Y Y     Y 3 a h h h b.x.y.z.A.B.C.D.E.m.h h b.x.y.z.A.B.C.D.E.m.h h b.x.y.z.A.B.C.D.E.m.h h t n W W ~ ~ ~ ~ ~ ~ F.~ ~ ~ ~ ~ ~ ~ M M M z z z z z M M M         M M M M M M M   M M M     M                                             v.G.  K                                                                     Y M A 7.A A A A A A M M M M M M M M M M M M Y Y Y Y               ",
"                                                                            o.8.          Y Y Y Y Y Y Y Y Y Y Y Y     Y Y     M M M M H.I.M M   M M M 3 a h h h b.q.z.J.K.L.x M.N.m.h h b.q.z.J.K.L.x M.N.m.h h b.q.z.J.K.L.x M.N.m.h h t n i.i.= = = = ~ ~ F.~ ~ ~ ~ ~ ~ ~ M M M M z z z z M M M M M       M M M M M M M M M M M M M M                                           5.6.  K                                                                     Y M A 7.A A M A A A M M M M M M M M M M M M Y Y Y Y Y Y           ",
"                          K K K K                                           o.8.              Y Y Y Y Y Y Y Y Y Y Y M M M   M M M M M O.I.        M M 3 a h h h b.r.A.K.x x x M.P.m.h h b.r.A.K.x x x M.P.m.h h b.r.A.K.x x x M.P.m.h h t n i.i.= = = = = = F.~ = ~ ~ ~ ~ ~ M M M z z z z z M M M M M M       M   M M M M M M M M M M M                                           5.6.  K                                                                     Y M A 7.A A M A A A M M M M M M M Y M M M M Y Y Y Y Y Y           ",
"                            Y Y Y K K                                       o.8.          Y Y Y Y Y Y Y Y Y Y Y Y M M M M         M M   .           M 3 a h h h b.s.B.L.x x Q.B P.m.h h b.s.B.L.x x Q.B P.m.h h b.s.B.L.x x Q.B P.m.h h t n i.i.= = = = = R.F.= ~ ~ ~ ~ ~ ~ F.M z A z z z z z z z M M M M M M M M   M M M M M M M M M M M                                         5.6.  K                                                                       Y M A A A Y A A A M M M M M M M M M M M M M M M M M M           ",
"      _ +                     Y Y Y Y K                                     z 8.  Y Y Y Y Y Y Y Y Y Y Y Y             M M               .         M M 3 a h h h b.t.C.x x Q.M.S.T.m.h h b.t.C.x x Q.M.S.T.m.h h b.t.C.x x Q.M.S.T.m.h h t n i.i.= = = = R.R.F.= ~ ~ ~ ~ ~ ~ F.z z z z M z z z z z M M M M M M M M M M M M M M M M M M M M                                         5.6.  K                                                                         A A A M A A A A A A A A A A A A A A A A A A A M M M Y Y       ",
"      _ +                   Y Y Y Y Y Y K                                           Y     Y   Y                       M M         M                   3 a h h h b.U.D.M.M.B S.V.W.m.h h b.U.D.M.M.B S.V.W.m.h h b.U.D.M.M.B S.V.W.m.h h t n i.i.= = = = R.R.F.~ ~ ~ ~ ~ ~ ~ F.z z z z z z z z z z z z z z M M M M M M M M M M M M M M M M M                                       5.6.  K                                                                         M A A A A A A A A A A A A A A A A A A A A A A A A A A A Y Y Y ",
"Y Y     + D             Y Y Y Y Y Y Y Y Y K                                                                                             @ X.          3 a h h h b.k E.N.Y.Y.T.E.k m.h h b.k E.N.Y.Y.T.E.k m.h h b.k E.N.Y.Y.T.E.k m.h h t n i.i.= = = = R.R.F.= ~ ~ ~ ~ ~ ~ F.M z z z z z z z z z z z z z z z z M M M M M M M M M M M M M M                                       5.6.                                                                              A A A M M A A A   M A A A A A A A A A A A A A A A A A A Y Y ",
"Y Y   Z.+ D                 Y Y Y Y Y Y Y Y K                                                                                         `. +            3 a h h h b.k k k k k k k .+++h h b.k k k k k k k .+++h h b.k k k k k k k .+++h h t n W W ~ ~ ~ = = = = ~ ~ ~ ~ ~ ~ ~ F.M M z z z z z z z z z z z z z z z z z z z z z z z z M M M M M M M M M M M M M M                     5.6.                                                                              @+y A   M           A A A A A A A A A A A A A A A A A A   Y ",
"#+#+#+$+z       %+&+&+      &+#+#+#+#+#+#+#+#+#+#+#+#+#+*+*+*+*+                                                                          =+# # # # -+3 a h h h c.k k k k k k ;+>+,+h h c.k k k k k k ;+>+,+h h c.k k k k k k ;+>+,+h h t n W W ~ ~ ~ ~ ~ ~ ~ ~ ~ ~ ~ ~ ~ ~ z z z z z z z z z z z z z z z z z z z z z z z z z z z z z z z z G.G.G.G.G.G.G.G.G.G.'+'+'+)+)+)+)+)+)+5.5.)+)+)+                                  5.                !+)+)+)+)+)+)+)+)+)+y y )+)+)+7.)+)+)+)+)+7.7.7.7.7.A A A A A A A A A A 7.7.7.7.",
"z z z z z       A A A z     z z A z z z z z z z z z z z z z z z                                                                                 + + + 3 a h h h ~+{+k.m.m.m.m.]+^+/+h h ~+{+k.m.m.m.m.]+^+/+h h ~+{+k.m.m.m.m.]+^+/+h h t n W W ~ ~ ~ ~ ~ ~ ~ ~ ~ ~ ~ ~ ~ ~ z z z z z z z z z z z z z z z z z z z z z z z z z z z z z z z z z z z z z z z z z z z y y y y y y y y y y y y y                           y y y y y y y y y y     A y y y y y y y y y y y y y y y y y y y y y y y A A A A A A A A A A A A A A A A A ",
"Y 2.2.2.2.2.2.2.2.2.2.2.2.. 2.2.2.2.2.2.2.2.2.Y (+_+                                                                                                  3 a h h h h h h h h h h h h h h h h h h h h h h h h h h h h h h h h h h h h h h h t n W W ~ ~ ~ ~ ~ ~ ~ ~ ~ ~ ~ ~ ~ ~ z z z z z z z z z z :+z z z z z z z z z z z z z z z z z z z z z z z z z z z z z M M M M M M                                                   y y                                                     <+'+        M M M M Y Y Y Y Y Y Y Y Y Y Y Y Y ",
"Y Y Y Y Y Y Y Y Y Y Y Y Y Y Y Y Y Y Y   Y Y Y Y [+y     K K K K K K K K K K K K K K K                                                                 3 a h h h h h h h h h h h h h h h h h h h h h h h h h h h h h h h h h h h h h h h t n W W ~ ~ ~ ~ ~ ~ ~ ~ ~ ~ ~ ~ ~ ~ z z z z }+}+}+}+z z z z z z z z z z z z z z z |+|+|+|+|+|+|+|+|+|+|+|+|+M M M M M M M M M M M M M M                                           y y                                                     )+y           Y Y Y Y Y Y Y Y Y Y Y Y Y Y Y Y ",
"Y Y Y Y Y Y Y Y Y Y Y Y Y Y Y Y Y   Y Y Y Y Y Y 1+z                                                                                                   3 a h h h h h h h h h h h h h h h 9.0.a.b.b.b.b.b.c.d.h h h h h h h h h h h h h h t n W W ~ ~ ~ ~ ~ ~ ~ ~ ~ ~ ~ ~ ~ ~ }+}+}+}+:+:+:+:+:+:+:+:+:+:+:+:+:+:+:+2+2+3+A |+M M M M M M M M M M M M M M M M M M M M M M M M M M M M M                                       y                                                     )+y           Y Y Y Y Y Y Y Y Y Y Y Y Y Y Y Y ",
"Y Y Y   Y Y Y Y Y Y Y                         Y 4+z   K                                                                                               3 a h h h h h h h h h h h h h h h 0.f.g.k k k k k k h.h h h h h h h h h h h h h h t n W W ~ ~ ~ ~ ~ ~ ~ ~ ~ ~ ~ ~     :+:+:+:+:+:+:+:+:+:+:+:+:+:+:+:+:+:+:+2+2+5+A |+M M M M M M M M M M M M M M M M M M M M M M M M M M M M M M M                                                                                         )+y           Y Y Y Y Y Y Y Y Y Y Y Y Y Y Y Y ",
"Y Y Y Y Y Y Y Y Y Y Y                           6+z   K                                                                                               3 a h h h h h h h h h h h h h h h a.g.k k k k k k k k.h h h h h h h h h h h h h h t n W W ~ ~ ~ ~ ~ ~ ~ ~ ~ ~ ~ ~           :+:+:+:+:+:+:+:+:+:+:+:+:+:+:+:+2+2+7+z |+M M M M M M M M M M M M M M M M M M M M M M M M M M M M M M M                                                                                         )+y         Y Y Y Y Y Y Y Y Y Y Y Y Y Y Y Y Y ",
"Y Y Y Y Y Y Y Y Y Y                             4+z   K                                                                                               3 a h h h h h h h h h h h h h h h b.k k k k k k k k m.h h h h h h h h h h h h h h t n W W ~ ~ ~ ~ ~ ~ ~ ~ ~ ~ ~ ~ :+:+:+:+:+:+:+:+:+:+:+:+:+:+:+:+:+:+:+:+:+:+:+7+z |+M M M M M M M M M M M M M M M M M M M M M M M M M M M M M M M                                                                                         )+y           Y Y Y Y Y Y Y Y Y Y Y Y Y Y Y Y ",
"Y Y Y Y Y Y Y Y Y Y                             6+z   K                                                                                               3 a h h h h h h h h h h h h h h h b.k p.q.r.s.t.u.k m.h h h h h h h h h h h h h h t n W W ~ ~ ~ ~ ~ ~ ~ ~ ~ ~ ~ ~ :+:+:+:+:+:+:+:+:+:+:+:+:+:+:+:+:+:+:+:+:+:+:+7+z M M M M M M M M M M M M M M M M M M M M M M M M M M M M M M M M                                                                                         )+y             Y Y Y Y Y Y Y Y Y Y Y Y Y Y Y ",
"Y Y Y Y Y Y Y Y Y Y                             4+z   K                                 y                 6.                                          3 a h h h h h h h h h h h h h h h b.x.y.z.A.B.C.D.E.m.h h h h h h h h h h h h h h t n W W ~ ~ ~ ~ ~ ~ ~ ~ ~ ~ ~ ~ :+:+:+:+:+:+:+:+:+:+:+:+:+:+:+:+:+:+:+:+:+:+2+7+z M M M M M M M M M M M M M M M M M M M M M M M M M M M M M M M M                                                                                         )+y             Y Y Y Y Y Y   Y Y Y Y Y Y Y Y ",
"Y Y Y Y Y Y     Y Y                             6+z   K                                                   6.                                          3 a h h h h h h h h h h h h h h h b.q.z.J.K.L.x M.N.m.h h h h h h h h h h h h h h t n W W ~ ~ ~ ~ ~ ~ ~ ~ ~ ~ ~ ~ :+:+:+:+:+:+:+:+:+:+:+:+:+:+:+:+:+:+:+:+:+:+2+7+z M M M M M M M M M M M M M M M M M M M M M M M M M M M M M M M                                                                                           )+y               Y Y Y Y   Y Y Y Y Y Y Y Y Y ",
"Y Y   Y Y Y   Y   Y                             [+z D <.                                                                                              3 a h h h h h h h h h h h h h h h b.r.A.K.x x x M.P.m.h h h h h h h h h h h h h h t n W W ~ ~ ~ ~ ~ ~ ~ ~ ~ ~ ~ ~ ~ :+:+:+:+:+:+:+:+:+:+:+:+:+:+:+:+:+:+:+:+:+2+3+A M M M M M M M M M M M M M M M M M M M M M M M M M M M M M M M                                           ~ ~                                             )+y                   Y Y Y M M M M Y Y M M Y ",
"Y Y Y Y Y Y Y Y   Y                               A 8+K     y                                                                                         3 a h h h h h h h h h h h h h h h b.s.B.L.x x Q.B P.m.h h h h h h h h h h h h h h t n W W ~ ~ ~ ~ ~ ~ ~ ~ ~ ~ ~ ~ ~ :+:+:+:+:+:+:+:+:+:+:+:+:+:+:+:+:+:+:+:+:+2+5+A M M M M M         M                           M M M M M M M M                                             ~ ~                                   Y       )+y   Y Y Y             M M M M M M M M M M   ",
"Y Y Y   Y Y Y Y Y Y Y Y                           A 9+K                                                                                               3 a h h h h h h h h h h h h h h h b.t.C.x x Q.M.S.T.m.h h h h h h h h h h h h h h t n W W ~ ~ ~ ~ ~ ~ ~ ~ ~ ~ ~ ~ ~ ~ :+:+:+:+:+:+:+:+:+:+:+:+:+:+:+:+:+:+:+:+2+3+A M M M M                                         M M M M M M M                                             ~ ~ ~ ~ ~                                     )+y Y Y Y   Y           M     M M M M M M M Y ",
"Y Y Y Y     Y Y Y Y Y                               0+K                                                                                               3 a h h h h h h h h h h h h h h h b.U.D.M.M.B S.V.W.m.h h h h h h h h h h h h h h t n W W ~ ~ ~ ~ * * ~ ~ ~ ~ ~ ~ ~ ~ ~ :+:+:+:+:+:+:+:+:+:+:+:+:+:+2+2+2+2+2+2+5+A M M M                                                     M M                                             ~ * * * ~ ~                                   )+A Y Y Y Y Y Y Y     M     M M M M M M     M ",
"            Y Y Y Y Y Y                                                                                                   y y           a+            3 a h h h h h h h h h h h h h h h b.k E.N.Y.Y.T.E.k m.h h h h h h h h h h h h h h t n W W ~ ~ ~ ~ ~ ~ ~ ~ ~ ~ ~ ~ ~ ~ ~ ~ 2+2+2+2+2+2+2+2+2+2+2+2+2+2+2+2+2+2+2+3+A M                                                                                                         ~ ~ ~ ~ ~ ~ *                                 )+A Y Y Y Y Y Y Y Y M M M M M M M M M M       ",
"b+b+b+c+d+d+e+f+g+h+f+h+e+e+                                                  a+a+                                        y           a+a+a+i+j+j+)+o.3 a h h h h h h h h h h h h h h h b.k k k k k k k .+++h h h h h h h h h h h h h h t n k+k+~ * ~ ~ ~ ~ ~ ~ ~ ~ ~ ~ ~ ~ ~ ~ l+l+l+l+l+l+l+m+n+n+n+m+m+m+m+m+n+n+m+o+y o.o.p+p+p+o.)+)+j+)+)+j+)+)+)+j+)+)+)+                      q+q+o.p+o.p+o.o.p+p+o.o.o.p+o.q+r+r+      ~ s+~ ~ ~ ~ ~ = = = p+p+o.o.p+o.o.o.p+o.p+p+o.o.p+5.A t+u+t+u+u+t+t+t+u+v+v+v+v+v+v+v+v+p+o.o.p+",
"y y y y y y z z z A z z z z z                                       a+a+a+a+a+a+a+a+a+a+a+a+a+a+a+                                    a+A y y y y y y 3 a h h h h h h h h h h h h h h h c.k k k k k k ;+>+,+h h h h h h h h h h h h h h t n w+k+* * * * * * * ~ ~ ~ ~ ~ ~ ~ ~ ~ ~ z z A z z A A A A A A A A A A A A A y y y y y y y y y y   y       y y y y y y y y y y y y y y y y y y y y y y y y y y y y y y y A A A A       ~ s+~ ~ * ~ = = = = s+y y y y y y y y y y y y y y A A A A A A A A A A A A A A A A A A y y y y y ",
"                                                                  a+a+a+a+a+a+a+a+a+a+a+a+a+a+a+a+a+                                a+a+  a+a+a+a+a+a+3 a h r x+h h h h h h h h h h h h ~+{+k.m.m.m.m.]+^+/+h h h h h h h h h h h h x+y+t n k+z+M M M M M M * ~ * * * * ~ ~ ~ ~ ~ ~   M M M M M M M M M M M M M M M                                                                                                         ~ ~ ~ s+~ ~ ~ ~ = = = = s+=     (.y                 Y Y Y Y M M M Y Y Y M M M M M M M M M Y         ",
"                                                                a+a+a+a+a+a+a+a+a+a+a+a+a+a+a+a+a+a+                              a+          a+a+a+a+3 a A+k o s h h h h h h h h h h h h h h h h h h h h h h h h h h h h h h h h p o k B+n k+k+*             * * * * * * * * ~ ~ ~ K K K K K K K                                                                                                                         ~ ~ ~ ~ s+~ ~ ~ ~ = = = s+= = =   -.y                 Y Y Y Y M M M M Y Y M M M M M M M M Y Y         ",
"                                                              a+a+a+a+a+a+a+a+a+a+a+a+a+a+a+a+                                                a+a+a+a+3 a f k k A+h h h h h h h h h h h h h h h h h h h h h h h h h h h h h h h h A+k k C+n k+k+* * *           * * * * * * ~ ~ ~ ~ ~                                                                                                                                       ~ ~ ~ ~ ~ ~ = = = = = s+= = =   D+y               Y Y Y Y Y Y M M Y M Y M M M M M M M Y Y Y         ",
"                                                              a+a+a+a+a+a+a+a+a+a+a+a+a+a+a+                                                  a+a+a+a+E+b F+f g h h h h h h h h h h h h h h h h h h h h h h h h h h h h h h h h h h G+H+&.I+k+k+* * * * *       * * * * * * * * ~ ~ ~ ~                                                                                                                                     ~ ~ s+~ ~ ~ ~ = = = = s+= = =   D+y               Y Y Y Y Y M M M Y M M M M M M M M M Y Y Y Y       ",
"                                        a+a+a+a+a+a+a+a+a+a+a+a+a+a+a+a+a+a+a+a+a+a+a+a+a+a+                      a+a+                    a+a+a+a+a+a+J+>.i ,.'.t t t t t t t t t t t t t t t t t t t t t t t t t t t t t t t t t t ).&.n K+k+k+* * * * * * * ~ ~ ~ ~ ~ * * ~ * ~ ~ ~ ~                                                                                                                                     ~ ~ s+~ ~ ~ ~ ~ = = = = = = =   D+y               Y Y Y Y M M M M Y M M M M M M M M M Y Y Y Y Y     ",
"                                      a+a+a+a+a+a+a+a+a+a+a+a+a+a+a+a+a+a+a+a+a+a+a+a+a+a+a+                      a+a+a+              a+a+a+a+a+a+a+a+L+M+N+n n n n n n n n n n n n n n n n n n n n n n n n n n n n n n n n n n n n n I+O+P+k+k+* * * * * * * ~ ~ ~ ~ ~ * * ~ ~ ~ ~ ~ ~ ~                                                                                                                               ~ ~ ~ ~ s+~ ~ ~ = = * = = = = = =   D+y                     M M M M M M M M M M M M M M Y Y Y Y         ",
"                                    a+a+a+a+a+a+a+a+a+a+a+a+a+a+a+a+a+                                            a+a+a+a+a+a+a+a+a+a+a+a+a+a+a+a+a+a+P+P+P+P+Q+R+S+P+P+P+P+P+P+P+P+P+P+P+P+w x x B P+P+P+P+W W 7 7 7 7 W W k+k+W k+k+T+k+k+k+k+* * * * * * * * ~ ~ ~ ~ * ~ * * ~ ~ ~ ~ ~ ~                                                                       6.y                                                   ~ ~ ~ ~ s+ .= = = ~ = = = = = = = = D+y                       M M M M M M M M M M M M M Y Y             ",
"a+a+a+a+a+a+a+a+                    a+a+a+a+a+a+a+a+a+a+a+a+a+a+a+a+A                             a+              a+a+a+a+a+a+a+a+a+a+a+a+a+a+a+a+a+a+U+P+P+P+w+V+S+P+P+P+P+P+P+P+P+P+P+P+P+w x x B P+P+P+P+P+P+W 7 7 7 7 W k+k+k+k+k+T+k+k+k+W+* * * * * * * * ~ ~ ~ ~ ~ ~ ~ ~ ~ ~ ~ ~ ~ ~                                                                       y y                                                   ~ ~ ~ ~ ~ ~  . .= * * = = = = = = = = y                       M M   M M M M M M M M M M                 ",
"a+a+a+a+a+a+a+a+a+              a+a+a+a+a+a+a+a+a+a+a+a+a+a+a+a+a+a+a+                          a+a+a+a+a+a+a+a+a+a+a+a+a+a+a+a+a+a+a+a+a+a+a+a+a+a+a+a+a+a+a+A X+Y+a+a+a+a+a+a+a+      a+a+w x x B P+P+a+a+a+a+a+a+a+a+a+* * * * * * F.* * * * * * * * * * * * ~ ~ ~ ~ ~ ~ ~ ~ ~ * ~ ~ ~ ~                                                                       y y                                                         ~ ~ s+~ ~  . . .= = = = = = = = =                       M M M M M M M M M M M                     ",
"a+a+a+a+a+a+a+a+a+a+a+a+a+a+a+a+a+a+a+a+a+a+a+a+a+a+a+a+a+a+a+a+a+a+y _+a+a+a+a+a+a+a+a+a+a+a+a+a+a+a+a+a+a+a+a+a+a+a+a+a+a+a+a+a+a+a+a+a+a+a+a+a+a+a+a+a+a+a+A X+Y+a+a+a+a+a+a+a+        a+w x x B P+P+a+a+a+a+a+a+a+a+a+* * * * * * F.* * * * * * * * * * * * * ~ ~ ~ ~ ~ ~ ~ ~ ~ ~ ~ ~ ~                                                                       y y                                                         ~ ~ s+ .~  . . .=  .= = = = = = =                   Y M M                                 a+a+    ",
"a+a+a+a+a+a+a+a+a+a+a+a+a+a+a+a+a+a+a+a+a+a+a+a+a+a+a+a+a+a+a+a+a+a+y _+a+a+a+a+a+a+a+a+a+a+a+a+a+a+a+a+a+a+a+a+        a+a+a+a+a+a+a+a+a+a+a+a+a+a+a+a+a+a+a+A X+Y+a+a+a+a+a+a+a+      a+a+w x x B P+P+a+a+a+a+a+a+a+a+a+* * * * * * F.* * * * * * * a+* * * * ~ ~ ~ ~ ~ ~ ~ ~ ~       ~ ~       ~                                                                                                                           ~ ~ s+~  .~ =  . .= = = * = = = = *                                                       a+a+a+  ",
"a+a+a+a+a+a+a+a+a+a+a+a+a+a+a+a+a+a+a+a+a+a+a+a+a+a+a+a+a+a+a+a+a+a+y _+a+a+a+a+a+a+a+a+a+a+a+a+a+a+a+a+a+a+a+a+            a+a+a+a+a+a+a+a+a+a+a+a+a+a+a+a+a+A X+Y+a+a+a+a+a+a+a+a+a+a+a+a+w x x B P+P+a+a+a+a+a+a+a+a+* * * * * * * F.* * * * * * * * * * * * ~ ~ ~ ~ ~ ~ ~ ~ ~         ~                                                                                                                       ~ ~ ~ ~ ~ ~ ~ ~ s+~ ~ ~ ~  .= = =  .= { * * * *                                                       a+a+a+a+",
"a+a+a+a+a+a+a+a+a+a+a+a+a+a+a+a+a+a+a+a+a+a+a+a+a+a+a+a+a+a+a+a+a+a+y b+a+a+a+a+a+a+a+a+a+a+a+a+a+a+a+a+a+a+a+a+                  a+a+a+a+a+a+a+a+a+a+a+a+a+a+A X+Y+a+a+a+a+a+a+a+a+a+a+a+a+w x x B P+P+a+a+a+a+a+a+a+a+* * * * * R.R.F.* * * * * * * * * * * Z+`+`+`+`+`+`+`+`+`+`+`+`+`+`+`+`+`+`+`+`+`+`+`+`+`+`+`+`+`+`+`+`+`+`+`+`+`+`+`+`+`+`+`+`+`+`+`+`+`+`+`+ @7 8                                     ~ ~ ~ ~ ~ ~ ~ ~ ~ s+~ ~ ~  .= = * s+ . . .* * * *                                                           a+a+",
"a+a+a+a+a+a+a+a+a+a+a+a+a+a+a+a+a+a+a+a+a+a+a+a+a+a+a+a+a+a+a+a+a+a+y 3.a+a+a+a+a+a+a+a+a+a+a+a+a+a+a+a+a+a+a+a+a+a+a+a+a+        a+a+a+a+a+a+a+a+a+a+a+a+a+a+A Z+`+`+`+`+`+`+`+`+`+`+`+`+`+`+`+`+`+`+`+`+`+`+`+`+`+`+`+`+ @k+W+* R.R.F.* * * * * * * * * * * `+W W W W W W W W W W W W W W W W W W W W W W W W W W W W W W W W W W W W W W W W W W W W W W W W W W W .@7 7                                     ~ ~ ~ ~ ~ ~ ~  .* s+ .~ ~  .*  . .s+ . . . . .* *                                                             a+",
"a+a+a+a+a+a+a+a+a+a+a+a+a+a+a+a+a+a+a+a+a+a+a+a+a+a+a+a+a+a+a+a+a+a+y =+a+a+a+a+a+a+a+a+a+a+a+a+a+a+a+a+a+a+a+a+a+a+a+a+a+a+    a+a+a+a+a+a+a+a+a+a+a+a+a+a+a+y `+W W W W W W W W W W W W W W W W W W W W W W W W W W W W .@k+k+* * R.F.* * * * * * * * * * * `+W P B B B B B B B B B B B B B B B B B B B B B B B B B B B B B B B B B B B B B B B B B B B B B B B x W .@7 7                                       ~ ~ ~ ~ ~ ~ ~ ~ s+~ ~ ~ * * * * s+ . . . . . .*                                                             a+",
"a+a+a+a+a+a+a+a+a+a+a+a+a+a+a+a+a+a+a+a+a+a+a+a+a+a+a+a+a+a+a+a+a+a+y 5.a+a+a+a+a+a+a+a+a+a+a+a+a+a+a+a+a+a+a+a+a+a+a+a+a+a+a+a+a+a+a+a+a+a+a+a+a+a+a+a+a+a++@y `+W W @@#@W W W W W W W W W W W W W W W W W W W W #@@@W W .@k+k+* * R.F.* * * * * * * * * * * `+W B x x x x x x x x x x x x x x x x x x x x x x x x x x x x x x x x x x x x x x x x x x x x x x x w W .@7 7                                           ~ ~ ~ ~ ~ ~  . . .*  . .*  .s+ . . . . . .* *                                                         a+a+",
"a+a+a+a+a+a+a+a+a+a+a+a+a+a+a+a+a+a+a+a+a+a+a+a+a+a+a+a+a+a+a+a+a+a+y i+a+a+a+a+a+a+a+a+a+a+a+a+a+a+a+a+a+a+a+a+a+a+a+a+a+a+a+a+a+a+a+a+a+a+a+a+    a+a+a+a+$@y `+W @@%@%@#@W W W W W W W W W W W W W W W W W W #@%@%@@@W .@k+k+* * R.F.* * * * * * * * * * * `+W B x x x x x x x x x x x x x x x x x x x x x x x x x x x x x x x x x x x x x x x x x x x x x x x w W .@7 7                                             ~ ~ ~ ~  . .s+ .* * *  .* s+ . . . . . . .* *                 a+a+a+a+a+a+                        a+a+a+",
"&@5.5.a+5.5.5.5.5.5.5.a+a+a+a+a+a+a+a+a+a+a+a+a+a+a+a+a+a+a+a+a+a+y y 5.*@*@*@*@*@*@*@*@*@*@*@*@)+)+)+)+)+*@*@*@*@*@*@*@*@*@*@*@*@*@*@*@*@*@*@*@*@*@*@*@*@*@6.y `+W #@%@=@-@W W W W W W W W W W W W W W W W W W -@=@%@#@W .@k+k+* * R.F.* * * * * * * * * * * `+W B x x x x x x x x x x x x x x x x x x x x x x x x x x x x x x x x x x x x x x x x x x x x x x x w W .@7 7     ;@;@;@;@;@;@;@y ;@;@;@y y y y y y ;@;@;@;@~ ~ ~ ~ ~ s+~ ~ ~  .*  . . . . . . . . .* * * *@*@*@*@*@>@>@>@>@>@>@>@>@>@>@>@>@>@>@>@>@*@*@*@*@*@*@*@",
"7.7.7.7.a+a+a+y y y a+a+a+a+a+a+a+a+a+a+a+a+a+y a+a+a+a+a+a+a+A y y y y y y y y y y y y y y y y y y y y y y y y y y y y y y y y y y y y y y y y y y y y y y y y `+W W #@-@W W W W W W W W W W W W W W W W W W W W -@#@W W .@k+k+* R.R.F.* * * * * * * * * * * `+W B x x x x x x x x x x x x x x x x x x x x x x x x x x x x x x x x x x x x x x x x x x x x x x x w W .@7 7     y y y y y y y y y y y y y y y y y y y y y ~ ~ ~ ~ ~ s+ . . . . .*  .*  . . .*  . . .* * y y y y A A A A A A A A A A A A A A A A A A y y y y A A ",
"a+a+a+a+a+a+a+a+a+a+a+a+a+a+a+a+a+a+a+a+a+a+a+a+a+a+a+a+a+a+a+a+a+a+a+a+a+a+a+a+a+a+a+a+a+a+a+a+a+a+a+a+a+a+a+a+a+a+a+a+a+a+y ,@a+a+a+a+a+a+a+a+    a+a+a+a+a+a+`+W W W W W W W W W W W W W W W W W W W W W W W W W W W W .@k+k+* R.R.F.* * * * * * * * * * * `+W B x x x x x x x x x x x x x x x x x x x x x x x x x x x x x x x x x x x x x x x x x x x x x x x w W .@7 7                   y '@y y y y y y y y y y 5.y ~ ~ ~ ~ ~ s+ . . . . . .*  .*  . . .* *  . .* a+a+a+a+a+a+a+a+a+a+a+a+a+a+                )@y       a+",
"  a+a+a+a+a+a+a+O.7.a+a+a+a+a+a+a+a+a+a+a+a+a+a+a+a+a+a+a+a+a+a+a+a+a+a+a+a+a+a+a+a+a+a+a+a+a+a+a+a+a+a+a+a+a+a+a+a+a+a+a+a+y +@Y+Y+Y+Y+Y+Y+Y+Y+Y+Y+Y+Y+Y+Y+Y+Y+`+W W W W W W W W W W W W W W W W W W W W W W W W W W W W .@k+k+* R.R.F.* * * * * * * * * * * `+W B x x x x x x x x x x x x x x x x x x x x x x x x x x x x x x x x x x x x x x x x x x x x x x x w W .@7 7                   y y y y y y y y y y y y )+y ~ ~ ~ ~ ~ ~ ~ ~ ~ ~  . . .*  .*  . .* *  . .* a+a+a+a+a+a+a+a+a+a+a+a+a+a+a+a+            &@y         ",
"  a+a+a+a+a+a+  4.A a+a+        a+a+a+a+      a+a+a+a+a+a+a+a+a+a+a+a+a+a+a+a+a+a+a+a+a+a+a+a+a+a+a+a+a+a+a+a+a+a+a+a+a+a+a+y +@Y+a+a+a+a+a+a+a+a+a+a+a+a+a+a+a+`+W W W W W W W W W W W W W W W W W W W W W W W W W W W W .@k+k+* R.R.F.* * * * * * * * * ~ ~ `+W B x x x x x x x x x x x x x x x x x x x x x x x x x x x x x x x x x x x x x x x x x x x x x x x w W .@7 7                   y y y y y y y y y y y y y y ~ ~ ~ ~ ~ ~ s+~  . . . . . .* * * *  .* * * * ~ a+a+a+a+a+a+a+a+a+a+a+a+a+a+a+a+          &@y         ",
"  a+a+a+a+      4.7.              a+a+a+        a+a+a+a+a+a+a+a+a+a+a+a+a+a+a+a+a+a+a+a+a+a+a+a+a+a+a+a+a+M a+a+a+a+a+a+a+a+y +@Y+a+a+a+a+a+a+a+a+a+a+a+a+a+a+a+`+W W W W W W W W W W W W W W W W W W W W W W W W W W W W .@k+k+* R.R.F.* * * * * * * * * * ~ `+W B x x x x x x x x x x x x x x x x x x x x x x x x x x x x x x x x x x x x x x x x x x x x x x x w W .@7 7                   y y y y y y y y y y y y y y Y+~ ~ *  . .s+ . . . . . .* * * * * * * * * * * ~ a+a+a+a+a+a+a+a+a+a+a+a+a+a+a+a+a+      &@y         ",
"  a+a+a+a+      4.7.                a+        a+a+a+a+a+a+a+a+a+a+a+a+a+a+a+a+a+a+a+a+a+a+a+a+a+a+a+a+a+a+M M a+a+a+a+a+a+a+y +@Y+a+a+a+a+a+a+a+a+a+a+a+a+a+a+a+`+W W W W W W W W W W W W W W W W W W W W W W W W W W W W .@k+k+* R.R.F.* * * * * * * * * * ~ `+W B x x x x x x x x x x x x x x x x x x x x x x x x x x x x x x x x x x x x x x x x x x x x x x x w W .@7 7                 y y y y y y y y y ~ ~ ~ ~ ~ ~ ~ ~ ~  . . .s+ .*  . . . . .* * * * * * * * * * ~ a+a+a+a+a+a+a+a+a+a+a+a+a+a+a+a+a+a+    &@y         ",
"                &@5.                a+        a+a+a+a+a+a+a+a+a+a+a+a+a+a+a+a+a+a+a+a+a+a+a+a+a+a+a+a+M M M a+M a+a+a+a+a+a+y +@Y+a+a+a+a+a+a+a+a+a+a+a+a+a+a+a+`+W W W W W W W W W W W W W W W W W W W W W W W W W W W W .@k+k+* * R.F.* * * * * * * * ~ ~ ~ `+W B x x x x x x x x x x x x x x x x x x x x x x x x x x x x x x x x x x x x x x x x x x x x x x x w W .@7 7                 y y y y y y y y y y y ~ ~ ~ ~ ~ ~ ~  . . .s+* * *  . . . .* * * * * * * * * * ~ a+a+a+a+a+a+a+a+a+a+a+a+a+a+a+a+a+a+a+a+@+y         ",
"                O 5.                          a+a+a+a+M a+a+a+a+a+a+a+a+a+a+a+a+a+a+a+a+a+a+a+a+a+M M M M M M M M M M M a+a+y +@Y+a+a+a+a+a+a+a+a+a+a+a+a+a+a+a+`+W W W W W W W W W W W W W W W W W W W W W W W W W W W W .@k+k+* * R.F.* * * * * * * ~ ~ ~ ~ `+W B x x Z+`+`+`+`+`+`+`+`+`+`+`+`+`+`+`+`+`+`+`+`+`+`+`+`+`+`+`+`+`+`+`+`+`+`+`+`+`+`+`+`+ @x x x w W .@7 7                   y y y y y y y y y y y y y ~ Y+a+a+ . . .s+* *  . .* *  .*  .* * * * * * * * ~ a+a+a+a+a+a+a+a+a+a+a+a+a+a+a+a+a+a+a+a+N A         ",
"                O 5.                                  a+a+a+a+a+M a+a+a+a+a+a+a+a+a+a+a+a+a+a+M M M a+M M M M M M M M M M M y +@Y+a+a+a+a+a+a+a+a+a+a+a+a+a+a+a+`+W W W W W W W W W W W W W W W W W W W W W W W W W W W W .@k+Q+* * R.F.* * * * * * ~ ~ ~ ~ ~ `+W B x x `+W W W W W W W W W W W W W W W W W W W W W W W W W W W W W W W W W W W W W W W W .@x x x w W .@7 7                   y y y y y y y y y y y y y ~ Y+a+a+a+ . .s+ . .* * *  . . .* * * * * * * * * ~ a+a+a+a+a+a+a+a+a+a+a+a+a+a+a+a+a+a+a+a+N A         ",
"                &@5.                                  a+a+a+a+a+a+a+a+a+a+a+a+a+a+a+a+a+M M M M M M M M M M M M M M M M M M A !.Y+a+a+a+a+a+a+a+!@a+a+a+a+a+a+a+`+W W W W W W W W W W W W W W W W W W W W W W W W W W W W .@Q+Q+* * R.F.* * * * * ~ ~ ~ ~ ~ ~ `+W B x x `+W W W W W W W W W W W W W W W W W W W W W W W W W W W W W W W W W W W W W W W W .@x x x w W .@7 7                 y y y y y y y ~ y y y y y y ~ Y+a+a+a+a+ .s+ . .* *  . .* * *  . .* * * * * * * a+a+a+a+a+a+a+a+a+a+a+a+a+a+a+a+a+a+a+a+N A         ",
"                &@y                                       a+a+a+a+a+a+a+a+M M M a+M M M a+M M M M M M M M M M M M M M M M M A 9+M a+a+a+a+M a+!@!@a+a+a+a+a+a+a+`+W W W W W W W W W W W W W W W W W W W W W W W W W W W W .@Q+Q+* * R.F.* * * * * * ~ ~ ~ ~ ~ `+W B x x `+W ~@~@W W ~@~@W W ~@~@W W ~@~@W W {@]@]@]@]@^@W W ~@~@W W ~@~@W W ~@~@W W ~@~@W .@x x x w W .@7 7                 y y y y y y y y ~ ~ y y y y ~ ~ a+a+a+a+a+s+ .*  . . .* *  . . .* * * * * a+a+a+~ a+a+a+a+a+a+a+a+a+a+a+a+a+a+a+a+a+a+a+N A a+      ",
"                !+y                                     M M M M M M M M M M M M M M M a+a+a+M M M M M M M M A A M M M M M e+A /@M M M M M M !@!@!@a+a+a+a+a+a+a+`+W W W W W W W W W W W W W W W W W W W W W W W W W W W W .@k+Q+* * R.F.* * * * ~ ~ ~ ~ * ~ ~ `+W B x x `+W ~@~@W W ~@~@W W ~@~@W W ~@~@W W ]@(@(@(@(@_@W W ~@~@W W ~@~@W W ~@~@W W ~@~@W .@x x x w W .@P+P+a+a+a+a+a+a+a+a+y y y y y y y y ~ ~ ~ ~ ~ ~ ~ ~ ~ a+a+a+a+a+ . . .* *  . . . . .* * * * a+a+a+a+a+a+a+a+a+a+a+a+a+a+a+a+a+a+a+a+a+a+a+a+N A a+a+a+  ",
"                :@y                                   M M M M M M M M M M M M M M M M M M M M M M M M M M A A A A A A M M A A M M M a+M M M M !@!@a+a+a+a+a+a+a+`+W W W W W W W W W W W W W W W W W W W W W W W W W W W W .@k+i.= * R.F.* = = = ~ ~ * * = = = `+W B x x `+W ~@~@W W ~@~@W W ~@~@W W ~@~@W W ]@(@(@(@(@_@W W ~@~@W W ~@~@W W ~@~@W W ~@~@W .@x x x w W .@P+P+a+a+a+a+a+a+a+a+y y y y y y y y y ~ ~ ~ ~ ~ ~ ~ ~ a+a+a+a+a+ . .* *  . . . .* * * * * a+a+a+a+a+a+a+a+a+a+a+a+a+a+a+a+a+a+a+a+a+a+a+a+a+N A a+a+a+a+",
"a+              <@y                                         M M M M M M M M M M M M M M M M M M M M M M M M A A A A A A A A A !@!@!@!@!@!@!@M !@!@a+!@!@a+a+a+a+`+W W v .@.@.@.@.@.@.@.@.@.@.@.@.@.@.@.@.@.@.@.@.@.@ @W W .@k+i.= = R.F.= = = = = = = = = = = `+W B x x `+W (@(@W W (@(@W W (@(@W W (@(@W W ]@(@(@(@(@_@W W (@(@W W (@(@W W (@(@W W (@(@W .@x x x w W .@P+P+a+a+a+a+a+a+a+a+y y y y y y y y y y ~ ~ ~ ~ ~ ~ ~ a+a+a+a+a+ . . . . . . .* * * * * * * a+a+a+a+a+a+a+a+a+a+a+a+a+a+a+a+a+a+a+a+a+a+a+a+&@y a+a+a+a+",
"'+'+'+!+!+!+'+'+y y '+'+'+'+'+'+'+'+'+'+'+'+'+'+'+'+'+'+'+'+'+'+'+'+A A A A A A A 7.7.7.7.7.A A A A A A A A A A A !+A A A A A A !+!+!+!+!+!+!+!+!+!+!+'+'+'+'+'+`+W W .@W W W W W W W W W W W W W W W W W W W W W W `+W W .@i.i.= = = F.= = = = = = = = = = = `+W B x x `+W (@(@W W (@(@W W (@(@W W (@(@W W ]@(@(@(@(@_@W W (@(@W W (@(@W W (@(@W W (@(@W .@x x x w W .@[@[@'+'+'+'+'+'+'+'+'+y 5.'+'+'+'+'+'+'+'+~ '+5.y )+'+'+'+'+'+'+ . . . . .'+* * * * * * * * * v+v+v+v+v+v+v+v+v+v+v+a+a+;@;@;@;@'+'+'+'+'+'+)+6.'+'+'+'+",
"y y y y y y y y y y A A y y y y y y y y y y y y y y y y y y y y y A A A A A A A A A A A A A A A A A A A A A A A A A A A A A A A A A A A A A A A A A A y y y y y `+W W .@W W W W W W W W W W W W W W W W W W W W W W `+W W .@w w w w w w w w w w w w w w w w w `+W B x x `+W (@(@W W (@(@W W (@(@W W (@(@W W ]@(@(@(@(@_@W W (@(@W W (@(@W W (@(@W W (@(@W .@x x x w W .@Q+Q+y y y y y y y y y y y y y y y y y y y y y y y y y  . . . . . . . .* * * * * * * * * * * * * a+a+a+a+a+a+a+a+a+a+a+a+y y y y y y y y y y y y y y y y ",
"Y+Y+Y+Y+Y+Y+Y+Y+Y+                      y _                   A A A |+|+M M M A A A A A A A A A A A M M M M A A A 4.!@!@!@!@!@!@A A !@!@!@!@!@!@!@!@a+a+a+a+a+a+`+W W .@W W W W W W W W W W W W W W W W W W W W W W `+W W .@x x x x x x x x x x x x x x x x x `+W B x x `+W (@(@W W (@(@W W (@(@W W (@(@W W ]@(@(@(@(@_@W W (@(@W W (@(@W W (@(@W W (@(@W .@x x x w W .@P+P+a+a+a+6.6.Y+Y+Y+Y+Y+Y+Y+Y+Y+Y+Y+Y+Y+Y+Y+Y+Y+Y+Y+Y+ . . . . . . .}@|@|@* * * * * * * * * * * Y+Y+Y+Y+Y+Y+Y+Y+Y+a+a+a+a+Y+Y+Y+Y+Y+Y+Y+Y+Y+Y+Y+Y+Y+Y+Y+",
"a+a+a+a+a+a+a+a+a+a+a+a+                y _     M M M Y     Y Y   Y M M |+|+M M A A A A A A A M M M M M M M M !@A A !@!@!@!@!@!@!@!@!@!@!@Y Y Y 1@1@1@1@1@1@1@1@`+W W .@W W W W W W W W W W W W W W W W W W W W W W `+W W .@x x x x x x x x x x x x x x x x x `+W B x x `+W (@(@W W (@(@W W (@(@W W (@(@W W ]@(@(@(@(@_@W W (@(@W W (@(@W W (@(@W W (@(@W .@x x x w W .@P+P+a+a+a+5.5.Y+a+a+a+a+a+a+a+a+a+a+a+a+a+a+a+a+a+a+a+a+{ {  . . . .}@/ * ] * * * * * * * * * * a+a+a+a+a+a+a+a+a+a+a+a+a+Y+a+a+a+a+a+a+a+a+a+a+a+a+a+a+",
"a+a+a+a+a+a+a+a+a+a+a+a+a+a+            y 2@M M M M M M M M M M M M M M M M M M M M M A A M M M M M M M M M M A A A !@!@!@!@!@!@!@!@!@Y Y Y Y Y Y Y Y Y 1@1@1@1@`+W W .@W W W W W W W W W W W W W W W W W W W W W W `+W W .@B B B B B B B B B B B B B B B B B `+W B x x `+W (@(@W W (@(@W W (@(@W W (@(@W W ^@_@_@_@_@3@W W (@(@W W (@(@W W (@(@W W (@(@W .@x x x w W .@P+P+a+a+a+5.5.Y+a+a+a+a+a+a+a+a+a+a+a+a+a+a+a+a+a+a+a+a+a+{  . .* * * ] * * * 4@5@5@5@* * * ~ ~ a+a+a+a+a+a+a+a+a+a+a+&+A Y+a+a+a+a+a+a+a+a+a+a+a+a+a+a+",
"a+a+a+a+a+a+a+a+a+a+a+a+a+a+a+          A _ K M   M M M M M M M M M M M M M M M M M M M M M M M M M M M M M M A A A !@!@!@!@!@!@!@Y Y Y Y Y Y Y Y Y Y !@!@2.2.2.`+W W .@W W W W W W W W W W W W W W W W W W W W W W `+W W .@i.i.i.i.i.T+i.i.i.i.W k+W W W W W `+W B x x `+W W W W W W W W W W W W W W W W W W W W W W W W W W W W W W W W W W W W W W W W .@x x x w W .@P+P+a+a+a+5.5.Y+a+a+a+a+a+a+a+a+a+a+a+a+a+a+a+a+a+a+a+a+a+{ 6@* * ] * * ] ] ( ( * * * * ~ ~ ~ * a+a+a+a+a+a+a+a+a+a+a+7@A Y+a+a+a+a+a+a+a+a+a+a+a+a+a+a+",
"a+a+a+a+a+a+a+a+a+a+a+a+a+a+a+a+a+      A _ |+M M M M M M M M M M M M M M M M M M M M M M M M M M M M M M M M M A A V V X X X X X X Y Y Y Y Y Y Y Y Y !@!@!@Y Y `+W W .@W W W W W W W W W W W W W W W W W W W W W W `+W W .@i.i.i.i.i.T+i.i.i.i.i.W k+i.W W W `+W B x x `+W W W W W W W W W W W W W W W W W W W W W W W W W W W W W W W W W W W W W W W W .@x x x w W .@P+P+a+a+a+5.5.Y+a+a+a+a+a+a+a+a+a+a+a+a+a+a+a+a+a+a+a+a+a+{  .8@* * |@= ] 9@* * ( * * * ~ * * * * a+a+a+a+a+a+a+a+a+a+7@A Y+a+a+a+a+a+a+a+a+a+a+a+a+a+a+",
"a+a+a+a+a+a+a+a+a+a+a+a+a+a+a+a+a+      A _ |+M M M M   M M M M M M M M M M M M M M M M M M M M M M M M M M M M A A V V V V V V V V Y Y Y Y Y Y Y Y !@!@!@!@Y Y `+W W .@W W W W W W W W W W W W W W W W W W W W W W `+W W .@i.i.= = = F.= = = = = ~ M M ~ * ~ `+W B x x `+W W W W W W W W W W W W W W W W W W W W W W W W W W W W W W W W W W W W W W W W .@x x x w W .@P+P+a+a+a+5.5.Y+a+a+a+a+a+a+a+a+a+a+a+a+a+a+a+a+a+a+a+a+a+{ { { { * * * ] ] ] ] * * * * * * * ~ ~ ~ a+a+a+a+a+a+a+a+a+&+A Y+a+a+a+a+a+a+a+a+a+a+a+a+a+a+",
"a+a+a+a+a+a+a+a+a+a+a+a+a+a+a+a+a+      y 0@|+M M M M   M M M M M M M M M M M M M M M M M M M M M M M M M M M A A A X V V V V V V Z Z Z !@!@!@!@!@!@!@!@!@Y Y Y `+W W  @`+`+`+`+`+`+`+`+`+`+`+`+`+`+`+`+`+`+`+`+`+`+Z+W W .@i.k+= = = F.F.= = = M M M M M M M `+W B x x  @.@.@.@.@.@.@.@.@.@.@.@.@.@.@.@.@.@.@.@.@.@.@.@.@.@.@.@.@.@.@.@.@.@.@.@.@.@.@.@.@v x x x w W .@P+P+a+a+a+5.5.a+a+a+a+a+a+a+a+a+a+a+a+a+a+a+a+a+a+a+a+a+a+= = = = = = = = = = = = 4@5@* * * ~ ~ ~ ~ a+a+a+a+a+a+a+a+a+7@A Y+a+a+a+a+a+a+a+a+a+a+a+a+a+a+",
"a+a+a+a+a+a+a+a+a+a+a+a+a+a+a+a+a+a+    y 0@K   M M M M M M M M M M M M M M M M M a+M M M M M M M M M M M M M A A A X V V V V V Z Z Z Z !@!@!@!@!@!@!@!@!@!@!@!@`+W W W W W W W W W W W W W W W W W W W W W W W W W W W W .@i.i.~ ~ = = ~ ~ ~ = a+M M M M M M `+W B x x x x x x x x x x x x x x x x x x x x x x x x x x x x x x x x x x x x x x x x x x x x x x x w W .@P+P+a+a+a+7.5.a+a+a+a+a+a+a+a+a+a+a+a+a+a+a+a+a+a+a+a+a+a+= = = = = = = = = = = = =  .* * * ~ ~ ~ ~ ~ a+a+a+a+a+a+a+a+-+A a+a+a+a+a+a+a+a+a+a+a+a+a+a+a+",
"a+a+a+a+a+a+a+a+a+a+a+a+a+a+a+a+a+a+a+  y 0@K     M M M M M M M M M M M M M M M M M M M M M M M M M M M M M M M A A X V V V V Z Z X V Z !@!@!@!@!@!@!@!@!@!@!@!@`+W W W W W W W W W W W W W W W W W W W W W W W W W W W W .@W W ~ ~ * ~ ~ ~ ~ a+a+M M M M M M `+W B x x x x x x x x x x x x x x x x x x x x x x x x x x x x x x x x x x x x x x x x x x x x x x x w W .@P+P+a+a+a+7.7.a+a+a+a+a+a+a+a+a+a+a+a+a+a+a+a+a+a+a+a+a+a+a+= = = = = a+= = = = = =  . .* * ~ ~ ~ ~ ~ 6@a+a+a+a+a+a+a+-+y a+a+a+a+a+a+a+a+a+a+a+a+a+a+a+",
"a+a+a+a+a+a+a+a+a+a+a+a+a+a+a+a+a+a+a+  y a@|+M M M M M M M M M M M M M M M M M M M M M M M M M M M M M M M M M A A X V V V V V V V V Z Z !@!@!@!@!@!@!@!@!@!@!@`+W W W W W W W W W W W W W W W W W W W W W W W W W W W W .@W W * * ~ ~ ~ ~ ~ a+a+M M M M M M `+W B x x x x x x x x x x x x x x x x x x x x x x x x x x x x x x x x x x x x x x x x x x x x x x x w W .@P+P+a+a+a+7.7.a+a+a+a+a+a+a+a+a+a+a+a+a+a+a+a+a+a+a+a+a+a+a+= = = = = a+= = = = = }@ .9@ .~ ~ ~ ~ ~ ~ ~ ~ a+a+a+a+a+a+-+y a+a+a+a+a+a+a+a+a+a+a+a+a+a+a+",
"a+a+a+a+a+a+a+a+a+a+a+a+a+a+a+a+a+a+a+  z a@|+M M M M M M M M M M M M M M M M M M M M M M M M M M M M M M M M M A A X V V V V V V V V V Z !@!@!@!@!@!@!@!@!@!@!@`+W W W W W W W W W W W W W W W W W W W W W W W W W W W W .@W k+* ~ ~ ~ ~ ~ ~ a+a+M M M M M M `+W B x x x x x x x x x x x x x x x x x x x x x x x x x x x x x x x x x x x x x x x x x x x x x x x w W .@P+P+a+a+a+7.7.a+a+a+a+a+a+a+a+a+a+a+a+a+a+a+a+a+a+a+a+a+a+a+b@= = = = a+a+{  . . .9@( / ~ ~ ~ a+a+a+~ ~ ~ a+a+a+a+a+a+-+y a+a+a+a+a+a+a+a+a+a+a+a+a+a+a+",
"a+a+a+a+a+a+a+a+a+a+a+a+a+a+a+a+Y Y Y Y A c@M M M M M M M M M M M M M M M M M M M M M M M M M M M M M M M M M A A A X V V V V V V V V V Z !@!@!@!@!@!@!@!@Y Y Y `+W W W W W W W W W W W W W W W W W W W W W W W W W W W W .@k+W ~ ~ ~ ~ ~ ~ a+Y Y M M M a+a+a+`+W B x x x x x x x x x x x x x x x x x x x x x x x x x x x x x x x x x x x x x x x x x x x x x x x w W .@P+P+a+a+a+7.7.a+a+a+a+a+a+a+a+a+a+a+a+a+a+a+a+a+a+a+a+a+a+a+b@= = = = = a+a+ .}@ .^ ^ ~ ~ ~ ~ a+a+a+a+~ ~ a+a+a+a+a+a+-+y a+a+a+a+a+a+a+a+a+a+a+a+a+a+a+",
"a+a+a+a+a+a+a+a+a+a+a+a+a+a+a+a+a+Y Y Y A /.Y M M M M M M M M M M M M M M M M M M M M M M M M M M M M M M M A A A A V V V V V V V V V V Z !@!@!@!@!@!@!@!@Y Y Y `+W W W W W W W W W W W W W W W W W W W W W W W W W W W W .@W W ~ ~ ~ ~ ~   M Y Y Y M M a+a+a+`+W B x x x x x x x x x x x x x x x x x x x x x x x x x x x x x x x x x x x x x x x x x x x x x x x w W .@P+P+a+a+a+7.7.a+a+a+a+a+a+a+a+a+a+a+a+a+a+a+a+a+a+a+a+a+a+a+d@= }@= = = a+a+a+* ~ ~ ~ ~ ~ ~ ~ a+a+a+a+~ ~ a+a+a+a+a+a+-+y a+a+a+a+a+a+a+a+a+a+a+a+a+a+a+",
"a+a+a+a+a+a+a+a+a+a+a+a+a+a+Y a+a+a+Y Y A 1@1@M M M M M M M M M M M M M M M M M M M M M M M M M M M M M M A A A A A V V V V V V V V V V 1@1@!@!@!@!@!@!@!@!@!@1@`+W W W W W W W W W W W W W W W W W W W W W W W W W W W W .@W W ~ ~ ~   a+!@!@!@!@a+M M M M M `+W B x x x x x x x x x x x x x x x x x x x x x x x x x x x x x x x x x x x x x x x x x x x x x x x w W .@e@e@a+a+a+7.7.a+a+a+a+a+a+a+a+a+a+a+a+a+a+a+a+a+a+a+a+a+a+a+= = = = = = = a+a+~ ~ ~ ~ ~ ~ ~ ~ a+a+a+a+a+~ ~ a+a+a+a+a+-+y a+a+a+a+a+a+a+a+a+a+a+a+a+a+a+",
"a+a+a+a+a+a+a+a+a+a+a+a+a+a+Y a+Y Y Y Y A /.1@1@1@Y Y Y M M M M M M M M M M M M M M M M M M M M M M A A A A A A A A Z Z Z Z Z Z Z Z Z Z Z 1@1@!@!@!@!@!@!@!@!@!@`+W W W W W W W W W W W W W W W W W W W W W W W W W W W W .@W k+~ ~ *       !@a+a+Y Y Y M M M `+W B x x x x x x x x x x x x x x x x x x x x x x x x x x x x x x x x x x x x x x x x x x x x x x x w W .@e@e@!@!@!@7.7.a+a+a+a+a+a+a+a+a+a+a+a+a+a+a+a+a+a+a+a+a+a+= = = = = = ^ |@f@a+f@~ ~ ~ ~ ~ ~ ~ ~ a+a+a+a+a+~ a+a+a+a+a+-+y a+a+a+a+a+a+a+a+a+a+a+a+a+a+a+",
"a+a+a+a+a+a+a+a+a+a+a+a+a+a+Y Y     Y Y A g@Y Y 1@1@Y Y Y Y M M M M M M M M M M M M M M M M M M M M A A A A A A A A Z Z Z A A A A Z A A Z 1@1@1@1@Y Y Y Y Y Y Y `+W W W W W W W W W W W W W W W W W W W W W W W W W W W W .@W W ~ ~ * a+a+a+a+a+a+a+Y Y Y Y Y `+W B x x x x x x x x x x x x x x x x x x x x x x x x x x x x x x x x x x x x x x x x x x x x x x x w W .@e@e@!@!@!@7.7.!@!@a+a+a+a+a+a+a+a+a+a+a+a+a+a+a+a+a+a+a+a+a+= = = = = = =  .0@~ ~ ~ ~ ~ ~ ~ ~ ~ ~ a+a+a+a+~ ~ a+a+a+a+$@y a+a+a+a+a+a+a+a+a+a+a+a+a+a+a+",
"h@i@i@j@k@k@k@k@k@k@i@i@i@h@l@l@l@l@l@l@A r+l@l@l@1@1@1@1@1@1@1@1@m@m@m@m@m@m@n@n@n@n@n@n@n@n@o@o@o@o@o@o@o@A A A A p@q@A A A A A A A A A A l@l@l@l@l@l@l@l@l@l@`+W W W W W W W W W W W W W W W W W W W W W W W W W W W W .@W W ~ * ~ k@k@k@k@i@i@h@h@i@l@l@l@`+W B x x x x x x x x x x x x x x x x x x x x x x x x x x x x x x x x x x x x x x x x x x x x x x x w W .@r@r@j@j@j@A A !@!@!@a+a+a+a+a+a+a+    a+a+    a+a+q+q+q+q+q+!+= = = * * = ~ ~ ~ ~ ~ ~ ~ ~ ~ ~ ~ ~ ~ i@h@i@h@~ i@h@h@i@6.y *@i@i@h@i@h@i@k@k@k@k@k@k@h@i@",
"y y y y y y y y y y y y z z z z z z A A A A A A A A 1@1@1@A 1@1@1@1@1@1@1@1@1@1@1@1@1@1@A A A A A A A A A A A A A A A A A A A A A A A A A A A A A A A y y y y A `+W W s@-@W W W W W W W W W W W W W W W W W W W W -@s@W W .@W W ~ ~ ~ y y y y y y y y A A y y `+W B x x x x x x x x x x x x x x x x x x x x x x x x x x x x x x x x x x x x x x x x x x x x x x x w W .@w+w+A A A z z !@!@        =                           A A A A = = * = = ~ ~ ~ ~ ~ ~ ~ ~ ~ ~ { { ] { y y y y ^ y y y y y y y y y y y y y z z y z z z A y ",
"a+t@y         a+a+a+Y Y Y     Y Y Y Y !@!@!@!@!@!@Y Y Y !@1@!@!@!@!@!@!@!@!@!@!@u@A A !@!@!@!@!@!@!@!@!@M M A A A A A A 1@!@!@Y !@!@v@%+!@!@!@!@Y Y a+a+a+a+A A `+W #@%@=@-@W W W W W W W W W W W W W W W W W W -@=@%@#@W .@W 7 ~ ~ ~ a+a+a+Y Y a+    Y Y a+a+`+W x w w w w w w w w w w w w w w w w w w w w w w w w w w w w w w w w w w w w w w w w w w w w w w w v W .@e@e@!@!@!@!@!@            ~ =       ~ ~ ~                     = = = ~ ~ ~ ~ 9@~ 9@|@|@|@{ = }@= ~ = ~ K Y+Y+] Y+Y+a+a+a+a+a+!@!@!@!@!@!@Y Y Y a+!@!@!@a+",
"a+$@y           !@Y Y Y Y Y Y !@!@!@!@!@!@!@M !@!@!@!@Y !@!@!@!@!@!@!@!@!@!@!@A A A !@!@!@!@!@!@!@!@!@!@!@M M M M M 1@1@1@1@1@1@1@1@1@A !@!@!@!@Y Y Y Y Y Y Y Y `+W @@%@%@#@W W W W W W W W W W W W W W W W W W #@%@%@@@W .@W 7     a+Y Y Y Y Y Y Y Y Y Y a+a+`+W W W W W W W W W W W W W W W W W W W W W W W W W W W W W W W W W W W W W W W W W W W W W W W W W W W .@e@e@!@!@!@!@  K   ~ ~ ~ ~ = = =   ~ ~ ~ ~ ~                 = = = * ] ~ ] |@~ ~ ( ( ~ ~ ~ }@}@= = = = = ~ = {         a+a+a+a+!@!@!@Y Y Y Y Y !@!@!@!@!@",
"!@w@A     !@!@Y Y Y Y Y !@!@!@!@!@!@!@!@|+|+|+|+|+M Y Y Y !@|+|+|+|+|+|+|+M z A A A !@!@!@|+|+|+|+|+M !@!@!@|+|+|+|+|+M M M M M M M x@A |+M M M Y Y Y Y   a+Y Y `+W W @@#@W W W W W W W W W W W W W W W W W W W W #@@@W W .@W P+  a+a+a+a+a+Y a+Y Y Y Y Y Y a+ @.@.@.@.@.@.@.@.@.@.@.@.@.@.@.@.@.@.@.@.@.@.@.@.@.@.@.@.@.@.@.@.@.@.@.@.@.@.@.@.@.@.@.@.@.@.@.@.@.@.@.@v e@e@!@!@!@!@!@K   ~ ~ ~ = = = = = = ~ ~ ~ ~ ~               = = { = = = y@~ { { ~ ~ ~ ~ ~ ~ ~ = ^ = = = = = =           a+a+a+a+!@!@a+!@!@!@!@!@~ ~ ~ ~ ",
"!@w@A Y Y Y Y Y Y Y !@!@!@!@!@!@!@!@!@!@|+M M M M M 1@Y Y 1@M M M M M M M M M A A A |+|+|+|+M M M M M M M M M M M M M M M M M M M M x@A |+M Y Y Y Y Y Y Y Y Y Y `+W W W W W W W W W W W W W W W W W W W W W W W W W W W W .@P+P+a+a+      a+a+      a+Y Y Y Y z@z@z@z@z@z@z@z@z@z@z@z@z@z@z@7 7 A@A@A@A@z@z@7 7 e@w x x B B@B@B@B@B@B@B@z+z+z+e@z+e@e@w+C@e@e@e@e@e@e@e@e@e@!@!@!@!@!@K   ~ ~ * = = = = = = = = ~ ~               = = = = ] = = ] ~ |@{ ] ~ ~ ~ ~ { { ^ ~ { = = = { =                 a+!@!@a+!@!@a+a+!@= ~ * * ",
"!@w@A Y Y Y Y Y Y Y !@!@!@!@!@!@!@!@!@!@|+M M M Y Y 1@Y 1@M M M M M M M M M M M A A |+M M M M M M M M M M M M M M M M M M M M M M M 7.A |+M M M M M Y !@!@!@!@!@`+W W W W W W W W W W W W W W W W W W W W W W W W W W W W .@P+P+                      Y Y Y Y D@z@z@z@z@z@z@z@z@z@z@z@z@z@z@z@z@w+E@w+w+w+z@e@e@e@w x x B z+z+z+z+z+z+z+z+z+z+z+z+z+z+w+C@7 7 e@e@e@e@e@e@F@!@!@!@!@!@K         * ~ ~ = = = = = = =               = = { { |@= = = { { = = = |@{ ~ =   { ^ ~ = = = {                     !@!@a+a+a+a+a+!@~ ~ = * ",
"!@G@z Y     Y Y Y !@!@!@!@!@!@!@!@!@!@Y |+M M M 1@1@1@M M M M M M M M M M M M M A A |+M M M M M M M M M M M M M M M M M M M M M M M 7.A |+M M M M !@!@!@M M !@!@ @.@.@.@.@.@.@.@.@.@.@.@.@.@.@.@.@.@.@.@.@.@.@.@.@.@.@.@.@v z@7                       Y Y Y Y Y Y Y Y Y Y Y Y Y Y Y Y Y Y Y Y Y y 5.A A A !@!@    w x x B z+z+M M M M M M M     M     A o+!@!@!@!@!@!@!@!@!@!@!@!@!@!@K         * ~ ~ ~ = ~ { = = =   = = = =     = = = ~ = = = = = = ~ ~ = = = ] = =   ] ~ = = { {                       !@!@!@!@a+!@!@= = = = ",
"!@H@z Y       Y Y !@!@!@!@!@!@!@!@Y Y Y |+M M M M 1@1@M M M M M M M M M M M M M A A |+M M M M M M M M M M M M M M M M M M M M M M M 7.A |+M M M M M M !@!@!@!@!@e@e@e@e@7 7 7 7 7 7 k+k+k+k+w x x B W W W i.i.i.i.i.i.i.i.W z@7                     Y Y Y Y Y Y Y Y Y Y Y Y Y Y Y Y Y Y Y Y Y Y y 5.!@A A !@!@    w x x B z+z+M M M M M M M       M M A o+!@!@!@!@!@!@!@!@!@!@!@!@!@!@!@           .~ = ~ = = = = =   = = = =     = = = = = = = = = = ~ ~ = = = = = = = = = = = = =                       !@!@!@!@  = = = = = !@",
"Y H@z 1@1@1@1@1@1@    1@!@!@Y Y Y Y Y M Y M M M M M M M M !@M M M M M M M M M M A A |+M M M M M M M M M M M M M M M M M M M M M M M 7.A |+M M M M M M !@!@!@!@M F@e@e@e@7 7 7 7 7 7 k+k+k+k+w x x B W W W W W i.i.i.W W i.W z@D@Y               Y Y Y Y Y Y Y Y Y Y Y Y Y Y Y Y Y Y Y Y Y Y Y Y A 5.  A z !@!@!@  w x x B e@z+M M M M M M M M M   M !@A 7.!@!@!@!@!@!@!@!@!@!@!@!@!@!@!@!@        ~ ~ = = = = = = =   = = = = =       = = = = ~ = = ~ ~ = = = = = = ~ =   = = = = = =                 !@!@!@!@!@Y = = = = = = !@",
"Y H@z Y Y Y 1@1@1@Y Y 1@1@Y Y Y Y Y Y Y M M M M M M M M M M M M M M M M M M M M A A |+M M M M M M M M M M M M M M M M M M M M M M M 7.A |+M M M M M M M M M M M !@!@!@              * * * * w x x B i.i.A I@= = ~ ~ ~ ~ = = Y Y Y Y Y Y Y       Y Y Y Y Y Y Y Y Y Y Y Y Y Y Y Y Y Y Y Y Y Y Y Y z 5.z !@!@!@!@!@!@w x x B e@z+M M M M M M M M M M M M A 7.M !@!@!@!@!@!@!@!@!@!@!@!@!@!@!@!@      ~ ~ ~ = = = = = =   = = = = = = = = = |@5@= { ~ = = = = = = = = = = =   = = = = = = =                 !@!@!@!@Y = = = = = = Y ",
"Y H@z Y Y Y Y Y Y Y Y Y Y Y Y J@J@J@!@!@!@!@M M M M M M !@!@M M M M M M M M M M z A |+M M M M M M M M M M M M M M M M M M M M M M M 7.A |+M M M M M M M M M M M !@!@Y               * * * * w x x B i.W A K@~ = ~ ~ ~ ~ ~ Y Y Y 1@Y Y Y Y Y 1@1@1@1@1@Y Y Y Y 1@1@1@Y Y Y Y Y Y Y Y Y Y Y Y Y !@z 5.z !@!@!@!@!@!@w x x B e@z+M M M M M M M M M M M M z L@M M M !@!@!@!@!@!@!@!@!@!@!@!@!@*       ~ ~ ~ = = = = = =   = = = = = = = 8@{ { ] ] ~ = = = = = = = = = = = =     = = = = = = =                 !@!@Y = = = = = = = Y ",
"Y H@z Y Y Y Y Y Y Y Y Y Y Y Y !@!@!@!@!@!@!@!@!@!@!@!@M !@M M M M M M M M M M z z A |+M M M M M M M M M M M M M M M M M M M M M M M 7.A |+M M M M M M M M M M M M M Y               * * * ~ w x x B k+W ~ I@* = = = = = ~ ~ Y 1@1@1@1@1@1@1@Y   M M M 1@1@1@Y Y 1@1@Y Y Y Y 1@1@Y Y Y Y Y Y !@!@z z z z z !@!@!@!@w x x B e@z+M M M M M M M M M M M M z L@M M M M M !@!@!@!@!@!@!@!@!@!@!@!@      ~ ~ ~ = = = = = = = = = = = = = = = = = = = = = = = = = = = = = = = = =   = = = = = = =                       = = = = = = = = ",
"Y H@A Y Y Y Y Y Y Y Y Y Y Y Y !@!@!@!@!@!@!@!@!@!@!@!@!@!@M M M M M M M M M ~ ~ ~ A |+M M M M M M M M M M M M M M M M M M M M M M M !+A M M M M M M M M Y Y Y Y M M Y Y Y           * * * = w x x B W W = = = = = ~ ~ = = ~ 1@1@        Y M M M M M     M 1@1@1@1@1@1@1@1@1@1@1@Y Y Y Y Y Y !@!@z z z z z !@!@!@!@w x x B e@z+M M M M M M M M M M M M z v.M M M M M !@!@!@!@!@!@!@!@!@!@          = = = = = = = = = = { = = = = = = = = = = = = = = = = = = = = = = = = =   =         = = = = =               = = = = = = = = = ",
"= M@A Y Y Y Y Y Y Y Y Y Y Y Y Y !@!@!@!@!@!@!@!@!@!@!@!@!@!@M M M M M M M M ~ ~ ~ ~ |+M M M M M M M M M M M M M M M M M M M M M M M M A N@M M Y M M M M Y Y Y Y M M M Y Y Y             * * w x x B k+i.= = = = = = = = = = 1@M               M       M M |+|+|+|+|+|+|+|+|+|+|+|+M Y Y !@!@M M z z z z z !@!@!@!@w x x B z+z+M M M M M M M M M M M M z z M M M M M M !@Y !@!@!@!@!@              = = = = = = = = = = = = = = = = = = = = = = = = = = = = = = = = = = = = = = =         = = = =               = = = = = = = = = ",
"= H@z Y Y Y Y !@!@!@!@Y Y Y Y Y Y Y Y Y Y Y !@!@!@!@!@!@!@!@!@M M M M M M M ~ ~ ~ ~ |+M M M M M M M M M M M M M M M M M M M M M M M M A O@M M M M M M M Y Y Y Y M M Y Y Y Y Y         * * * w x x B i.i.= = = = = = = = = =                         M M M M M M M M M M M M M M M M M !@!@!@M M G.z z z z z !@!@!@w x x B z+z+M M M M M M M M M M M M 2@z P@M M M M Y Y Y !@!@!@!@            = = = = = = = = = = = = = = = = = = = = = = = = = = = = = = = = = = = = = = = = = =         = = =           = = = = = = = = * = = ",
"= = z Y Y Y !@!@!@!@!@Y Y !@!@!@Y Y Y Y Y Y Y Y Y !@Y Y Y M M M M M M M M M ~ ~ ~ ~ ~ ~ A A M M M M M M M M M M M M M M M M M M M M Q@A R@M M M M M M M M !@!@!@Y Y Y Y Y Y Y       * * * * w x x B i.i.= = = = = = = = = = =                   M M M M M M M M M M M M M M M M M M M M M M M M ~.z z z z z z !@!@w x x B z+z+M M M M M M M M M M M M M z S@M M M M Y Y Y !@!@!@!@        = = = = = = = = = = = = = = = = = = = = = = = = = = = = = = = = = = = = = = = = = = = = = =     = = = =       Y = = = = = = = * * = = ",
"~ ~ ~ = Y Y !@!@!@!@!@Y !@!@!@!@!@!@!@!@!@!@!@!@!@!@!@!@!@M M M M M M M M ~ ~ ~ ~ ~ ~ ~ ~ A M M M M M M M M M M M M M M M M M M M M T@A M M M M M M M !@!@!@!@!@!@!@!@!@!@  !@!@Y   * * = = w x x B W i.= = = = = = = = = = = M                   M M M   M M M M M M M M   M M M M M M M M M M U@z z z z z z !@!@w x x B z+z+M     M M M M M M !@M M P@z V@M M M M M Y !@!@!@!@!@        = = = = = = = = ~ = = = = = = = = = = = = = = = = = = = = = = = = = = = = = = = = = = = = = =   = = = =       = = = = * * * = * = = = ",
"= ~ ~ * v.v.v.v.v.v.v.v.v.v.v.v.v.v.v.v.v.v.v.v.v.v.v.v.v.v.z z z z z ~ ~ ~ ~ ~ ~ ~ ~ ~ ~ ~ A A z z z z z A A A A A A A A A A 7.7.7.A A 7.A A A A A 7.7.7.7.7.7.7.7.7.7.7.7.7.7.7.A = * = = w x x B i.i.= = = = = = = = = = = = A A A A A A 5.5.5.A A A A A A A A A A A A A A A z z z z z z z z z z z z z z z z v.w x x B A@A@z z z z z z z z z z z z z z z z z z z z v.v.v.v.A 7.5.5.5.v.= = = = = = = = = = = = = = = = = = = = = = = = = = = = = = = = = = = = = = = = = = = = = = = = = = = = = = = = = * = * = = = = = = * ",
"~ ~ ~ ~ v.v.v.v.v.v.v.v.v.v.v.v.v.v.z z v.v.v.v.v.v.v.v.v.v.v.v.v.v.~ ~ ~ ~ ~ ~ ~ ~ ~ ~ ~ ] A A z z z z z A A A A A A A A A A A A A A A A A A A A A 7.7.7.7.7.7.7.7.7.7.7.1@1@1@7.A * = = = w x x B i.i.= = = = = = = = = = = = = 1@1@1@1@1@A A A A A A 1@1@1@1@1@1@A A A A A A A z z z z z z z z z z z z v.v.v.z w x x B A@A@z z z z z z z z z z z z z v.z z z z z z v.v.v.v.A 7.7.v.v.= = = = = = = = = = = = = = = = = = = = = = = = = = = = = = = = = = = ~ ~ = = = = = = = = = = = = = = = = = = = W@* * * * * * * * * X@* ",
"* ~ ~ ~ Y Y Y !@!@!@!@Y Y Y Y Y Y Y z v.!@!@!@!@!@Y Y Y Y !@!@!@!@!@~ ~ ~ ~ ~ ~ ~ ~ ~ ~ ~ ~ |+|+z z z z z A 1@1@1@1@V V 1@1@1@1@1@1@1@1@1@1@1@1@1@1@1@1@1@1@1@1@1@1@1@1@1@7.!@M M M M = = = w x x B i.i.= = = = = = = = = = = = = = |+|+|+|+|+M A A A |+|+|+|+|+|+|+|+|+|+|+|+|+|+M 1@1@1@1@1@M M M z z z Y Y Y z w x x B A@A@1@1@1@1@1@z Z X M X X V V Z X X X X V M !@!@!@!@M !@K     = = = = = = = = = = = = = = = = = = = = =   = = = = = = = = ~ ~ ~ ~ ~ ~ ~ = = = = = = = = = = = =  . . .* * * * * 5@5@* * * * * * *   Y ",
"* ~ ~ ~ Y !@!@!@!@Y Y Y Y Y Y Y Y Y z v.Y Y !@!@!@Y Y Y Y !@!@!@M !@~ ~ ~ ~ ~ ~ ~ ~ ~ ~ M M M M z z z z 1@1@X X X X V V V V X X X V X 1@1@X X X X X V V V Z V       1@  *@y       M M M M M w x x B i.i.= = = = = = = = = = = = = = M M M M M M A Y@y |+M M M M M M M M M M M M M M M M M M M M M M !@!@!@!@!@Y Y w x x B Z@Z@X V V V V V Z X V V V V Z Z X V V V V V V !@!@M M * K     * * * * { = = = = = = = = = = = = = = = =   ~ = = = = = { ~ = ~ ~   ~ ~ `@= = = = { = = = = = = = * = = = ~ ~ ~ * * * * * * * * * * * !@",
"~ ~ ~ ~ !@!@!@!@Y Y Y Y Y Y Y Y Y Y z v.Y !@!@!@!@!@1@1@~ F.R.~ ~ ~ ~ F.s+~ ~ ~ ~ ~ ~ ~ ~  #] M A z z z 1@1@V V V V V V V V V V V V V X X V V V V V V V Z Z V           )+y   M M           w x x B i.i.= = = = = = = = = = = = = = M M M M M M M A A |+M M M M M M M M M M M M M M M M M M M M M M 1@z !@!@!@!@Y w x x B .#.#V V V V V V Z Z V V V Z Z X V V V V V V V V Z Z * * * * * * * * * { = = = = = = = = = = = = = = = ~ ~ = ~ = = ~ = = = ~ ~ ~ { ~ ~ `@= ~ { ]  #= ] = = = }@* ^ * * * * * * * * * * * * * * * * * * ",
"~ ~ ~ ~ !@!@!@Y Y Y Y ~ ~ ~ ~ Y Y Y z v.Y !@!@!@!@~ ~ ~ ~ F.~ ~ ~ ~ ~ F.s+~ ~ ~ ~ ~ ~ 8@8@~ ..M M z z 1@1@X V V V V V V V V V V V V V V V V V V V V X X Z V V V V V Z   >@y   M M M         w x x B i.i.= = = = = = = = = = = = = = M M M M M M M A A M M M M M M M M M M M M M M M M M M M M M M M 1@z z !@!@!@!@w x x B .#.#V V V V V V V Z Z V V Z X V V V V V V V V Z Z   * * * = * * * * * * = = = = = = = = = = = = = = = = = = ~ = = = ~ ~ ~   ~ ~ ~ ~ ~ `@~ W@~ ~ ~ ~ +#+#+#}@}@* ^ ^ / * * * * * * * * * * * * * * * * ",
"* ~ ~ ~ ~ !@!@!@Y Y Y ~ ~ ~ ~ Y Y Y z v.!@!@~ ~ ~ ~ ~ ~ ~ F.~ ~ ~ ~ ~ F.s+~ ~ ~ ~ ~ ~ 6@ #* * * M z z 1@1@X V V V V V V V V V V V V V V V V V V V V X Z V V V V V V Y Y *@A M M M M M M M   w x x B i.i.= = = = = = = = = ~ = = = M M M M M M M M A A A M M M M M M M M = = = M M M M M M M M M M M 1@z z !@!@!@!@w x x B .#.#V V V V V V V V Z Z Z Z V V V V V V V V V Z Z !@* * * * * * * * = = * = = = = = = = = = = = = ~ ~ ~ ~ ~ ~ ~ ~ ~ ~ ~     ~ ~ ~ ~ ~ ~ ~ ~ ~ ~ ~ ~ * * * * * * * * * @#@#* * * * * * * * * * * * * * ",
"* ~ ~ ~ ~ Y Y Y !@!@!@~ ~ ~ ~ !@!@!@z v.~ ~ ~ ~ ~ ~ ~ ~ ~ F.~ ~ ~ ~ ~ F.s+~ ~ ~ ~ ~ ~ ~ ~ * ~ * z z z z X V V V V V     V V V V V V V V V V V V V V Z Z V V V V V V Y !@*@A !@|+M M M M M = w x x B i.i.= = = = = = = = = = = = M M M M M M M M M A A z M M M M M M M M ~ ~ ~ M M M M M M M M M M 1@z z Y !@!@!@!@w x x B W .#V V V V V V V V Z Z Z V V V V V V V V       Z   K * * * * * * * * * * * ~ ~ = = = = = = K ] ~ ] ] ] ~ ~ ~ ~ ~ ~ ~ ~ ~ ~ ~ ~ ~ ~ ~ ~ ~ ~ ~ ~ * * * * * * * * * * * * * * * * * * * * * * * * * * * ",
"* ~ ~ ~ ~ Y Y Y Y !@Y Y ~ ~ ~ !@!@!@z ~ ~ ~ ~ ~ ~ ~ ~ ~ ~ F.~ ~ ~ ~ ~ F.s+~ ~ ~ ~ ~ ~ ~ ~ ~ ~ W@+#* z z X V V V V V   V V V V V V V V V   V V V !@V Z X X V V V V V Z !@>@A Y |+= = = = = = w x x B i.i.~ ~ = = ~ ~ ~ ~ ~ ~ ~ ~ M M M M M M M M A A A z M M M M M M M M ~ ~ ~ M M M M M M M M M M 1@z Y ~ ~ ~ ~ !@w x x B W .#V V V V V V V V V V Z V V V V V V V V Z Z Z !@    * * * * * * * * * * * * ~ = = = = = ~ K   ~ ~ ~ ~ ~ ~ ~ ~ ~ ~ ~ ~ ~ ~ ~ ~ ~ ~ ~ ~ ~ ~ ~ * * * * * * * * * * * * * * * * * * * * * * * * * * * * ",
"* * ~ ~ ~ Y Y Y Y Y Y Y ~ ~ ~ !@~ ~ ~ ~ ~ ~ ~ ~ ~ ~ ~ ~ ~ ~ ~ ~ ~ ~ ~ F.s+~ ~ ~ ~ ~ ~ ~ 6@~ ~ * @# .* |@{ { V V V V   V V V V V V V V V V V V V V V Z X V V V V V V Z Y >@A Y |+= = = = = = w x x B W i.= = = = = = = ~ ~ ~ ~ ~ M M M M M M M M A A A M M M M M M M M M ~ ~ ~ M M M M M M M M M M 1@Y !@~ ~ ~ ~ ~ w x x B W G.Z V V V V V V V V V Z V V V V V V V V Z Z Z K K   * * * * * * * * * * * * = = = = = ~ ~ K     ~ ~ ] ] ] ~ ~ ~ ~ ~ ~ ~ ~ ~ ~ ~ ~ ~ ~ ~ * * * * * * * * * * * * * * * * * * * * * * * * * * * * * * ",
"* * ~ ~ ~ Y Y Y Y Y Y Y Y Y ~ ~ ~ ~ ~ ~ ~ ~ !@~ ~ ~ ~ ~ ~ ~ ~ ~ ~ ~ ~ F.s+~ ~ ~ ~ ~ ~ ~ ~ ~ ~ * @# .* @# .* ^ { +#  V V V V V V V V V V V V V V V V V !@!@V V V V V Z 1@!+A 1@|+= = = = = = w x x B i.i.= = ~ ~ ~ ~ ~ ~ ~ ~ ~ ~ M M M M M M M M A A A M M M M M M M M M ~ ~ ~ ~ M M M M M M M M M M 1@  ~ ~ ~ ~ ~ w x x B W W Z Z Z Z Z     Z Z Z Z Z Z Z Z Z Z Z Z Z   ~ * * !@* * * * * * * * * * * * = = = = = @#~ ~       ~ ~ ~ ~ ~ ~ ~ ~ ~ ~ ~ ~ ~ ~ ~ ~ * * * * * * * * * * * * * * * * * * * * * * * * * * * * * * * * * ",
"* * ~ ~ ~ ~ Y Y Y Y Y Y Y Y ~ ~ ~ ~ ~ ~ ~ ~ ~ ~ ~ ~ ~ ~ ~ ~ ~ ~ ~ ~ ~ F.s+~ ~ ~ ~ ~ ~ ~ ~ ~ ~ ~ *  .@#*  .^ @#{ { 9@= V V V V V V V V V V V V V V V V V V V V V V V Z 1@##z 1@|+= = = = = = w x x B i.i.= ~ ~ ~ = ~ ~ ~ ~ ~ ~ M M M M M M M M M M A A M M M M M M M M ~ ~ ~ ~ ~ M M M M M M M M M M 1@!@!@!@~ ~ ~ w x x B W W ~ Z Z Z Z Z Z Z Z Z Z Z Z Z Z Z F.s+* * Z * * * * * * * * * * * * * * * * * = = = @#* ~ * ~       ~ ~ ~ ~ ~ ~ ~ ~ ~ ~ ~ ~ ~ ~ * * * * * * * * * * * * * * * * * * * * * * * * * * * * * * * * * * ",
"* * ~ ~ ~ ~ ~ Y Y Y Y Y ~ ~ ~ ~ ~ ~ ~ ~ ~ ~ ~ ~ ~ ~ ~ ~ ~ ~ ~ ~ ~ ~ ~ F.s+~ ~ ~ ~ ~ ~ ~ ~ ~ ~ ~ ~ * @# . .@#@#}@}@= = = = V V V V V V V V V V V V V V V V V V V V V Z Z ##z M = = = = = = = w x x B i.i.= * = = * ~ ~ ~ ~ ~ ~ ~ M M M M M M M M M A A A M M M M M M M ~ ~ ~ ~ ~ ~ M M M M M M M M M   !@~ ~ ~ ~ ~ w x x B W W ~ 1@1@1@1@1@1@1@1@1@Y Y Y Y !@~ F.s+~ * * * * * * * * * * * * * * * * * * * }@}@}@}@* * @#*           ] ] ~ ~ ~ ~ ~ ~ ~ ~ * * * * * * * * * * * * * * * * * * * * * * * * * * * * * * * * *   * * ",
"~ ~ ~ ~ ~ ~ ~ ~ ~ ~ ~ ~ ~ ~ ~ ~ ~ ~ ~ ~ ~ ~ ~ ~ ~ ~ ~ ~ ~ ~ ~ ~ ~ ~ ~ F.s+~ ~ ~ ~ ~ ~ ~ ~ ~ ~ ~ ~ @#@# . .] }@}@= = = = = = = = V V V V V V V V V V V V V V V V V V Z Z z = = = = = = = = = w x x B i.k+= = = = = * * * * * * * ~ M M M M M M M M A A A M M M M M M M ~ ~ ~ ~ ~ ~ M M M ~ s+~ ~ M !@!@~ ~ ~ ~ ~ ~ w x x B W W ~ ~ Y Y Y Y Y Y Y Y Y Y Y Y Y * F.s+* * * * * * * * * +#* * * *     * * * }@}@}@}@}@$#* * }@          ~ ] ~ ~ ~ ~ ~ ~ * * * * * * * * * * F.* * * * * * * * * * * * * * * * * * * * * * * * *   ~ ",
"~ ~ ~ ~ ~ ~ ~ ~ ~ ~ ~ ~ ~ ~ ~ ~ ~ ~ ~ ~ ~ ~ ~ ~ ~ ~ ~ ~ ~ ~ ~ ~ ~ ~ ~ F.s+~ ~ ~ ~ ~ ~ ~ ~ ~ ~ ~ ~ @#@# .@#@#* * = = = = = = = = = = = = V V V V V V V V V V V V V V Z = = = = = = = = = = = w x x B i.k+= = = * * * * * * * * * * ~ M M M M M M A A A A M M M ~ ~ ~ M ~ ~ ~ ~ ~ ~ M M M ~ s+~ ~ ~ ~ ~ ~ ~ ~ ~ ~ ~ w x x B W W ~ ~ Y Y Y Y Y Y Y Y Y Y Y     ~ F.s+~ ^ ^ 9@* 9@}@}@}@}@6@* * * }@6@* }@}@* }@* *   %#* * *       ~ ~ ~ ~ ~ ~ ~ ~ ~  . .* * * * * * * * * F.* * * * F.* * * * * * * * * * * * * * * * * * * ~ ~ ~ ",
"~ ~ ~ ~ ~ ~ ~ ~ ~ ~ ~ ~ ~ ~ ~ ~ ~ ~ ~ ~ ~ ~ ~ ~ ~ ~ ~ ~ ~ ~ ~ ~ ~ ~ ~ F.s+~ ~ ~ ~ ~ ~ ~ ~ ~ ~ ~ ~ ~ @# . .@#* * * = = = = = = = = = = = = = = = = = = = = = = Z Z Z Z = = = = = = = = = = = w x x B k+i.* * * * * * * * * * * * * * ~ A A A A A A A A A M M M ~ ~ ~ M M M M ~ ~ ~ ~ !@!@~ s+~ ~ ~ ~ ~ ~ ~ ~ ~ ~ ~ w x x B W W ~ ~ Y Y Y Y Y Y Y Y Y Y Y     R.F.s+}@* +#* +#+#+#+#+#+#+#+#+#+#+#+#  * * * }@}@}@}@}@}@* }@] ] ] ] ~ ~ ~ ~ ~ ~ ~ ~  .* * * * * * * * * * F.* * * * F.* * * * * * * * * * * * * * * * * * ~ ~ ~ ~ ",
"~ ~ ~ ~ ~ ~ ~ ~ ~ ~ ~ ~ ~ ~ ~ ~ ~ ~ ~ ~ ~ ~ ~ ~ ~ ~ ~ ~ ~ ~ ~ ~ ~ ~ ~ F.R.~ ~ ~ ~ ~ ~ ~ ~ ~ ~ ~ ~ ~ @#@# . .* }@= = = = = = = = = = = = = = = = = = = = = = = = = = = = = = = * * * }@}@* * w x x B k+&#* * * * * * * * * * * * * * * * ~ ~ ~ * * A A A A M M ~ ~ ~ z z   M ~ ~ ~ ~ ~     s+~ ~ ~ ~ ~ ~ ~ ~ ~ ~ ~ w x x B W W ~ ~ Y ~ ~ ~ ~ Y Y Y Y Y Y Y   R.F.s+}@9@9@9@9@+#+#+#+#* * +#* * * *   * }@}@}@    }@}@}@}@/ ~ ~ ~ ~ ~ ] ~ ~ ~ ~ ~ ~ * * * * * * * * * * * F.* * * * F.* * * * * * * * * * * * * * * * * ~ ~ ~ ~ ~ ",
"~ ~ ~ ~ ~ ~ ~ ~ ~ ~ ~ ~ ~ ~ ~ ~ ~ ~ ~ ~ ~ ~ ~ ~ ~ ~ ~ ~ ~ ~ ~ ~ ~ ~ ~ F.R.R.~ ~ ~ ~ ~ ~ ~ ~ ~ ~ ~ ~ @#@#] ] * }@= = = = = = = = = = = = = = = = = = = = = = = ] ] * * * * * { * * * { * * * w x x B k+*#* * * * * * * * * * * * * * * * * =#~ ~  . .A A A M ~ ~ ~ ~ z z M     ~ ~ ~ ~ ~ ~ s+~ ~ ~ ~ ~ ~ ~ ~ ~ ~ ~ w x x B W W ~ Y Y ~ ~ ~ ~ Y Y Y Y Y Y Y   R.F.s+-#~ ~ ^ ^ * *   6@+#+#+#}@}@* }@  }@}@}@}@  }@9@}@9@~ ~  .] ~ ] ] ] ] ] ~ ~ ~ ~ * * * * * * * * * * * F.* * * * F.* * * * * * * * * * * * * * * * ~ ~ ~ ~ * ~ ",
"~ ~ ~ ~ ~ ~ ~ ~ ~ ~ ~ ~ ~ ~ ~ ~ ~ ~ ~ ~ ~ ~ ~ ~ ~ ~ ~ ~ ~ ~ ~ ~ ~ ~ ~ F.R.R.~ ~ ~ ~ ~ ~ ~ ~ ~ ~ ~ ~ @# . . .* * +#= = = = = = = = = = = = = = = = = = = = * * * * * * * * * { * * { { * * * w x x B *#k+* * * * * * * * * * * * * * * * * *  .~ ~  .A A z z ~ ~ ~ ~ ~ ~ ~ ~ ~ ~ ~ ~ ~ ~ ~ s+~ ~ ~ ~ ~ ~ ~ ~ ~ ~ ~ w x x B W W z z z ~ ~ ~ ~ = z z z z z z }@R.F.s+~ ~ = = = = = }@5.5.* |@|@* * }@}@}@] ] ] ] * * ~ { { { ] ( ~ ] ~ ~ ~ ~ ~ ~ ~ ~ * * * * * * * * * * * F.* * * * F.* * * * * * * * * * * * * * ~ ~ ~ * * * * * ",
"~ ~ ~ ~ ~ ~ ~ ~ ~ ~ ~ ~ ~ ~ ~ ~ ~ ~ ~ ~ ~ ~ ~ ~ ~ ~ ~ ~ ~ ~ ~ ~ ~ ~ ~ F.R.~ ~ ~ ~ ~ ~ ~ ~ ~ ~ ~ ~ ~ ~ ~ ~ ~  . . . .* * * * * * * * * * * * * * * * * * * * * * * * * = * * * = * { { * * * w x x B k+k+* * * * * * * * * * * A * * * * * =#=#=#=# . .z ~ ~ ~ ~ ~ ~ ~ ~ ~ ~ ~ ~ ~ ~ ~ ~ ~ s+~ ~ ~ ~ ~ ~ ~ ~ ~ ~ ~ w x x B C@C@G.G.G.~ ~ = = = G.G.G.G.G.G.= R.F.s+= = * = = +#= = = '+= = = +#= = = ] ] { {   ] ~ { { ~ { { { { { { { { { { ~ { { { { * * * * F.{ * * * F.* * * * F.* * * * * * * * * * * * * * * * * * * ~ ~ ~ ",
"~ ~ ~ ~ ~ ~ ~ ~ ~ ~ ~ ~ ~ ~ ~ ~ ~ ~ ~ ~ ~ ~ ~ ~ ~ ~ ~ ~ ~ ~ ~ ~ ~ ~ ~ F.s+~ ~ ~ ~ ~ ~ ~ ~ ~ ~ ~ ~ ~ ~ ~ ~ ~  . . . . .* * * * * * * * * * * * * * * * * * * * * * * * = * = = * * * * * * * w x x B k+k+* * * * * * * * * * * * * * * * * * =#=#=# . . .~ * ~ ~ ~ ~ ~ ~ ~ ~ ~ ~ ~ ~ ~ ~ ~ s+~ ~ ~ ~ ~ ~ ~ ~ ~ ~ ~ w x x B W W ~ Y Y = = ~ = = = Y   Y Y Y = R.F.  * = = = = = = = =   = = = * = = = = = { * ] = = = = ~ = = = ~ { { { { { { { { { { * * * * * F.* { { { {  #* * * F.* * * K * * * * * * * * * * * * * ~ ~ * ~ ~ ",
"* ~ ~ ~ ~ ~ ~ ~ ~ ~ ~ ~ ~ ~ ~ ~ ~ ~ ~ ~ ~ ~ ~ ~ ~ ~ ~ ~ ~ ~ ~ ~ ~ ~ ~ F.s+~ ~ ~ ~ ~ ~ ~ ~ ~ ~ ~ ~ ~ ~ ~ ~ ~ ~ ~ ~ ~ ~ ~ * * * * * * * * * * * * * * * * * = = = * = = = = * * * * * * = * * w x x B k+k+* * * * * * * * * * * * * * * * * * * * * =#=# . . . .~ ~ ~ ~ ~ ~ ~ ~ ~ ~ ~ ~ ~ ~ s+~ ~ ~ ~ ~ ~ ~ ~ ~ ~ ~ w x x B W W = = = = = = = = = Y Y Y Y Y * R.F.  = = = = = = * = = = * * * = = = = = = = = = = = = = = = = = = = = = = = = = ~ |@{ |@* * * { F.|@|@* * * * * * * F.* * * * * * * * * * * * * * * * * * * * ~ ~ ",
"~ ~ ~ ~ ~ ~ ~ ~ ~ ~ ~ ~ ~ ~ ~ ~ ~ ~ ~ ~ ~ ~ ~ ~ ~ ~ ~ ~ ~ ~ ~ ~ ~ ~ ~ F.s+~ ~ ~ ~ ~ ~ ~ ~ ~ ~ ~ ~ ~ ~ ~ ~ ~ ~ ~ ~ ~ ~ ~ ~ ~ ~ ~ ~ ~ * * * * * * * * * * * * * * = = * * * * * * * = = * * = w x x B k+k+* * * * * * * * * * * * * * * * * * * * * * =#=#=#=# .~ ~ ~ ~ ~ ~ ~ ~ ~ ~ ~ ~ ~ ~ s+~ ~ ~ ~ ~ ~ ~ ~ ~ ~ ~ w x x B W W ~ ~ = = = = = ~ = }@}@Y Y 9@9@=#F.  = * * @#= = 9@= = = = * = = = = = = = = { ~ ~ = = = = = ~ = = { = = = = = = = = = ..= = = = F.* = = * * * * * * F.* * * * * * * * * * * * ~ * * ~ * * * * ~ ~ ",
"~ ~ ~ ~ ~ ~ ~ ~ ~ ~ ~ ~ ~ ~ ~ ~ ~ ~ ~ ~ ~ ~ ~ ~ ~ ~ ~ ~ ~ ~ ~ ~ ~ ~ ~ F.s+~ ~ ~ ~ ~ ~ ~ ~ ~ ~ ~ ~ ~ ~ ~ ~ ~  .~ ~ ~ ~ ~ ~ ~ ~ ~ ~ ~ * * * * * * * = * * * * = = = * * = = = = = = = * * * * w x x B k+k+* * * * * * * * * * * * * * * * * * * * * * * * * * =#~ ~ ~ ~ ~ ~ ~ ~ ~ ~ ~ ~ ~ ~ s+~ ~ ~ ~ ~ ~ ~ W@W@;#;#w x x B >#># # # #{ = = ~ ~ = ~ * = = = = = F.s+= = = = = = 9@= = = = = = = = = ] = = / { { { = = = = ~ ~ = = = = = { { = { { = = = = = { * F.= * *  #* * * * * F.* * * * * * * * * * * * ~ * * ~ * * * ~ * ~ ",
"~ ~ ~ ~ ~ ~ ~ ~ ~ ~ ~ ~ ~ ~ ~ ~ ~ ~ ~ ~ ~ ~ ~ ~ ~ ~ ~ ~ ~ ~ ~ ~ ~ ~ ~ F.s+~ ~ ~ ~ ~ ~ ~ ~ ~ ~ ~ ~ ~ ~ ~ ~ * * * * * * * * * * * * * * * * * * * * * = * = = = = = = = = = = = = = = = = = * w x x B k+k+* * * * * * * * * * * * * * * * * * * * * * * * * * * ~ ~ ~ ~ ~ ~ ~ ~ ~ ~ ~ ~ ~ ~ s+~ ~ ~ ~ ~ ~ ~ ~ ~ W@W@w x x B &#W ~ ~ ~ ~ = = = = = = = = = = = = F.s+* = = = = = = = = ] = * = = = = = = = { ~ ~ = = { = = = = { = = = = = { = { }@{ { = = = * = F.* * { { {  #* * * F.* * * * * * * * * * * * ~ ~ * * * * * ~ ~ ~ ",
"~ ~ ~ ~ ~ ~ ~ ~ ~ ~ ~ ~ ~ ~ ~ ~ ~ ~ ~ ~ ~ ~ ~ ~ ~ ~ ~ ~ ~ ~ ~ ~ ~ ~ R.F.s+~ ~ ~ ~ ~ ~ ~ ~ ~ ~ ~ ~ ~ ~ ~ ~ ~ ~ ~ ~ ~ ~ ~ ~ ~ * * * * * ~ ~ ~ ~ ~ ~ ~ ~ = = = = = = = = = = = = = = = = = = = w x x B k+k+* * * * * * * * * * * * * * * * * * * * * * * * * * * ~ ~ ~ ~ ~ ~ ~ ~ ~ ~ ~ ~ ~ ~ s+~ ~ ~ ~ ~ ~ ~ ~ ~ ~ ~ w x x B W W = = = = = = = = = * = = = = * = F.s+= =#] = = = = = ] = = = = = = = = = = = = = = = = = = = = = = = = = = = = = ~ }@{ { = * |@|@F.|@|@{ |@* * * * * * * * * * * * * * * * * * ~ ~ * * ~ * * ~ ~ ~ ",
"~ ~ ~ ~ ~ ~ ~ ~ ~ ~ ~ ~ ~ ~ ~ ~ ~ ~ ~ ~ ~ ~ ~ ~ ~ ~ ~ ~ ~ ~ ~ ~ ~ ~ R.F.s+~ ~ ~ ~ ~ ~ ~ ~ ~ ~ ~  . . .* * * * * ~ ~ ~ ~ ~ ~ ~ ~ ~ * ~ ~ ~ ~ ~ ~ ~ ~ ~ = = = = = = = = = = = = = = = = = = = w x x B i.i.~ ~ ~ * * * * * * * * * * * * * * * * * * * * * * * ~ ~ ~ ~ ~ ~ ~ ~ ~ ~ ~ ~ ~ ~ ~ s+~ ~ ~ ~ ~ ~ ~ ~ ~ ~ ;#w x x B W W ~ = = = = = = ~ = * * * * * = }@F.s+= * * * = = = = = = * = = = = = = = = = = = = = = = = = = = { = ~ = = = = = = ~ ~ =  .= = * F.= |@* * * * * * * * * * * * * * * * * * * * ~ ~ * * ~ ~ * ~ * * ",
"~ ~ ~ ~ ~ ~ ~ ~ ~ ~ ~ ~ ~ ~ ~ ~ ~ ~ ~ ~ ~ ~ ~ ~ ~ ~ ~ ~ ~ ~ ~ ~ ~ ~ R.F.s+~ ~ ~ ~ ~ ~ ~ ~ ~ ~ ~ ~ ~ ~ ~ ~ ~ ~ ~  . .~ ~ ~ ~ * * * * = = * ~ ~ ~ ~ ~ = = = = = = = = = = = = = = = = = = = = w x x B W i.= ~ = = = = ~ ~ ~ ~ * * * * * * * * * * * * * * * * ~ ~ ~ ~ ~ ~ ~ ~ ~ ~ ~ ~ ~ ~ ~ s+~ ~ ~ ~ ~ ~ ~ ~ W@W@;#w x x B >#,# # # #~ ~ ~ = = = = = * = = = 6@F.s+= = = = * * = = = = 8@] = = = = = = = * = = = = = = ~ { = { { ~ = = { { { = = ..= = = = * = F.{ * * * * * * * * * * * * * * * * * * * * * ~ ~ ~ * ~ ~ * ~ ~ * ",
"~ ~ ~ ~ ~ ~ ~ ~ ~ ~ ~ ~ ~ ~ ~ ~ ~ ~ ~ ~ ~ ~ ~ ~ ~ ~ ~ ~ ~ ~ ~ ~ ~ ~ R.F.s+~ ~ ~ ~ ~ ~ ~ ~ ~ ~ ~ ~ ~ ~ ~ ~ ~ ~ ~ ~  . . .~ ~ * * * = = = = = = = = = = = = = = = = = = = = = = = = = = = = = w x x B i.i.= = ~ = = = ~ = = = = ~ * * * * * * * * * * * * * * ~ ~ ~ ~ ~ ~ ~ ~ ~ ~ ~ ~ ~ ~ ~ s+~ ~ ~ ~ ~ ~ ~ ~ ~ ~ W@w x x B W &#~ ~ ~ ~ = = = = = = = = = = = = F.s+= = = = = = = = = = = = = = = = = = = { { = = = = = = = = = { { { = { = { { { }@= { = = * * F.= { { {  # #] * * * * * * * * * * * * * * * * ~ ~ * ~ ~ * * ~ * ",
"* ~ ~ ~ ~ ~ ~ ~ ~ ~ ~ ~ ~ ~ ~ ~ ~ ~ ~ ~ ~ ~ ~ ~ ~ ~ ~ ~ ~ ~ ~ ~ ~ ~ ~ F.s+~ ~ ~ ~ ~ { { ~ ~ ~ ~ ] ] ] { { { { { ~ ~ { { ~ ~ * * * = * W@= = = = = = = = = = = = = = = = = = = = = = = = = = w x x B i.i.= = = = = = = = = ~ ~ * * * * ~ ~ ~ = ~ ~ ~ ~ ~ ~ ~ ~ ~ ~ ~ ~ ~ ~ ~ ~ ~ ~ ~ ~ ~ ~ s+~ ~ ~ ~ ~ ~ ~ ~ ~ ~ ~ w x x B W W ~ = = = ~ = ~ * = = = = = = = = F.s+= = = ] = = = = ] = = * = = = = = * * { = = = = = = = = = = = { = = = = }@}@}@}@= { |@* * |@F.|@= |@* * * * * * * * * * * * * * * * * * * * ~ ~ ~ * ~ ~ * ~ ~ ",
"* ~ ~ ~ ~ ~ ~ ~ ~ ~ ~ ~ ~ ~ ~ ~ ~ ~ ~ ~ ~ ~ ~ ~ ~ ~ ~ ~ ~ ~ ~ ~ ~ ~ ~ F.s+~ ~ ~ ~ ~ ~ ~ { { { { { { { ] ~ ] { { { { { ] ] { ] ] = = ~ = = = = = = = = = = = = = = = = = = = = = = = = = = = w x x B i.i.= = = = ~ ~ * = = = = ~ ~ ~ ~ ~ = = = = ~ ~ ~ ~ ~ ~ ~ ~ ~ ~ ~ ~ ~ ~ ~ ~ ~ ~ ~ ~ ~ s+~ ~ ~ ~ ~ ~ ~ ~ ~ ~ ~ w x x B W W ~ ~ ~ = = = * * * * * * * * = = F.s+] = = = = = = = = = = = = = = = = = * ~ = = = = = = = = = = = = ~ ~ ~ }@= = = = = * * = = * F.* * * * * * * * * * * * * * * * * * * * * ~ ~ ~ ~ ~ * ~ ~ * ~ ~ ",
"~ ~ ~ ~ ~ ~ ~ ~ ~ ~ ~ ~ ~ ~ ~ ~ ~ ~ ~ ~ ~ ~ ~ ~ ~ ~ ~ ~ ~ ~ ~ ~ ~ ~ ~ F.s+~ ~ ~ ~ ~ ~ ~ ~ ~ ~ ~ ~ ~ ] ] ] ~ ] ] ~ ~ ~ ~ { { { ] +#+#= = = = = = = = = = = = = = = = = = = = = = = = = = = = w x x B i.i.= = = = = = = = = = = ~ ~ ~ ~ ~ ~ ~ ~ ~ ~ ~ ~ ~ ~ ~ ~ ~ ~ ~ ~ ~ ~ ~ ~ ~ ~ ~ ~ ~ ~ s+~ ~ ~ ~ ~ ~ ~ ~ W@W@;#w x x B >#W ~ ~  #{ y@= = ~ = = ~ * * * ~ = F.s+6@= = = = = = ] * * * * ] = ] ] = = { { = = = * ~ ~ }@= = = }@~ ~ ~ ~ ~ = = = = = = = = * = F.* * * * * * * * * * * * * * * * * * * * * ~ ~ * ~ ~ ~ ~ ~ ~ ~ ~ ",
"~ ~ ~ ~ ~ ~ ~ ~ ~ ~ ~ ~ ~ ~ ~ ~ ~ ~ ~ ~ ~ ~ ~ ~ ~ ~ ~ ~ ~ ~ ~ ~ ~ ~ ~ F.s+~ ~ ~ ~ ~ ~ ~ ~ ~ ~ ~ ] ~ ~ ~ ~ ~ ~ ~ ~ ~ ~ = = = = = = = = = = = = = = = = = = = = = = = = = = = = = = = = = = = w x x B i.i.= = = = = = = = = = = = = = = = ~ ~ ~ ~ ~ ~ ~ ~ ~ ~ ~ ~ ~ ~ ~ ~ ~ ~ ~ ~ ~ ~ ~ ~ ~ s+~ ~ ~ ~ ~ ~ ~ ~ ~ ~ ~ w x x B &#W ~ ~ ~ ~ ~ { ~ * * ~ = = * ~ = = F.s+* = * ] = = = { ( { { = = = = = { * ~ }@}@}@~ ~ ~ ~ ~ ~ ~ ~ ~ ~ ~ ~ ~ ~ ~ ~ * * * = = = * * F.= * * * * * * * * * * * * * * * * * * * * * ~ ~ ~ ~ ~ ~ ~ ~ ~ ~ ",
"~ ~ ~ ~ ~ ~ ~ ~ ~ ~ ~ ~ ~ ~ ~ ~ ~ ~ ~ ~ ~ ~ ~ ~ ~ ~ ~ ~ ~ ~ ~ ~ ~ ~ ~ F.s+~ ~ ~ ~ ~ { { ~  #{ ~ ] ] ~ ~ { = = = = = = = = = = = = = = = = = = = = = = = = = = = = = = = = = = = = = = = = = w x x B i.i.= = = = = = = = = = = = = = = = = = = = F.= ~ ~ = = = = ~ = ~ = ~ ~ ~ ~ ~ ~ ~ ~ ~ s+~ ~ ~ ~ ~ ~ ~ ~ ~ ~ ~ w x x B W W ~ ~ ~ ~ ~ ~ ~ * ~ ~ * * ~ ~ * * F.s+* * * ] ] ] ] * * 6@{ ] * 9@9@9@~ * ~ ~ ~ ~ ~ ~ ~ ~ ~ ~ ~ ~ ~ ~ ~ ~ ~ ~ ~ ~ ..............=#F.* * * * * * * * * * * * * * * * * * * * * * ~ ~ ~ ~ ~ ~ ~ ~ ~ ~ ",
"~ ~ ~ ~ ~ ~ ~ ~ ~ ~ ~ ~ ~ ~ ~ ~ ~ ~ ~ ~ ~ ~ ~ ~ ~ ~ ~ ~ ~ ~ ~ ~ ~ ~ ~ F.s+~ ~ ~ ~ ~ ~ { ~ { { { { { { ] = = = = = = = = = = = = = = = = = = = = = 8@~ = = = = = = = = = = = = = = = = = = = w x x B i.i.= = = = = = = = = = = = = = = = = = = = F.s+~ = ~ = = = = = = = ~ ~ ~ ~ ~ ~ ~ ~ ~ s+~ ~ ~ ~ ~ ~ ~ ~ ~ ~ ~ w x x B W W ~ ~ ~ ~ ~ ~ ~ ~ ~ ~ ~ ~ ~ * }@}@F.* * * ] ] ] ] ] ] * * * * * * * * ~ ~ ~ ~ ~ ~ ~ ~ ~ ~ = = = = = = = = = = = = = * = = = * * @#F.* ~ ~ ~ ~ @#* * W+W+W+W+W+W+* W+* W+* * * ~ 6@6@6@{ { {  # # #}@",
"~ ~ ~ ~ ~ ~ ~ ~ ~ ~ ~ ~ ~ ~ ~ ~ ~ ~ ~ ~ ~ ~ ~ ~ ~ ~ ~ ~ ~ ~ ~ ~ ~ ~ ~ F.~ ~ ~ ~ ~ ~ ~ ~ ~ ~ ~ ~ { { ~ ] = = = = = = = = = = = = = = = = = = = = = = = = = = = = = = = = = = = = = = = = = = w x x B i.i.= = = = = = = = = = = = = = = = = = = = F.s+~ ~ ~ ~ = ~ ~ ~ ~ ~ ~ ~ ~ ~ ~ ~ ~ ~ ~ s+~ ~ ~ ~ ~ ~ ~ ~ ~ ~ ~ w x x B W W ~ ~ ~ ~ * ~ ~ ~ ~ ~ ~ ~ * * * * F.}@}@8@+#* * * * * * * * * * * * ~ ~ ~ ~ ~ ~ ~ ~ = = = = = = = = = = = = = = = = = = = = = = = F.= = = = = = = = W+] = = = = = = = = = = = = { { = { 6@|@|@|@] W+",
"] `@}@}@9@9@9@~ ~ }@9@}@}@}@}@}@}@}@~ ~ ~ ~ ~ ~ ~ ~ ~ ~ ~ ~ ~ ~ ~ ~ ~ F.~ ~ ~ ~ ~ ~ ~ ~ ~ ~ ~ ~ ~ ~ ~ ~ = = = = = = = = = = = = = = = = = = = = = = = = = = = = = = = = = = = = = = = = = = w x x B i.i.= = = = = = = = = = = = = = = = = = = = F.s+= = = = = = ~ ~ ~ ~ ~ ~ ~ ~ ~ ~ ~ ~ ~ s+~ ~ ~ ~ ~ ~ ~ ~ ~ ~ ~ w x x B W W ~ ~ ~ * * ~ ~ ~ ~ ~ ~ ~ * * * * F.* * * * * * * * * * * * * * * * ~ * * ~ ~ ~ ~ = = = = = = = = = = = = = = = = = = = = = = = = F.= = = = = = = = = = = = = = = = = = = = = = = = = =  # # # # #|@",
"}@9@}@}@}@}@}@}@}@}@}@}@9@9@}@|@~ }@~ ~ ~ ~ ~ ~ ~ ~ ~ ~ ~ ~ ~ ~ ~ ~ ~ F.~ ~ ~ ~ ~ ~ ~ ~ ~ ~ ~ ] ] ] ~ { { = = = = = = = s+= = = = = = = = = = = = = = = = = = = = = = = = = = = = = = = = = w x x B i.i.= = = = = = = = = = = = = = = = = = = R.F.= = = = = = = = = = = = ~ ~ ~ ~ ~ ~ ~ ~ ~ ~ ~ ~ ~ ~ ~ ~ ~ ~ ~ ~ w x x B W W ~ ~ ~ ~ ~ ~ ~ ~ ~ ~ ~ * * * * * F.* * * * * * * * * * * * * * * * * * * ~ ~ ~ ~ = = = = = = = = = = = = = = = = = = = = = = = = F.= = = = = = = = = = = = = = = = = = = = = = = = = = = = = = }@}@",
"] ] }@~ ~ ~ }@~ ~ ~ }@~ ~ ~ ~ ~ ~ ~ ~ ~ ~ ~ ~ ~ ~ ~ ~ ~ ~ ~ ~ ~ ~ ~ ~ F.~ ~ ~ ~ ~ ~ ~ ~ ~ { { { { { { ] { { { ] { { { ] s+{ ~ ~ ~ ~ ~ = = = = = = = = = = = = = = = = = = = = = = = = = ~ ~ w x x B i.i.= = = = = = = = = = = = = = = = = = = R.F.= = = = = = = ~ = = = ~ ~ ~ ~ ~ ~ ~ ~ ~ ~ ~ ~ ~ ~ ~ ~ ~ ~ ~ ~ ~ w x x B W W ~ ~ ~ ~ ~ ~ ~ ~ ~ * * * * * * * F.* * * * * * * * * * * * * * * ~ ~ * * * ~ ~ ~ ~ = = = = = = = = = = = = = = = = = = = = = = = F.= = = = = = = = = = = = = = = = = = = = = = = = = = = = = = = = ",
"-#~ ~ ~ ~ ~ ~ ~ ~ ~ ~ ~ ~ ~ ~ ~ ~ ~ ~ ~ ~ ~ ~ ~ ~ ~ ~ ~  .~ ~ ~ ~ ~ ~ F.~ ~ ~ ~ ~ ~ ~ ~ ~ ~ ~ ~ ~ ~ ] ] ] ] ] ~ ~ ~ s+s+s+{ ~ ~ ~ ~ ~ 4@= = = = = = = = = = = = = = = = = = = = = = = = = ~ w x x B i.i.= = = = = = = = = = = = = = = = = = = R.F.s+= ~ ~ ~ ~ ~ ~ ~ ~ ~ ~ ~ ~ ~ ~ ~ ~ ~ ~ ~ ~ ~ ~ ~ ~ ~ ~ ~ ~ ~ ~ w x x B W W ~ ~ ~ ~ ~ ~ ~ ~ * * * * * * * * F.* * * * * * * * * * * * * * * ~ * * * * * ~ ~ ~ ~ ~ ~ = = = = = = = = = = = = = = = = = = = = F.= = = = = = = = = = = = = = = = = = = = = = = = = = = = ~ |@~ -#",
"`@}@~ ~ 9@9@}@9@}@}@}@}@}@~ ~ ~ }@~ |@~ ~  .~ ~ ~ ~ ~ ~ ~ ~ ~ ~ ~ ~ ~ F.~ ~ ~ ~ ~ ~ ~ ~ ~ ~ ~ ~ ~ ~ ~ ~ ~ ~ ~ ~ ~ ~ s+s+~ ~ ~ ~ ~ ~ ~ ~ ~ = = ~ ] = = = = = = = = = = = = = = = = = = = = = w x x B i.i.= = = = = = = = = = = = = = = = = = = R.F.s+= = = = ~ ~ ~ ~ ~ ~ ~ ~ ~ ~ ~ ~ ~ ~ ~ ~ ~ ~ ~ ~ ~ ~ ~ ~ ~ ~ ~ w x x B W W ~ ~ ~ ~ ~ ~ ~ ~ * * * * * * * * F.* * * * * * * * * * * * * * * * * * * * * ~ ~ ~ ~ ~ ~ = = = = = = = = = = = = = = = = = = = = F.= = = = = = = = = = = = = = = = = = = = = = = = = = = = = = = = ",
"= = 9@}@}@9@}@}@~ }@}@9@9@~ ~ |@|@~ ~  .~ ~ ~ ~ ~ ~ ~ ~ ~ ~ ~ ~ ~ ~ ~ ~ ~ ~ ~ ~ ~ ~ ~ ~ ~ ~ ~ * * * ~ ~ ~ ~ ~ ~ ~ ~ s+~ ~ ~ ~ ~ ~ ~ ~ ~ 4@= = '#= = = = = = = = = = = = = = = = = = = = = = w x x B i.i.= = = = = = = = = = = = = = = = = = R.R.F.s+= = = = = = = = = = = ~ ~ ~ ~ ~ ~ ~ ~ ~ ~ ~ ~ ~ ~ ~ ~ ~ ~ ~ ~ w x x B W W ~ ~ ~ ~ ~ ~ * * * * * * * * * * F.* * * * * * * * * * * * * * * ~ * * * ~ ~ ~ ~ ~ ~ ~ ~ ~ = = = = = = = = = = = = = = = = = = = F.= = = = = = = = = = = = = = = = = = = = = = = = = = = = = = = = ",
"= = = 9@~ ~ ~ ~ ~ ~ 9@9@9@~ ~ 9@~ ~ ~ ~ ~ ~ ~ ~ ~ ~ ~ ~ ~ ~ ~ ~ ~ ~ ~ ~ ~ ~ ~ ~ ~ ~ ~ ~ ~ ~ * * * * ~ ~ ~ ~ ~ ~ ~ ~ s+* * ~ ~ ~ ~ ~ * * ~ 4@= 4@= = = = = = = = = = = = = = = = = = = = = = w x x B i.i.= = = = = = = = = = = = = = = = = = R.R.F.s+= = = = = = ~ = = = ~ ~ ~ ~ ~ ~ ~ ~ ~ ~ ~ ~ ~ ~ ~ ~ ~ ~ ~ ~ ~ w x x B W W ~ ~ ~ ~ ~ * * * * * * * * * * * F.* * * * * * * * * * * * * * * ~ ~ * * ~ ~ ~ ~ ~ ~ ~ ~ ~ = = ~ = = = = = = = = = = = = = = = = F.= = = = = = = = = = = = = = = = = = = = = = = = = = = = = = = = ",
"= = = ~ ~ ~ ~ ~ ~ ~ ~ ~ ~ ~ 9@9@~ ~ ~ ~ ~ ~ ~ ~ ~ ~ ~ ~ ~ ~ ~ ~ ~ ~ ~ ~ ~ ~ ~ ~ ~ ~ ~ ~  .* * * * * * ~ ~ ~ ~ ~ ~ ~ s+* * * * * * * * * = = ~ ~ ~ = = = = = = = = = = = = = = = = = = = = = w x x B i.i.= = = = = = = = = = = = = = = = = = R.R.F.s+= = = ~ ~ ~ ~ ~ ~ ~ ~ ~ ~ ~ ~ ~ ~ ~ ~ ~ ~ ~ ~ ~ ~ ~ ~ ~ ~ ~ ~ w x x B W W ~ ~ ~ ~ ~ ~ * * * * * * * * * * F.* * * * * * * * * * * * * * * ~ ~ ~ ~ ~ ~ ~ ~ ~ ~ ~ ~ ~ { = = = = = = = = = = = = = = = = = = F.= = = = = = = = = = = = = = = = = = = = = = = = = = = = = = = = ",
"= = ~ }@}@9@9@9@~ 9@~ ~ }@~ 9@}@~ }@~ ~ ~ ~ ~ ~ ~ ~ ~ ~ ~ ~ ~ ~ ~ ~ ~ ~ ~ ~ ~ ~ ~  . . . .* * * * * * * ~ ~ ~ ~ ~ * * * * * * * * * * * * = ~ = = = = = = = = = = = = = = = = = = = = = = = w x x B i.i.= = = = = = = = = = = = = = = = = = R.R.F.s+= = = ~ ~ ~ ~ ~ ~ ~ ~ ~ ~ ~ ~ ~ ~ ~ ~ ~ ~ ~ ~ ~ ~ ~ ~ ~ ~ ~ ~ w x x B W W * ~ * * ~ ~ * * * * * * * * * * F.* * * * * * * * * * * * * * * * * ~ ~ ~ ~ ~ ~ ~ ~ ~ ~ +#= = = = = = = = = = = = = = = = = = = F.= = = = = = = = = = = = = = = = = = = = = = = = = = = = = = = = ",
"}@~ 9@}@}@~ }@}@~ }@}@9@}@9@9@}@~ |@~ ~ ~ ~ ~ ~ ~ ~ ~ ~ ~ ~ ~ ~ ~ ~ ~ ~ ~ ~  . . . . .* * * * * * * * * * * * * * * * * * * * * * * * * * * ~ ~ ~ ~ ~ = = = ~ ~ = = = = = = = = = = = = = = w x x B i.i.= = = = = = = = = = = = = = = = = = = = F.s+= = = = = = = ~ ~ ~ ~ ~ ~ ~ ~ ~ ~ ~ ~ ~ ~ ~ ~ ~ ~ ~ ~ ~ ~ ~ ~ w x x B W W * * ~ * * ~ * * * * * * * * * * F.* * * * * * * * * * * * * * * * * ~ ~ ~ ~ ~ ~ ~ ~ +#+#+#= = = = = = = = = = = = = = = = = = = F.= = = = = = = = = = = = = = = = = = = = = = = = = = = = = = }@}@",
"}@~ ~ ~ ~ ~ ~ ~ ~ ~ ~ ~ ~ ~ ~ ~ ~ ~ ~ ~ ~ ~ ~ ~ ~ ~ ~ ~ ~ ~ ~ ~ ~ ~ ~ ~ ~  . . .* * * * * * * * * * * * * * * * * * * * * * * * * * * * * * * * * * * * ~ ~ ~ ~ ~ ~ ~ ~ = = = = = = = = = = w x x B i.i.= ~ ~ = = = = = = ~ ~ ~ ~ = = = = = ~ ~ F.s+~ ~ = = ~ ~ ~ ~ ~ ~ ~ ~ ~ ~ ~ ~ ~ ~ ~ ~ ~ ~ ~ ~ ~ ~ ~ ~ ~ ~ ~ w x x B W W * * * * * * * * * * * * * * * * F.* * * * * * * * * * * * * * * * ~ ~ ~ ~ ~ ~ ~ ~ ~ ~ +#+#~ = = = = = = = = = = = = = = = = = = F.= = = = = = = = = = = = = = = = = = = W+= = ~ ~ { ~ ~ ~ ~ { { ] ",
"-#~ ~ ~ ~ ~ ~ ~ ~ ~ ~ ~ ~ ~ ~ ~ ~ ~ ~ ~ ~ ~ ~ ~ ~ ~ ~ ~ ~ ~ ~ ~ ~ ~ ~ ~ ~ * * * * * * * * * * * * * * * * * * * * * * * * * * * * * * * * * * * * * * * * * * * ~ ~ ~ ~ ~ ~ ~ ~ ~ ~ ~ ~ ~ ~ w x x B W W ~ ~ ~ ~ ~ ~ ~ ~ ~ ~ ~ ~ ~ ~ ~ ~ ~ ~ ~ ~ F.s+~ ~ ~ ~ ~ ~ ~ ~ ~ ~ ~ ~ ~ ~ ~ ~ ~ ~ ~ ~ ~ ~ ~ ~ ~ ~ ~ ~ ~ ~ ~ w x x B W W * * * * * * * * * * * * * * * * F.* * * * * * * * * * * * ~ ~ ~ ~ ~ ~ ~ ~ ~ ~ ~ ~ ~ ~ ~ ~ ~ ~ 9@9@~ { = = = = = = = = = = = = = F.= = = = = = = = = = = = = = = = = = = = = = ~ = = ~ ~ = = ~ -#-#",
"~ ~ ~ ~ ~ ~ ~ ~ ~ ~ ~ ~ ~ ~ ~ ~ ~ ~ ~ ~ ~ ~ ~ ~ ~ ~ ~ ~ ~ ~ ~ ~ ~ ~ ~  .~ * * * * * * * * * * * * * * * * * * * * * * * * * * * * * * * * * * * * * * * * * * * * ~ ~ ~ ~ ~ ~ ~ ~ ~ ~ ~ ~ ~ w x x B W W ~ ~ ~ ~ ~ ~ ~ ~ ~ ~ ~ ~ ~ ~ ~ ~ ~ ~ ~ ~ F.s+~ ~ ~ ~ ~ ~ ~ ~ ~ ~ ~ ~ ~ ~ ~ ~ ~ ~ ~ ~ ~ ~ ~ ~ ~ ~ ~ ~ ~ ~ ~ w x x B W W * * * * * * * * * * * * * * * * F.R.* * * * * * * * * ~ ~ ~ ~ ~ ~ ~ ~ ~ ~ ~ ~ ~ ~ ~ ~ ~ ~ ~ ~ '#'#~ ~ |@}@+#|@* |@|@= = = = = = F.= = = { { ;#;#* 9@= { = = = = = = ~ ~ ~ ~ = = ~ ~ ~ ~ = = ~ ~ ~ ",
"~ ~ ~ ~ ~ ~ ~ ~ ~ ~ ~ ~ ~ ~ ~ ~ ~ ~ ~ ~ ~ ~ ~ ~ ~ ~ ~ ~ ~ ~ ~ ~ ~ ~ ~ ....* * * * * * * * * * * * * * * * * * * * * * * * * * * * * * * * * * * * * * * * * * * * * * ~ ~ ~ ~ ~ ~ ~ ~ ~ ~ ~ w x x B W W ~ ~ ~ ~ ~ ~ ~ ~ ~ ~ ~ ~ ~ ~ ~ ~ ~ ~ ~ ~ F.s+~ ~ ~ ~ ~ ~ ~ ~ ~ ~ ~ ~ ~ ~ ~ ~ ~ ~ ~ ~ ~ ~ ~ ~ ~ ~ ~ ~ ~ ~ ~ w x x B W k+* * * * * * * * * * * * * * * * F.R.* * * * * * * ~ ~ ~ ~ ~ ~ ~ ~ ~ ~ ~ ~ ~ ~ ~ ~ ~ ~ ~ ~ ~ ~ ~ ~ ~ ~ * * / { 9@] ( ( ( ] ] { ] F.{ }@= = = |@|@|@`@] ] ] |@+#( ( ( ( W+W+~ ~ ~ ~ ~ ~ ~ ~ ~ ~ ~ ~ ",
"~ ~ ~ ~ ~ ~ ~ ~ ~ ~ ~ ~ ~ ~ ~ ~ ~ ~ ~ ~ ~ ~ ~ ~ ~ ~ ~ ~ ~ ~ ~ ~ ~ ~ ~ ~ ~ ~ ~ * * * * * * * * * * * * * * * * * * * * * * * * * * * * * * * * * * * * * * * * * * * * ~ ~ ~ ~ ~ ~ ~ ~ ~ ~ ~ w x x B W W ~ ~ ~ ~ ~ ~ ~ ~ ~ ~ ~ ~ ~ ~ ~ ~ ~ ~ ~ ~ F.s+~ ~ ~ ~ ~ ~ ~ ~ ~ ~ ~ ~ ~ ~ ~ ~ ~ ~ ~ ~ ~ ~ ~ ~ ~ ~ ~ ~ ~ ~ ~ w x x B W k+* * * * * * * * * * * * * * * * F.R.* * * * * * * * ~ ~ ~ ~ ~ ~ ~ ~ ~ ~ ~ ~ ~ ~ ~ ~ ~ ~ ~ ~ ~ ~ ~ ~ * * * ~ ^ * * 9@9@9@{ { ] 9@] ] }@W@* 9@9@] / 5@6@6@~ ~ ~ / ( ( ~ W+~ ~ ~ ~ ~ ~ ~ ~ ~ ~ ~ ~ ~ ",
"~ ~ ~ ~ ~ ~ ~ ~ ~ ~ ~ ~ ~ ~ ~ ~ ~ ~ ~ ~ ~ ~ ~ ~ ~ ~ ~ ~ ~ ~ ~ ~ ~ ~ ~ ~ ~ ~ ~ * * * * * * * * * * * * * * * * * * * * * * * * * * * * * * * * * * * * * * * * * * * * ~ ~ ~ ~ ~ ~ ~ ~ ~ ~ ~ w x x B W W ~ ~ ~ ~ ~ ~ ~ ~ ~ ~ ~ ~ ~ ~ ~ ~ ~ ~ ~ ~ F.s+~ ~ ~ ~ ~ ~ ~ ~ ~ ~ ~ ~ ~ ~ ~ ~ ~ ~ ~ ~ ~ ~ ~ ~ ~ ~ ~ ~ ~ ~ ~ w x x B W k+~ * * * * * * * * * * * * * * R.F.R.* * * * * * ~ ~ ~ ~ ~ ~ ~ ~ ~ ~ ~ ~ ~ ~ ~ ~ ~ ~ ~ ~ ~ ~ ~ ~ 9@* ......* * * * * * * * * * * * * * * * * * ....~ ~ W+* ~ ~ ~ ~ ~ ~ ~ ~ ~ ~ ~ ~ ~ ~ ~ ~ ~ ~ ~ ~ ",
"~ ~ ~ ~ ~ ~ ~ ~ ~ ~ ~ ~ ~ ~ ~ ~ ~ ~ ~ ~ ~ ~ ~ ~ ~ ~ ~ ~ ~ ~ ~ ~ ~ ~ ~ ~ ~ ~ * * * * * * * * * * * * * * * * * * * * * * * * * * * * * * * * * * * * * * * * * * * * * ~ ~ ~ ~ ~ ~ ~ ~ ~ ~ ~ w x x B W W ~ ~ ~ ~ ~ ~ ~ ~ ~ ~ ~ ~ ~ ~ ~ ~ ~ ~ ~ ~ F.s+~ ~ ~ ~ ~ ~ ~ ~ ~ ~ ~ ~ ~ ~ ~ ~ ~ ~ ~ ~ ~ ~ ~ ~ ~ ~ ~ ~ ~ ~ ~ w x x B W W * * * ~ ~ * * * * * * * * * * R.F.R.* * * * ~ ~ ~ * * ~ * ~ ~ ~ ~ ~ ~ ~ ~ ~ ~ ~ ~ ~ ~ ~ ~ ~ '#'#'#~ * * * * ~ ~ * * * * * * * * * * * * * * * * * ~ ~ * ~ ~ ~ ~ ~ ~ ~ ~ ~ ~ ~ ~ ~ ~ ~ ~ ~ ~ ~ ~ ~ ",
"~ ~ ~ ~ ~ ~ ~ ~ ~ ~ ~ ~ ~ ~ ~ ~ ~ ~ ~ ~ ~ ~ ~ ~ ~ ~ ~ ~ ~ ~ ~ ~ ~ ~ ~ * * ~ * * * * * * * * * * * * * * * * * * * * * * * * * * * * * * * * * * * * * * * * * * * * * * ~ ~ ~ ~ ~ ~ ~ ~ ~ ~ w x x B W W ~ ~ ~ ~ ~ ~ ~ ~ ~ ~ ~ ~ ~ ~ ~ ~ ~ ~ ~ ~ F.s+~ ~ ~ ~ ~ ~ ~ ~ ~ ~ ~ ~ ~ ~ ~ ~ ~ ~ ~ ~ ~ ~ ~ ~ ~ ~ ~ ~ ~ ~ ~ w x x B k+k+* ~ ~ ~ * * * * * * * * * * * R.F.R.* * * ~ ~ ~ * * * ~ ~ ~ ~ ~ ~ ~ ~ ~ ~ ~ ~ ~ ~ ~ ~ ~ ~ ~ ~ ~ * * * * * ~ ~ * * * * * * * * * * * * * * * * * ~ ~ * * ~ ~ ~ ~ ~ ~ ~ ~ ~ ~ ~ ~ ~ ~ ~ ~ ~ ~ ~ ~ ~ ",
"~ ~ ~ ~ ~ ~ ~ ~ ~ ~ ~ ~ ~ ~ ~ ~ ~ ~ ~ ~ ~ ~ ~ ~ ~ ~ ~ ~ ~ ~ ~ ~ ~ * * * * * * * * * * * * * * * * * * * * * * * * * * * * * * * * * * * * * * * * * * * * * * * * * * * ~ ~ * ~ ~ ~ ~ ~ ~ ~ w x x B W W ~ ~ ~ ~ ~ ~ ~ ~ ~ ~ ~ ~ ~ ~ ~ ~ ~ ~ ~ ~ F.s+~ ~ ~ ~ ~ ~ ~ ~ ~ ~ ~ ~ R.~ ~ ~ ~ ~ ~ ~ ~ ~ ~ ~ ~ ~ ~ ~ ~ ~ ~ w x x B W W ~ ~ ~ * * * * * * * * * * * * * F.* * * * * * * * ~ ~ * * * ~ ~ ~ ~ ~ ~ ~ ~ ~ ~ ~ ~ ~ ~ ~ ~ ~ ~ * * * * * ~ * * * * * * * * * * * * * * * * * * ~ ~ * * ~ * ~ ~ ~ ~ ~ ~ ~ ~ ~ ~ ~ ~ ~ ~ ~ ~ ~ ~ ~ ",
"~ ~ ~ ~ ~ ~ ~ ~ ~ ~ ~ ~ ~ ~ ~ ~ ~ ~ ~ ~ ~ ~ ~ ~ ~ ~ ~ ~ ~ ~ ~ ~ ~ ~ ~ ~ ~ ~ * * * * * * * * * * * * * * * * * * * * * * * = = = * * * = * * * * * * * * * * * * * * * * ~ ~ ~ ~ ~ ~ ~ ~ ~ ~ w x x B W W ~ ~ ~ ~ ~ ~ ~ ~ ~ ~ ~ ~ ~ ~ ~ ~ ~ ~ ~ ~ F.s+~ ~ ~ ~ ~ ~ ~ ~ ~ ~ ~ ~ R.~ ~ ~ ~ ~ ~ ~ ~ ~ ~ ~ ~ ~ ~ ~ ~ ~ ~ w x x B W W ~ ~ * * * * * * * * * * * * * * F.* * * * * * * ~ ~ * * ~ ~ ~ ~ ~ ~ ~ ~ ~ ~ ~ ~ ~ ~ ~ ~ ~ ~ ~ ~ ~ * * * ~ * * * * * * * * * * * * * * * *  . .* ~  .* ~  .*  .~ ~ ~ ~ ~ ~ ~ ~ ~ ~ ~ ~ ~ ~ ~ ~ ~ ~ ",
"~ ~ ~ ~ ~ ~ ~ ~ ~ ~ ~ ~ ~ ~ ~ ~ ~ ~ ~ ~ ~ ~ ~ ~ ~ ~ ~ ~ ~ ~ ~ ~ ~ ~ ~ ~ ~ * * * * * * * * * * * * * = = = * * * * = = = = * * * * * = = * * * * * = * * * = = ~ = = ~ ~ ~ ~ ~ ~ = = = ~ = = w x x B i.i.~ ~ ~ = = = ~ ~ ~ ~ ~ ~ ~ ~ ~ ~ ~ ~ ~ ~ F.s+~ = ~ ~ ~ ~ ~ ~ ~ ~ ~ ~ R.~ ~ ~ ~ ~ ~ ~ ~ ~ ~ ~ ~ ~ ~ ~ ~ ~ ~ w x x B W W * * * * * * * * * * * * * * * * F.* * * * * * * * * * * ~ ~ * ~ ~ ~ ~ ~ ~ ~ ~ ~ ~ ~ ~ ~ ~ ~ ~ ~ ~ ~ * ~ ~ * * * * * * * * * * * * * * * *  . .* *  .* *  .* ~ ~ ~ ~ ~ ~ ~ ~ ~ ~ ~ ~ ~ ~ ~ ~ ~ ~ ~ ",
"~ ~ ~ ~ ~ ~ ~ ~ ~ ~ ~ ~ ~ ~ ~ ~ ~ ~ ~ ~ ~ ~ ~ ~ ~ ~ ~ ~ ~ ~ ~ ~ ~ ~ ~ ~ ~ * * * * * * * * * * * * = = = = = = = = = * * * = = = * * = = * = = * = * * = ~ ~ = ~ ~ ~ = = = ~ = * * = = = = = w x x B i.i.~ ~ ~ ~ = = = = = = = = = = = = = = ~ ~ F.s+= ~ ~ ~ ~ ~ ~ ~ ~ ~ ~ ~ R.~ ~ ~ ~ ~ ~ ~ ~ ~ ~ ~ ~ ~ ~ ~ ~ ~ ~ w x x B k+k+* * * * * * * * * * * * * * * * F.* * * * * * * * * ~ ~  .~ ~ ~ ~ ~ ~ ~ ~ ~ ~ ~ ~ ~ ~ ~ ~ ~ ~ ~ ~ ~ * ~ * * * * * * * * * * * * * * * * * *  .* *  . .* * * * ~ ~ ~ ~ ~ ~ ~ ~ ~ ~ ~ ~ ~ ~ ~ ~ ~ ~ ",
"~ ~ ~ ~ ~ ~ ~ ~ ~ ~ ~ ~ ~ ~ ~ ~ ~ ~ ~ ~ ~ ~ ~ ~ ~ ~ ~ ~ ~ ~ ~ ~ ~ ~ ~ ~ ~ ~ ~ ~ * * * * * * * * * = = = = = = = = = = = = = = = = = * * * = = * * = = = = = = = = = = = = = = = = = = = = = w x x B W i.~ ~ = = ~ ~ = = = ~ ~ ~ ~ = = ~ ~ ~ ~ ~ F.s+= ~ ~ ~ ~ ~ ~ ~ ~ ~ ~ ~ ~ ~ ~ ~ ~ ~ ~ ~ ~ ~ ~ ~ ~ ~ ~ ~ ~ ~ ~ w x x B k+k+* * * * * * * * * * * * * * * * F.* * * * * * * * ~ ~ ~ ~ ~ ~ ~ ~ ~ ~ ~ ~ ~ ~ ~ ~ ~ ~ ~ ~ ~ ~ ~ ~ ~ ~ ~ * * * * * * * * * * * * * * * * * *  . .* *  .* *  .~ ~ ~ ~ ~ ~ ~ ~ ~ ~ ~ ~ ~ ~ ~ ~ ~ ~ ~ ",
"~ ~ ~ ~ ~ ~ ~ ~ ~ ~ ~ ~ ~ ~ ~ ~ ~ ~ ~ ~ ~ ~ ~ ~ ~ ~ ~ ~ ~ ~ ~ ~ ~ ~ ~ ~ ~ ~ * * * * * = = = = = = = = = = = = = = = s+= = = = = = = = = = = = = = = = = = = = = = = = = = = = = = = = = = = w x x B i.i.= = = = = = = = = = = = = ~ ~ ~ ~ ~ ~ ~ F.s+~ ~ ~ ~ ~ ~ ~ ~ ~ ~ ~ ~ ~ ~ ~ ~ ~ ~ ~ ~ ~ ~ ~ ~ ~ ~ ~ ~ ~ ~ ~ w x x B k+k+* * * * * * * * * * * * * * * * F.* * * * * * * * ~ ~ ~ ~ ~ ~ ~ ~ ~ * ~ ~ ~ ~ ~ ~ ~ ~ ~ ~ ~ ~ ~ ~ ~ ~ ~ * * * * * * * * * * * * * * * * * *  . .* *  .*  .~ ~ ~ ~ ~ ~ ~ ~ ~ ~ ~ ~ ~ ~ ~ ~ ~ ~ ~ ~ ",
"~ ~ ~ ~ ~ ~ ~ ~ ~ ~ ~ ~ ~ ~ ~ ~ ~ ~ ~ ~ ~ ~ ~ ~ ~ ~ ~ ~ ~ ~ ~ ~ ~ ~ ~ ~ ~ ~ * * * = = = = = = = = = = = = = = = = = s+= = = = = = = = = = = = = = = = = = = = = = = = = = = = = = = = = = = w x x B i.i.= = = = = = = = = = = = = = = ~ ~ ~ ~ ~ F.s+= = ~ ~ ~ ~ ~ ~ ~ ~ ~ ~ ~ ~ ~ ~ ~ ~ ~ ~ ~ ~ ~ ~ ~ ~ ~ ~ ~ ~ ~ w x x B k+k+* * * * * * * * * * * * * * * * F.* * * * * * * * * ~ ~ ~ ~ ~ ~ ~ ~ ~ ~ ~ ~ ~ ~ ~ ~ ~ ~ ~ ~ ~ ~ ~ ~ ~ * * * * * * * * * * * * * * * * * * * *  . . . .* * ~ ~ ~ ~ ~ ~ ~ ~ ~ ~ ~ ~ ~ ~ ~ ~ ~ ~ ~ ~ ",
"~ ~ ~ ~ ~ ~ ~ ~ ~ ~ ~ ~ ~ ~ ~ ~ ~ ~ ~ ~ ~ ~ ~ ~ ~ ~ ~ ~ ~ ~ ~ = = = = = = = * * = = = = = = = = = = = = = = = = = = s+= = = = = = = = = = = = = = = = = = = = = = = = = = = = = = = = = = = w x x B i.i.= = = = = = = = = = = = = = = = ~ ~ ~ R.F.= = = ~ ~ ~ ~ ~ ~ ~ ~ ~ ~ ~ ~ ~ ~ ~ ~ ~ ~ ~ ~ ~ ~ ~ ~ ~ ~ ~ ~ * w x x B k+k+* * * * * * * * * * * * * * * * F.* * * * * * * * * ~  .~ ~ ~ ~ ~ ~ ~ ~  .~ ~ ~ ~ ~ ~ ~ ~ ~ ~ ~ ~ ~ * * * * * * * * * * * * * * * * * * * * *  . .*  . .~ ~ ~ ~ ~ ~ ~ ~ ~ ~ ~ ~ ~ ~ ~ ~ ~ ~ ~ ~ ~ ",
"~ ~ ~ ~ ~ ~ ~ ~ ~ ~ ~ ~ ~ ~ ~ ~ ~ ~ ~ ~ ~ ~ ~ ~ * * ~ ~ ~ ~ = = = = = = = = = = = = = = = = = = = = = = = = = = = = s+= = = = = = = = = = = = = = = = = = = = = = = = = = = = = = = = = = = w x x B i.i.= = = = = = = = = = = = = = = = ~ ~ ~ R.F.~ ~ ~ ~ ~ ~ ~ ~ ~ ~ ~ ~ ~ ~ ~ ~ ~ ~ ~ ~ ~ ~ ~ ~ ~ ~ ~ ~ ~ * * * w x x B k+k+* * * * * * * * * * * * * * * * * * * * * * * * * * ~  .~ ~ ~ ~ ~ ~ ~ ~ ~ ~ ~ ~ ~ ~ ~ ~ ~ ~ ~ ~ ~ ~ ~ * * * * * * * * * * * * * * * * * * * * *  .*  . .~ ~ ~ ~ ~ ~ ~ ~ ~ ~ ~ ~ ~ ~ ~ ~ ~ ~ ~ ~ ~ ",
"~ ~ ~ ~ ~ ~ ~ ~ ~ ~ ~ ~ ~ ~ ~ ~ ~ ~ ~ ~ ~ ~ ~ ~ ~ ~ ~ ~ ~ = = = = = = = = = = = = = = = = = = = = = = = = = = = = = s+= = = = = = = = = = = = = = = = = = = = = = = = = = = = = = = = = = = w x x B i.i.= = = = = = = = = = = = = = = = ~ = = R.F.~ ~ = = = ~ ~ ~ ~ ~ ~ ~ ~ ~ ~ ~ ~ ~ ~ ~ ~ ~ ~ ~ ~ ~ ~ ~ ~ ~ ~ ~ w x x B k+k+* * * * * * * * * * * * * * * * * * * * * * * * * ~  . .~ ~  .~ ~ ~ ~ ~ ~ ~ ~ ~ ~ ~ ~ ~ ~ ~ ~ ~ ~ ~ ~ ~ * * * * * * * * * * * * * * * * * * * *  .* *  .~ ~ ~ ~ ~ ~ ~ ~ ~ ~ ~ ~ ~ ~ ~ ~ ~ ~ ~ ~ ~ ",
"~ ~ ~ ~ ~ ~ ~ ~ ~ ~ ~ ~ ~ ~ ~ ~ ~ ~ ~ ~ ~ ~ ~ ~ ~ ~ * * * = = = = = = = = = = = = = = = = = = = = = = = = = = = = = s+= = = = = = = = = = = = = = = = = = = = = = = = = = = = = = = = = = = w x x B i.i.= = = = = = = = = = = = = = = ~ ~ ~ ~ ~ F.s+= = ~ ~ ~ ~ ~ ~ ~ ~ ~ ~ ~ ~ ~ ~ ~ ~ ~ ~ ~ ~ ~ ~ ~ ~ * ~ ~ ~ * w x x B k+k+* * * * * * * * * * * * * * * * * * * * ~ ~ * ~ ~ *  .~ ~ ~ ~  .~ ~ ~ ~ ~ ~ ~ ~ ~ ~ ~ ~ ~ ~ ~ ~ ~ ~ ~ ~ * * * * * * * * * * * * * * * * * * * * * * * ~  .~ ~ ~ ~ ~ ~ ~ ~ ~ ~ ~ ~ ~ ~ ~ ~ ~ ~ ~ ~ ",
"~ ~ ~ ~ ~ ~ ~ ~ ~ ~ ~ ~ ~ ~ ~ ~ ~ ~ ~ ~ ~ ~ ~ ~ ~ ~ ~ ~ ~ * = = = = = = = = = = = = = = = = = = = = = = = = = = = = s+= = = = = = = = = = = = = = = = = = = = = = = = = = = = = = = = = = = w x x B i.i.= = = = = = = = = = = = = = = = = = = ~ F.s+~ = = = = = = ~ ~ ~ ~ ~ ~ ~ ~ ~ ~ ~ ~ ~ ~ ~ ~ ~ ~ ~ ~ ~ * * * w x x B k+k+* * * * * * * * * * * * * * * * * * * * * ~ ~ * ~ ~ ~ ~  .~ ~ ~ ~ ~ ~ ~ ~ ~ ~ ~ ~ ~ ~ ~ ~ ~ ~ ~ ~ ~ ~ ~ ~ * * * * * * * * * * * * * * * * * * * * * ~  .* ~ ~ ~ ~ ~ ~ ~ ~ ~ ~ ~ ~ ~ ~ ~ ~ ~ ~ ~ ~ ",
"~ ~ ~ ~ ~ ~ ~ ~ ~ ~ ~ ~ ~ ~ ~ ~ ~ ~ ~ ~ ~ ~ ~ ~ ~ ~ * * * * ~ ~ ~ * * * * = = = = = = = = = * = = = = = = = = = = = s+= = = = = = = = = = = = = = = = = = = = = = = = = = = = = = = = = = = w x x B i.i.= = = = = = = = = = = = = = = = = = = = F.s+~ = = = = = = = = = ~ ~ ~ ~ ~ ~ ~ ~ ~ ~ ~ ~ ~ ~ ~ ~ * * * * * w x x B k+k+* * * * * * * * * * * * * * * * * * * * ~ ~ ~ ~ ~ ~  .~ ~ ~ ~ ~ ~ ~ ~ ~ ~ ~ ~ ~ ~ ~ ~ ~ ~ ~ ~ ~ ~ ~ ~ ~ ~ ~ * * * * * * * * * * * * * * * * * * * *  . .* ~ ~ ~ ~ ~ ~ ~ ~ ~ ~ ~ ~ ~ ~ ~ ~ ~ ~ ~ ~ ",
"~ ~ ~ ~ ~ ~ ~ ~ ~ ~ ~ ~ ~ ~ ~ ~ ~ ~ ~ ~ ~ ~ ~ ~ ~ ~ ~ ~ ~ ~ ~ ~ * * * * * * * * * * * * * * * = = = = = = = = = = = s+= = = = = = = = = = = = = = = = = = = = = = = = = = = = = = = = = = = w x x B i.i.= = = = = = = = = = = = = = = = = = = = F.s+= = = = ~ ~ ~ ~ = = ~ ~ ~ ~ ~ ~ ~ ~ ~ * * * = * * * * = = * * w x x B k+k+* * * * * * * * * * * * * * * * * * * * * ~ ~ ~ ~ ~ ~ ~ ~ ~ ~ ~ ~ ~ ~ ~ ~ ~ ~ ~ ~ ~ ~ ~ ~ ~ ~ ~ ~ ~ ~ ~ * ~ * * * * * * * * * * * * * * * * * * *  . .* * ~ ~ ~ ~ ~ ~ ~ ~ ~ ~ ~ ~ ~ ~ ~ ~ ~ ~ ~ ~ ",
"~ ~ ~ ~ ~ ~ ~ ~ ~ ~ ~ ~ ~ ~ ~ ~ ~ ~ ~ ~ ~ ~ ~ ~ ~ ~ ~ ~ ~ * * * * ~ ~ ~ * * * * * * * * * * = = = = = = = = = = = = s+= = = = = = = = = = = = = = = = = = = = = = = = = = = = = = = = = = = w x x B i.i.= = = = = = = = = = = = = = = = = = = = F.s+= ~ ~ ~ ~ ~ ~ = = = ~ ~ ~ ~ ~ = = = = = = = = = = = = = * * * w x x B k+k+* * * * * * * * * * * * * * * * * * * * * * * ~ ~ ~ ~ ~ ~ ~ ~ ~ ~ ~ ~ ~ ~ ~ ~ ~ ~ ~ ~ ~ ~ ~ ~ ~ ~ ~ ~ ~ ~ * * * * * * * * * * * * * * * * * * * *  . .* * ~ ~ ~ ~ ~ ~ ~ ~ ~ ~ ~ ~ ~ ~ ~ ~ ~ ~ ~ ~ ",
"~ ~ ~ ~ ~ ~ ~ ~ ~ ~ ~ ~ ~ ~ ~ ~ ~ ~ ~ ~ ~ ~ ~ ~ ~ ~ ~ * * * ~ ~ ~ ~ ~ * * * * * * * * * * * * * * * * * = = = = = = = = = = = = = = = = = = = = = = = = = = = = = = = = = = = = = = = = = = w x x B i.i.= = = = = = = = = = = = = = = = = = = = F.= ~ ~ * = = = = = = = = ~ = = = = = = = = = = = = = = = = = = = w x x B i.i.= = = = = * * * * * * * * * * * * * * * * * ~ ~ ~ ~ ~ ~ ~ ~ ~ ~ ~ ~ ~ ~ ~ ~ ~ ~ ~ ~ ~ ~ ~ ~ ~ ~ ~ ~ ~ ~ ~ ~ * * * * * * * * * * * * * * * * * * *  . .*  .~ ~ ~ ~ ~ ~ ~ ~ ~ ~ ~ ~ ~ ~ ~ ~ ~ ~ ~ ~ ",
"~ ~ ~ ~ ~ ~ ~ ~ ~ ~ ~ ~ ~ ~ ~ ~ ~ ~ ~ ~ ~ ~ ~ ~ ~ ~ ~ ~ ~ ~ ~ ~ ~ ~ * * * * * * * * * * * * * * * * * * * * * * * * * * * * * * * * = = = = = = = = = = = = = = = = = = = = = = = = = = = = w x x B W i.= ~ ~ ~ ~ = = = = = = = = = = = = = = = F.~ ~ ~ = = ~ * = ~ = = = = = = = = = = = = = = = = = = = = = = = w x x B i.i.= = = = = = = = = * * = = = * * * * * * ~ ~ ~ ~ ~ ~ ~ ~ ~ ~ ~ ~ ~ ~ ~ ~ ~ ~ ~ ~ ~ ~ ~ ~ ~ ~ ~ ~ ~ ~ ~ * ~ ~ * * * * * * * * * * * * * * * * * * * * * *  .* ~ ~ ~ ~ ~ ~ ~ ~ ~ ~ ~ ~ ~ ~ ~ ~ ~ ~ ~ ",
"~ ~ ~ ~ ~ ~ ~ ~ ~ ~ ~ ~ ~ ~ ~ ~ ~ ~ ~ ~ ~ ~ ~ ~ ~ ~ ~ ~ ~ ~ ~ * * * * * * * * * * * * * * * * * * * * * * * * * * * * * * * * * * * * * * * * * * * = = = = = = = = = = = = = = = = = = = ~ w x x B W W = ~ ~ ~ ~ ~ = = = = = = = = = = = ~ ~ = F.= = = ~ ~ * = = = = = = = = = = = = = = = = = = = = = = = = = = w x x B i.i.= = = = = = = = = = = = = = = = = = = = = ~ ~ = = ~ ~ ~ ~ ~ ~ ~ ~ ~ ~ ~ ~ ~ ~ ~ ~ ~ ~ ~ ~ ~ ~ ~ ~ ~ ~ * ~ ~ ~ * * * * * * * * * * * * * * * * * * *  .* *  .* ~ ~ ~ ~ ~ ~ ~ ~ ~ ~ ~ ~ ~ ~ ~ ~ ~ ~ ",
"~ ~ ~ ~ ~ ~ ~ ~ ~ ~ ~ ~ ~ ~ ~ ~ ~ ~ ~ ~ ~ ~ ~ ~ ~ ~ ~ ~ ~ ~ ~ * * * * * * * * * * * * * * * * * * * * * * * * * * * * * * * * * * * * ~ * * ~ * ~ ~ ~ ~ ~ ~ ~ ~ ~ ~ ~ ~ ~ ~ ~ ~ ~ ~ ~ ~ ~ ~ w x x B W W ~ ~ ~ ~ ~ ~ = = = = = = ~ = = ~ ~ ~ ~ ~ F.= = = = = = = = = = = = = = = = = = = = = = = = = = = = = = = = w x x B i.i.= = = = = = = = = = = = = = = = = = = = = = = ~ ~ ~ ~ ~ ~ ~ ~ ~ ~ ~ ~ ~ ~ ~ ~ ~ ~ ~ ~ ~ ~ ~ ~ ~ ~ * ~ * * ~ ~ * * * * * * * * * * * * * * *  . .* *  . .* *  .* ~ ~ ~ ~ ~ ~ ~ ~ ~ ~ ~ ~ ~ ~ ~ ~ ~ ",
"~ ~ ~ ~ ~ ~ ~ ~ ~ ~ ~ ~ ~ ~ ~ ~ ~ ~ ~ ~ ~ ~ ~ ~ ~ ~ ~ ~ ~ ~ ~ ~ * * * * * * * * * * * * * * * * * * * * * * * * * * * * * * * * * * * ~ ~ ~ ~ ~ ~ ~ ~ ~ ~ ~ ~ ~ ~ ~ ~ ~ ~ ~ ~ ~ ~ ~ ~ ~ ~ ~ w x x B W W ~ = ~ ~ ~ ~ = = = = = = = = = = = ~ ~ ~ F.= = = = = = = = = = * * = = = = = = = = = = = = = = = = = = = = w x x B i.i.= = = = = = = = = = = = = = = = = = = = = = = = ~ ~ ~ ~ ~ ~ ~ ~ ~ ~ ~ ~ ~ ~ ~ ~ ~ ~ ~ ~ ~ ~ ~ * ~ ~ ~ ~ * * ~ * * * * * * * * * * * * * * * *  . .* *  .* *  . .* *  .~ ~ ~ ~ ~ ~ ~ ~ ~ ~ ~ ~ ~ ~ ",
"~ ~ ~ ~ ~ ~ ~ ~ ~ ~ ~ ~ ~ ~ ~ ~ ~ ~ ~ ~ ~ ~ ~ ~ ~ ~ ~ ~ ~ ~ ~ ~ ~ ~ * * * * * * * * * * * * * * * * * * * * * * * * * * * * * * * * * * * ~ ~ ~ ~ ~ ~ ~ ~ ~ ~ ~ ~ ~ ~ ~ ~ ~ ~ ~ ~ ~ ~ ~ = = w x x B i.W = = = ~ ~ ~ = = = = = = = = = ~ = = = = = ~ = ~ = ~ = ~ = ~ * = = = = = = = = = = = = = = = = = = = = = = w x x B i.i.= = = = = = = = = = = = = = = = = = = = = = = = ~ ~ ~ ~ ~ ~ ~ ~ ~ ~ ~ ~ ~ ~ ~ ~ ~ ~ ~ ~ ~ ~ ~ ~ ~ * * * * * * * * * * * * * * * * * * * * * *  . .* *  . .* *  . . . . . .* ~ ~ ~ ~ ~ ~ ~ ~ ~ ~ ~ ",
"~ ~ ~ ~ ~ ~ ~ ~ ~ ~ ~ ~ ~ ~ ~ ~ ~ ~ ~ ~ ~ ~ ~ ~ ~ ~ ~ ~ ~ ~ ~ ~ ~ ~ ~ * * * * * * * * * * * * * * * * * * * * * * * * * * * * * * * * * * * * ~ * * ~ ~ ~ ~ ~ ~ ~ ~ ~ ~ ~ ~ ~ ~ ~ ~ ~ = ~ = w x x B i.i.= = = = = = = = = = = = = = = = = = = = = ~ ~ }@~ = = = * ~ ~ = = = = = = = = = = = = = = = = = = = = = = w x x B i.i.= = = = = = = = = F.= = = = = = = = = = = = = = = ~ ~ ~ ~ ~ ~ ~ ~ ~ ~ ~ ~ ~ ~ ~ ~ ~ ~ ~ ~ ~ ~ ~ * * ~ ~ * * * * * * * * * * * * * * * * * * * *  . .* *  .* * * * * * * *  . .~ ~ ~ ~ ~ ~ ~ ~ ~ ~ ",
"~ ~ ~ ~ ~ ~ ~ ~ ~ ~ ~ ~ ~ ~ ~ ~ ~ ~ ~ ~ ~ ~ ~ ~ ~ ~ ~ ~ ~ * * ~ ~ ~ ~ ~ * * * * * * * * * * * * * s+* * * * * * * * * * * * * * * * * * * * * ~ ~ ~ ~ ~ ~ ~ ~ ~ ~ ~ ~ ~ ~ ~ ~ ~ ~ ~ ~ = = ~ w x x B W i.= = = = = = = = = = = = = = = = = = = = = = = = = = = = = = = = = = * = = = = = = = = = = = = = = = = = = w x x B i.i.= = = = = = = = = F.= = = = = = = = = = = = = = ~ ~ ~ ~ ~ ~ ~ ~ ~ ~ ~ ~ ~ ~ ~ ~ ~ ~ ~ ~ ~ ~ ~ ~ ~ ~ ~ ~ * * * * * * * * * * * * * * * * * * * * *  . .* *  .*  .* * * * * * * * * * ~ ~ ~ ~ ~ ~ ~ ",
"~ ~ ~ ~ ~ ~ ~ ~ ~ ~ ~ ~ ~ ~ ~ ~ ~ ~ ~ ~ ~ ~ ~ ~ ~ ~ ~ ~ ~ * * ~ * ~ ~ ~ * * * * * * * * * * * * * s+* * * * * * * * * * * * * * * * * * * * * ~ ~ ~ ~ ~ ~ ~ ~ ~ ~ ~ ~ ~ ~ ~ ~ ~ ~ ~ ~ ~ = = w x x B i.i.= = = = = = = = = = = = = = = = = = = = = = = = = = = = = = = = = = = = = * = = = = = = = = = = = = = = = w x x B i.i.= = = = = = = = = F.s+~ * * ~ ~ ~ ~  . .~ ~ ~ ~ ~ ~ =#~ ~ ~ ~ ~ ~ ~ ~ ~ ~ ~ ~ ~ ~ ~ ~ ~ ~ ~ ~ ~ ~ * * * * * * * * * * * * * * * * * * * * * * * * *  .* * *  . . . . . . . . . . . . . .* ~ ~ ~ ~ ",
"~ ~ ~ ~ ~ ~ ~ ~ ~ ~ ~ ~ ~ ~ ~ ~ ~ ~ ~ ~ ~ ~ ~ ~ ~ ~ ~ ~ ~ ~ ~ * * * ~ ~ * * * * * * * * * * * * * s+* * * * * * * * * * * * * * * * * * * * * * * * * ~ ~ ~ ~ ~ ~ ~ ~ ~ ~ ~ ~ ~ ~ ~ ~ = = ~ w x x B W i.= = = = = = = = = = = = = = = = = = = = = = = = = = = = = = = = = = = = = = = = = = = = = = = = = = = = = w x x B i.i.= = = = = = = = = F.s+= * = ~ ~ ~ ~ ~ ~ ~ ~ ~ ~ ~ ~ ~ ~ ~ ~ ~ ~ ~ ~ ~ ~ ~ ~ ~ ~ ~ ~ ~ ~ ~ ~ * * * * * * * * * * * * * * * * * * * * * * * * * * * *  . .* * * * * * *  . . . . . . .* * *  .~ ~ ~ ",
"~ ~ ~ ~ ~ ~ ~ ~ ~ ~ ~ ~ ~ ~ ~ ~ ~ ~ ~ ~ ~ ~ ~ ~ ~ ~ ~ ~ ~ * * ~ * * * ~ ~ * * * * * * * * * * * * s+* * * * * * * * @#@#* * @#* * * * * * * * * * * * ~ ~ ~ ~ ~ ~ ~ ~ ~ ~ ~ ~ ~ ~ = ~ ~ = = w x x B i.i.= = = = = = = = = = = = = = = = = = = = = = = = = = = = = = = = = = = = = = = = = = = = = = = = = = = = = w x x B i.i.= = = = = = = = = F.s+= = = = = = * = = = = = ~ { ~ ~ ~ ~ ~ ~ ~ ~ ~ ~ ~ ~ ~ ~ ~ ~ ~ ~ ~ ~ ~ ~ ~ * * * * * * * * * * * * * * * * * * * * * * * * * * *  .* * * * * * * * * * * * * * * * * * ~ ~ ~ ",
"~ ~ ~ ~ ~ ~ ~ ~ ~ ~ ~ ~ ~ ~ ~ ~ ~ ~ ~ ~ ~ ~ ~ ~ ~ ~ ~ ~ ~ * * * * ~ * * * * * * * * * * * * * = * s+* * * * * = = = = @#@#@#@#@# . .*  .~ ~ * * * * * * ~ ~ ~ ~ ~ ~ ~ ~ ~ ~ ~ ~ ~ ~ ~ = ~ = x B B P i.i.= = = = = = = = = = = = = = = = = = = = = = = = = = = = = = = = = = = = = = = = = = = = = = = = = = = = = w x x B i.i.= = = = = = = = = F.s+= = ~ ~ ~ ~ * * ~ * ~ ~ ~ ~ ~ ~ ~ ~ ~ ~ ~ ~ ~ ~ ~ ~ ~ ~ ~ ~ ~ ~ * * * * * * * * * * * * * * * * * * * * * * * * * * * * * * * * * * * * * * * *  . . . . . . .* * * * * ~ ~ "};
