/* XPM */
static char * yellow_west_txture_xpm[] = {
"64 64 162 2",
"  	c #333333",
". 	c #F4B400",
"+ 	c #815E00",
"@ 	c #000000",
"# 	c #9E7300",
"$ 	c #EFB000",
"% 	c #201400",
"& 	c #CF9800",
"* 	c #CA9500",
"= 	c #0C0600",
"- 	c #EDAF00",
"; 	c #B28300",
"> 	c #604500",
", 	c #D39B00",
"' 	c #AA7C00",
") 	c #A47800",
"! 	c #725200",
"~ 	c #D69E00",
"{ 	c #E7AA00",
"] 	c #AF8000",
"^ 	c #755400",
"/ 	c #6A4D00",
"( 	c #A87B00",
"_ 	c #F1B100",
": 	c #2C1D00",
"< 	c #C89300",
"[ 	c #7D5B00",
"} 	c #140C00",
"| 	c #EEAF00",
"1 	c #EBAD00",
"2 	c #805D00",
"3 	c #A07500",
"4 	c #F0B100",
"5 	c #281B00",
"6 	c #D19900",
"7 	c #CC9600",
"8 	c #ECAE00",
"9 	c #B28200",
"0 	c #644800",
"a 	c #D59D00",
"b 	c #AC7E00",
"c 	c #A67A00",
"d 	c #E9AB00",
"e 	c #684B00",
"f 	c #785700",
"g 	c #6F5000",
"h 	c #CA9400",
"i 	c #C38F00",
"j 	c #1B1000",
"k 	c #EEB000",
"l 	c #CE9700",
"m 	c #7F5C00",
"n 	c #A37700",
"o 	c #F1B200",
"p 	c #E6A900",
"q 	c #B08100",
"r 	c #D79E00",
"s 	c #5A4000",
"t 	c #AE7F00",
"u 	c #A97C00",
"v 	c #705100",
"w 	c #D59C00",
"x 	c #EAAC00",
"y 	c #B48400",
"z 	c #9B7100",
"A 	c #7B5900",
"B 	c #745400",
"C 	c #241800",
"D 	c #CB9500",
"E 	c #856000",
"F 	c #A57900",
"G 	c #322200",
"H 	c #E3A700",
"I 	c #775600",
"J 	c #D49C00",
"K 	c #6C4D00",
"L 	c #D9A000",
"M 	c #513900",
"N 	c #B78600",
"O 	c #956D00",
"P 	c #7E5B00",
"Q 	c #A77A00",
"R 	c #CD9700",
"S 	c #896300",
"T 	c #BF8C00",
"U 	c #7C5A00",
"V 	c #F2B300",
"W 	c #3A2800",
"X 	c #E0A500",
"Y 	c #6D4E00",
"Z 	c #D69D00",
"` 	c #DBA100",
" .	c #473200",
"..	c #AE8000",
"+.	c #B98800",
"@.	c #8F6800",
"#.	c #8C6600",
"$.	c #BC8A00",
"%.	c #E8AB00",
"&.	c #F3B300",
"*.	c #3F2C00",
"=.	c #DDA200",
"-.	c #614600",
";.	c #EBAE00",
">.	c #DDA300",
",.	c #3D2A00",
"'.	c #9D7300",
").	c #B18200",
"!.	c #6E4F00",
"~.	c #8A6500",
"{.	c #C59000",
"].	c #846000",
"^.	c #D09900",
"/.	c #E4A800",
"(.	c #795800",
"_.	c #AB7D00",
":.	c #453100",
"<.	c #DAA000",
"[.	c #563D00",
"}.	c #D99F00",
"|.	c #AD7F00",
"1.	c #DFA400",
"2.	c #976E00",
"3.	c #B68500",
"4.	c #D29B00",
"5.	c #BE8B00",
"6.	c #C08D00",
"7.	c #886300",
"8.	c #A67900",
"9.	c #D29A00",
"0.	c #936B00",
"a.	c #382600",
"b.	c #F2B200",
"c.	c #4B3500",
"d.	c #DAA100",
"e.	c #7A5800",
"f.	c #E1A600",
"g.	c #B88700",
"h.	c #D19A00",
"i.	c #BA8900",
"j.	c #966D00",
"k.	c #DCA200",
"l.	c #523A00",
"m.	c #EAAD00",
"n.	c #BA8800",
"o.	c #B98700",
"p.	c #B58500",
"q.	c #8D6600",
"r.	c #8B6500",
"s.	c #997000",
"t.	c #412E00",
"u.	c #573E00",
"v.	c #AA7D00",
"w.	c #E5A800",
"x.	c #BB8900",
"y.	c #432F00",
"z.	c #765500",
"A.	c #A17600",
"B.	c #735300",
"C.	c #C99300",
"D.	c #694C00",
"E.	c #5F4400",
"                                                                                                                                ",
"  . . . . . . . . . . . . . . . . . . . . . . . . . . . . . .       . . . . . . . . . . . . . . . . . . . . . . . . . . . . .   ",
"  . . . . . . . . . . . . . . . . . . . . . . . . . . . . . . .   . . . . . . . . . . . . . . . . . . . . . . . . . . . . . .   ",
"  . . . . . . . . . . . . . . . . . . . . . . . . . . . . . . . . . . . . . . . . . . . . . . . . . . . . . . . . . . . . . .   ",
"  . . . . . . . . . . . . . . . . . . . . . . . . . . . . . . . . . . . . . . . . . . . . . . . . . . . . . . . . . . . . . .   ",
"  . . . . . . . . . . . . . . . . . . . . . . . . . . . . . . . . . . . . . . . . . . . . . . . . . . . . . . . . . . . . . .   ",
"  . . . . . . . . . . . . . . . . . . . . . . . . . . . . . . . . . . . . . . . . . . . . . . . . . . . . . . . . . . . . . .   ",
"  . . + @ @ @ @ @ # . . . . . . . . . . . . . . . . . . $ % @ @ @ @ @ @ & . . . . . . . . . . . . . . . . . . * @ @ @ @ @ = -   ",
"  . . ; @ @ @ @ @ > . . . . . . . . . . . . . . . . . . , @ @ @ @ @ @ @ ' . . . . . . . . . . . . . . . . . . ) @ @ @ @ @ ! .   ",
"  . . ~ @ @ @ @ @ @ { . . . . . . @ @ @ . . . . . . . . ] @ @ @ @ @ @ @ ^ . . . . . . . . . . . . . . . . . . / @ @ @ @ @ ( .   ",
"  . . _ : @ @ @ @ @ < . . . . . @ @ @ @ @ . . . . . . . [ @ @ @ @ @ @ @ } | . . . . . . . . . . . . . . . . 1 @ @ @ @ @ @ & .   ",
"  . . . 2 @ @ @ @ @ 3 . . . . . @ @ @ @ @ . . . . . . 4 5 @ @ @ @ @ @ @ @ 6 . . . . . . . . . . . . . . . . 7 @ @ @ @ @ = 8 .   ",
"  . . . 9 @ @ @ @ @ 0 . . . . . @ @ @ @ @ . . . . . . a @ @ @ @ @ @ @ @ @ b . . . . . . . . . . . . . . . . c @ @ @ @ @ ! . .   ",
"  . . . a @ @ @ @ @ @ d . . . . . @ @ @ . . . . . . . 9 @ @ @ @ e @ @ @ @ f . . . . . . . . . . . . . . . . g @ @ @ @ @ ( . .   ",
"  . . . 4 5 @ @ @ @ @ h . . . . . . . . . . . . . . . + @ @ @ @ i : @ @ @ j k . . . . . . . . . . . . . . 8 = @ @ @ @ @ l . .   ",
"  . . . . m @ @ @ @ @ n . . . . . . . . . . . . . . o : @ @ @ @ p m @ @ @ @ , . . . . . . . . . . . . . . & @ @ @ @ @ = 8 . .   ",
"  . . . . q @ @ @ @ @ e . . . . . . . . . . . . . . r @ @ @ @ s . q @ @ @ @ t . . . . . . . . . . . . . . u @ @ @ @ @ v . . .   ",
"  . . . . w @ @ @ @ @ @ x . . . . . . . . . . . . . y @ @ @ @ z . , @ @ @ @ A . . . . . . . . . . . . . . B @ @ @ @ @ ( . . .   ",
"  . . . . 4 C @ @ @ @ @ D . . . . . . . . . . . . . E @ @ @ @ i . $ j @ @ @ % $ . . . . . . . . . . . . | } @ @ @ @ @ l . . .   ",
"  . . . . . [ @ @ @ @ @ F . . . . . . . . . . . . o G @ @ @ @ H . . I @ @ @ @ J . . . . . . . . . . . . 6 @ @ @ @ @ = 8 . . .   ",
"  . . . . . q @ @ @ @ @ K . . . . . . . . . . . . L @ @ @ @ M . . . ' @ @ @ @ q . . . . . . . . . . . . b @ @ @ @ @ g . . . .   ",
"  . . . . . J @ @ @ @ @ @ 1 . . . . . . . . . . . N @ @ @ @ O . . . & @ @ @ @ P . . . . . . . . . . . . f @ @ @ @ @ Q . . . .   ",
"  . . . . . $ C @ @ @ @ @ R . . . . . . . . . . . S @ @ @ @ T . . . 8 = @ @ @ 5 4 . . . . . . . . . . k j @ @ @ @ @ R . . . .   ",
"  . . . . . . U @ @ @ @ @ Q . . . . . . . . . . V W @ @ @ @ X . . . . Y @ @ @ @ Z . . . . . . . . . . , @ @ @ @ @ = 8 . . . .   ",
"  . . . . . . ] @ @ @ @ @ v . . . . . . . . . . ` @ @ @ @  .. . . . . ) @ @ @ @ ; . . . . . . . . . . ..@ @ @ @ @ g . . . . .   ",
"  . . . . . . , @ @ @ @ @ = 8 . . . . . . . . . +.@ @ @ @ @.. . . . . h @ @ @ @ + . . . . . . . . . . U @ @ @ @ @ c . . . . .   ",
"  . . . . . . $ % @ @ @ @ @ & . . . . . . . . . #.@ @ @ @ $.. . . . . %.@ @ @ @ : _ . . . . . . . . 4 C @ @ @ @ @ R . . . . .   ",
"  . . . . . . . A @ @ @ @ @ u . . . . . . . . &.*.@ @ @ @ =.. . . . . . -.@ @ @ @ r . . . . . . . . w @ @ @ @ @ = ;.. . . . .   ",
"  . . . . . . . t @ @ @ @ @ B . . . . . . . . >.@ @ @ @ ,.&.. . . . . . '.@ @ @ @ y . . . . . . . . ).@ @ @ @ @ !.. . . . . .   ",
"  . . . . . . . , @ @ @ @ @ } - . . . . . . . $.@ @ @ @ ~.. . . . . . . {.@ @ @ @ ].. . . . . . . . 2 @ @ @ @ @ c . . . . . .   ",
"  . . . . . . . $ % @ @ @ @ @ ^.. . . . . . . @.@ @ @ @ N . . . . . . . /.@ @ @ @ G o . . . . . . _ : @ @ @ @ @ R . . . . . .   ",
"  . . . . . . . . (.@ @ @ @ @ _.. . . . . . . :.@ @ @ @ <.. . . . . . . . [.@ @ @ @ }.. . . . . . r @ @ @ @ @ = 1 . . . . . .   ",
"  . . . . . . . . |.@ @ @ @ @ I . . . . . . 1.@ @ @ @ G o . . . . . . . . 2.@ @ @ @ 3.. . . . . . y @ @ @ @ @ Y . . . . . . .   ",
"  . . . . . . . . 4.@ @ @ @ @ j | . . . . . 5.@ @ @ @ ].. . . . . . . . . 6.@ @ @ @ 7.. . . . . . ].@ @ @ @ @ 8.. . . . . . .   ",
"  . . . . . . . . k j @ @ @ @ @ 9.. . . . . 0.@ @ @ @ y . . . . . . . . . X @ @ @ @ a.b.. . . . o G @ @ @ @ @ 7 . . . . . . .   ",
"  . . . . . . . . . f @ @ @ @ @ |.. . . . . c.@ @ @ @ ~ . . . . . . . . . .  .@ @ @ @ d.. . . . }.@ @ @ @ @ = 1 . . . . . . .   ",
"  . . . . . . . . . b @ @ @ @ @ e.. . . . f.@ @ @ @ 5 4 . . . . . . . . . . @.@ @ @ @ g.. . . . 3.@ @ @ @ @ Y . . . . . . . .   ",
"  . . . . . . . . . h.@ @ @ @ @ % $ . . . 6.@ @ @ @ P . . . . . . . . . . . i.@ @ @ @ ~.. . . . 7.@ @ @ @ @ F . . . . . . . .   ",
"  . . . . . . . . . | j @ @ @ @ @ , . . . j.@ @ @ @ ] . . . . . . . . . . . k.@ @ @ @ ,.V . . V a.@ @ @ @ @ 7 . . . . . . . .   ",
"  . . . . . . . . . . I @ @ @ @ @ ] . . . l.@ @ @ @ , . . . . . . . . . . . V W @ @ @ @ k.. . ` @ @ @ @ @ @ m.. . . . . . . .   ",
"  . . . . . . . . . . _.@ @ @ @ @ [ . . H @ @ @ @ j k . . . . . . . . . . . . 7.@ @ @ @ n.. . o.@ @ @ @ @ K . . . . . . . . .   ",
"  . . . . . . . . . . 6 @ @ @ @ @ C 4 . i @ @ @ @ I . . . . . . . . . . . . . p.@ @ @ @ q.. . r.@ @ @ @ @ F . . . . . . . . .   ",
"  . . . . . . . . . . | } @ @ @ @ @ a . s.@ @ @ @ _.. . . . . . . . . . . . . r @ @ @ @ t.&.&.*.@ @ @ @ @ 7 . . . . . . . . .   ",
"  . . . . . . . . . . . ^ @ @ @ @ @ ).. u.@ @ @ @ ^.. . . . . . . . . . . . . _ : @ @ @ @ >.=.@ @ @ @ @ @ m.. . . . . . . . .   ",
"  . . . . . . . . . . . v.@ @ @ @ @ 2 w.@ @ @ @ = - . . . . . . . . . . . . . . m @ @ @ @ $.x.@ @ @ @ @ / . . . . . . . . . .   ",
"  . . . . . . . . . . . ^.@ @ @ @ @ : 6.@ @ @ @ v . . . . . . . . . . . . . . . q @ @ @ @ @.@.@ @ @ @ @ ) . . . . . . . . . .   ",
"  . . . . . . . . . . . - } @ @ @ @ @ -.@ @ @ @ c . . . . . . . . . . . . . . . , @ @ @ @ :.y.@ @ @ @ @ D . . . . . . . . . .   ",
"  . . . . . . . . . . . . B @ @ @ @ @ @ @ @ @ @ 7 . . . . . . . . . . . . . . . k j @ @ @ @ @ @ @ @ @ @ m.. . . . . . . . . .   ",
"  . . . . . . . . . . . . ' @ @ @ @ @ @ @ @ @ @ m.. . . . . . . . . . . . . . . . z.@ @ @ @ @ @ @ @ @ / . . . . . . . . . . .   ",
"  . . . . . . . . . . . . & @ @ @ @ @ @ @ @ @ e . . . . . . . . . . . . . . . . . ' @ @ @ @ @ @ @ @ @ ) . . . . . . . . . . .   ",
"  . . . . . . . . . . . . - } @ @ @ @ @ @ @ @ A.. . . . . . . . . . . . . . . . . l @ @ @ @ @ @ @ @ @ D . . . . . . . . . . .   ",
"  . . . . . . . . . . . . . B.@ @ @ @ @ @ @ @ C.. . . . . . . . . . . . . . . . . ;.= @ @ @ @ @ @ @ @ m.. . . . . . . . . . .   ",
"  . . . . . . . . . . . . . ( @ @ @ @ @ @ @ @ { . . . . . . . . . . . . . . . . . . K @ @ @ @ @ @ @ D.. . . . . . . . . . . .   ",
"  . . . . . . . . . . . . . & @ @ @ @ @ @ @ E.. . . . . . . . . . . . . . . . . . . ) @ @ @ @ @ @ @ ) . . . . . . . . . . . .   ",
"  . . . . . . . . . . . . . . . . . . . . . . . . . . . . . . . . . . . . . . . . . . . . . . . . . . . . . . . . . . . . . .   ",
"  . . . . . . . . . . . . . . . . . . . . . . . . . . . . . . . . . . . . . . . . . . . . . . . . . . . . . . . . . . . . . .   ",
"  . . . . . . . . . . . . . . . . . . . . . . . . . . . . . . . . . . . . . . . . . . . . . . . . . . . . . . . . . . . . . .   ",
"  . . . . . . . . . . . . . . . . . . . . . . . . . . . . . . . . . . . . . . . . . . . . . . . . . . . . . . . . . . . . . .   ",
"  . . . . . . . . . . . . . . . . . . . . . . . . . . . . . . . . . . . . . . . . . . . . . . . . . . . . . . . . . . . . . .   ",
"  . . . . . . . . . . . . . . . . . . . . . . . . . . . . . . . . . . . . . . . . . . . . . . . . . . . . . . . . . . . . . .   ",
"  . . . . . . . . . . . . . . . . . . . . . . . . . . . . . . . . . . . . . . . . . . . . . . . . . . . . . . . . . . . . . .   ",
"  . . . . . . . . . . . . . . . . . . . . . . . . . . . . . . . . . . . . . . . . . . . . . . . . . . . . . . . . . . . . . .   ",
"  . . . . . . . . . . . . . . . . . . . . . . . . . . . . . . . . . . . . . . . . . . . . . . . . . . . . . . . . . . . . . .   ",
"                                                                                                                                "};
