/* XPM */
static char * black_n_128_xpm[] = {
"128 128 2 1",
" 	c #FFFFFF",
".	c #000000",
"                                                                                                                                ",
" ..............................................................  .............................................................. ",
" .............................................................................................................................. ",
" .............................................................................................................................. ",
" .............................................................................................................................. ",
" .............................................................................................................................. ",
" .............................................................................................................................. ",
" .............................................................................................................................. ",
" .............................................................................................................................. ",
" .............................................................................................................................. ",
" .............................................................................................................................. ",
" .............................................................................................................................. ",
" .............................................................................................................................. ",
" .............................................................................................................................. ",
" .............................................................................................................................. ",
" .............................................................................................................................. ",
" .............................................................................................................................. ",
" .............................................................................................................................. ",
" .............................................................................................................................. ",
" .............................................................................................................................. ",
" .............................................................................................................................. ",
" .............................................................................................................................. ",
" .............................................................................................................................. ",
" .............................................................................................................................. ",
" .............................................................................................................................. ",
" .............................................................................................................................. ",
" .............................................................................................................................. ",
" .............................................................................................................................. ",
" .............................................................................................................................. ",
" .............................................................................................................................. ",
" .............................................................................................................................. ",
" .............................................................................................................................. ",
" .............................................................................................................................. ",
" .............................................................................................................................. ",
" .............................................................................................................................. ",
" .............................................................................................................................. ",
" .............................................................................................................................. ",
" .............................................................................................................................. ",
" .............................................................................................................................. ",
" .............................................................................................................................. ",
" .............................................................................................................................. ",
" .............................................................................................................................. ",
" .............................................................................................................................. ",
" .............................................................................................................................. ",
" .............................................................................................................................. ",
" .............................................................................................................................. ",
" .............................................................................................................................. ",
" .............................................................................................................................. ",
" .............................................................................................................................. ",
" .............................................................................................................................. ",
" .............................................................................................................................. ",
" .............................................................................................................................. ",
" .............................................................................................................................. ",
" .............................................................................................................................. ",
" .............................................................................................................................. ",
" .............................................................................................................................. ",
" .............................................................................................................................. ",
" .............................................................................................................................. ",
" .............................................................................................................................. ",
" .............................................................................................................................. ",
" .............................................................................................................................. ",
" .............................................................................................................................. ",
" .............................................................................................................................. ",
" .............................................................................................................................. ",
" .............................................................................................................................. ",
" .............................................................................................................................. ",
" .............................................................................................................................. ",
" .............................................................................................................................. ",
" .............................................................................................................................. ",
" .............................................................................................................................. ",
" .............................................................................................................................. ",
" .............................................................................................................................. ",
" .............................................................................................................................. ",
" .............................................................................................................................. ",
" .............................................................................................................................. ",
" .............................................................................................................................. ",
" .............................................................................................................................. ",
" .............................................................................................................................. ",
" .............................................................................................................................. ",
" .............................................................................................................................. ",
" .............................................................................................................................. ",
" .............................................................................................................................. ",
" .............................................................................................................................. ",
" .............................................................................................................................. ",
" .............................................................................................................................. ",
" .............................................................................................................................. ",
" .............................................................................................................................. ",
" .............................................................................................................................. ",
" .............................................................................................................................. ",
" .............................................................................................................................. ",
" .............................................................................................................................. ",
" .............................................................................................................................. ",
" .............................................................................................................................. ",
" .............................................................................................................................. ",
" .............................................................................................................................. ",
" .............................................................................................................................. ",
" .............................................................................................................................. ",
" .............................................................................................................................. ",
" .............................................................................................................................. ",
" .............................................................................................................................. ",
" .............................................................................................................................. ",
" .............................................................................................................................. ",
" .............................................................................................................................. ",
" .............................................................................................................................. ",
" .............................................................................................................................. ",
" .............................................................................................................................. ",
" .............................................................................................................................. ",
" .............................................................................................................................. ",
" .............................................................................................................................. ",
" .............................................................................................................................. ",
" .............................................................................................................................. ",
" .............................................................................................................................. ",
" .............................................................................................................................. ",
" .............................................................................................................................. ",
" .............................................................................................................................. ",
" .............................................................................................................................. ",
" .............................................................................................................................. ",
" .............................................................................................................................. ",
" .............................................................................................................................. ",
" .............................................................................................................................. ",
" .............................................................................................................................. ",
" .............................................................................................................................. ",
" .............................................................................................................................. ",
" .............................................................................................................................. ",
" .............................................................................................................................. ",
" .............................................................................................................................. ",
" .............................................................................................................................. ",
"                                                                                                                                "};
