/* XPM */
static char * blue_south_txture_xpm[] = {
"64 64 140 2",
"  	c #333333",
". 	c #4285F4",
"+ 	c #4082EF",
"@ 	c #3873D5",
"# 	c #2F63B8",
"$ 	c #244E93",
"% 	c #1A3B73",
"& 	c #143160",
"* 	c #0C2245",
"= 	c #02091B",
"- 	c #06152F",
"; 	c #0C2347",
"> 	c #122D59",
", 	c #1A3C74",
"' 	c #234B8F",
") 	c #2958A5",
"! 	c #3064BA",
"~ 	c #3872D3",
"{ 	c #3F7FEA",
"] 	c #000000",
"^ 	c #3A77DB",
"/ 	c #2855A0",
"( 	c #081A38",
"_ 	c #0F274F",
": 	c #244D92",
"< 	c #3166BD",
"[ 	c #3B79DF",
"} 	c #3E7EE8",
"| 	c #224B8E",
"1 	c #3974D7",
"2 	c #346CC8",
"3 	c #0A1E3F",
"4 	c #3065BC",
"5 	c #366ECC",
"6 	c #01030C",
"7 	c #0F2851",
"8 	c #346BC7",
"9 	c #3B78DE",
"0 	c #4182EF",
"a 	c #4184F2",
"b 	c #3F80EC",
"c 	c #3D7CE5",
"d 	c #3A76DA",
"e 	c #3369C3",
"f 	c #2A58A6",
"g 	c #1D417D",
"h 	c #030C20",
"i 	c #14305F",
"j 	c #356DCA",
"k 	c #4285F3",
"l 	c #4081EE",
"m 	c #366FCD",
"n 	c #2A5AA8",
"o 	c #204788",
"p 	c #4082EE",
"q 	c #4183F1",
"r 	c #356ECB",
"s 	c #214889",
"t 	c #3975D8",
"u 	c #4183F0",
"v 	c #091D3D",
"w 	c #19396F",
"x 	c #4184F1",
"y 	c #3770D0",
"z 	c #3A75D9",
"A 	c #2C5DAE",
"B 	c #153161",
"C 	c #244F94",
"D 	c #1F4482",
"E 	c #2958A4",
"F 	c #1E4481",
"G 	c #27539B",
"H 	c #234D91",
"I 	c #2957A3",
"J 	c #3C7AE1",
"K 	c #346AC5",
"L 	c #3E7DE6",
"M 	c #224A8D",
"N 	c #040F24",
"O 	c #265199",
"P 	c #3873D4",
"Q 	c #2F61B5",
"R 	c #4081ED",
"S 	c #2F62B7",
"T 	c #153364",
"U 	c #3167BF",
"V 	c #3C7AE0",
"W 	c #0E254B",
"X 	c #254F96",
"Y 	c #3771D0",
"Z 	c #4284F3",
"` 	c #102A54",
" .	c #2E60B3",
"..	c #2A59A7",
"+.	c #05132C",
"@.	c #3165BC",
"#.	c #1B3D76",
"$.	c #2856A1",
"%.	c #346BC6",
"&.	c #28559F",
"*.	c #163467",
"=.	c #3974D6",
"-.	c #2B5BAB",
";.	c #2D5EB0",
">.	c #122D5A",
",.	c #3268C1",
"'.	c #1F4584",
").	c #3E7EE7",
"!.	c #112B56",
"~.	c #336AC5",
"{.	c #081B3A",
"].	c #21498A",
"^.	c #061632",
"/.	c #2B5BAA",
"(.	c #26529A",
"_.	c #041128",
":.	c #1C407A",
"<.	c #163465",
"[.	c #3F7FE9",
"}.	c #244E94",
"|.	c #3267BF",
"1.	c #204686",
"2.	c #3B78DD",
"3.	c #3A76D9",
"4.	c #26529B",
"5.	c #3268C0",
"6.	c #3F80EA",
"7.	c #010614",
"8.	c #2C5CAC",
"9.	c #3F80EB",
"0.	c #3063B9",
"a.	c #1F4583",
"b.	c #071835",
"c.	c #3D7CE4",
"d.	c #173568",
"e.	c #102952",
"f.	c #27549E",
"g.	c #1D427E",
"h.	c #2956A2",
"i.	c #3267C0",
"                                                                                                                                ",
"  . . . . . . . . . . . . . . . . . . . . . . . . . . . . . .       . . . . . . . . . . . . . . . . . . . . . . . . . . . . .   ",
"  . . . . . . . . . . . . . . . . . . . . . . . . . . . . . . .   . . . . . . . . . . . . . . . . . . . . . . . . . . . . . .   ",
"  . . . . . . . . . . . . . . . . . . . . . . . . . . . . . . . . . . . . . . . . . . . . . . . . . . . . . . . . . . . . . .   ",
"  . . . . . . . . . . . . . . . . . . . . . . . . . . . . . . . . . . . . . . . . . . . . . . . . . . . . . . . . . . . . . .   ",
"  . . . . . . . . . . . . . . . . . . . . . . . . . . . . . . . . . . . . . . . . . . . . . . . . . . . . . . . . . . . . . .   ",
"  . . . . . . . . . . . . . . . . . . . . . . . . + @ # $ % & * = - ; > , ' ) ! ~ { . . . . . . . . . . . . . . . . . . . . .   ",
"  . . . . . . . ] ] ] . . . . . . . . . . . . ^ / ( ] ] ] ] ] ] ] ] ] ] ] ] ] ] ] ] _ : < [ . . . . . . . . . . . . . . . . .   ",
"  . . . . . . ] ] ] ] ] . . . . . . . . . } | ] ] ] ] ] ] ] ] ] ] ] ] ] ] ] ] ] ] ] ] ] ] ] 1 . . . . . . . . . . . . . . . .   ",
"  . . . . . . ] ] ] ] ] . . . . . . . . 2 3 ] ] ] ] ] ] ] ] ] ] ] ] ] ] ] ] ] ] ] ] ] ] ] ] 1 . . . . . . . . . . . . . . . .   ",
"  . . . . . . ] ] ] ] ] . . . . . . . 4 ] ] ] ] ] ] ] ] ] ] ] ] ] ] ] ] ] ] ] ] ] ] ] ] ] ] 1 . . . . . . . . . . . . . . . .   ",
"  . . . . . . . ] ] ] . . . . . . . 5 6 ] ] ] ] ] ] ] 7 ) 8 9 { 0 a b c d e f g h ] ] ] ] ] 1 . . . . . . . . . . . . . . . .   ",
"  . . . . . . . . . . . . . . . . { * ] ] ] ] ] ] i j k . . . . . . . . . . . . l m / * ] ] 1 . . . . . . . . . . . . . . . .   ",
"  . . . . . . . . . . . . . . . . n ] ] ] ] ] ] o p . . . . . . . . . . . . . . . . . q r s t . . . . . . . . . . . . . . . .   ",
"  . . . . . . . . . . . . . . . u v ] ] ] ] ] w x . . . . . . . . . . . . . . . . . . . . . . . . . . . . . . . . . . . . . .   ",
"  . . . . . . . . . . . . . . . y ] ] ] ] ] ] z . . . . . . . . . . . . . . . . . . . . . . . . . . . . . . . . . . . . . . .   ",
"  . . . . . . . . . . . . . . . A ] ] ] ] ] B . . . . . . . . . . . . . . . . . . . . . . . . . . . . . . . . . . . . . . . .   ",
"  . . . . . . . . . . . . . . . : ] ] ] ] ] C . . . . . . . . . . . . . . . . . . . . . . . . . . . . . . . . . . . . . . . .   ",
"  . . . . . . . . . . . . . . . D ] ] ] ] ] E . . . . . . . . . . . . . . . . . . . . . . . . . . . . . . . . . . . . . . . .   ",
"  . . . . . . . . . . . . . . . F ] ] ] ] ] G . . . . . . . . . . . . . . . . . . . . . . . . . . . . . . . . . . . . . . . .   ",
"  . . . . . . . . . . . . . . . H ] ] ] ] ] % . . . . . . . . . . . . . . . . . . . . . . . . . . . . . . . . . . . . . . . .   ",
"  . . . . . . . . . . . . . . . I ] ] ] ] ] 6 J . . . . . . . . . . . . . . . . . . . . . . . . . . . . . . . . . . . . . . .   ",
"  . . . . . . . . . . . . . . . K ] ] ] ] ] ] F q . . . . . . . . . . . . . . . . . . . . . . . . . . . . . . . . . . . . . .   ",
"  . . . . . . . . . . . . . . . } ] ] ] ] ] ] ] D L . . . . . . . . . . . . . . . . . . . . . . . . . . . . . . . . . . . . .   ",
"  . . . . . . . . . . . . . . . . M ] ] ] ] ] ] ] N O P a . . . . . . . . . . . . . . . . . . . . . . . . . . . . . . . . . .   ",
"  . . . . . . . . . . . . . . . . 9 6 ] ] ] ] ] ] ] ] ] 3 | Q P R . . . . . . . . . . . . . . . . . . . . . . . . . . . . . .   ",
"  . . . . . . . . . . . . . . . . . S ] ] ] ] ] ] ] ] ] ] ] ] ] ] T O U V . . . . . . . . . . . . . . . . . . . . . . . . . .   ",
"  . . . . . . . . . . . . . . . . . . n ] ] ] ] ] ] ] ] ] ] ] ] ] ] ] ] ] W X Y Z . . . . . . . . . . . . . . . . . . . . . .   ",
"  . . . . . . . . . . . . . . . . . . . 2 ( ] ] ] ] ] ] ] ] ] ] ] ] ] ] ] ] ] ] `  .0 . . . . . . . . . . . . . . . . . . . .   ",
"  . . . . . . . . . . . . . . . . . . . . { ..+.] ] ] ] ] ] ] ] ] ] ] ] ] ] ] ] ] ] ` 8 . . . . . . . . . . . . . . . . . . .   ",
"  . . . . . . . . . . . . . . . . . . . . . . { @.#.] ] ] ] ] ] ] ] ] ] ] ] ] ] ] ] ] ] $.a . . . . . . . . . . . . . . . . .   ",
"  . . . . . . . . . . . . . . . . . . . . . . . . . L %.&.*.6 ] ] ] ] ] ] ] ] ] ] ] ] ] ] s a . . . . . . . . . . . . . . . .   ",
"  . . . . . . . . . . . . . . . . . . . . . . . . . . . . . l =.! X _ ] ] ] ] ] ] ] ] ] ] ] -.. . . . . . . . . . . . . . . .   ",
"  . . . . . . . . . . . . . . . . . . . . . . . . . . . . . . . . . . V ;.>.] ] ] ] ] ] ] ] ] 1 . . . . . . . . . . . . . . .   ",
"  . . . . . . . . . . . . . . . . . . . . . . . . . . . . . . . . . . . . a ,.W ] ] ] ] ] ] ] '.. . . . . . . . . . . . . . .   ",
"  . . . . . . . . . . . . . . . . . . . . . . . . . . . . . . . . . . . . . . )., ] ] ] ] ] ] ] 9 . . . . . . . . . . . . . .   ",
"  . . . . . . . . . . . . . . . . . . . . . . . . . . . . . . . . . . . . . . . { !.] ] ] ] ] ] S . . . . . . . . . . . . . .   ",
"  . . . . . . . . . . . . . . . . . . . . . . . . . . . . . . . . . . . . . . . . ~.] ] ] ] ] ] s . . . . . . . . . . . . . .   ",
"  . . . . . . . . . . . . . . . . . . . . . . . . . . . . . . . . . . . . . . . . a {.] ] ] ] ] > . . . . . . . . . . . . . .   ",
"  . . . . . . . . . . . . . . . . . . . . . . . . . . . . . . . . . . . . . . . . . ].] ] ] ] ] ^.. . . . . . . . . . . . . .   ",
"  . . . . . . . . . . . . . . . . . . . . . . . . . . . . . . . . . . . . . . . . . $.] ] ] ] ] ] u . . . . . . . . . . . . .   ",
"  . . . . . . . . . . . . . . . . . . . . . . . . . . . . . . . . . . . . . . . . . /.] ] ] ] ] ] q . . . . . . . . . . . . .   ",
"  . . . . . . . . . . . . . . . . . . . . . . . . . . . . . . . . . . . . . . . . . (.] ] ] ] ] _.. . . . . . . . . . . . . .   ",
"  . . . . . . . . . . . . . . . . . . . . . . . . . . . . . . . . . . . . . . . . . :.] ] ] ] ] <.. . . . . . . . . . . . . .   ",
"  . . . . . . . . . . . . . . . . . . . . . . . . . . . . . . . . . . . . . . . . [.6 ] ] ] ] ] }.. . . . . . . . . . . . . .   ",
"  . . . . . . . . . . . . . . . Q 5 . . . . . . . . . . . . . . . . . . . . . . . -.] ] ] ] ] ] |.. . . . . . . . . . . . . .   ",
"  . . . . . . . . . . . . . . . I ] 1.2.. . . . . . . . . . . . . . . . . . . . 3.h ] ] ] ] ] = { . . . . . . . . . . . . . .   ",
"  . . . . . . . . . . . . . . . I ] ] 6 H d . . . . . . . . . . . . . . . . . =.{.] ] ] ] ] ] 4.. . . . . . . . . . . . . . .   ",
"  . . . . . . . . . . . . . . . I ] ] ] ] ] #.5.6.. . . . . . . . . . . . )./ 6 ] ] ] ] ] ] ( L . . . . . . . . . . . . . . .   ",
"  . . . . . . . . . . . . . . . I ] ] ] ] ] ] ] 7.:.8.r 9 9.q a R L ~ 0.a.6 ] ] ] ] ] ] ] ] K . . . . . . . . . . . . . . . .   ",
"  . . . . . . . . . . . . . . . I ] ] ] ] ] ] ] ] ] ] ] ] ] ] ] ] ] ] ] ] ] ] ] ] ] ] ] ] Q . . . . . . . . . . . . . . . . .   ",
"  . . . . . . . . . . . . . . . I ] ] ] ] ] ] ] ] ] ] ] ] ] ] ] ] ] ] ] ] ] ] ] ] ] ] b.K . . . . . . . . . . . . . . . . . .   ",
"  . . . . . . . . . . . . . . . l 2 ' +.] ] ] ] ] ] ] ] ] ] ] ] ] ] ] ] ] ] ] ] ] ] H c.. . . . . . . . . . . . . . . . . . .   ",
"  . . . . . . . . . . . . . . . . . . p r I d.] ] ] ] ] ] ] ] ] ] ] ] ] ] ] ] e.) V . . . . . . . . . . . . . . . . . . . . .   ",
"  . . . . . . . . . . . . . . . . . . . . . . { y 0.f.g.T _ - 7.+.; *.a.h.i.9 . . . . . . . . . . . . . . . . . . . . . . . .   ",
"  . . . . . . . . . . . . . . . . . . . . . . . . . . . . . . . . . . . . . . . . . . . . . . . . . . . . . . . . . . . . . .   ",
"  . . . . . . . . . . . . . . . . . . . . . . . . . . . . . . . . . . . . . . . . . . . . . . . . . . . . . . . . . . . . . .   ",
"  . . . . . . . . . . . . . . . . . . . . . . . . . . . . . . . . . . . . . . . . . . . . . . . . . . . . . . . . . . . . . .   ",
"  . . . . . . . . . . . . . . . . . . . . . . . . . . . . . . . . . . . . . . . . . . . . . . . . . . . . . . . . . . . . . .   ",
"  . . . . . . . . . . . . . . . . . . . . . . . . . . . . . . . . . . . . . . . . . . . . . . . . . . . . . . . . . . . . . .   ",
"  . . . . . . . . . . . . . . . . . . . . . . . . . . . . . . . . . . . . . . . . . . . . . . . . . . . . . . . . . . . . . .   ",
"  . . . . . . . . . . . . . . . . . . . . . . . . . . . . . . . . . . . . . . . . . . . . . . . . . . . . . . . . . . . . . .   ",
"  . . . . . . . . . . . . . . . . . . . . . . . . . . . . . . . . . . . . . . . . . . . . . . . . . . . . . . . . . . . . . .   ",
"                                                                                                                                "};
