/* XPM */
static char * green_east_txture_xpm[] = {
"64 64 7 1",
" 	c #333333",
".	c #0F9D58",
"+	c #034C28",
"@	c #000000",
"#	c #04562E",
"$	c #066738",
"%	c #0A8148",
"                                                                ",
" .............................................................. ",
" .............................................................. ",
" .............................................................. ",
" .............................................................. ",
" .............................................................. ",
" .............................................................. ",
" ...............+@@@@@@@@@@@@@@@@@@@@@@@@@@@@#................. ",
" ...............+@@@@@@@@@@@@@@@@@@@@@@@@@@@@#................. ",
" ...............+@@@@@@@@@@@@@@@@@@@@@@@@@@@@#................. ",
" ...............+@@@@@@@@@@@@@@@@@@@@@@@@@@@@#................. ",
" ...............+@@@@@@@@@@@@@@@@@@@@@@@@@@@@#................. ",
" ......................................$@@@@@#................. ",
" ......................................$@@@@@#................. ",
" ......................................$@@@@@#................. ",
" ......................................$@@@@@#................. ",
" ......................................$@@@@@#................. ",
" ......................................$@@@@@#................. ",
" ......................................$@@@@@#................. ",
" ......................................$@@@@@#................. ",
" ......................................$@@@@@#................. ",
" ......................................$@@@@@#................. ",
" ......................................$@@@@@#................. ",
" ......................................$@@@@@#................. ",
" ......................................$@@@@@#................. ",
" ......................................$@@@@@#................. ",
" ........................@@@@@@@@@@@@@@@@@@@@#................. ",
" ........................@@@@@@@@@@@@@@@@@@@@#................. ",
" ........................@@@@@@@@@@@@@@@@@@@@#................. ",
" ........................@@@@@@@@@@@@@@@@@@@@#................. ",
" ........................@@@@@@@@@@@@@@@@@@@@#................. ",
" ......................................$@@@@@#................. ",
" ......................................$@@@@@#................. ",
" ......................................$@@@@@#................. ",
" ......................................$@@@@@#................. ",
" ......................................$@@@@@#................. ",
" ......................................$@@@@@#................. ",
" ......................................$@@@@@#................. ",
" ......................................$@@@@@#................. ",
" ......................................$@@@@@#................. ",
" ......................................$@@@@@#................. ",
" ......................................$@@@@@#................. ",
" ......................................$@@@@@#................. ",
" ......................................$@@@@@#................. ",
" ......................................$@@@@@#................. ",
" ......................................$@@@@@#................. ",
" ......................................$@@@@@#................. ",
" ......................................$@@@@@#................. ",
" ......................................$@@@@@#................. ",
" ..............%@@@@@@@@@@@@@@@@@@@@@@@@@@@@@#................. ",
" ..............%@@@@@@@@@@@@@@@@@@@@@@@@@@@@@#................. ",
" ..............%@@@@@@@@@@@@@@@@@@@@@@@@@@@@@#................. ",
" ..............%@@@@@@@@@@@@@@@@@@@@@@@@@@@@@#................. ",
" ..............%@@@@@@@@@@@@@@@@@@@@@@@@@@@@@#................. ",
" .............................................................. ",
" .............................................................. ",
" .............................................................. ",
" .............................................................. ",
" .............................................................. ",
" .............................................................. ",
" .............................................................. ",
" .............................................................. ",
" .............................................................. ",
"                                                                "};
