/* XPM */
static char * yellow_east_txture_xpm[] = {
"64 64 161 2",
"  	c #F4B400",
". 	c #815E00",
"+ 	c #000000",
"@ 	c #9E7300",
"# 	c #EFB000",
"$ 	c #201400",
"% 	c #CF9800",
"& 	c #CA9500",
"* 	c #0C0600",
"= 	c #EDAF00",
"- 	c #B28300",
"; 	c #604500",
"> 	c #D39B00",
", 	c #AA7C00",
"' 	c #A47800",
") 	c #725200",
"! 	c #D69E00",
"~ 	c #E7AA00",
"{ 	c #AF8000",
"] 	c #755400",
"^ 	c #6A4D00",
"/ 	c #A87B00",
"( 	c #F1B100",
"_ 	c #2C1D00",
": 	c #C89300",
"< 	c #7D5B00",
"[ 	c #140C00",
"} 	c #EEAF00",
"| 	c #EBAD00",
"1 	c #805D00",
"2 	c #A07500",
"3 	c #F0B100",
"4 	c #281B00",
"5 	c #D19900",
"6 	c #CC9600",
"7 	c #ECAE00",
"8 	c #B28200",
"9 	c #644800",
"0 	c #D59D00",
"a 	c #AC7E00",
"b 	c #A67A00",
"c 	c #E9AB00",
"d 	c #684B00",
"e 	c #785700",
"f 	c #6F5000",
"g 	c #CA9400",
"h 	c #C38F00",
"i 	c #1B1000",
"j 	c #EEB000",
"k 	c #CE9700",
"l 	c #7F5C00",
"m 	c #A37700",
"n 	c #F1B200",
"o 	c #E6A900",
"p 	c #B08100",
"q 	c #D79E00",
"r 	c #5A4000",
"s 	c #AE7F00",
"t 	c #A97C00",
"u 	c #705100",
"v 	c #D59C00",
"w 	c #EAAC00",
"x 	c #B48400",
"y 	c #9B7100",
"z 	c #7B5900",
"A 	c #745400",
"B 	c #241800",
"C 	c #CB9500",
"D 	c #856000",
"E 	c #A57900",
"F 	c #322200",
"G 	c #E3A700",
"H 	c #775600",
"I 	c #D49C00",
"J 	c #6C4D00",
"K 	c #D9A000",
"L 	c #513900",
"M 	c #B78600",
"N 	c #956D00",
"O 	c #7E5B00",
"P 	c #A77A00",
"Q 	c #CD9700",
"R 	c #896300",
"S 	c #BF8C00",
"T 	c #7C5A00",
"U 	c #F2B300",
"V 	c #3A2800",
"W 	c #E0A500",
"X 	c #6D4E00",
"Y 	c #D69D00",
"Z 	c #DBA100",
"` 	c #473200",
" .	c #AE8000",
"..	c #B98800",
"+.	c #8F6800",
"@.	c #8C6600",
"#.	c #BC8A00",
"$.	c #E8AB00",
"%.	c #F3B300",
"&.	c #3F2C00",
"*.	c #DDA200",
"=.	c #614600",
"-.	c #EBAE00",
";.	c #DDA300",
">.	c #3D2A00",
",.	c #9D7300",
"'.	c #B18200",
").	c #6E4F00",
"!.	c #8A6500",
"~.	c #C59000",
"{.	c #846000",
"].	c #D09900",
"^.	c #E4A800",
"/.	c #795800",
"(.	c #AB7D00",
"_.	c #453100",
":.	c #DAA000",
"<.	c #563D00",
"[.	c #D99F00",
"}.	c #AD7F00",
"|.	c #DFA400",
"1.	c #976E00",
"2.	c #B68500",
"3.	c #D29B00",
"4.	c #BE8B00",
"5.	c #C08D00",
"6.	c #886300",
"7.	c #A67900",
"8.	c #D29A00",
"9.	c #936B00",
"0.	c #382600",
"a.	c #F2B200",
"b.	c #4B3500",
"c.	c #DAA100",
"d.	c #7A5800",
"e.	c #E1A600",
"f.	c #B88700",
"g.	c #D19A00",
"h.	c #BA8900",
"i.	c #966D00",
"j.	c #DCA200",
"k.	c #523A00",
"l.	c #EAAD00",
"m.	c #BA8800",
"n.	c #B98700",
"o.	c #B58500",
"p.	c #8D6600",
"q.	c #8B6500",
"r.	c #997000",
"s.	c #412E00",
"t.	c #573E00",
"u.	c #AA7D00",
"v.	c #E5A800",
"w.	c #BB8900",
"x.	c #432F00",
"y.	c #765500",
"z.	c #A17600",
"A.	c #735300",
"B.	c #C99300",
"C.	c #694C00",
"D.	c #5F4400",
"                                                                                                                                ",
"                                                                                                                                ",
"                                                                                                                                ",
"                                                                                                                                ",
"                                                                                                                                ",
"                                                                                                                                ",
"                                                                                                                                ",
"      . + + + + + @                                     # $ + + + + + + %                                     & + + + + + * =   ",
"      - + + + + + ;                                     > + + + + + + + ,                                     ' + + + + + )     ",
"      ! + + + + + + ~                                   { + + + + + + + ]                                     ^ + + + + + /     ",
"      ( _ + + + + + :                                   < + + + + + + + [ }                                 | + + + + + + %     ",
"        1 + + + + + 2                                 3 4 + + + + + + + + 5                                 6 + + + + + * 7     ",
"        8 + + + + + 9                                 0 + + + + + + + + + a                                 b + + + + + )       ",
"        0 + + + + + + c                               8 + + + + d + + + + e                                 f + + + + + /       ",
"        3 4 + + + + + g                               . + + + + h _ + + + i j                             7 * + + + + + k       ",
"          l + + + + + m                             n _ + + + + o l + + + + >                             % + + + + + * 7       ",
"          p + + + + + d                             q + + + + r   p + + + + s                             t + + + + + u         ",
"          v + + + + + + w                           x + + + + y   > + + + + z                             A + + + + + /         ",
"          3 B + + + + + C                           D + + + + h   # i + + + $ #                         } [ + + + + + k         ",
"            < + + + + + E                         n F + + + + G     H + + + + I                         5 + + + + + * 7         ",
"            p + + + + + J                         K + + + + L       , + + + + p                         a + + + + + f           ",
"            I + + + + + + |                       M + + + + N       % + + + + O                         e + + + + + P           ",
"            # B + + + + + Q                       R + + + + S       7 * + + + 4 3                     j i + + + + + Q           ",
"              T + + + + + P                     U V + + + + W         X + + + + Y                     > + + + + + * 7           ",
"              { + + + + + u                     Z + + + + `           ' + + + + -                      .+ + + + + f             ",
"              > + + + + + * 7                   ..+ + + + +.          g + + + + .                     T + + + + + b             ",
"              # $ + + + + + %                   @.+ + + + #.          $.+ + + + _ (                 3 B + + + + + Q             ",
"                z + + + + + t                 %.&.+ + + + *.            =.+ + + + q                 v + + + + + * -.            ",
"                s + + + + + A                 ;.+ + + + >.%.            ,.+ + + + x                 '.+ + + + + ).              ",
"                > + + + + + [ =               #.+ + + + !.              ~.+ + + + {.                1 + + + + + b               ",
"                # $ + + + + + ].              +.+ + + + M               ^.+ + + + F n             ( _ + + + + + Q               ",
"                  /.+ + + + + (.              _.+ + + + :.                <.+ + + + [.            q + + + + + * |               ",
"                  }.+ + + + + H             |.+ + + + F n                 1.+ + + + 2.            x + + + + + X                 ",
"                  3.+ + + + + i }           4.+ + + + {.                  5.+ + + + 6.            {.+ + + + + 7.                ",
"                  j i + + + + + 8.          9.+ + + + x                   W + + + + 0.a.        n F + + + + + 6                 ",
"                    e + + + + + }.          b.+ + + + !                     ` + + + + c.        [.+ + + + + * |                 ",
"                    a + + + + + d.        e.+ + + + 4 3                     +.+ + + + f.        2.+ + + + + X                   ",
"                    g.+ + + + + $ #       5.+ + + + O                       h.+ + + + !.        6.+ + + + + E                   ",
"                    } i + + + + + >       i.+ + + + {                       j.+ + + + >.U     U 0.+ + + + + 6                   ",
"                      H + + + + + {       k.+ + + + >                       U V + + + + j.    Z + + + + + + l.                  ",
"                      (.+ + + + + <     G + + + + i j                         6.+ + + + m.    n.+ + + + + J                     ",
"                      5 + + + + + B 3   h + + + + H                           o.+ + + + p.    q.+ + + + + E                     ",
"                      } [ + + + + + 0   r.+ + + + (.                          q + + + + s.%.%.&.+ + + + + 6                     ",
"                        ] + + + + + '.  t.+ + + + ].                          ( _ + + + + ;.*.+ + + + + + l.                    ",
"                        u.+ + + + + 1 v.+ + + + * =                             l + + + + #.w.+ + + + + ^                       ",
"                        ].+ + + + + _ 5.+ + + + u                               p + + + + +.+.+ + + + + '                       ",
"                        = [ + + + + + =.+ + + + b                               > + + + + _.x.+ + + + + C                       ",
"                          A + + + + + + + + + + 6                               j i + + + + + + + + + + l.                      ",
"                          , + + + + + + + + + + l.                                y.+ + + + + + + + + ^                         ",
"                          % + + + + + + + + + d                                   , + + + + + + + + + '                         ",
"                          = [ + + + + + + + + z.                                  k + + + + + + + + + C                         ",
"                            A.+ + + + + + + + B.                                  -.* + + + + + + + + l.                        ",
"                            / + + + + + + + + ~                                     J + + + + + + + C.                          ",
"                            % + + + + + + + D.                                      ' + + + + + + + '                           ",
"                                                                                                                                ",
"                                                                                                                                ",
"                                                                                                                                ",
"                                                                                                                                ",
"                                                                                                                                ",
"                                                                                                                                ",
"                                                                                                                                ",
"                                                                                                                                ",
"                                                                                                                                ",
"                                                                                                                                "};
